; generated by Slic3r 1.2.9 on 2016-03-11 at 01:22:05

; external perimeters extrusion width = 1.54mm
; perimeters extrusion width = 2.62mm
; infill extrusion width = 6.27mm
; solid infill extrusion width = 2.62mm
; top infill extrusion width = 2.62mm

M107
M104 S30 ; set temperature
G28 ; home all axes
G1 Z5 F5000 ; lift nozzle
M302
M92 E10000
M500
M501
G1 E100
M109 S30 ; wait for temperature to be reached
G21 ; set units to millimeters
G90 ; use absolute coordinates
M82 ; use absolute distances for extrusion
G92 E0
G1 Z0.300 F7800.000
G1 X108.681 Y97.041 F7800.000
G1 X113.050 Y97.041 E0.19768 F378.000
G1 X114.791 Y92.577 E0.41449
G1 X116.419 Y92.577 E0.48819
G1 X110.477 Y107.423 E1.21179
G1 X108.427 Y107.423 E1.30452
G1 X102.388 Y92.577 E2.02974
G1 X104.047 Y92.577 E2.10482
G1 X105.612 Y96.563 E2.29859
G1 X105.799 Y97.041 E2.32181 F378.000
G1 X108.450 Y97.041 E2.44174
G1 X108.450 Y98.207 F7800.000
G1 X112.608 Y98.207 E2.62990 F378.000
G1 X110.332 Y104.086 E2.91517
G1 X109.623 Y106.198 E3.01597
G1 X109.224 Y106.197 E3.03403
G1 X108.905 Y105.195 E3.08161
G1 X108.316 Y103.544 E3.16092
G1 X106.252 Y98.207 E3.41987
G1 X108.219 Y98.207 E3.50889 F378.000
G92 E0
G1 X106.416 Y99.357 F7800.000
G1 X104.753 Y97.694 E0.10748 F540.000
G1 X104.376 Y96.765 F7800.000
G1 X106.069 Y98.459 E0.21691 F540.000
G1 X105.131 Y98.622 F7800.000
G1 X106.764 Y100.255 E0.32244 F540.000
G1 X105.886 Y100.479 F7800.000
G1 X107.458 Y102.051 E0.42404 F540.000
G1 X106.641 Y102.335 F7800.000
G1 X108.148 Y103.842 E0.52140 F540.000
G1 X107.397 Y104.192 F7800.000
G1 X108.749 Y105.544 E0.60879 F540.000
G1 X108.152 Y106.049 F7800.000
G1 X109.300 Y107.197 E0.68300 F540.000
G1 X109.851 Y107.197 E0.70816
G1 X109.077 Y106.423 E0.75818
G1 X109.629 Y106.424 E0.78341
G1 X110.359 Y107.154 E0.83060
G1 X110.522 Y106.767 E0.84981
G1 X109.867 Y106.112 E0.89213
G1 X110.006 Y105.700 E0.91200
G1 X110.680 Y106.374 E0.95554
G1 X110.837 Y105.980 E0.97490
G1 X110.144 Y105.288 E1.01966
G1 X110.283 Y104.875 E1.03953
G1 X110.994 Y105.587 E1.08552
G1 X111.152 Y105.194 E1.10488
G1 X110.421 Y104.463 E1.15210
G1 X110.562 Y104.053 E1.17191
G1 X111.309 Y104.800 E1.22021
G1 X111.467 Y104.407 E1.23957
G1 X110.716 Y103.656 E1.28811
G1 X110.869 Y103.259 E1.30757
G1 X111.624 Y104.014 E1.35636
G1 X111.782 Y103.621 E1.37571
G1 X111.023 Y102.862 E1.42474
G1 X111.177 Y102.465 E1.44420
G1 X111.939 Y103.227 E1.49347
G1 X112.097 Y102.834 E1.51283
G1 X111.330 Y102.068 E1.56234
G1 X111.484 Y101.671 E1.58180
G1 X112.254 Y102.441 E1.63156
G1 X112.411 Y102.047 E1.65091
G1 X111.638 Y101.274 E1.70091
G1 X111.791 Y100.877 E1.72037
G1 X112.569 Y101.654 E1.77061
G1 X112.726 Y101.261 E1.78997
G1 X111.945 Y100.480 E1.84045
G1 X112.099 Y100.083 E1.85991
G1 X112.884 Y100.868 E1.91063
G1 X113.041 Y100.474 E1.92999
G1 X112.252 Y99.686 E1.98096
G1 X112.406 Y99.289 E2.00042
G1 X113.199 Y100.081 E2.05163
G1 X113.356 Y99.688 E2.07098
G1 X112.560 Y98.892 E2.12244
G1 X112.713 Y98.495 E2.14189
G1 X113.513 Y99.294 E2.19359
G1 X113.671 Y98.901 E2.21295
G1 X112.037 Y97.267 E2.31856
G1 X112.587 Y97.267 E2.34372
G1 X113.828 Y98.508 E2.42392
G1 X113.986 Y98.115 E2.44328
G1 X113.138 Y97.267 E2.49806
G1 X113.321 Y96.900 E2.51682
G1 X114.143 Y97.721 E2.56992
G1 X114.301 Y97.328 E2.58928
G1 X113.476 Y96.503 E2.64257
G1 X113.630 Y96.107 E2.66201
G1 X114.458 Y96.935 E2.71549
G1 X114.615 Y96.542 E2.73485
G1 X113.785 Y95.711 E2.78852
G1 X113.939 Y95.315 E2.80795
G1 X114.773 Y96.148 E2.86181
G1 X114.930 Y95.755 E2.88116
G1 X114.094 Y94.919 E2.93521
G1 X114.248 Y94.522 E2.95464
G1 X115.088 Y95.362 E3.00888
G1 X115.245 Y94.968 E3.02823
G1 X114.403 Y94.126 E3.08266
G1 X114.558 Y93.730 E3.10209
G1 X115.403 Y94.575 E3.15670
G1 X115.560 Y94.182 E3.17606
G1 X114.712 Y93.334 E3.23086
G1 X114.867 Y92.938 E3.25029
G1 X115.717 Y93.789 E3.30528
G1 X115.875 Y93.395 E3.32464
G1 X115.283 Y92.803 E3.36291
G1 X115.833 Y92.803 E3.38807
G1 X116.032 Y93.002 E3.40093
G92 E0
G1 X111.486 Y97.267 F7800.000
G1 X112.200 Y97.981 E0.04615 F540.000
G1 X111.649 Y97.981 E0.07131
G1 X110.935 Y97.267 E0.11746
G1 X110.384 Y97.267 E0.14262
G1 X111.099 Y97.981 E0.18877
G1 X110.548 Y97.981 E0.21393
G1 X109.834 Y97.267 E0.26008
G1 X109.283 Y97.267 E0.28525
G1 X109.997 Y97.981 E0.33139
G1 X109.446 Y97.981 E0.35656
G1 X108.732 Y97.267 E0.40270
G1 X108.182 Y97.267 E0.42787
G1 X108.896 Y97.981 E0.47402
G1 X108.345 Y97.981 E0.49918
G1 X107.631 Y97.267 E0.54533
G1 X107.080 Y97.267 E0.57049
G1 X107.794 Y97.981 E0.61664
G1 X107.243 Y97.981 E0.64180
G1 X106.529 Y97.267 E0.68795
G1 X105.979 Y97.267 E0.71312
G1 X106.693 Y97.981 E0.75926
G1 X106.142 Y97.981 E0.78443
G1 X103.998 Y95.837 E0.92298
G1 X103.620 Y94.909 F7800.000
G1 X105.367 Y96.655 E1.03586 F540.000
G1 X105.011 Y95.749 F7800.000
G1 X103.243 Y93.980 E1.15015 F540.000
G1 X102.865 Y93.052 F7800.000
G1 X104.656 Y94.842 E1.26585 F540.000
G1 X104.300 Y93.936 F7800.000
G1 X103.167 Y92.803 E1.33907 F540.000
G1 X103.718 Y92.803 E1.36423
G1 X103.944 Y93.029 E1.37887
G1 X105.509 Y99.550 F7800.000
G1 X107.111 Y101.153 E1.48244 F540.000
G1 X106.264 Y101.407 F7800.000
G1 X107.806 Y102.949 E1.58209 F540.000
G1 X107.019 Y103.264 F7800.000
G1 X108.454 Y104.698 E1.67479 F540.000
G1 X107.774 Y105.120 F7800.000
G1 X109.006 Y106.352 E1.75440 F540.000
G1 X108.530 Y106.977 F7800.000
G1 X108.749 Y107.197 E1.76862 F540.000
G92 E0
G1 X105.953 Y96.816 F7800.000
G1 X104.201 Y91.352 F7800.000
G1 X95.831 Y91.352 F7800.000
G1 X91.882 Y93.584 F7800.000
G1 X94.090 Y96.816 F7800.000
G1 X85.700 Y97.783 F7800.000
G1 X83.583 Y92.577 E0.25433 F378.000
G1 X85.242 Y92.577 E0.32941
G1 X86.806 Y96.563 E0.52319
G1 X86.994 Y97.041 E0.54640 F378.000
G1 X94.244 Y97.041 E0.87447
G1 X95.985 Y92.577 E1.09128
G1 X97.614 Y92.577 E1.16498
G1 X91.671 Y107.423 E1.88857
G1 X89.622 Y107.423 E1.98131
G1 X85.788 Y97.997 E2.44174
G1 X87.446 Y98.207 F7800.000
G1 X93.803 Y98.207 E2.72937 F378.000
G1 X91.527 Y104.086 E3.01464
G1 X90.818 Y106.198 E3.11545
G1 X90.418 Y106.197 E3.13350
G1 X90.099 Y105.195 E3.18108
G1 X89.510 Y103.544 E3.26040
G1 X87.529 Y98.422 E3.50889
G1 X87.264 Y98.459 F7800.000
G1 X85.570 Y96.765 E3.61833 F540.000
G1 X86.562 Y96.655 F7800.000
G1 X84.815 Y94.909 E3.73121 F540.000
G1 X84.437 Y93.980 F7800.000
G1 X86.206 Y95.749 E3.84550 F540.000
G1 X85.850 Y94.842 F7800.000
G1 X84.060 Y93.052 E3.96120 F540.000
G1 X84.361 Y92.803 E3.97908
G1 X85.494 Y93.936 E4.05229
G1 X85.138 Y93.029 F7800.000
G1 X84.912 Y92.803 E4.06693 F540.000
G1 X85.192 Y95.837 F7800.000
G1 X87.336 Y97.981 E4.20548 F540.000
G1 X87.887 Y97.981 E4.23065
G1 X87.173 Y97.267 E4.27679
G1 X87.724 Y97.267 E4.30196
G1 X88.438 Y97.981 E4.34810
G1 X88.989 Y97.981 E4.37327
G1 X88.275 Y97.267 E4.41942
G1 X88.825 Y97.267 E4.44458
G1 X89.539 Y97.981 E4.49073
G1 X90.090 Y97.981 E4.51589
G1 X89.376 Y97.267 E4.56204
G1 X89.927 Y97.267 E4.58720
G1 X90.641 Y97.981 E4.63335
G1 X91.191 Y97.981 E4.65851
G1 X90.477 Y97.267 E4.70466
G1 X91.028 Y97.267 E4.72983
G1 X91.742 Y97.981 E4.77597
G1 X92.293 Y97.981 E4.80114
G1 X91.579 Y97.267 E4.84728
G1 X92.130 Y97.267 E4.87245
G1 X92.844 Y97.981 E4.91860
G1 X93.394 Y97.981 E4.94376
G1 X92.680 Y97.267 E4.98991
G92 E0
G1 X87.611 Y99.357 F7800.000
G1 X85.948 Y97.694 E0.10748 F540.000
G1 X86.325 Y98.622 F7800.000
G1 X87.958 Y100.255 E0.21300 F540.000
G1 X87.081 Y100.479 F7800.000
G1 X88.653 Y102.051 E0.31461 F540.000
G1 X87.836 Y102.335 F7800.000
G1 X89.342 Y103.842 E0.41196 F540.000
G1 X88.591 Y104.192 F7800.000
G1 X89.943 Y105.544 E0.49936 F540.000
G1 X89.346 Y106.049 F7800.000
G1 X90.495 Y107.197 E0.57356 F540.000
G1 X91.045 Y107.197 E0.59873
G1 X90.271 Y106.423 E0.64875
G1 X90.823 Y106.424 E0.67397
G1 X91.553 Y107.154 E0.72116
G1 X91.717 Y106.767 E0.74037
G1 X91.062 Y106.112 E0.78269
G1 X91.200 Y105.700 E0.80256
G1 X91.874 Y106.374 E0.84610
G1 X92.031 Y105.980 E0.86546
G1 X91.339 Y105.288 E0.91023
G1 X91.477 Y104.875 E0.93010
G1 X92.189 Y105.587 E0.97609
G1 X92.346 Y105.194 E0.99545
G1 X91.616 Y104.463 E1.04266
G1 X91.756 Y104.053 E1.06247
G1 X92.504 Y104.800 E1.11078
G1 X92.661 Y104.407 E1.13013
G1 X91.910 Y103.656 E1.17868
G1 X92.064 Y103.259 E1.19813
G1 X92.819 Y104.014 E1.24692
G1 X92.976 Y103.621 E1.26628
G1 X92.217 Y102.862 E1.31531
G1 X92.371 Y102.465 E1.33476
G1 X93.133 Y103.227 E1.38404
G1 X93.291 Y102.834 E1.40339
G1 X92.525 Y102.068 E1.45291
G1 X92.678 Y101.671 E1.47236
G1 X93.448 Y102.441 E1.52212
G1 X93.606 Y102.047 E1.54148
G1 X92.832 Y101.274 E1.59148
G1 X92.986 Y100.877 E1.61093
G1 X93.763 Y101.654 E1.66117
G1 X93.921 Y101.261 E1.68053
G1 X93.139 Y100.480 E1.73102
G1 X93.293 Y100.083 E1.75047
G1 X94.078 Y100.868 E1.80120
G1 X94.236 Y100.474 E1.82056
G1 X93.447 Y99.686 E1.87153
G1 X93.600 Y99.289 E1.89098
G1 X94.393 Y100.081 E1.94219
G1 X94.550 Y99.688 E1.96155
G1 X93.754 Y98.892 E2.01300
G1 X93.908 Y98.495 E2.03246
G1 X94.708 Y99.294 E2.08416
G1 X94.865 Y98.901 E2.10351
G1 X93.231 Y97.267 E2.20912
G1 X93.782 Y97.267 E2.23429
G1 X95.023 Y98.508 E2.31448
G1 X95.180 Y98.115 E2.33384
G1 X94.332 Y97.267 E2.38862
G1 X94.516 Y96.900 E2.40738
G1 X95.338 Y97.721 E2.46049
G1 X95.495 Y97.328 E2.47984
G1 X94.670 Y96.503 E2.53314
G1 X94.825 Y96.107 E2.55257
G1 X95.652 Y96.935 E2.60605
G1 X95.810 Y96.542 E2.62541
G1 X94.979 Y95.711 E2.67908
G1 X95.134 Y95.315 E2.69851
G1 X95.967 Y96.148 E2.75237
G1 X96.125 Y95.755 E2.77173
G1 X95.288 Y94.919 E2.82578
G1 X95.443 Y94.522 E2.84521
G1 X96.282 Y95.362 E2.89944
G1 X96.440 Y94.968 E2.91880
G1 X95.597 Y94.126 E2.97322
G1 X95.752 Y93.730 E2.99266
G1 X96.597 Y94.575 E3.04727
G1 X96.754 Y94.182 E3.06662
G1 X95.906 Y93.334 E3.12142
G1 X96.061 Y92.938 E3.14086
G1 X96.912 Y93.789 E3.19584
G1 X97.069 Y93.395 E3.21520
G1 X96.477 Y92.803 E3.25347
G1 X97.028 Y92.803 E3.27864
G1 X97.227 Y93.002 E3.29150
G92 E0
G1 X88.306 Y101.153 F7800.000
G1 X86.703 Y99.550 E0.10356 F540.000
G1 X87.458 Y101.407 F7800.000
G1 X89.000 Y102.949 E0.20322 F540.000
G1 X88.213 Y103.264 F7800.000
G1 X89.648 Y104.698 E0.29592 F540.000
G1 X88.969 Y105.120 F7800.000
G1 X90.201 Y106.352 E0.37553 F540.000
G1 X89.724 Y106.977 F7800.000
G1 X89.944 Y107.197 E0.38975 F540.000
M106 S255
G92 E0
G1 Z0.600 F7800.000
G1 X107.431 Y100.633 F7800.000
G1 X105.055 Y97.168 E1.25890 F600.000
G1 X103.130 Y92.352 E2.81311
G92 E0
G1 X113.816 Y94.457 F7800.000
G1 X113.162 Y98.774 E1.30814 F600.000
G1 X110.979 Y104.320 E3.09418
G1 X110.271 Y106.245 E3.70873
G1 X110.003 Y106.723 E3.87305
G1 X109.459 Y106.810 E4.03792
G1 X108.889 Y106.736 E4.21017
G1 X108.596 Y106.225 E4.38676
G1 X107.679 Y103.781 E5.16887
G1 X105.693 Y98.775 E6.78269
G1 X105.556 Y97.900 E7.04820
G1 X105.953 Y97.746 E7.17571
G1 X106.580 Y97.624 E7.36709
G1 X112.280 Y97.624 E9.07507
G1 X112.896 Y97.741 E9.26298
G1 X113.295 Y97.894 E9.39111
G1 X113.791 Y97.165 E9.65512
G1 X115.692 Y92.352 E11.20582
G92 E0
G1 X104.201 Y91.352 F7800.000
G1 X95.831 Y91.352 F7800.000
G1 X91.882 Y93.584 F7800.000
G1 X94.090 Y96.816 F7800.000
G1 X88.626 Y100.633 F7800.000
G1 X86.249 Y97.168 E1.25890 F600.000
G1 X84.324 Y92.352 E2.81311
G92 E0
G1 X95.010 Y94.457 F7800.000
G1 X94.357 Y98.774 E1.30813 F600.000
G1 X92.173 Y104.320 E3.09418
G1 X91.465 Y106.245 E3.70872
G1 X91.197 Y106.723 E3.87304
G1 X90.654 Y106.810 E4.03792
G1 X90.084 Y106.736 E4.21016
G1 X89.790 Y106.225 E4.38676
G1 X88.874 Y103.781 E5.16887
G1 X86.887 Y98.775 E6.78268
G1 X86.750 Y97.900 E7.04820
G1 X87.147 Y97.746 E7.17570
G1 X87.774 Y97.624 E7.36708
G1 X93.474 Y97.624 E9.07506
G1 X94.090 Y97.741 E9.26297
G1 X94.490 Y97.894 E9.39110
G1 X94.985 Y97.165 E9.65512
G1 X96.887 Y92.352 E11.20582
G92 E0
G1 Z0.900 F7800.000
G1 X107.431 Y100.633 F7800.000
G1 X105.055 Y97.168 E1.25890 F600.000
G1 X103.130 Y92.352 E2.81311
G92 E0
G1 X113.816 Y94.457 F7800.000
G1 X113.162 Y98.774 E1.30814 F600.000
G1 X110.979 Y104.320 E3.09418
G1 X110.271 Y106.245 E3.70873
G1 X110.003 Y106.723 E3.87305
G1 X109.459 Y106.810 E4.03792
G1 X108.889 Y106.736 E4.21017
G1 X108.596 Y106.225 E4.38676
G1 X107.679 Y103.781 E5.16887
G1 X105.693 Y98.775 E6.78269
G1 X105.556 Y97.900 E7.04820
G1 X105.953 Y97.746 E7.17571
G1 X106.580 Y97.624 E7.36709
G1 X112.280 Y97.624 E9.07507
G1 X112.896 Y97.741 E9.26298
G1 X113.295 Y97.894 E9.39111
G1 X113.791 Y97.165 E9.65512
G1 X115.692 Y92.352 E11.20582
G92 E0
G1 X104.201 Y91.352 F7800.000
G1 X95.831 Y91.352 F7800.000
G1 X91.882 Y93.584 F7800.000
G1 X94.090 Y96.816 F7800.000
G1 X88.626 Y100.633 F7800.000
G1 X86.249 Y97.168 E1.25890 F600.000
G1 X84.324 Y92.352 E2.81311
G92 E0
G1 X95.010 Y94.457 F7800.000
G1 X94.357 Y98.774 E1.30814 F600.000
G1 X92.173 Y104.320 E3.09418
G1 X91.465 Y106.245 E3.70873
G1 X91.197 Y106.723 E3.87305
G1 X90.654 Y106.810 E4.03793
G1 X90.084 Y106.736 E4.21017
G1 X89.790 Y106.225 E4.38676
G1 X88.874 Y103.781 E5.16887
G1 X86.887 Y98.775 E6.78269
G1 X86.750 Y97.900 E7.04820
G1 X87.147 Y97.746 E7.17571
G1 X87.774 Y97.624 E7.36709
G1 X93.474 Y97.624 E9.07507
G1 X94.090 Y97.741 E9.26298
G1 X94.490 Y97.894 E9.39111
G1 X94.985 Y97.165 E9.65512
G1 X96.887 Y92.352 E11.20582
G92 E0
G1 Z1.200 F7800.000
G1 X107.431 Y100.633 F7800.000
G1 X105.055 Y97.168 E1.25890 F600.000
G1 X103.130 Y92.352 E2.81311
G92 E0
G1 X113.816 Y94.457 F7800.000
G1 X113.162 Y98.774 E1.30813 F600.000
G1 X110.979 Y104.320 E3.09418
G1 X110.271 Y106.245 E3.70872
G1 X110.003 Y106.723 E3.87304
G1 X109.459 Y106.810 E4.03792
G1 X108.889 Y106.736 E4.21016
G1 X108.596 Y106.225 E4.38675
G1 X107.679 Y103.781 E5.16887
G1 X105.693 Y98.775 E6.78268
G1 X105.556 Y97.900 E7.04820
G1 X105.953 Y97.746 E7.17570
G1 X106.580 Y97.624 E7.36708
G1 X112.280 Y97.624 E9.07506
G1 X112.896 Y97.741 E9.26297
G1 X113.295 Y97.894 E9.39110
G1 X113.791 Y97.165 E9.65512
G1 X115.692 Y92.352 E11.20582
G92 E0
G1 X105.564 Y91.817 F7800.000
G1 X97.946 Y91.352 F7800.000
G1 X94.464 Y91.819 F7800.000
G1 X91.882 Y93.584 F7800.000
G1 X94.090 Y96.816 F7800.000
G1 X88.626 Y100.633 F7800.000
G1 X86.249 Y97.168 E1.25890 F600.000
G1 X84.324 Y92.352 E2.81311
G92 E0
G1 X95.010 Y94.457 F7800.000
G1 X94.357 Y98.774 E1.30813 F600.000
G1 X92.173 Y104.320 E3.09418
G1 X91.465 Y106.245 E3.70872
G1 X91.197 Y106.723 E3.87304
G1 X90.654 Y106.810 E4.03792
G1 X90.084 Y106.736 E4.21016
G1 X89.790 Y106.225 E4.38676
G1 X88.874 Y103.781 E5.16887
G1 X86.887 Y98.775 E6.78268
G1 X86.750 Y97.900 E7.04820
G1 X87.147 Y97.746 E7.17570
G1 X87.774 Y97.624 E7.36708
G1 X93.474 Y97.624 E9.07506
G1 X94.090 Y97.741 E9.26297
G1 X94.490 Y97.894 E9.39110
G1 X94.985 Y97.165 E9.65512
G1 X96.887 Y92.352 E11.20582
G92 E0
G1 Z1.500 F7800.000
G1 X107.431 Y100.633 F7800.000
G1 X105.055 Y97.168 E1.25890 F600.000
G1 X103.130 Y92.352 E2.81311
G92 E0
G1 X113.816 Y94.457 F7800.000
G1 X113.162 Y98.774 E1.30814 F600.000
G1 X110.979 Y104.320 E3.09418
G1 X110.271 Y106.245 E3.70873
G1 X110.003 Y106.723 E3.87305
G1 X109.459 Y106.810 E4.03793
G1 X108.889 Y106.736 E4.21017
G1 X108.596 Y106.225 E4.38676
G1 X107.679 Y103.781 E5.16887
G1 X105.693 Y98.775 E6.78269
G1 X105.556 Y97.900 E7.04820
G1 X105.953 Y97.746 E7.17571
G1 X106.580 Y97.624 E7.36709
G1 X112.280 Y97.624 E9.07507
G1 X112.896 Y97.741 E9.26298
G1 X113.295 Y97.894 E9.39111
G1 X113.791 Y97.165 E9.65512
G1 X115.692 Y92.352 E11.20582
G92 E0
G1 X105.564 Y91.817 F7800.000
G1 X97.946 Y91.352 F7800.000
G1 X94.464 Y91.819 F7800.000
G1 X91.882 Y93.584 F7800.000
G1 X94.090 Y96.816 F7800.000
G1 X88.626 Y100.633 F7800.000
G1 X86.249 Y97.168 E1.25890 F600.000
G1 X84.324 Y92.352 E2.81311
G92 E0
G1 X95.010 Y94.457 F7800.000
G1 X94.357 Y98.774 E1.30814 F600.000
G1 X92.173 Y104.320 E3.09418
G1 X91.465 Y106.245 E3.70873
G1 X91.197 Y106.723 E3.87305
G1 X90.654 Y106.810 E4.03793
G1 X90.084 Y106.736 E4.21017
G1 X89.790 Y106.225 E4.38676
G1 X88.874 Y103.781 E5.16887
G1 X86.887 Y98.775 E6.78269
G1 X86.750 Y97.900 E7.04820
G1 X87.147 Y97.746 E7.17571
G1 X87.774 Y97.624 E7.36709
G1 X93.474 Y97.624 E9.07507
G1 X94.090 Y97.741 E9.26298
G1 X94.490 Y97.894 E9.39111
G1 X94.985 Y97.165 E9.65512
G1 X96.887 Y92.352 E11.20582
G92 E0
G1 Z1.800 F7800.000
G1 X107.431 Y100.633 F7800.000
G1 X105.055 Y97.168 E1.25890 F600.000
G1 X103.130 Y92.352 E2.81311
G92 E0
G1 X113.816 Y94.457 F7800.000
G1 X113.162 Y98.774 E1.30814 F600.000
G1 X110.979 Y104.320 E3.09418
