; generated by Slic3r 1.2.9 on 2016-03-11 at 01:22:08

; external perimeters extrusion width = 1.54mm
; perimeters extrusion width = 2.62mm
; infill extrusion width = 6.27mm
; solid infill extrusion width = 2.62mm
; top infill extrusion width = 2.62mm

M107
M104 S30 ; set temperature
G28 ; home all axes
G1 Z5 F5000 ; lift nozzle
M302
M92 E10000
M500
M501
G1 E100
M109 S30 ; wait for temperature to be reached
G21 ; set units to millimeters
G90 ; use absolute coordinates
M82 ; use absolute distances for extrusion
G92 E0
G1 Z0.300 F7800.000
G1 X114.163 Y95.079 F7800.000
G1 X112.514 Y94.000 E0.08920 F378.000
G1 X110.468 Y93.635 E0.18322
G1 X108.844 Y93.832 E0.25724
G1 X107.455 Y94.425 E0.32561
G1 X106.307 Y95.414 E0.39418
G1 X105.455 Y96.722 E0.46480
G1 X104.948 Y98.274 E0.53869
G1 X104.780 Y100.064 E0.62000
G1 X104.941 Y101.863 E0.70173
G1 X105.428 Y103.401 E0.77474
G1 X106.248 Y104.672 E0.84319
G1 X107.368 Y105.620 E0.90958
G1 X108.748 Y106.187 E0.97711
G1 X110.370 Y106.374 E1.05099
G1 X111.442 Y106.293 E1.09961
G1 X112.414 Y106.050 E1.14497
G1 X113.290 Y105.642 E1.18869
G1 X114.043 Y105.077 E1.23131
G1 X114.646 Y104.364 E1.27356
G1 X114.996 Y103.697 E1.30761
G1 X116.524 Y104.202 E1.38043
G1 X116.051 Y105.088 E1.42587
G1 X115.280 Y105.989 E1.47954
G1 X114.324 Y106.694 E1.53331
G1 X113.183 Y107.204 E1.58984
G1 X111.860 Y107.511 E1.65129
G1 X110.358 Y107.614 E1.71943
G1 X108.244 Y107.390 E1.81564
G1 X106.477 Y106.723 E1.90106
G1 X105.044 Y105.616 E1.98300
G1 X103.984 Y104.118 E2.06607
G1 X103.344 Y102.270 E2.15454
G1 X103.128 Y100.061 E2.25498
G1 X103.225 Y98.546 E2.32368
G1 X103.512 Y97.176 E2.38702
G1 X103.990 Y95.954 E2.44639
G1 X104.646 Y94.896 E2.50273
G1 X105.473 Y94.017 E2.55733
G1 X106.473 Y93.314 E2.61266
G1 X107.630 Y92.799 E2.66993
G1 X108.926 Y92.489 E2.73024
G1 X110.364 Y92.386 E2.79548
G1 X111.638 Y92.486 E2.85329
G1 X111.772 Y92.497 E2.85941 F378.000
G1 X113.056 Y92.829 E2.91938
G1 X114.217 Y93.381 E2.97756
G1 X115.236 Y94.143 E3.03514
G1 X116.092 Y95.107 E3.09350
G1 X116.673 Y96.088 E3.14505
G1 X115.369 Y96.737 E3.21096
G1 X114.309 Y95.255 E3.29341
G1 X114.489 Y94.952 F7800.000
G1 X112.472 Y92.935 E3.42255 F540.000
G1 X113.348 Y93.266 F7800.000
G1 X116.190 Y96.107 E3.60445 F540.000
G1 X115.825 Y96.288 E3.62287
G1 X114.342 Y94.805 E3.71785
G1 X114.832 Y94.204 F7800.000
G1 X115.332 Y94.704 E3.74981 F540.000
G1 X112.913 Y93.922 F7800.000
G1 X111.736 Y92.745 E3.82516 F540.000
G1 X111.125 Y92.679 E3.85299
G1 X112.132 Y93.686 E3.91747
G1 X111.468 Y93.568 E3.94801
G1 X110.533 Y92.632 E4.00790
G1 X109.988 Y92.634 E4.03254
G1 X110.804 Y93.449 E4.08474
G1 X110.252 Y93.443 E4.10973
G1 X109.479 Y92.670 E4.15917
G1 X108.971 Y92.707 E4.18226
G1 X109.765 Y93.502 E4.23313
G1 X109.279 Y93.561 E4.25532
G1 X108.520 Y92.802 E4.30390
G1 X108.079 Y92.907 E4.32440
G1 X108.803 Y93.631 E4.37076
G1 X108.421 Y93.794 E4.38958
G1 X107.640 Y93.013 E4.43958
G1 X107.262 Y93.181 E4.45829
G1 X108.039 Y93.958 E4.50799
G1 X107.657 Y94.121 E4.52681
G1 X106.885 Y93.349 E4.57622
G1 X106.513 Y93.523 E4.59480
G1 X107.297 Y94.307 E4.64501
G1 X107.004 Y94.560 E4.66252
G1 X106.193 Y93.748 E4.71447
G1 X105.872 Y93.973 E4.73220
G1 X106.711 Y94.812 E4.78589
G1 X106.418 Y95.065 E4.80340
G1 X105.572 Y94.219 E4.85753
G1 X105.300 Y94.492 E4.87499
G1 X106.133 Y95.325 E4.92833
G1 X105.918 Y95.656 E4.94618
G1 X105.030 Y94.768 E5.00297
G1 X104.775 Y95.059 E5.02047
G1 X105.702 Y95.986 E5.07984
G1 X105.487 Y96.316 E5.09769
G1 X104.566 Y95.395 E5.15666
G1 X104.357 Y95.732 E5.17460
G1 X105.272 Y96.647 E5.23317
G1 X105.132 Y97.052 E5.25259
G1 X104.158 Y96.078 E5.31496
G1 X104.005 Y96.471 E5.33402
G1 X104.998 Y97.463 E5.39759
G1 X104.863 Y97.875 E5.41717
G1 X103.851 Y96.863 E5.48194
G1 X103.709 Y97.266 E5.50129
G1 X104.729 Y98.286 E5.56657
G1 X104.680 Y98.783 E5.58918
G1 X103.614 Y97.717 E5.65742
G1 X103.520 Y98.168 E5.67828
G1 X104.634 Y99.282 E5.74959
G1 X104.587 Y99.780 E5.77227
G1 X103.440 Y98.634 E5.84566
G1 X103.408 Y99.147 E5.86893
G1 X104.567 Y100.306 E5.94314
G1 X104.621 Y100.906 E5.97038
G1 X103.375 Y99.660 E6.05011
G1 X103.378 Y100.209 E6.07494
G1 X104.674 Y101.505 E6.15792
G1 X104.761 Y102.137 E6.18680
G1 X103.437 Y100.813 E6.27154
G1 X103.496 Y101.418 E6.29904
G1 X105.014 Y102.936 E6.39622
G1 X105.378 Y103.845 F7800.000
G1 X103.555 Y102.022 E6.51291 F540.000
G1 X103.806 Y102.819 E6.55070
G1 X108.011 Y107.024 E6.81993
G1 X108.739 Y107.206 E6.85388
G1 X107.486 Y105.953 E6.93410
G1 X107.135 Y106.693 F7800.000
G1 X104.095 Y103.653 E7.12872 F540.000
G1 X105.118 Y105.222 F7800.000
G1 X105.476 Y105.580 E7.15164 F540.000
G1 X108.412 Y106.334 F7800.000
G1 X109.349 Y107.271 E7.21164 F540.000
G1 X109.959 Y107.335 E7.23943
G1 X109.088 Y106.464 E7.29524
G1 X109.704 Y106.535 E7.32333
G1 X110.550 Y107.380 E7.37745
G1 X111.060 Y107.345 E7.40061
G1 X110.314 Y106.599 E7.44838
G1 X110.821 Y106.561 E7.47141
G1 X111.571 Y107.310 E7.51938
G1 X112.057 Y107.250 E7.54155
G1 X111.329 Y106.522 E7.58816
G1 X111.776 Y106.424 E7.60890
G1 X112.499 Y107.147 E7.65519
G1 X112.942 Y107.044 E7.67576
G1 X112.213 Y106.315 E7.72244
G1 X112.618 Y106.175 E7.74185
G1 X113.352 Y106.909 E7.78887
G1 X113.730 Y106.741 E7.80757
G1 X112.990 Y106.001 E7.85492
G1 X113.362 Y105.828 E7.87351
G1 X114.107 Y106.573 E7.92117
G1 X114.445 Y106.365 E7.93913
G1 X113.675 Y105.595 E7.98842
G1 X113.986 Y105.361 E8.00606
G1 X114.759 Y106.133 E8.05551
G1 X115.069 Y105.898 E8.07313
G1 X114.274 Y105.103 E8.12404
G1 X114.524 Y104.807 E8.14156
G1 X115.340 Y105.623 E8.19382
G1 X115.591 Y105.329 E8.21134
G1 X114.774 Y104.511 E8.26369
G1 X114.973 Y104.166 E8.28177
G1 X115.843 Y105.035 E8.33744
G1 X116.041 Y104.688 E8.35554
G1 X115.479 Y104.126 E8.39151
G92 E0
G1 X110.354 Y107.840 F7800.000
G1 X103.493 Y107.570 F7800.000
G1 X99.866 Y96.391 F7800.000
G1 X100.947 Y93.648 F7800.000
G1 X97.708 Y91.256 F7800.000
G1 X94.095 Y91.768 F7800.000
G1 X91.578 Y93.488 F7800.000
G1 X93.852 Y96.816 F7800.000
G1 X95.396 Y97.524 F7800.000
G1 X91.433 Y107.423 E0.48248 F378.000
G1 X89.384 Y107.423 E0.57521
G1 X83.345 Y92.577 E1.30044
G1 X85.004 Y92.577 E1.37551
G1 X86.568 Y96.563 E1.56929
G1 X86.756 Y97.041 E1.59250 F378.000
G1 X94.006 Y97.041 E1.92057
G1 X95.747 Y92.577 E2.13738
G1 X97.376 Y92.577 E2.21108
G1 X95.481 Y97.309 E2.44174
G1 X93.565 Y98.207 F7800.000
G1 X91.289 Y104.086 E2.72701 F378.000
G1 X90.580 Y106.198 E2.82781
G1 X90.180 Y106.197 E2.84587
G1 X89.861 Y105.195 E2.89345
G1 X89.272 Y103.544 E2.97276
G1 X87.208 Y98.207 E3.23171
G1 X93.334 Y98.207 E3.50889 F378.000
G1 X92.442 Y97.267 F7800.000
G1 X93.156 Y97.981 E3.55504 F540.000
G1 X92.606 Y97.981 E3.58020
G1 X91.892 Y97.267 E3.62635
G1 X91.341 Y97.267 E3.65151
G1 X92.055 Y97.981 E3.69766
G1 X91.504 Y97.981 E3.72283
G1 X90.790 Y97.267 E3.76897
G1 X90.239 Y97.267 E3.79414
G1 X90.953 Y97.981 E3.84028
G1 X90.403 Y97.981 E3.86545
G1 X89.689 Y97.267 E3.91160
G1 X89.138 Y97.267 E3.93676
G1 X89.852 Y97.981 E3.98291
G1 X89.301 Y97.981 E4.00807
G1 X88.587 Y97.267 E4.05422
G1 X88.037 Y97.267 E4.07938
G1 X88.751 Y97.981 E4.12553
G1 X88.200 Y97.981 E4.15070
G1 X87.486 Y97.267 E4.19684
G1 X86.935 Y97.267 E4.22201
G1 X87.649 Y97.981 E4.26815
G1 X87.098 Y97.981 E4.29332
G1 X84.954 Y95.837 E4.43187
G1 X85.332 Y96.765 F7800.000
G1 X87.026 Y98.459 E4.54131 F540.000
G1 X86.087 Y98.622 F7800.000
G1 X87.720 Y100.255 E4.64683 F540.000
G1 X86.843 Y100.479 F7800.000
G1 X88.415 Y102.051 E4.74844 F540.000
G1 X87.598 Y102.335 F7800.000
G1 X89.104 Y103.842 E4.84579 F540.000
G1 X88.353 Y104.192 F7800.000
G1 X89.705 Y105.544 E4.93318 F540.000
G1 X89.108 Y106.049 F7800.000
G1 X90.257 Y107.197 E5.00739 F540.000
G1 X90.807 Y107.197 E5.03255
G1 X90.033 Y106.423 E5.08258
G1 X90.585 Y106.424 E5.10780
G1 X91.315 Y107.154 E5.15499
G1 X91.479 Y106.767 E5.17420
G1 X90.824 Y106.112 E5.21652
G1 X90.962 Y105.700 E5.23639
G1 X91.636 Y106.374 E5.27993
G1 X91.793 Y105.980 E5.29929
G1 X91.101 Y105.288 E5.34405
G1 X91.239 Y104.875 E5.36393
G1 X91.951 Y105.587 E5.40992
G1 X92.108 Y105.194 E5.42927
G1 X91.378 Y104.463 E5.47649
G1 X91.518 Y104.053 E5.49630
G1 X92.266 Y104.800 E5.54460
G1 X92.423 Y104.407 E5.56396
G1 X91.672 Y103.656 E5.61251
G1 X91.826 Y103.259 E5.63196
G1 X92.581 Y104.014 E5.68075
G1 X92.738 Y103.621 E5.70011
G1 X91.979 Y102.862 E5.74914
G1 X92.133 Y102.465 E5.76859
G1 X92.895 Y103.227 E5.81786
G1 X93.053 Y102.834 E5.83722
G1 X92.287 Y102.068 E5.88674
G1 X92.440 Y101.671 E5.90619
G1 X93.210 Y102.441 E5.95595
G1 X93.368 Y102.047 E5.97531
G1 X92.594 Y101.274 E6.02531
G1 X92.748 Y100.877 E6.04476
G1 X93.525 Y101.654 E6.09500
G1 X93.683 Y101.261 E6.11436
G1 X92.901 Y100.480 E6.16484
G1 X93.055 Y100.083 E6.18430
G1 X93.840 Y100.868 E6.23503
G1 X93.998 Y100.474 E6.25438
G1 X93.209 Y99.686 E6.30535
G1 X93.362 Y99.289 E6.32481
G1 X94.155 Y100.081 E6.37602
G1 X94.312 Y99.688 E6.39538
G1 X93.516 Y98.892 E6.44683
G1 X93.670 Y98.494 E6.46629
G1 X94.470 Y99.294 E6.51798
G1 X94.627 Y98.901 E6.53734
G1 X92.993 Y97.267 E6.64295
G1 X93.544 Y97.267 E6.66812
G1 X94.785 Y98.508 E6.74831
G1 X94.942 Y98.115 E6.76767
G1 X94.094 Y97.267 E6.82245
G1 X94.278 Y96.900 E6.84121
G1 X95.100 Y97.721 E6.89431
G1 X95.257 Y97.328 E6.91367
G1 X94.432 Y96.503 E6.96697
G1 X94.587 Y96.107 E6.98640
G1 X95.414 Y96.935 E7.03988
G1 X95.572 Y96.541 E7.05924
G1 X94.741 Y95.711 E7.11291
G1 X94.896 Y95.315 E7.13234
G1 X95.729 Y96.148 E7.18620
G1 X95.887 Y95.755 E7.20556
G1 X95.050 Y94.919 E7.25960
G1 X95.205 Y94.522 E7.27904
G1 X96.044 Y95.362 E7.33327
G1 X96.202 Y94.968 E7.35263
G1 X95.359 Y94.126 E7.40705
G1 X95.514 Y93.730 E7.42648
G1 X96.359 Y94.575 E7.48109
G1 X96.516 Y94.182 E7.50045
G1 X95.668 Y93.334 E7.55525
G1 X95.823 Y92.938 E7.57468
G1 X96.674 Y93.789 E7.62967
G1 X96.831 Y93.395 E7.64903
G1 X96.239 Y92.803 E7.68730
G1 X96.790 Y92.803 E7.71247
G1 X96.989 Y93.002 E7.72533
G92 E0
G1 X86.324 Y96.655 F7800.000
G1 X84.577 Y94.909 E0.11288 F540.000
G1 X84.199 Y93.980 F7800.000
G1 X85.968 Y95.749 E0.22717 F540.000
G1 X85.612 Y94.842 F7800.000
G1 X83.822 Y93.052 E0.34287 F540.000
G1 X84.123 Y92.803 E0.36075
G1 X85.256 Y93.936 E0.43396
G1 X84.900 Y93.029 F7800.000
G1 X84.674 Y92.803 E0.44860 F540.000
G1 X85.710 Y97.694 F7800.000
G1 X87.373 Y99.357 E0.55608 F540.000
G1 X86.465 Y99.550 F7800.000
G1 X88.068 Y101.153 E0.65964 F540.000
G1 X87.220 Y101.407 F7800.000
G1 X88.762 Y102.949 E0.75930 F540.000
G1 X87.975 Y103.264 F7800.000
G1 X89.410 Y104.698 E0.85200 F540.000
G1 X88.731 Y105.120 F7800.000
G1 X89.963 Y106.352 E0.93161 F540.000
G1 X89.486 Y106.977 F7800.000
G1 X89.706 Y107.197 E0.94583 F540.000
M106 S255
G92 E0
G1 Z0.600 F7800.000
G1 X115.975 Y103.783 F7800.000
G1 X115.218 Y104.879 E0.39909 F600.000
G1 X114.754 Y105.424 E0.61329
G1 X114.630 Y105.540 E0.66423
G1 X113.953 Y106.059 E0.91981
G1 X113.561 Y106.278 E1.05466
G1 X112.964 Y106.551 E1.25121
G1 X112.551 Y106.685 E1.38131
G1 X111.765 Y106.874 E1.62348
G1 X111.470 Y106.915 E1.71288
G1 X110.370 Y106.992 E2.04329
G1 X108.708 Y106.811 E2.54418
G1 X108.396 Y106.749 E2.63946
G1 X107.145 Y106.256 E3.04241
G1 X106.828 Y106.095 E3.14887
G1 X105.795 Y105.260 E3.54707
G1 X105.602 Y105.081 E3.62575
G1 X104.775 Y103.857 E4.06830
G1 X104.706 Y103.747 E4.10739
G1 X104.656 Y103.614 E4.14996
G1 X104.153 Y102.094 E4.62983
G1 X103.956 Y100.047 E5.24586
G1 X104.063 Y98.660 E5.66271
G1 X104.177 Y97.996 E5.86470
G1 X104.331 Y97.420 E6.04323
G1 X104.732 Y96.325 E6.39259
G1 X105.313 Y95.408 E6.71790
G1 X105.626 Y95.010 E6.86979
G1 X106.000 Y94.624 E7.03067
G1 X106.843 Y93.966 E7.35122
G1 X107.209 Y93.761 E7.47683
G1 X107.859 Y93.477 E7.68949
G1 X108.559 Y93.246 E7.91035
G1 X109.027 Y93.144 E8.05387
G1 X110.362 Y93.015 E8.45568
G1 X110.611 Y93.029 E8.53032
G1 X111.661 Y93.164 E8.84758
G1 X112.581 Y93.364 E9.12967
G1 X112.834 Y93.440 E9.20885
G1 X113.841 Y94.003 E9.55476
G1 X114.545 Y94.496 E9.81219
G1 X114.754 Y94.666 E9.89305
G1 X115.470 Y95.561 E10.23634
G1 X116.148 Y96.600 E10.60818
G92 E0
G1 X110.365 Y92.160 F7800.000
G1 X110.365 Y92.160 F7800.000
G1 X110.293 Y91.161 F7800.000
G1 X108.816 Y91.215 F7800.000
G1 X108.643 Y91.228 F7800.000
G1 X107.271 Y91.389 F7800.000
G1 X107.042 Y91.427 F7800.000
G1 X105.734 Y91.705 F7800.000
G1 X105.426 Y91.787 F7800.000
G1 X104.158 Y92.188 F7800.000
G1 X103.732 Y92.347 F7800.000
G1 X102.480 Y92.889 F7800.000
G1 X101.909 Y93.171 F7800.000
G1 X100.975 Y93.690 F7800.000
G1 X100.947 Y93.648 F7800.000
G1 X97.708 Y91.256 F7800.000
G1 X95.593 Y91.256 F7800.000
G1 X94.095 Y91.768 F7800.000
G1 X91.578 Y93.488 F7800.000
G1 X93.852 Y96.816 F7800.000
G1 X88.388 Y100.633 F7800.000
G1 X86.011 Y97.168 E1.25890 F600.000
G1 X84.086 Y92.352 E2.81311
G92 E0
G1 X94.772 Y94.457 F7800.000
G1 X94.119 Y98.774 E1.30813 F600.000
G1 X91.935 Y104.320 E3.09418
G1 X91.227 Y106.245 E3.70872
G1 X90.959 Y106.723 E3.87304
G1 X90.416 Y106.810 E4.03792
G1 X89.846 Y106.736 E4.21016
G1 X89.552 Y106.225 E4.38676
G1 X88.636 Y103.781 E5.16887
G1 X86.649 Y98.775 E6.78269
G1 X86.512 Y97.900 E7.04820
G1 X86.909 Y97.746 E7.17570
G1 X87.536 Y97.624 E7.36708
G1 X93.236 Y97.624 E9.07506
G1 X93.852 Y97.741 E9.26297
G1 X94.252 Y97.894 E9.39110
G1 X94.747 Y97.165 E9.65512
G1 X96.649 Y92.352 E11.20582
G92 E0
G1 Z0.900 F7800.000
G1 X115.975 Y103.783 F7800.000
G1 X115.218 Y104.879 E0.39909 F600.000
G1 X114.754 Y105.424 E0.61329
G1 X114.630 Y105.540 E0.66423
G1 X113.953 Y106.059 E0.91981
G1 X113.561 Y106.278 E1.05466
G1 X112.964 Y106.551 E1.25121
G1 X112.551 Y106.685 E1.38130
G1 X111.765 Y106.874 E1.62348
G1 X111.470 Y106.915 E1.71288
G1 X110.370 Y106.992 E2.04329
G1 X108.708 Y106.811 E2.54418
G1 X108.396 Y106.749 E2.63946
G1 X107.145 Y106.256 E3.04241
G1 X106.828 Y106.095 E3.14887
G1 X105.795 Y105.260 E3.54707
G1 X105.602 Y105.081 E3.62575
G1 X104.775 Y103.857 E4.06830
G1 X104.706 Y103.747 E4.10739
G1 X104.656 Y103.614 E4.14996
G1 X104.153 Y102.094 E4.62983
G1 X103.956 Y100.047 E5.24586
G1 X104.063 Y98.660 E5.66271
G1 X104.177 Y97.996 E5.86470
G1 X104.331 Y97.420 E6.04323
G1 X104.732 Y96.325 E6.39259
G1 X105.313 Y95.408 E6.71790
G1 X105.626 Y95.010 E6.86979
G1 X106.000 Y94.624 E7.03067
G1 X106.843 Y93.966 E7.35122
G1 X107.209 Y93.761 E7.47683
G1 X107.859 Y93.477 E7.68949
G1 X108.559 Y93.246 E7.91035
G1 X109.027 Y93.144 E8.05387
G1 X110.362 Y93.015 E8.45568
G1 X110.611 Y93.029 E8.53032
G1 X111.661 Y93.164 E8.84758
G1 X112.581 Y93.364 E9.12967
G1 X112.834 Y93.440 E9.20885
G1 X113.841 Y94.003 E9.55476
G1 X114.545 Y94.496 E9.81219
G1 X114.754 Y94.666 E9.89305
G1 X115.470 Y95.561 E10.23634
G1 X116.148 Y96.600 E10.60818
G92 E0
G1 X110.365 Y92.160 F7800.000
G1 X110.365 Y92.160 F7800.000
G1 X110.293 Y91.161 F7800.000
G1 X108.816 Y91.215 F7800.000
G1 X108.643 Y91.228 F7800.000
G1 X107.271 Y91.389 F7800.000
G1 X107.042 Y91.427 F7800.000
G1 X105.734 Y91.705 F7800.000
G1 X105.426 Y91.787 F7800.000
G1 X104.158 Y92.188 F7800.000
G1 X103.732 Y92.347 F7800.000
G1 X102.480 Y92.889 F7800.000
G1 X101.909 Y93.171 F7800.000
G1 X100.975 Y93.690 F7800.000
G1 X100.947 Y93.648 F7800.000
G1 X97.708 Y91.256 F7800.000
G1 X95.593 Y91.256 F7800.000
G1 X94.095 Y91.768 F7800.000
G1 X91.578 Y93.488 F7800.000
G1 X93.852 Y96.816 F7800.000
G1 X88.388 Y100.633 F7800.000
G1 X86.011 Y97.168 E1.25890 F600.000
G1 X84.086 Y92.352 E2.81311
G92 E0
G1 X94.772 Y94.457 F7800.000
G1 X94.119 Y98.774 E1.30813 F600.000
G1 X91.935 Y104.320 E3.09418
G1 X91.227 Y106.245 E3.70872
G1 X90.959 Y106.723 E3.87304
G1 X90.416 Y106.810 E4.03792
G1 X89.846 Y106.736 E4.21016
G1 X89.552 Y106.225 E4.38676
G1 X88.636 Y103.781 E5.16887
G1 X86.649 Y98.775 E6.78268
G1 X86.512 Y97.900 E7.04820
G1 X86.909 Y97.746 E7.17570
G1 X87.536 Y97.624 E7.36708
G1 X93.236 Y97.624 E9.07506
G1 X93.852 Y97.741 E9.26297
G1 X94.252 Y97.894 E9.39110
G1 X94.747 Y97.165 E9.65512
G1 X96.649 Y92.352 E11.20582
G92 E0
G1 Z1.200 F7800.000
G1 X115.975 Y103.783 F7800.000
G1 X115.218 Y104.879 E0.39909 F600.000
G1 X114.754 Y105.424 E0.61329
G1 X114.630 Y105.540 E0.66423
G1 X113.953 Y106.059 E0.91981
G1 X113.561 Y106.278 E1.05466
G1 X112.964 Y106.551 E1.25121
G1 X112.551 Y106.685 E1.38131
G1 X111.765 Y106.874 E1.62348
G1 X111.470 Y106.915 E1.71288
G1 X110.370 Y106.992 E2.04329
G1 X108.708 Y106.811 E2.54418
