; generated by Slic3r 1.2.9 on 2016-03-11 at 01:22:09

; external perimeters extrusion width = 1.54mm
; perimeters extrusion width = 2.62mm
; infill extrusion width = 6.27mm
; solid infill extrusion width = 2.62mm
; top infill extrusion width = 2.62mm

M107
M104 S30 ; set temperature
G28 ; home all axes
G1 Z5 F5000 ; lift nozzle
M302
M92 E10000
M500
M501
G1 E100
M109 S30 ; wait for temperature to be reached
G21 ; set units to millimeters
G90 ; use absolute coordinates
M82 ; use absolute distances for extrusion
G92 E0
G1 Z0.300 F7800.000
G1 X110.597 Y92.664 F7800.000
G1 X110.727 Y92.673 E0.00587 F378.000
G1 X110.815 Y92.680 E0.00987 F378.000
G1 X112.080 Y92.986 E0.06879
G1 X113.230 Y93.493 E0.12565
G1 X114.238 Y94.190 E0.18111
G1 X115.080 Y95.065 E0.23604
G1 X115.758 Y96.120 E0.29280
G1 X116.256 Y97.333 E0.35210
G1 X116.555 Y98.678 E0.41445
G1 X116.655 Y100.153 E0.48135
G1 X116.426 Y102.317 E0.57985
G1 X115.744 Y104.105 E0.66641
G1 X114.614 Y105.532 E0.74880
G1 X113.063 Y106.578 E0.83342
G1 X111.117 Y107.210 E0.92601
G1 X108.757 Y107.423 E1.03323
G1 X103.931 Y107.423 E1.25159
G1 X103.931 Y92.577 E1.92337
G1 X109.422 Y92.577 E2.17182
G1 X110.367 Y92.647 E2.21468
G1 X110.274 Y93.868 F7800.000
G1 X111.330 Y94.126 E2.26388 F378.000
G1 X112.266 Y94.553 E2.31044
G1 X113.088 Y95.145 E2.35625
G1 X113.772 Y95.887 E2.40195
G1 X114.317 Y96.778 E2.44918
G1 X114.711 Y97.796 E2.49859
G1 X114.947 Y98.923 E2.55068
G1 X115.025 Y100.161 E2.60682
G1 X114.847 Y101.954 E2.68834
G1 X114.306 Y103.459 E2.76070
G1 X113.397 Y104.660 E2.82888
G1 X112.146 Y105.529 E2.89780
G1 X110.585 Y106.045 E2.97218
G1 X108.734 Y106.214 E3.05631
G1 X105.552 Y106.214 E3.20026
G1 X105.552 Y93.786 E3.76261
G1 X109.199 Y93.786 E3.92762 F378.000
G1 X110.044 Y93.850 E3.96595
G1 X111.245 Y93.849 F7800.000
G1 X110.268 Y92.872 E4.02859 F540.000
G1 X109.678 Y92.829 E4.05545
G1 X110.516 Y93.667 E4.10925
G1 X109.909 Y93.607 E4.13692
G1 X109.105 Y92.803 E4.18851
G1 X108.558 Y92.803 E4.21332
G1 X109.317 Y93.562 E4.26202
G1 X108.769 Y93.560 E4.28692
G1 X108.012 Y92.803 E4.33550
G1 X107.465 Y92.803 E4.36031
G1 X108.222 Y93.560 E4.40889
G1 X107.675 Y93.560 E4.43370
G1 X106.918 Y92.803 E4.48227
G1 X106.371 Y92.803 E4.50708
G1 X107.128 Y93.560 E4.55566
G1 X106.581 Y93.560 E4.58047
G1 X105.824 Y92.803 E4.62905
G1 X105.278 Y92.803 E4.65386
G1 X106.035 Y93.560 E4.70244
G1 X105.488 Y93.560 E4.72725
G1 X104.731 Y92.803 E4.77583
G1 X104.191 Y92.810 E4.80033
G1 X105.326 Y93.945 E4.87321
G1 X105.326 Y94.492 E4.89802
G1 X104.157 Y93.323 E4.97303
G1 X104.157 Y93.870 E4.99784
G1 X105.326 Y95.039 E5.07286
G1 X105.326 Y95.586 E5.09767
G1 X104.157 Y94.417 E5.17268
G1 X104.157 Y94.964 E5.19749
G1 X105.326 Y96.133 E5.27250
G1 X105.326 Y96.679 E5.29731
G1 X104.157 Y95.510 E5.37233
G1 X104.157 Y96.057 E5.39714
G1 X105.326 Y97.226 E5.47215
G1 X105.326 Y97.773 E5.49696
G1 X104.157 Y96.604 E5.57197
G1 X104.157 Y97.151 E5.59678
G1 X105.326 Y98.320 E5.67180
G1 X105.326 Y98.867 E5.69661
G1 X104.157 Y97.698 E5.77162
G1 X104.157 Y98.244 E5.79643
G1 X105.326 Y99.414 E5.87144
G1 X105.326 Y99.960 E5.89625
G1 X104.157 Y98.791 E5.97127
G1 X104.157 Y99.338 E5.99608
G1 X105.326 Y100.507 E6.07109
G1 X105.326 Y101.054 E6.09590
G1 X104.157 Y99.885 E6.17091
G1 X104.157 Y100.432 E6.19572
G1 X105.326 Y101.601 E6.27074
G1 X105.326 Y102.148 E6.29555
G1 X104.157 Y100.978 E6.37056
G1 X104.157 Y101.525 E6.39537
G1 X105.326 Y102.694 E6.47038
G1 X105.326 Y103.241 E6.49519
G1 X104.157 Y102.072 E6.57021
G1 X104.157 Y102.619 E6.59502
G1 X105.326 Y103.788 E6.67003
G1 X105.326 Y104.335 E6.69484
G1 X104.157 Y103.166 E6.76985
G1 X104.157 Y103.713 E6.79466
G1 X105.326 Y104.882 E6.86968
G1 X105.326 Y105.428 E6.89449
G1 X104.157 Y104.259 E6.96950
G1 X104.157 Y104.806 E6.99431
G1 X105.326 Y105.975 E7.06932
G1 X105.244 Y106.440 E7.09073
G1 X106.001 Y107.197 E7.13931
G1 X106.548 Y107.197 E7.16412
G1 X105.791 Y106.440 E7.21270
G1 X105.326 Y106.522 E7.23411
G1 X104.157 Y105.353 E7.30912
G1 X104.157 Y105.900 E7.33393
G1 X105.454 Y107.197 E7.41717
G1 X104.908 Y107.197 E7.44198
G1 X104.157 Y106.447 E7.49012
G1 X104.157 Y106.993 E7.51493
G1 X104.361 Y107.197 E7.52800
G1 X106.338 Y106.440 F7800.000
G1 X107.095 Y107.197 E7.57657 F540.000
G1 X107.642 Y107.197 E7.60138
G1 X106.885 Y106.440 E7.64996
G1 X107.431 Y106.440 E7.67477
G1 X108.189 Y107.197 E7.72335
G1 X108.735 Y107.197 E7.74816
G1 X107.978 Y106.440 E7.79674
G1 X108.525 Y106.440 E7.82155
G1 X109.244 Y107.159 E7.86769
G1 X109.746 Y107.114 E7.89054
G1 X109.038 Y106.406 E7.93596
G1 X109.539 Y106.360 E7.95878
G1 X110.247 Y107.068 E8.00423
G1 X110.749 Y107.023 E8.02707
G1 X110.040 Y106.314 E8.07255
G1 X110.541 Y106.269 E8.09537
G1 X111.230 Y106.958 E8.13959
G1 X111.643 Y106.824 E8.15928
G1 X110.956 Y106.137 E8.20332
G1 X111.367 Y106.001 E8.22296
G1 X112.056 Y106.690 E8.26711
G1 X112.468 Y106.556 E8.28680
G1 X111.778 Y105.866 E8.33108
G1 X112.189 Y105.730 E8.35072
G1 X112.881 Y106.421 E8.39511
G1 X113.234 Y106.228 E8.41338
G1 X112.515 Y105.509 E8.45954
G1 X112.838 Y105.285 E8.47737
G1 X113.561 Y106.008 E8.52377
G1 X113.888 Y105.787 E8.54164
G1 X113.161 Y105.061 E8.58828
G1 X113.483 Y104.836 E8.60611
G1 X114.214 Y105.567 E8.65299
G1 X114.517 Y105.323 E8.67063
G1 X113.732 Y104.538 E8.72102
G1 X113.967 Y104.227 E8.73873
G1 X114.768 Y105.027 E8.79008
G1 X115.009 Y104.722 E8.80774
G1 X114.203 Y103.915 E8.85950
G1 X114.438 Y103.604 E8.87721
G1 X115.251 Y104.417 E8.92936
G1 X115.493 Y104.112 E8.94702
G1 X114.606 Y103.225 E9.00393
G1 X114.751 Y102.823 E9.02332
G1 X115.667 Y103.739 E9.08214
G1 X115.818 Y103.344 E9.10136
G1 X114.895 Y102.421 E9.16059
G1 X115.040 Y102.018 E9.17998
G1 X115.969 Y102.948 E9.23961
G1 X116.120 Y102.552 E9.25884
G1 X115.108 Y101.539 E9.32380
G1 X115.157 Y101.042 E9.34648
G1 X116.228 Y102.113 E9.41524
G1 X116.281 Y101.619 E9.43779
G1 X115.206 Y100.544 E9.50675
G1 X115.249 Y100.040 E9.52970
G1 X116.333 Y101.125 E9.59927
G1 X116.386 Y100.630 E9.62182
G1 X115.212 Y99.457 E9.69713
G1 X115.175 Y98.873 E9.72367
G1 X116.421 Y100.119 E9.80360
G1 X116.381 Y99.532 E9.83028
G1 X115.044 Y98.195 E9.91605
G1 X114.864 Y97.468 E9.95003
G1 X116.341 Y98.945 E10.04481
G1 X116.213 Y98.270 E10.07600
G1 X114.518 Y96.576 E10.18472
G1 X115.694 Y96.658 F7800.000
G1 X112.496 Y93.460 E10.38989 F540.000
G1 X112.149 Y94.206 F7800.000
G1 X110.897 Y92.954 E10.47020 F540.000
G1 X111.618 Y93.128 E10.50385
G1 X116.056 Y97.566 E10.78860
G1 X114.845 Y95.262 F7800.000
G1 X113.864 Y94.281 E10.85156 F540.000
G92 E0
G1 X103.706 Y92.352 F7800.000
G1 X95.702 Y91.352 F7800.000
G1 X89.221 Y93.584 F7800.000
G1 X87.377 Y96.288 F7800.000
G1 X86.886 Y96.481 F7800.000
G1 X85.774 Y94.262 F7800.000
G1 X86.677 Y96.563 E0.11187 F378.000
G1 X86.864 Y97.041 E0.13508 F378.000
G1 X94.114 Y97.041 E0.46315
G1 X95.855 Y92.577 E0.67996
G1 X97.484 Y92.577 E0.75366
G1 X91.541 Y107.423 E1.47725
G1 X89.492 Y107.423 E1.56999
G1 X83.453 Y92.577 E2.29521
G1 X85.112 Y92.577 E2.37028
G1 X85.689 Y94.047 E2.44174
G1 X87.316 Y98.207 F7800.000
G1 X93.673 Y98.207 E2.72937 F378.000
G1 X91.397 Y104.086 E3.01464
G1 X90.688 Y106.198 E3.11545
G1 X90.289 Y106.197 E3.13350
G1 X89.970 Y105.195 E3.18108
G1 X89.381 Y103.544 E3.26040
G1 X87.400 Y98.422 E3.50889
G1 X87.134 Y98.459 F7800.000
G1 X85.441 Y96.765 E3.61833 F540.000
G1 X86.432 Y96.655 F7800.000
G1 X84.685 Y94.909 E3.73121 F540.000
G1 X84.308 Y93.980 F7800.000
G1 X86.076 Y95.749 E3.84550 F540.000
G1 X85.721 Y94.842 F7800.000
G1 X83.930 Y93.052 E3.96120 F540.000
G1 X84.232 Y92.803 E3.97908
G1 X85.365 Y93.936 E4.05229
G1 X85.009 Y93.029 F7800.000
G1 X84.782 Y92.803 E4.06693 F540.000
G1 X85.063 Y95.837 F7800.000
G1 X87.207 Y97.981 E4.20548 F540.000
G1 X87.758 Y97.981 E4.23065
G1 X87.044 Y97.267 E4.27679
G1 X87.594 Y97.267 E4.30196
G1 X88.308 Y97.981 E4.34810
G1 X88.859 Y97.981 E4.37327
G1 X88.145 Y97.267 E4.41942
G1 X88.696 Y97.267 E4.44458
G1 X89.410 Y97.981 E4.49073
G1 X89.961 Y97.981 E4.51589
G1 X89.246 Y97.267 E4.56204
G1 X89.797 Y97.267 E4.58720
G1 X90.511 Y97.981 E4.63335
G1 X91.062 Y97.981 E4.65851
G1 X90.348 Y97.267 E4.70466
G1 X90.899 Y97.267 E4.72983
G1 X91.613 Y97.981 E4.77597
G1 X92.163 Y97.981 E4.80114
G1 X91.449 Y97.267 E4.84728
G1 X92.000 Y97.267 E4.87245
G1 X92.714 Y97.981 E4.91860
G1 X93.265 Y97.981 E4.94376
G1 X92.551 Y97.267 E4.98991
G92 E0
G1 X87.481 Y99.357 F7800.000
G1 X85.818 Y97.694 E0.10748 F540.000
G1 X86.196 Y98.622 F7800.000
G1 X87.829 Y100.255 E0.21300 F540.000
G1 X86.951 Y100.479 F7800.000
G1 X88.523 Y102.051 E0.31461 F540.000
G1 X87.706 Y102.335 F7800.000
G1 X89.213 Y103.842 E0.41196 F540.000
G1 X88.462 Y104.192 F7800.000
G1 X89.814 Y105.544 E0.49936 F540.000
G1 X89.217 Y106.049 F7800.000
G1 X90.365 Y107.197 E0.57356 F540.000
G1 X90.916 Y107.197 E0.59873
G1 X90.142 Y106.423 E0.64875
G1 X90.694 Y106.424 E0.67397
G1 X91.424 Y107.154 E0.72116
G1 X91.587 Y106.767 E0.74037
G1 X90.932 Y106.112 E0.78269
G1 X91.071 Y105.700 E0.80256
G1 X91.745 Y106.374 E0.84610
G1 X91.902 Y105.980 E0.86546
G1 X91.209 Y105.288 E0.91023
G1 X91.348 Y104.875 E0.93010
G1 X92.059 Y105.587 E0.97609
G1 X92.217 Y105.194 E0.99545
G1 X91.486 Y104.463 E1.04266
G1 X91.627 Y104.053 E1.06247
G1 X92.374 Y104.800 E1.11078
G1 X92.532 Y104.407 E1.13013
G1 X91.780 Y103.656 E1.17868
G1 X91.934 Y103.259 E1.19813
G1 X92.689 Y104.014 E1.24692
G1 X92.847 Y103.621 E1.26628
G1 X92.088 Y102.862 E1.31531
G1 X92.242 Y102.465 E1.33476
G1 X93.004 Y103.227 E1.38404
G1 X93.161 Y102.834 E1.40339
G1 X92.395 Y102.068 E1.45291
G1 X92.549 Y101.671 E1.47236
G1 X93.319 Y102.441 E1.52212
G1 X93.476 Y102.047 E1.54148
G1 X92.703 Y101.274 E1.59148
G1 X92.856 Y100.877 E1.61093
G1 X93.634 Y101.654 E1.66117
G1 X93.791 Y101.261 E1.68053
G1 X93.010 Y100.480 E1.73102
G1 X93.164 Y100.083 E1.75047
G1 X93.949 Y100.868 E1.80120
G1 X94.106 Y100.474 E1.82056
G1 X93.317 Y99.686 E1.87153
G1 X93.471 Y99.289 E1.89098
G1 X94.263 Y100.081 E1.94219
G1 X94.421 Y99.688 E1.96155
G1 X93.625 Y98.892 E2.01300
G1 X93.778 Y98.495 E2.03246
G1 X94.578 Y99.294 E2.08416
G1 X94.736 Y98.901 E2.10351
G1 X93.101 Y97.267 E2.20912
G1 X93.652 Y97.267 E2.23429
G1 X94.893 Y98.508 E2.31448
G1 X95.051 Y98.115 E2.33384
G1 X94.203 Y97.267 E2.38862
G1 X94.386 Y96.900 E2.40738
G1 X95.208 Y97.721 E2.46049
G1 X95.365 Y97.328 E2.47984
G1 X94.541 Y96.503 E2.53314
G1 X94.695 Y96.107 E2.55257
G1 X95.523 Y96.935 E2.60605
G1 X95.680 Y96.542 E2.62541
G1 X94.850 Y95.711 E2.67908
G1 X95.004 Y95.315 E2.69851
G1 X95.838 Y96.148 E2.75237
G1 X95.995 Y95.755 E2.77173
G1 X95.159 Y94.919 E2.82578
G1 X95.313 Y94.522 E2.84521
G1 X96.153 Y95.362 E2.89944
G1 X96.310 Y94.968 E2.91880
G1 X95.468 Y94.126 E2.97322
G1 X95.622 Y93.730 E2.99266
G1 X96.467 Y94.575 E3.04727
G1 X96.625 Y94.182 E3.06662
G1 X95.777 Y93.334 E3.12142
G1 X95.931 Y92.938 E3.14086
G1 X96.782 Y93.789 E3.19584
G1 X96.940 Y93.395 E3.21520
G1 X96.348 Y92.803 E3.25347
G1 X96.898 Y92.803 E3.27864
G1 X97.097 Y93.002 E3.29150
G92 E0
G1 X88.176 Y101.153 F7800.000
G1 X86.573 Y99.550 E0.10356 F540.000
G1 X87.329 Y101.407 F7800.000
G1 X88.871 Y102.949 E0.20322 F540.000
G1 X88.084 Y103.264 F7800.000
G1 X89.518 Y104.698 E0.29592 F540.000
G1 X88.839 Y105.120 F7800.000
G1 X90.071 Y106.352 E0.37553 F540.000
G1 X89.594 Y106.977 F7800.000
G1 X89.814 Y107.197 E0.38975 F540.000
M106 S255
G92 E0
G1 Z0.600 F7800.000
G1 X104.815 Y93.461 F7800.000
G1 X105.777 Y93.181 E0.30026 F600.000
G1 X109.253 Y93.183 E1.34183
G1 X110.332 Y93.258 E1.66578
G1 X110.715 Y93.314 E1.78194
G1 X111.465 Y93.498 E2.01328
G1 X111.863 Y93.627 E2.13870
G1 X112.528 Y93.926 E2.35724
G1 X112.880 Y94.118 E2.47721
G1 X113.489 Y94.547 E2.70057
G1 X113.751 Y94.762 E2.80221
G1 X114.470 Y95.547 E3.12096
G1 X115.053 Y96.488 E3.45263
G1 X115.485 Y97.575 E3.80314
G1 X115.749 Y98.794 E4.17696
G1 X115.838 Y100.137 E4.58029
G1 X115.634 Y102.128 E5.17987
G1 X115.052 Y103.711 E5.68534
G1 X114.895 Y103.947 E5.77029
G1 X114.098 Y104.976 E6.16009
G1 X113.767 Y105.257 E6.29026
G1 X112.756 Y105.948 E6.65726
G1 X112.548 Y106.052 E6.72693
G1 X112.316 Y106.147 E6.80220
G1 X110.988 Y106.582 E7.22073
G1 X110.614 Y106.649 E7.33462
G1 X108.730 Y106.818 E7.90156
G1 X105.777 Y106.818 E8.78628
G1 X104.815 Y106.539 E9.08654
G1 X104.742 Y105.989 E9.25290
G1 X104.742 Y94.011 E12.84207
G1 X104.815 Y93.461 E13.00843
G92 E0
G1 X103.706 Y92.352 F7800.000
G1 X97.817 Y91.352 F7800.000
G1 X94.335 Y91.819 F7800.000
G1 X91.752 Y93.584 F7800.000
G1 X93.961 Y96.816 F7800.000
G1 X88.496 Y100.633 F7800.000
G1 X86.120 Y97.168 E1.25890 F600.000
G1 X84.195 Y92.352 E2.81311
G92 E0
G1 X94.881 Y94.457 F7800.000
G1 X94.227 Y98.774 E1.30813 F600.000
G1 X92.044 Y104.320 E3.09418
G1 X91.336 Y106.245 E3.70872
G1 X91.068 Y106.723 E3.87304
G1 X90.524 Y106.810 E4.03792
G1 X89.954 Y106.736 E4.21016
G1 X89.660 Y106.225 E4.38676
G1 X88.744 Y103.781 E5.16887
G1 X86.758 Y98.775 E6.78268
G1 X86.621 Y97.900 E7.04820
G1 X87.018 Y97.746 E7.17570
G1 X87.645 Y97.624 E7.36708
G1 X93.345 Y97.624 E9.07506
G1 X93.961 Y97.741 E9.26297
G1 X94.360 Y97.894 E9.39110
G1 X94.856 Y97.165 E9.65512
G1 X96.757 Y92.352 E11.20582
G92 E0
G1 Z0.900 F7800.000
G1 X104.815 Y93.461 F7800.000
G1 X105.777 Y93.181 E0.30026 F600.000
G1 X109.253 Y93.183 E1.34183
G1 X110.332 Y93.258 E1.66578
G1 X110.715 Y93.314 E1.78193
G1 X111.465 Y93.498 E2.01328
G1 X111.863 Y93.627 E2.13870
G1 X112.528 Y93.926 E2.35724
G1 X112.880 Y94.118 E2.47721
G1 X113.489 Y94.547 E2.70057
G1 X113.751 Y94.762 E2.80221
G1 X114.470 Y95.547 E3.12096
G1 X115.053 Y96.488 E3.45263
G1 X115.485 Y97.575 E3.80314
G1 X115.749 Y98.794 E4.17696
G1 X115.838 Y100.137 E4.58029
G1 X115.634 Y102.128 E5.17987
G1 X115.052 Y103.711 E5.68534
G1 X114.895 Y103.947 E5.77029
G1 X114.098 Y104.976 E6.16009
G1 X113.767 Y105.257 E6.29026
G1 X112.756 Y105.948 E6.65726
G1 X112.548 Y106.052 E6.72693
G1 X112.316 Y106.147 E6.80220
G1 X110.988 Y106.582 E7.22073
G1 X110.614 Y106.649 E7.33462
G1 X108.730 Y106.818 E7.90156
G1 X105.777 Y106.818 E8.78628
G1 X104.815 Y106.539 E9.08654
G1 X104.742 Y105.989 E9.25290
G1 X104.742 Y94.011 E12.84207
G1 X104.815 Y93.461 E13.00843
G92 E0
G1 X103.706 Y92.352 F7800.000
G1 X97.817 Y91.352 F7800.000
G1 X94.335 Y91.819 F7800.000
G1 X91.752 Y93.584 F7800.000
G1 X93.961 Y96.816 F7800.000
G1 X88.496 Y100.633 F7800.000
G1 X86.120 Y97.168 E1.25890 F600.000
G1 X84.195 Y92.352 E2.81311
G92 E0
G1 X94.881 Y94.457 F7800.000
G1 X94.227 Y98.774 E1.30814 F600.000
G1 X92.044 Y104.320 E3.09418
G1 X91.336 Y106.245 E3.70873
G1 X91.068 Y106.723 E3.87305
G1 X90.524 Y106.810 E4.03793
G1 X89.954 Y106.736 E4.21017
G1 X89.660 Y106.225 E4.38676
G1 X88.744 Y103.781 E5.16887
G1 X86.758 Y98.775 E6.78269
G1 X86.621 Y97.900 E7.04820
G1 X87.018 Y97.746 E7.17571
G1 X87.645 Y97.624 E7.36709
G1 X93.345 Y97.624 E9.07507
G1 X93.961 Y97.741 E9.26298
G1 X94.360 Y97.894 E9.39111
G1 X94.856 Y97.165 E9.65512
G1 X96.757 Y92.352 E11.20582
G92 E0
G1 Z1.200 F7800.000
G1 X104.815 Y93.461 F7800.000
G1 X105.777 Y93.181 E0.30026 F600.000
G1 X109.253 Y93.183 E1.34183
G1 X110.332 Y93.258 E1.66578
G1 X110.715 Y93.314 E1.78194
G1 X111.465 Y93.498 E2.01328
G1 X111.863 Y93.627 E2.13870
G1 X112.528 Y93.926 E2.35724
G1 X112.880 Y94.118 E2.47722
G1 X113.489 Y94.547 E2.70057
G1 X113.751 Y94.762 E2.80221
G1 X114.470 Y95.547 E3.12096
G1 X115.053 Y96.488 E3.45263
G1 X115.485 Y97.575 E3.80314
G1 X115.749 Y98.794 E4.17696
G1 X115.838 Y100.137 E4.58029
G1 X115.634 Y102.128 E5.17987
G1 X115.052 Y103.711 E5.68534
G1 X114.895 Y103.947 E5.77029
G1 X114.098 Y104.976 E6.16009
G1 X113.767 Y105.257 E6.29026
G1 X112.756 Y105.948 E6.65726
G1 X112.548 Y106.052 E6.72693
G1 X112.316 Y106.147 E6.80220
G1 X110.988 Y106.582 E7.22073
G1 X110.614 Y106.649 E7.33462
G1 X108.730 Y106.818 E7.90156
G1 X105.777 Y106.818 E8.78628
G1 X104.815 Y106.539 E9.08654
G1 X104.742 Y105.989 E9.25290
G1 X104.742 Y94.011 E12.84207
G1 X104.815 Y93.461 E13.00843
G92 E0
G1 X103.706 Y92.352 F7800.000
G1 X97.817 Y91.352 F7800.000
G1 X94.335 Y91.819 F7800.000
G1 X91.752 Y93.584 F7800.000
G1 X93.961 Y96.816 F7800.000
G1 X88.496 Y100.633 F7800.000
G1 X86.120 Y97.168 E1.25890 F600.000
G1 X84.195 Y92.352 E2.81311
G92 E0
G1 X94.881 Y94.457 F7800.000
G1 X94.227 Y98.774 E1.30813 F600.000
