; generated by Slic3r 1.2.9 on 2016-03-11 at 01:22:12

; external perimeters extrusion width = 1.54mm
; perimeters extrusion width = 2.62mm
; infill extrusion width = 6.27mm
; solid infill extrusion width = 2.62mm
; top infill extrusion width = 2.62mm

M107
M104 S30 ; set temperature
G28 ; home all axes
G1 Z5 F5000 ; lift nozzle
M302
M92 E10000
M500
M501
G1 E100
M109 S30 ; wait for temperature to be reached
G21 ; set units to millimeters
G90 ; use absolute coordinates
M82 ; use absolute distances for extrusion
G92 E0
G1 Z0.300 F7800.000
G1 X114.156 Y105.034 F7800.000
G1 X114.571 Y104.600 E0.02715 F378.000
G1 X114.981 Y103.944 E0.06216
G1 X116.518 Y104.397 E0.13466
G1 X116.020 Y105.266 E0.17998
G1 X115.239 Y106.137 E0.23292
G1 X114.306 Y106.789 E0.28443
G1 X113.187 Y107.245 E0.33911
G1 X111.849 Y107.522 E0.40093
G1 X110.297 Y107.614 E0.47128
G1 X108.114 Y107.393 E0.57056
G1 X106.303 Y106.736 E0.65776
G1 X104.847 Y105.648 E0.74001
G1 X103.777 Y104.161 E0.82289
G1 X103.131 Y102.303 E0.91189
G1 X102.914 Y100.062 E1.01378
G1 X103.013 Y98.552 E1.08224
G1 X103.311 Y97.183 E1.14563
G1 X103.805 Y95.956 E1.20546
G1 X104.484 Y94.893 E1.26255
G1 X105.336 Y94.012 E1.31803
G1 X106.365 Y93.309 E1.37440
G1 X107.557 Y92.797 E1.43311
G1 X108.898 Y92.489 E1.49537
G1 X110.392 Y92.385 E1.56311
G1 X111.605 Y92.454 E1.61811
G1 X112.953 Y92.681 E1.67995 F378.000
G1 X114.132 Y93.048 E1.73585
G1 X115.219 Y93.550 E1.79002
G1 X116.185 Y94.172 E1.84197
G1 X116.966 Y94.857 E1.88901
G1 X116.966 Y99.807 E2.11299
G1 X110.940 Y99.807 E2.38566
G1 X110.940 Y98.522 E2.44381
G1 X115.508 Y98.522 E2.65051
G1 X115.508 Y95.430 E2.79043
G1 X114.822 Y94.866 E2.83061
G1 X114.094 Y94.436 E2.86886
G1 X113.258 Y94.084 E2.90991
G1 X112.346 Y93.824 E2.95283
G1 X111.390 Y93.668 E2.99667
G1 X110.383 Y93.615 E3.04228
G1 X108.711 Y93.806 E3.11846
G1 X107.279 Y94.387 E3.18837
G1 X106.109 Y95.358 E3.25716
G1 X105.248 Y96.660 E3.32777
G1 X104.736 Y98.231 E3.40256
G1 X104.566 Y100.064 E3.48587
G1 X104.726 Y101.895 E3.56900
G1 X105.208 Y103.443 E3.64240
G1 X106.021 Y104.705 E3.71032
G1 X107.147 Y105.636 E3.77644
G1 X108.558 Y106.191 E3.84503
G1 X110.233 Y106.374 E3.92127
G1 X111.341 Y106.306 E3.97152
G1 X112.325 Y106.102 E4.01699
G1 X113.190 Y105.758 E4.05911
G1 X113.939 Y105.261 E4.09979
G1 X113.997 Y105.201 E4.10355
G1 X116.039 Y104.839 F7800.000
G1 X115.585 Y104.385 E4.13279 F540.000
G1 X114.974 Y104.323 E4.16076
G1 X115.835 Y105.184 E4.21622
G1 X115.575 Y105.474 E4.23394
G1 X114.763 Y104.661 E4.28631
G1 X114.502 Y104.950 E4.30402
G1 X115.313 Y105.761 E4.35629
G1 X115.039 Y106.036 E4.37398
G1 X114.234 Y105.230 E4.42586
G1 X113.944 Y105.490 E4.44358
G1 X114.719 Y106.265 E4.49346
G1 X114.395 Y106.490 E4.51143
G1 X113.615 Y105.710 E4.56173
G1 X113.285 Y105.929 E4.57978
G1 X114.037 Y106.681 E4.62827
G1 X113.647 Y106.840 E4.64746
G1 X112.898 Y106.091 E4.69573
G1 X112.505 Y106.248 E4.71499
G1 X113.257 Y106.999 E4.76344
G1 X112.815 Y107.106 E4.78416
G1 X112.078 Y106.369 E4.83168
G1 X111.623 Y106.463 E4.85285
G1 X112.360 Y107.201 E4.90035
G1 X111.905 Y107.295 E4.92152
G1 X111.149 Y106.539 E4.97019
G1 X110.632 Y106.571 E4.99382
G1 X111.389 Y107.328 E5.04257
G1 X110.870 Y107.358 E5.06622
G1 X110.109 Y106.597 E5.11529
G1 X109.493 Y106.530 E5.14353
G1 X110.346 Y107.383 E5.19854
G1 X109.735 Y107.322 E5.22653
G1 X108.876 Y106.463 E5.28187
G1 X108.194 Y106.329 E5.31357
G1 X109.124 Y107.260 E5.37352
G1 X108.513 Y107.198 E5.40151
G1 X107.288 Y105.972 E5.48047
G1 X106.892 Y106.675 F7800.000
G1 X103.875 Y103.657 E5.67488 F540.000
G1 X103.582 Y102.816 F7800.000
G1 X107.753 Y106.987 E5.94366 F540.000
G1 X105.264 Y105.596 F7800.000
G1 X104.914 Y105.246 E5.96623 F540.000
G1 X105.075 Y103.759 F7800.000
G1 X103.340 Y102.024 E6.07804 F540.000
G1 X103.281 Y101.416 E6.10588
G1 X104.777 Y102.912 E6.20227
G1 X104.528 Y102.114 E6.24034
G1 X103.222 Y100.808 E6.32451
G1 X103.163 Y100.200 E6.35235
G1 X104.457 Y101.494 E6.43571
G1 X104.404 Y100.892 E6.46322
G1 X103.162 Y99.650 E6.54324
G1 X103.196 Y99.135 E6.56677
G1 X104.352 Y100.291 E6.64123
G1 X104.374 Y99.764 E6.66524
G1 X103.230 Y98.620 E6.73897
G1 X103.315 Y98.156 E6.76047
G1 X104.421 Y99.261 E6.83173
G1 X104.467 Y98.759 E6.85473
G1 X103.413 Y97.705 E6.92265
G1 X103.511 Y97.254 E6.94368
G1 X104.514 Y98.256 E7.00827
G1 X104.648 Y97.841 E7.02815
G1 X103.661 Y96.854 E7.09174
G1 X103.818 Y96.463 E7.11097
G1 X104.783 Y97.427 E7.17311
G1 X104.918 Y97.013 E7.19295
G1 X103.976 Y96.071 E7.25363
G1 X104.182 Y95.728 E7.27186
G1 X105.054 Y96.600 E7.32807
G1 X105.273 Y96.270 E7.34613
G1 X104.396 Y95.393 E7.40263
G1 X104.610 Y95.058 E7.42075
G1 X105.492 Y95.939 E7.47756
G1 X105.710 Y95.609 E7.49561
G1 X104.875 Y94.774 E7.54943
G1 X105.150 Y94.499 E7.56712
G1 X105.929 Y95.278 E7.61732
G1 X106.218 Y95.018 E7.63504
G1 X105.424 Y94.224 E7.68616
G1 X105.728 Y93.979 E7.70395
G1 X106.518 Y94.769 E7.75483
G1 X106.818 Y94.520 E7.77260
G1 X106.054 Y93.756 E7.82180
G1 X106.381 Y93.534 E7.83980
G1 X107.118 Y94.271 E7.88731
G1 X107.483 Y94.087 E7.90595
G1 X106.756 Y93.359 E7.95284
G1 X107.140 Y93.195 E7.97189
G1 X107.874 Y93.929 E8.01920
G1 X108.265 Y93.770 E8.03841
G1 X107.524 Y93.030 E8.08613
G1 X107.963 Y92.919 E8.10674
G1 X108.655 Y93.612 E8.15136
G1 X109.132 Y93.540 E8.17334
G1 X108.409 Y92.817 E8.21992
G1 X108.856 Y92.714 E8.24080
G1 X109.625 Y93.483 E8.29037
G1 X110.118 Y93.427 E8.31297
G1 X109.368 Y92.677 E8.36128
G1 X109.882 Y92.642 E8.38473
G1 X110.638 Y93.398 E8.43345
G1 X111.217 Y93.428 E8.45988
G1 X110.406 Y92.617 E8.51212
G1 X110.988 Y92.650 E8.53867
G1 X111.835 Y93.497 E8.59324
G1 X112.491 Y93.604 F7800.000
G1 X111.581 Y92.694 E8.65190 F540.000
G1 X113.260 Y93.823 F7800.000
G1 X112.241 Y92.805 E8.71752 F540.000
G1 X112.923 Y92.937 E8.74916
G1 X114.165 Y94.180 E8.82920
G1 X114.680 Y93.597 F7800.000
G1 X116.740 Y95.656 E8.96192 F540.000
G1 X116.740 Y95.107 F7800.000
G1 X116.342 Y94.709 E8.98761 F540.000
G1 X113.721 Y93.186 F7800.000
G1 X116.740 Y96.206 E9.18217 F540.000
G1 X116.740 Y96.755 E9.20719
G1 X115.734 Y95.749 E9.27201
G1 X115.734 Y96.298 E9.29703
G1 X116.740 Y97.304 E9.36186
G1 X116.740 Y97.853 E9.38688
G1 X115.734 Y96.847 E9.45171
G1 X115.734 Y97.396 E9.47673
G1 X116.740 Y98.402 E9.54155
G1 X116.740 Y98.951 E9.56657
G1 X115.734 Y97.945 E9.63140
G1 X115.734 Y98.494 E9.65642
G1 X116.740 Y99.500 E9.72125
G1 X116.272 Y99.581 E9.74290
G1 X115.439 Y98.748 E9.79658
G1 X114.890 Y98.748 E9.82160
G1 X115.723 Y99.581 E9.87528
G1 X115.174 Y99.581 E9.90030
G1 X114.341 Y98.748 E9.95398
G1 X113.791 Y98.748 E9.97900
G1 X114.625 Y99.581 E10.03268
G1 X114.075 Y99.581 E10.05770
G1 X113.242 Y98.748 E10.11138
G1 X112.693 Y98.748 E10.13640
G1 X113.526 Y99.581 E10.19008
G1 X112.977 Y99.581 E10.21510
G1 X112.144 Y98.748 E10.26878
G1 X111.595 Y98.748 E10.29380
G1 X112.428 Y99.581 E10.34748
G1 X111.879 Y99.581 E10.37250
G1 X111.166 Y98.868 E10.41842
G92 E0
G1 X110.715 Y100.032 F7800.000
G1 X117.191 Y102.032 F7800.000
G1 X117.461 Y92.690 F7800.000
G1 X108.626 Y91.226 F7800.000
G1 X101.789 Y93.146 F7800.000
G1 X95.392 Y91.256 F7800.000
G1 X91.377 Y93.488 F7800.000
G1 X93.651 Y96.816 F7800.000
G1 X92.629 Y103.931 F7800.000
G1 X91.231 Y107.423 E0.17022 F378.000
G1 X89.182 Y107.423 E0.26295
G1 X83.143 Y92.577 E0.98818
G1 X84.802 Y92.577 E1.06325
G1 X86.367 Y96.563 E1.25703
G1 X86.554 Y97.041 E1.28024 F378.000
G1 X93.804 Y97.041 E1.60831
G1 X95.545 Y92.577 E1.82512
G1 X97.174 Y92.577 E1.89882
G1 X92.715 Y103.716 E2.44174
G1 X91.424 Y103.216 F7800.000
G1 X91.087 Y104.086 E2.48395 F378.000
G1 X90.378 Y106.198 E2.58476
G1 X89.979 Y106.197 E2.60282
G1 X89.660 Y105.195 E2.65039
G1 X89.071 Y103.544 E2.72971
G1 X87.006 Y98.207 E2.98866
G1 X93.363 Y98.207 E3.27629 F378.000
G1 X91.507 Y103.001 E3.50889
G92 E0
G1 X88.903 Y103.842 F7800.000
G1 X87.396 Y102.335 E0.09735 F540.000
G1 X88.213 Y102.051 F7800.000
G1 X86.641 Y100.479 E0.19896 F540.000
G1 X87.519 Y100.255 F7800.000
G1 X85.886 Y98.622 E0.30448 F540.000
G1 X86.824 Y98.459 F7800.000
G1 X85.131 Y96.765 E0.41392 F540.000
G1 X86.122 Y96.655 F7800.000
G1 X84.375 Y94.909 E0.52680 F540.000
G1 X83.998 Y93.980 F7800.000
G1 X85.766 Y95.749 E0.64109 F540.000
G1 X85.411 Y94.842 F7800.000
G1 X83.620 Y93.052 E0.75679 F540.000
G1 X83.922 Y92.803 E0.77467
G1 X85.055 Y93.936 E0.84788
G1 X84.699 Y93.029 F7800.000
G1 X84.472 Y92.803 E0.86252 F540.000
G1 X84.753 Y95.837 F7800.000
G1 X86.897 Y97.981 E1.00107 F540.000
G1 X87.448 Y97.981 E1.02624
G1 X86.734 Y97.267 E1.07238
G1 X87.284 Y97.267 E1.09755
G1 X87.998 Y97.981 E1.14369
G1 X88.549 Y97.981 E1.16886
G1 X87.835 Y97.267 E1.21501
G1 X88.386 Y97.267 E1.24017
G1 X89.100 Y97.981 E1.28632
G1 X89.651 Y97.981 E1.31148
G1 X88.936 Y97.267 E1.35763
G1 X89.487 Y97.267 E1.38279
G1 X90.201 Y97.981 E1.42894
G1 X90.752 Y97.981 E1.45411
G1 X90.038 Y97.267 E1.50025
G1 X90.589 Y97.267 E1.52542
G1 X91.303 Y97.981 E1.57156
G1 X91.853 Y97.981 E1.59673
G1 X91.139 Y97.267 E1.64288
G1 X91.690 Y97.267 E1.66804
G1 X92.404 Y97.981 E1.71419
G1 X92.955 Y97.981 E1.73935
G1 X92.241 Y97.267 E1.78550
G92 E0
G1 X87.171 Y99.357 F7800.000
G1 X85.508 Y97.694 E0.10748 F540.000
G1 X86.263 Y99.550 F7800.000
G1 X87.866 Y101.153 E0.21104 F540.000
G1 X87.019 Y101.407 F7800.000
G1 X88.561 Y102.949 E0.31069 F540.000
G1 X87.774 Y103.264 F7800.000
G1 X89.208 Y104.698 E0.40340 F540.000
G1 X88.529 Y105.120 F7800.000
G1 X89.761 Y106.352 E0.48301 F540.000
G1 X89.284 Y106.977 F7800.000
G1 X89.504 Y107.197 E0.49722 F540.000
G1 X88.907 Y106.049 F7800.000
G1 X90.055 Y107.197 E0.57143 F540.000
G1 X90.606 Y107.197 E0.59659
G1 X89.832 Y106.423 E0.64662
G1 X90.384 Y106.424 E0.67184
G1 X91.114 Y107.154 E0.71903
G1 X91.277 Y106.767 E0.73824
G1 X90.622 Y106.112 E0.78056
G1 X90.761 Y105.700 E0.80043
G1 X91.435 Y106.374 E0.84397
G1 X91.592 Y105.980 E0.86333
G1 X90.899 Y105.288 E0.90809
G1 X91.038 Y104.875 E0.92797
G1 X91.749 Y105.587 E0.97396
G1 X91.907 Y105.194 E0.99331
G1 X91.176 Y104.463 E1.04053
G1 X91.317 Y104.053 E1.06034
G1 X92.064 Y104.800 E1.10864
G1 X92.222 Y104.407 E1.12800
G1 X91.470 Y103.656 E1.17655
G1 X91.624 Y103.259 E1.19600
G1 X92.379 Y104.014 E1.24479
G1 X92.537 Y103.621 E1.26415
G1 X91.778 Y102.862 E1.31318
G1 X91.932 Y102.465 E1.33263
G1 X92.694 Y103.227 E1.38190
G1 X92.851 Y102.834 E1.40126
G1 X92.085 Y102.068 E1.45078
G1 X92.239 Y101.671 E1.47023
G1 X93.009 Y102.441 E1.51999
G1 X93.166 Y102.047 E1.53935
G1 X92.393 Y101.274 E1.58935
G1 X92.546 Y100.877 E1.60880
G1 X93.324 Y101.654 E1.65904
G1 X93.481 Y101.261 E1.67840
G1 X92.700 Y100.480 E1.72888
G1 X92.854 Y100.083 E1.74834
G1 X93.639 Y100.868 E1.79907
G1 X93.796 Y100.474 E1.81842
G1 X93.007 Y99.686 E1.86939
G1 X93.161 Y99.289 E1.88885
G1 X93.953 Y100.081 E1.94006
G1 X94.111 Y99.688 E1.95942
G1 X93.315 Y98.892 E2.01087
G1 X93.468 Y98.494 E2.03033
G1 X94.268 Y99.294 E2.08202
G1 X94.426 Y98.901 E2.10138
G1 X92.791 Y97.267 E2.20699
G1 X93.342 Y97.267 E2.23215
G1 X94.583 Y98.508 E2.31235
G1 X94.741 Y98.115 E2.33171
G1 X93.893 Y97.267 E2.38649
G1 X94.076 Y96.900 E2.40525
G1 X94.898 Y97.721 E2.45835
G1 X95.055 Y97.328 E2.47771
G1 X94.231 Y96.503 E2.53101
G1 X94.385 Y96.107 E2.55044
G1 X95.213 Y96.935 E2.60392
G1 X95.370 Y96.541 E2.62328
G1 X94.540 Y95.711 E2.67695
G1 X94.694 Y95.315 E2.69638
G1 X95.528 Y96.148 E2.75024
G1 X95.685 Y95.755 E2.76960
G1 X94.849 Y94.919 E2.82364
G1 X95.003 Y94.522 E2.84308
G1 X95.843 Y95.362 E2.89731
G1 X96.000 Y94.968 E2.91667
G1 X95.158 Y94.126 E2.97109
G1 X95.312 Y93.730 E2.99052
G1 X96.157 Y94.575 E3.04513
G1 X96.315 Y94.182 E3.06449
G1 X95.467 Y93.334 E3.11929
G1 X95.621 Y92.938 E3.13872
G1 X96.472 Y93.789 E3.19371
G1 X96.630 Y93.395 E3.21307
G1 X96.038 Y92.803 E3.25134
G1 X96.588 Y92.803 E3.27651
G1 X96.787 Y93.002 E3.28937
G92 E0
G1 X88.152 Y104.192 F7800.000
G1 X89.504 Y105.544 E0.08739 F540.000
M106 S255
G92 E0
G1 Z0.600 F7800.000
G1 X115.977 Y104.003 F7800.000
G1 X115.235 Y104.989 E0.36957 F600.000
G1 X114.724 Y105.556 E0.59839
G1 X114.323 Y105.884 E0.75356
G1 X113.952 Y106.138 E0.88842
G1 X113.422 Y106.406 E1.06625
G1 X112.985 Y106.582 E1.20747
G1 X112.437 Y106.740 E1.37827
G1 X111.764 Y106.879 E1.58435
G1 X111.484 Y106.916 E1.66890
G1 X110.290 Y106.991 E2.02749
G1 X108.521 Y106.811 E2.56033
G1 X108.258 Y106.763 E2.64033
G1 X106.939 Y106.264 E3.06305
G1 X106.637 Y106.117 E3.16361
G1 X105.584 Y105.289 E3.56494
G1 X105.390 Y105.114 E3.64319
G1 X104.492 Y103.789 E4.12279
G1 X103.950 Y102.162 E4.63678
G1 X103.913 Y101.941 E4.70387
G1 X103.742 Y100.049 E5.27317
G1 X103.850 Y98.670 E5.68762
G1 X103.925 Y98.181 E5.83570
G1 X104.115 Y97.430 E6.06785
G1 X104.476 Y96.440 E6.38377
G1 X104.600 Y96.194 E6.46616
G1 X105.119 Y95.395 E6.75190
G1 X105.461 Y94.969 E6.91533
G1 X105.831 Y94.598 E7.07241
G1 X106.809 Y93.875 E7.43686
G1 X107.057 Y93.748 E7.52046
G1 X107.771 Y93.450 E7.75213
G1 X108.446 Y93.237 E7.96441
G1 X108.993 Y93.127 E8.13160
G1 X110.396 Y93.001 E8.55356
G1 X111.409 Y93.056 E8.85770
G1 X112.432 Y93.214 E9.16790
G1 X112.802 Y93.296 E9.28139
G1 X113.514 Y93.512 E9.50421
G1 X113.900 Y93.653 E9.62731
G1 X114.328 Y93.842 E9.76761
G1 X114.897 Y94.136 E9.95966
G1 X115.257 Y94.364 E10.08735
G1 X115.869 Y94.823 E10.31655
G1 X116.208 Y95.201 E10.46853
G1 X116.237 Y95.536 E10.56936
G1 X116.237 Y98.297 E11.39669
G1 X116.121 Y98.962 E11.59898
G1 X115.283 Y99.164 E11.85733
G1 X110.715 Y99.164 E13.22611
G92 E0
G1 X110.715 Y100.032 F7800.000
G1 X118.191 Y100.032 F7800.000
G1 X117.329 Y92.426 F7800.000
G1 X108.626 Y91.226 F7800.000
G1 X101.789 Y93.146 F7800.000
G1 X95.392 Y91.256 F7800.000
G1 X91.377 Y93.488 F7800.000
G1 X93.651 Y96.816 F7800.000
G1 X88.186 Y100.633 F7800.000
G1 X85.810 Y97.168 E1.25890 F600.000
G1 X83.885 Y92.352 E2.81311
G92 E0
G1 X94.571 Y94.457 F7800.000
G1 X93.917 Y98.774 E1.30813 F600.000
G1 X91.734 Y104.320 E3.09418
G1 X91.026 Y106.245 E3.70872
G1 X90.758 Y106.723 E3.87304
G1 X90.214 Y106.810 E4.03792
G1 X89.644 Y106.736 E4.21016
G1 X89.350 Y106.225 E4.38676
G1 X88.434 Y103.781 E5.16887
G1 X86.448 Y98.775 E6.78269
G1 X86.311 Y97.900 E7.04820
G1 X86.708 Y97.746 E7.17570
G1 X87.335 Y97.624 E7.36708
G1 X93.035 Y97.624 E9.07506
G1 X93.651 Y97.741 E9.26297
G1 X94.050 Y97.894 E9.39110
G1 X94.546 Y97.165 E9.65512
G1 X96.447 Y92.352 E11.20582
G92 E0
G1 Z0.900 F7800.000
G1 X115.977 Y104.003 F7800.000
G1 X115.235 Y104.989 E0.36957 F600.000
G1 X114.724 Y105.556 E0.59839
G1 X114.323 Y105.884 E0.75356
G1 X113.952 Y106.138 E0.88842
G1 X113.422 Y106.406 E1.06625
G1 X112.985 Y106.582 E1.20747
G1 X112.437 Y106.740 E1.37827
G1 X111.764 Y106.879 E1.58435
G1 X111.484 Y106.916 E1.66889
G1 X110.290 Y106.991 E2.02749
G1 X108.521 Y106.811 E2.56033
G1 X108.258 Y106.763 E2.64033
G1 X106.939 Y106.264 E3.06305
G1 X106.637 Y106.117 E3.16361
G1 X105.584 Y105.289 E3.56494
G1 X105.390 Y105.114 E3.64319
G1 X104.492 Y103.789 E4.12279
G1 X103.950 Y102.162 E4.63677
G1 X103.913 Y101.941 E4.70387
G1 X103.742 Y100.049 E5.27317
G1 X103.850 Y98.670 E5.68762
G1 X103.925 Y98.181 E5.83570
G1 X104.115 Y97.430 E6.06785
G1 X104.476 Y96.440 E6.38377
G1 X104.600 Y96.194 E6.46616
G1 X105.119 Y95.395 E6.75190
G1 X105.461 Y94.969 E6.91533
G1 X105.831 Y94.598 E7.07241
G1 X106.809 Y93.875 E7.43686
G1 X107.057 Y93.748 E7.52046
G1 X107.771 Y93.450 E7.75212
G1 X108.446 Y93.237 E7.96441
G1 X108.993 Y93.127 E8.13160
G1 X110.396 Y93.001 E8.55356
G1 X111.409 Y93.056 E8.85770
G1 X112.432 Y93.214 E9.16790
G1 X112.802 Y93.296 E9.28139
G1 X113.514 Y93.512 E9.50421
G1 X113.900 Y93.653 E9.62731
G1 X114.328 Y93.842 E9.76761
G1 X114.897 Y94.136 E9.95966
G1 X115.257 Y94.364 E10.08735
G1 X115.869 Y94.823 E10.31655
G1 X116.208 Y95.201 E10.46853
G1 X116.237 Y95.536 E10.56936
G1 X116.237 Y98.297 E11.39669
G1 X116.121 Y98.962 E11.59898
G1 X115.283 Y99.164 E11.85733
G1 X110.715 Y99.164 E13.22611
G92 E0
G1 X110.715 Y100.032 F7800.000
G1 X118.191 Y100.032 F7800.000
G1 X117.329 Y92.426 F7800.000
G1 X108.626 Y91.226 F7800.000
G1 X101.789 Y93.146 F7800.000
G1 X95.392 Y91.256 F7800.000
G1 X91.377 Y93.488 F7800.000
G1 X93.651 Y96.816 F7800.000
G1 X88.186 Y100.633 F7800.000
G1 X85.810 Y97.168 E1.25890 F600.000
G1 X83.885 Y92.352 E2.81311
G92 E0
G1 X94.571 Y94.457 F7800.000
G1 X93.917 Y98.774 E1.30813 F600.000
