; generated by Slic3r 1.2.9 on 2016-03-11 at 01:22:15

; external perimeters extrusion width = 1.54mm
; perimeters extrusion width = 2.62mm
; infill extrusion width = 6.27mm
; solid infill extrusion width = 2.62mm
; top infill extrusion width = 2.62mm

M107
M104 S30 ; set temperature
G28 ; home all axes
G1 Z5 F5000 ; lift nozzle
M302
M92 E10000
M500
M501
G1 E100
M109 S30 ; wait for temperature to be reached
G21 ; set units to millimeters
G90 ; use absolute coordinates
M82 ; use absolute distances for extrusion
G92 E0
G1 Z0.300 F7800.000
G1 X112.287 Y100.848 F7800.000
G1 X112.287 Y96.973 E0.17533 F378.000
G1 X112.212 Y96.025 E0.21837
G1 X111.979 Y95.217 E0.25639
G1 X111.582 Y94.566 E0.29092
G1 X111.041 Y94.089 E0.32356
G1 X110.383 Y93.804 E0.35601
G1 X109.621 Y93.710 E0.39073
G1 X108.912 Y93.796 E0.42306
G1 X108.280 Y94.055 E0.45395
G1 X107.736 Y94.484 E0.48533
G1 X107.300 Y95.060 E0.51799
G1 X106.987 Y95.757 E0.55259
G1 X106.845 Y96.352 E0.58024
G1 X105.295 Y96.095 E0.65137
G1 X106.016 Y94.173 E0.74423
G1 X107.468 Y92.911 E0.83131
G1 X109.620 Y92.483 E0.93056
G1 X110.788 Y92.611 E0.98374
G1 X110.857 Y92.618 E0.98685 F378.000
G1 X111.900 Y93.020 E1.03743
G1 X112.751 Y93.686 E1.08633
G1 X113.384 Y94.587 E1.13618
G1 X113.767 Y95.697 E1.18932
G1 X113.898 Y97.036 E1.25019
G1 X113.898 Y107.519 E1.72454
G1 X109.335 Y107.519 E1.93101
G1 X109.335 Y106.277 E1.98721
G1 X112.287 Y106.277 E2.12078
G1 X112.287 Y101.079 E2.35600
G1 X112.513 Y106.149 F7800.000
G1 X113.644 Y107.281 E2.42983 F540.000
G1 X113.672 Y106.752 E2.45424
G1 X112.513 Y105.593 E2.52987
G1 X112.513 Y105.037 E2.55553
G1 X113.672 Y106.196 E2.63116
G1 X113.672 Y105.640 E2.65681
G1 X112.513 Y104.481 E2.73244
G1 X112.513 Y103.925 E2.75809
G1 X113.672 Y105.084 E2.83372
G1 X113.672 Y104.528 E2.85938
G1 X112.513 Y103.369 E2.93501
G1 X112.513 Y102.813 E2.96066
G1 X113.672 Y103.972 E3.03629
G1 X113.672 Y103.416 E3.06194
G1 X112.513 Y102.257 E3.13757
G1 X112.513 Y101.701 E3.16323
G1 X113.672 Y102.860 E3.23886
G1 X113.672 Y102.304 E3.26451
G1 X112.513 Y101.145 E3.34014
G1 X112.513 Y100.589 E3.36579
G1 X113.672 Y101.748 E3.44142
G1 X113.672 Y101.192 E3.46708
G1 X112.513 Y100.033 E3.54271
G1 X112.513 Y99.476 E3.56836
G1 X113.672 Y100.636 E3.64399
G1 X113.672 Y100.080 E3.66965
G1 X112.513 Y98.920 E3.74527
G1 X112.513 Y98.364 E3.77093
G1 X113.672 Y99.523 E3.84656
G1 X113.672 Y98.967 E3.87221
G1 X112.513 Y97.808 E3.94784
G1 X112.513 Y97.252 E3.97350
G1 X113.672 Y98.411 E4.04912
G1 X113.672 Y97.855 E4.07478
G1 X112.497 Y96.680 E4.15144
G1 X112.449 Y96.076 E4.17939
G1 X113.672 Y97.299 E4.25917
G1 X113.630 Y96.701 E4.28683
G1 X112.279 Y95.351 E4.37494
G1 X112.674 Y94.078 F7800.000
G1 X112.312 Y93.715 E4.39859 F540.000
G1 X110.989 Y92.949 F7800.000
G1 X113.367 Y95.326 E4.55374 F540.000
G1 X113.570 Y96.085 E4.58997
G1 X110.276 Y92.791 E4.80486
G1 X109.652 Y92.724 E4.83381
G1 X110.510 Y93.581 E4.88976
G1 X109.876 Y93.503 E4.91922
G1 X109.163 Y92.790 E4.96576
G1 X108.699 Y92.882 E4.98757
G1 X109.342 Y93.526 E5.02955
G1 X108.860 Y93.600 E5.05205
G1 X108.235 Y92.975 E5.09283
G1 X107.771 Y93.067 E5.11465
G1 X108.466 Y93.761 E5.15996
G1 X108.100 Y93.951 E5.17899
G1 X107.386 Y93.238 E5.22555
G1 X107.089 Y93.496 E5.24373
G1 X107.789 Y94.197 E5.28943
G1 X107.505 Y94.469 E5.30758
G1 X106.791 Y93.755 E5.35417
G1 X106.493 Y94.013 E5.37236
G1 X107.266 Y94.785 E5.42273
G1 X107.051 Y95.127 E5.44134
G1 X106.210 Y94.286 E5.49621
G1 X106.044 Y94.675 E5.51575
G1 X106.879 Y95.511 E5.57025
G1 X106.733 Y95.921 E5.59033
G1 X105.892 Y95.080 E5.64521
G1 X105.740 Y95.484 E5.66513
G1 X106.268 Y96.012 E5.69961
G92 E0
G1 X113.062 Y96.942 F7800.000
G1 X113.086 Y96.942 F7800.000
G1 X113.092 Y106.713 F7800.000
G1 X113.062 Y106.744 F7800.000
G1 X109.764 Y107.293 F7800.000
G1 X109.561 Y107.089 E0.01328 F540.000
G1 X109.561 Y106.533 E0.03894
G1 X110.320 Y107.293 E0.08850
G1 X110.876 Y107.293 E0.11416
G1 X110.086 Y106.503 E0.16571
G1 X110.642 Y106.503 E0.19136
G1 X111.432 Y107.293 E0.24292
G1 X111.989 Y107.293 E0.26857
G1 X111.198 Y106.503 E0.32012
G1 X111.755 Y106.503 E0.34578
G1 X112.545 Y107.293 E0.39733
G1 X113.101 Y107.293 E0.42298
G1 X112.311 Y106.503 E0.47454
G92 E0
G1 X109.110 Y106.052 F7800.000
G1 X103.117 Y93.465 F7800.000
G1 X98.460 Y91.352 F7800.000
G1 X94.445 Y93.584 F7800.000
G1 X96.719 Y96.912 F7800.000
G1 X97.956 Y94.359 F7800.000
G1 X98.614 Y92.673 E0.08188 F378.000
G1 X100.243 Y92.673 E0.15558
G1 X94.300 Y107.519 E0.87918
G1 X92.251 Y107.519 E0.97191
G1 X86.212 Y92.673 E1.69713
G1 X87.871 Y92.673 E1.77221
G1 X89.435 Y96.659 E1.96598
G1 X89.623 Y97.137 E1.98920 F378.000
G1 X96.873 Y97.137 E2.31726
G1 X97.873 Y94.574 E2.44174
G1 X96.432 Y98.303 F7800.000
G1 X94.156 Y104.182 E2.72701 F378.000
G1 X93.447 Y106.294 E2.82781
G1 X93.047 Y106.293 E2.84587
G1 X92.728 Y105.291 E2.89345
G1 X92.139 Y103.640 E2.97276
G1 X90.075 Y98.303 E3.23171
G1 X96.201 Y98.303 E3.50889 F378.000
G1 X95.309 Y97.363 F7800.000
G1 X96.023 Y98.077 E3.55504 F540.000
G1 X95.473 Y98.077 E3.58020
G1 X94.759 Y97.363 E3.62635
G1 X94.208 Y97.363 E3.65151
G1 X94.922 Y98.077 E3.69766
G1 X94.371 Y98.077 E3.72283
G1 X93.657 Y97.363 E3.76897
G1 X93.106 Y97.363 E3.79414
G1 X93.820 Y98.077 E3.84028
G1 X93.270 Y98.077 E3.86545
G1 X92.556 Y97.363 E3.91160
G1 X92.005 Y97.363 E3.93676
G1 X92.719 Y98.077 E3.98291
G1 X92.168 Y98.077 E4.00807
G1 X91.454 Y97.363 E4.05422
G1 X90.904 Y97.363 E4.07938
G1 X91.618 Y98.077 E4.12553
G1 X91.067 Y98.077 E4.15070
G1 X90.353 Y97.363 E4.19684
G1 X89.802 Y97.363 E4.22201
G1 X90.516 Y98.077 E4.26815
G1 X89.965 Y98.077 E4.29332
G1 X87.821 Y95.933 E4.43187
G1 X88.199 Y96.861 F7800.000
G1 X89.893 Y98.555 E4.54131 F540.000
G1 X88.954 Y98.718 F7800.000
G1 X90.587 Y100.351 E4.64683 F540.000
G1 X89.710 Y100.575 F7800.000
G1 X91.282 Y102.147 E4.74844 F540.000
G1 X90.465 Y102.431 F7800.000
G1 X91.971 Y103.938 E4.84579 F540.000
G1 X91.220 Y104.288 F7800.000
G1 X92.572 Y105.640 E4.93318 F540.000
G1 X91.975 Y106.145 F7800.000
G1 X93.124 Y107.293 E5.00739 F540.000
G1 X93.674 Y107.293 E5.03255
G1 X92.900 Y106.519 E5.08258
G1 X93.452 Y106.520 E5.10780
G1 X94.182 Y107.250 E5.15499
G1 X94.346 Y106.863 E5.17420
G1 X93.691 Y106.208 E5.21652
G1 X93.829 Y105.796 E5.23639
G1 X94.503 Y106.470 E5.27993
G1 X94.660 Y106.076 E5.29929
G1 X93.968 Y105.384 E5.34405
G1 X94.106 Y104.971 E5.36392
G1 X94.818 Y105.683 E5.40992
G1 X94.975 Y105.290 E5.42927
G1 X94.245 Y104.559 E5.47649
G1 X94.385 Y104.149 E5.49630
G1 X95.133 Y104.896 E5.54460
G1 X95.290 Y104.503 E5.56396
G1 X94.539 Y103.752 E5.61251
G1 X94.693 Y103.355 E5.63196
G1 X95.448 Y104.110 E5.68075
G1 X95.605 Y103.717 E5.70011
G1 X94.846 Y102.958 E5.74914
G1 X95.000 Y102.561 E5.76859
G1 X95.762 Y103.323 E5.81786
G1 X95.920 Y102.930 E5.83722
G1 X95.154 Y102.164 E5.88674
G1 X95.307 Y101.767 E5.90619
G1 X96.077 Y102.537 E5.95595
G1 X96.235 Y102.143 E5.97530
G1 X95.461 Y101.370 E6.02530
G1 X95.615 Y100.973 E6.04476
G1 X96.392 Y101.750 E6.09500
G1 X96.550 Y101.357 E6.11436
G1 X95.768 Y100.576 E6.16484
G1 X95.922 Y100.179 E6.18430
G1 X96.707 Y100.964 E6.23503
G1 X96.865 Y100.570 E6.25438
G1 X96.076 Y99.782 E6.30535
G1 X96.229 Y99.385 E6.32481
G1 X97.022 Y100.177 E6.37602
G1 X97.179 Y99.784 E6.39538
G1 X96.383 Y98.988 E6.44683
G1 X96.537 Y98.590 E6.46628
G1 X97.337 Y99.390 E6.51798
G1 X97.494 Y98.997 E6.53734
G1 X95.860 Y97.363 E6.64295
G1 X96.411 Y97.363 E6.66811
G1 X97.652 Y98.604 E6.74831
G1 X97.809 Y98.211 E6.76767
G1 X96.961 Y97.363 E6.82245
G1 X97.145 Y96.996 E6.84121
G1 X97.967 Y97.817 E6.89431
G1 X98.124 Y97.424 E6.91367
G1 X97.299 Y96.599 E6.96696
G1 X97.454 Y96.203 E6.98640
G1 X98.281 Y97.031 E7.03988
G1 X98.439 Y96.637 E7.05924
G1 X97.608 Y95.807 E7.11291
G1 X97.763 Y95.411 E7.13234
G1 X98.596 Y96.244 E7.18620
G1 X98.754 Y95.851 E7.20555
G1 X97.917 Y95.015 E7.25960
G1 X98.072 Y94.618 E7.27903
G1 X98.911 Y95.458 E7.33327
G1 X99.069 Y95.064 E7.35263
G1 X98.226 Y94.222 E7.40705
G1 X98.381 Y93.826 E7.42648
G1 X99.226 Y94.671 E7.48109
G1 X99.383 Y94.278 E7.50045
G1 X98.535 Y93.430 E7.55525
G1 X98.690 Y93.034 E7.57468
G1 X99.541 Y93.885 E7.62967
G1 X99.698 Y93.491 E7.64903
G1 X99.106 Y92.899 E7.68730
G1 X99.657 Y92.899 E7.71246
G1 X99.856 Y93.098 E7.72532
G92 E0
G1 X89.191 Y96.751 F7800.000
G1 X87.444 Y95.005 E0.11288 F540.000
G1 X87.066 Y94.076 F7800.000
G1 X88.835 Y95.845 E0.22717 F540.000
G1 X88.479 Y94.938 F7800.000
G1 X86.689 Y93.148 E0.34287 F540.000
G1 X86.990 Y92.899 E0.36075
G1 X88.123 Y94.032 E0.43396
G1 X87.767 Y93.125 F7800.000
G1 X87.541 Y92.899 E0.44860 F540.000
G1 X88.577 Y97.790 F7800.000
G1 X90.240 Y99.453 E0.55608 F540.000
G1 X89.332 Y99.646 F7800.000
G1 X90.935 Y101.249 E0.65964 F540.000
G1 X90.087 Y101.503 F7800.000
G1 X91.629 Y103.045 E0.75930 F540.000
G1 X90.842 Y103.360 F7800.000
G1 X92.277 Y104.794 E0.85200 F540.000
G1 X91.598 Y105.216 F7800.000
G1 X92.830 Y106.448 E0.93161 F540.000
G1 X92.353 Y107.073 F7800.000
G1 X92.573 Y107.293 E0.94583 F540.000
M106 S255
G92 E0
G1 Z0.600 F7800.000
G1 X105.919 Y96.426 F7800.000
G1 X106.667 Y94.626 E0.58425 F600.000
G1 X107.335 Y93.931 E0.87317
G1 X107.786 Y93.558 E1.04831
G1 X108.066 Y93.448 E1.13847
G1 X108.873 Y93.220 E1.38994
G1 X109.647 Y93.101 E1.62452
G1 X110.425 Y93.189 E1.85918
G1 X110.704 Y93.245 E1.94450
G1 X111.268 Y93.476 E2.12695
G1 X111.556 Y93.625 E2.22431
G1 X112.023 Y94.013 E2.40604
G1 X112.214 Y94.195 E2.48521
G1 X112.609 Y94.799 E2.70122
G1 X112.693 Y94.940 E2.75056
G1 X112.963 Y95.785 E3.01629
G1 X113.001 Y95.985 E3.07740
G1 X113.092 Y97.075 E3.40517
G1 X113.092 Y106.052 E6.09506
G1 X113.011 Y106.632 E6.27054
G1 X112.062 Y106.898 E6.56585
G1 X109.110 Y106.898 E7.45040
G92 E0
G1 X105.418 Y106.052 F7800.000
G1 X95.806 Y108.286 F7800.000
G1 X94.452 Y107.744 F7800.000
G1 X91.254 Y100.729 F7800.000
G1 X88.878 Y97.264 E1.25890 F600.000
G1 X86.953 Y92.448 E2.81311
G92 E0
G1 X97.639 Y94.553 F7800.000
G1 X96.986 Y98.870 E1.30813 F600.000
G1 X94.802 Y104.416 E3.09418
G1 X94.094 Y106.341 E3.70872
G1 X93.826 Y106.819 E3.87304
G1 X93.283 Y106.906 E4.03792
G1 X92.713 Y106.832 E4.21016
G1 X92.419 Y106.321 E4.38676
G1 X91.503 Y103.877 E5.16887
G1 X89.516 Y98.871 E6.78269
G1 X89.379 Y97.996 E7.04820
G1 X89.776 Y97.842 E7.17570
G1 X90.403 Y97.720 E7.36708
G1 X96.103 Y97.720 E9.07506
G1 X96.719 Y97.837 E9.26297
G1 X97.119 Y97.990 E9.39110
G1 X97.614 Y97.261 E9.65512
G1 X99.516 Y92.448 E11.20582
G92 E0
G1 Z0.900 F7800.000
G1 X105.919 Y96.426 F7800.000
G1 X106.667 Y94.626 E0.58425 F600.000
G1 X107.335 Y93.931 E0.87317
G1 X107.786 Y93.558 E1.04831
G1 X108.066 Y93.448 E1.13847
G1 X108.873 Y93.220 E1.38994
G1 X109.647 Y93.101 E1.62452
G1 X110.425 Y93.189 E1.85918
G1 X110.704 Y93.245 E1.94450
G1 X111.268 Y93.476 E2.12695
G1 X111.556 Y93.625 E2.22431
G1 X112.023 Y94.013 E2.40604
G1 X112.214 Y94.195 E2.48521
G1 X112.609 Y94.799 E2.70122
G1 X112.693 Y94.940 E2.75056
G1 X112.963 Y95.785 E3.01629
G1 X113.001 Y95.985 E3.07740
G1 X113.092 Y97.075 E3.40517
G1 X113.092 Y106.052 E6.09506
G1 X113.011 Y106.632 E6.27054
G1 X112.062 Y106.898 E6.56585
G1 X109.110 Y106.898 E7.45040
G92 E0
G1 X105.418 Y106.052 F7800.000
G1 X95.806 Y108.286 F7800.000
G1 X94.452 Y107.744 F7800.000
G1 X91.255 Y100.729 F7800.000
G1 X88.878 Y97.264 E1.25890 F600.000
G1 X86.953 Y92.448 E2.81311
G92 E0
G1 X97.639 Y94.553 F7800.000
G1 X96.986 Y98.870 E1.30813 F600.000
G1 X94.802 Y104.416 E3.09418
G1 X94.094 Y106.341 E3.70872
G1 X93.826 Y106.819 E3.87304
G1 X93.283 Y106.906 E4.03792
G1 X92.713 Y106.832 E4.21016
G1 X92.419 Y106.321 E4.38676
G1 X91.503 Y103.877 E5.16887
G1 X89.516 Y98.871 E6.78268
G1 X89.379 Y97.996 E7.04820
G1 X89.776 Y97.842 E7.17570
G1 X90.403 Y97.720 E7.36708
G1 X96.103 Y97.720 E9.07506
G1 X96.719 Y97.837 E9.26297
G1 X97.119 Y97.990 E9.39110
G1 X97.614 Y97.261 E9.65512
G1 X99.516 Y92.448 E11.20582
G92 E0
G1 Z1.200 F7800.000
G1 X105.919 Y96.426 F7800.000
G1 X106.667 Y94.626 E0.58425 F600.000
G1 X107.335 Y93.931 E0.87317
G1 X107.786 Y93.558 E1.04831
G1 X108.066 Y93.448 E1.13847
G1 X108.873 Y93.220 E1.38994
G1 X109.647 Y93.101 E1.62452
G1 X110.425 Y93.189 E1.85918
G1 X110.704 Y93.245 E1.94450
G1 X111.268 Y93.476 E2.12695
G1 X111.556 Y93.625 E2.22431
G1 X112.023 Y94.013 E2.40604
G1 X112.214 Y94.195 E2.48521
G1 X112.609 Y94.799 E2.70122
G1 X112.693 Y94.940 E2.75056
G1 X112.963 Y95.785 E3.01629
G1 X113.001 Y95.985 E3.07740
G1 X113.092 Y97.075 E3.40518
G1 X113.092 Y106.052 E6.09506
G1 X113.011 Y106.632 E6.27054
G1 X112.062 Y106.898 E6.56585
G1 X109.110 Y106.898 E7.45040
G92 E0
G1 X105.418 Y106.052 F7800.000
G1 X95.806 Y108.286 F7800.000
G1 X94.452 Y107.744 F7800.000
G1 X91.255 Y100.729 F7800.000
G1 X88.878 Y97.264 E1.25890 F600.000
G1 X86.953 Y92.448 E2.81311
G92 E0
G1 X97.639 Y94.553 F7800.000
G1 X96.986 Y98.870 E1.30814 F600.000
G1 X94.802 Y104.416 E3.09418
G1 X94.094 Y106.341 E3.70873
G1 X93.826 Y106.819 E3.87305
G1 X93.283 Y106.906 E4.03792
G1 X92.713 Y106.832 E4.21017
G1 X92.419 Y106.321 E4.38676
G1 X91.503 Y103.877 E5.16887
G1 X89.516 Y98.871 E6.78269
G1 X89.379 Y97.996 E7.04820
G1 X89.776 Y97.842 E7.17570
G1 X90.403 Y97.720 E7.36709
G1 X96.103 Y97.720 E9.07507
G1 X96.719 Y97.837 E9.26297
G1 X97.119 Y97.990 E9.39111
G1 X97.614 Y97.261 E9.65512
G1 X99.516 Y92.448 E11.20582
G92 E0
G1 Z1.500 F7800.000
G1 X105.919 Y96.426 F7800.000
G1 X106.667 Y94.626 E0.58425 F600.000
G1 X107.335 Y93.931 E0.87317
G1 X107.786 Y93.558 E1.04831
G1 X108.066 Y93.448 E1.13847
G1 X108.873 Y93.220 E1.38994
G1 X109.647 Y93.101 E1.62452
G1 X110.425 Y93.189 E1.85918
G1 X110.704 Y93.245 E1.94450
G1 X111.268 Y93.476 E2.12695
G1 X111.556 Y93.625 E2.22431
G1 X112.023 Y94.013 E2.40604
G1 X112.214 Y94.195 E2.48521
G1 X112.609 Y94.799 E2.70122
G1 X112.693 Y94.940 E2.75056
G1 X112.963 Y95.785 E3.01629
G1 X113.001 Y95.985 E3.07740
G1 X113.092 Y97.075 E3.40517
G1 X113.092 Y106.052 E6.09506
G1 X113.011 Y106.632 E6.27054
G1 X112.062 Y106.898 E6.56585
G1 X109.110 Y106.898 E7.45040
G92 E0
G1 X105.418 Y106.052 F7800.000
G1 X95.806 Y108.286 F7800.000
G1 X94.452 Y107.744 F7800.000
G1 X91.254 Y100.729 F7800.000
G1 X88.878 Y97.264 E1.25890 F600.000
G1 X86.953 Y92.448 E2.81311
G92 E0
G1 X97.639 Y94.553 F7800.000
G1 X96.986 Y98.870 E1.30813 F600.000
G1 X94.802 Y104.416 E3.09418
G1 X94.094 Y106.341 E3.70872
G1 X93.826 Y106.819 E3.87304
G1 X93.283 Y106.906 E4.03792
G1 X92.713 Y106.832 E4.21016
G1 X92.419 Y106.321 E4.38676
G1 X91.503 Y103.877 E5.16887
G1 X89.516 Y98.871 E6.78268
G1 X89.379 Y97.996 E7.04820
G1 X89.776 Y97.842 E7.17570
G1 X90.403 Y97.720 E7.36708
G1 X96.103 Y97.720 E9.07506
G1 X96.719 Y97.837 E9.26297
G1 X97.119 Y97.990 E9.39110
G1 X97.614 Y97.261 E9.65512
G1 X99.516 Y92.448 E11.20582
G92 E0
G1 Z1.800 F7800.000
G1 X105.919 Y96.426 F7800.000
G1 X106.667 Y94.626 E0.58425 F600.000
G1 X107.335 Y93.931 E0.87317
G1 X107.786 Y93.558 E1.04831
G1 X108.066 Y93.448 E1.13847
G1 X108.873 Y93.220 E1.38994
G1 X109.647 Y93.101 E1.62452
G1 X110.425 Y93.189 E1.85918
G1 X110.704 Y93.245 E1.94450
G1 X111.268 Y93.476 E2.12695
G1 X111.556 Y93.625 E2.22431
G1 X112.023 Y94.013 E2.40604
G1 X112.214 Y94.195 E2.48521
G1 X112.609 Y94.799 E2.70122
G1 X112.693 Y94.940 E2.75056
G1 X112.963 Y95.785 E3.01629
G1 X113.001 Y95.985 E3.07740
G1 X113.092 Y97.075 E3.40517
G1 X113.092 Y106.052 E6.09506
G1 X113.011 Y106.632 E6.27054
G1 X112.062 Y106.898 E6.56585
G1 X109.110 Y106.898 E7.45040
G92 E0
G1 X105.418 Y106.052 F7800.000
G1 X95.806 Y108.286 F7800.000
G1 X94.452 Y107.744 F7800.000
G1 X91.254 Y100.729 F7800.000
G1 X88.878 Y97.264 E1.25890 F600.000
G1 X86.953 Y92.448 E2.81311
G92 E0
G1 X97.639 Y94.553 F7800.000
G1 X96.986 Y98.870 E1.30813 F600.000
G1 X94.802 Y104.416 E3.09418
G1 X94.094 Y106.341 E3.70872
G1 X93.826 Y106.819 E3.87304
G1 X93.283 Y106.906 E4.03792
G1 X92.713 Y106.832 E4.21016
G1 X92.419 Y106.321 E4.38676
G1 X91.503 Y103.877 E5.16887
G1 X89.516 Y98.871 E6.78268
G1 X89.379 Y97.996 E7.04820
G1 X89.776 Y97.842 E7.17570
G1 X90.403 Y97.720 E7.36708
G1 X96.103 Y97.720 E9.07506
G1 X96.719 Y97.837 E9.26297
G1 X97.119 Y97.990 E9.39110
G1 X97.614 Y97.261 E9.65512
G1 X99.516 Y92.448 E11.20582
G92 E0
G1 Z2.100 F7800.000
G1 X105.919 Y96.426 F7800.000
G1 X106.667 Y94.626 E0.58425 F600.000
G1 X107.335 Y93.931 E0.87317
