; generated by Slic3r 1.2.9 on 2016-03-11 at 01:22:15

; external perimeters extrusion width = 1.54mm
; perimeters extrusion width = 2.62mm
; infill extrusion width = 6.27mm
; solid infill extrusion width = 2.62mm
; top infill extrusion width = 2.62mm

M107
M104 S30 ; set temperature
G28 ; home all axes
G1 Z5 F5000 ; lift nozzle
M302
M92 E10000
M500
M501
G1 E100
M109 S30 ; wait for temperature to be reached
G21 ; set units to millimeters
G90 ; use absolute coordinates
M82 ; use absolute distances for extrusion
G92 E0
G1 Z0.300 F7800.000
G1 X105.778 Y92.577 F7800.000
G1 X105.778 Y98.325 E0.26010 F378.000
G1 X108.027 Y100.044 E0.38822 F378.000
G1 X114.185 Y92.577 E0.82617
G1 X116.162 Y92.577 E0.91564
G1 X108.985 Y101.015 E1.41685
G1 X115.248 Y107.423 E1.82231
G1 X113.439 Y107.423 E1.90419
G1 X105.778 Y99.424 E2.40537
G1 X105.778 Y107.423 E2.76733
G1 X104.157 Y107.423 E2.84068
G1 X104.157 Y92.577 E3.51245
G1 X105.547 Y92.577 E3.57535
G1 X105.552 Y93.007 F7800.000
G1 X105.348 Y92.803 E3.58876 F540.000
G1 X104.787 Y92.803 E3.61490
G1 X105.552 Y93.568 E3.66529
G1 X105.552 Y94.129 E3.69143
G1 X104.383 Y92.960 E3.76844
G1 X104.383 Y93.521 E3.79458
G1 X105.552 Y94.691 E3.87159
G1 X105.552 Y95.252 E3.89773
G1 X104.383 Y94.083 E3.97474
G1 X104.383 Y94.644 E4.00088
G1 X105.552 Y95.813 E4.07789
G1 X105.552 Y96.375 E4.10403
G1 X104.383 Y95.205 E4.18104
G1 X104.383 Y95.767 E4.20718
G1 X105.552 Y96.936 E4.28419
G1 X105.552 Y97.497 E4.31033
G1 X104.383 Y96.328 E4.38734
G1 X104.383 Y96.889 E4.41348
G1 X105.552 Y98.059 E4.49049
G1 X105.454 Y98.522 E4.51255
G1 X104.383 Y97.451 E4.58311
G1 X104.383 Y98.012 E4.60926
G1 X105.189 Y98.818 E4.66236
G1 X104.383 Y98.573 E4.70161
G1 X105.552 Y99.743 E4.77861
G1 X105.552 Y100.304 E4.80476
G1 X104.383 Y99.135 E4.88176
G1 X104.383 Y99.696 E4.90791
G1 X105.552 Y100.865 E4.98491
G1 X105.552 Y101.427 E5.01106
G1 X104.383 Y100.257 E5.08806
G1 X104.383 Y100.819 E5.11421
G1 X105.552 Y101.988 E5.19121
G1 X105.552 Y102.549 E5.21736
G1 X104.383 Y101.380 E5.29436
G1 X104.383 Y101.941 E5.32051
G1 X105.552 Y103.111 E5.39751
G1 X105.552 Y103.672 E5.42366
G1 X104.383 Y102.503 E5.50066
G1 X104.383 Y103.064 E5.52681
G1 X105.552 Y104.233 E5.60381
G1 X105.552 Y104.795 E5.62996
G1 X104.383 Y103.625 E5.70696
G1 X104.383 Y104.187 E5.73311
G1 X105.552 Y105.356 E5.81011
G1 X105.552 Y105.917 E5.83626
G1 X104.383 Y104.748 E5.91326
G1 X104.383 Y105.309 E5.93941
G1 X105.552 Y106.479 E6.01641
G1 X105.552 Y107.040 E6.04256
G1 X104.383 Y105.871 E6.11956
G1 X104.383 Y106.432 E6.14571
G1 X105.148 Y107.197 E6.19609
G1 X104.586 Y107.197 E6.22224
G1 X104.383 Y106.993 E6.23565
G92 E0
G1 X105.003 Y106.648 F7800.000
G1 X105.003 Y106.648 F7800.000
G1 X106.466 Y99.452 F7800.000
G1 X105.585 Y98.664 E0.11596 F540.000
G1 X106.621 Y99.583 F7800.000
G1 X114.235 Y107.197 E0.61086 F540.000
G1 X113.681 Y107.197 E0.63633
G1 X112.842 Y106.359 E0.69081
G1 X107.928 Y100.336 F7800.000
G1 X108.675 Y101.083 E0.73936 F540.000
G1 X108.929 Y100.784 E0.75743
G1 X108.238 Y100.092 E0.80237
G1 X108.488 Y99.789 E0.82046
G1 X109.184 Y100.484 E0.86569
G1 X109.438 Y100.185 E0.88375
G1 X108.738 Y99.485 E0.92925
G1 X108.989 Y99.181 E0.94734
G1 X109.693 Y99.886 E0.99312
G1 X109.948 Y99.586 E1.01118
G1 X109.239 Y98.878 E1.05723
G1 X109.489 Y98.574 E1.07532
G1 X110.202 Y99.287 E1.12165
G1 X110.457 Y98.988 E1.13972
G1 X109.740 Y98.271 E1.18633
G1 X109.990 Y97.967 E1.20441
G1 X110.711 Y98.688 E1.25130
G1 X110.966 Y98.389 E1.26936
G1 X110.240 Y97.663 E1.31653
G1 X110.491 Y97.360 E1.33461
G1 X111.221 Y98.090 E1.38205
G1 X111.475 Y97.790 E1.40012
G1 X110.741 Y97.056 E1.44784
G1 X110.991 Y96.753 E1.46592
G1 X111.730 Y97.491 E1.51392
G1 X111.984 Y97.192 E1.53198
G1 X111.242 Y96.449 E1.58025
G1 X111.492 Y96.145 E1.59834
G1 X112.239 Y96.892 E1.64689
G1 X112.494 Y96.593 E1.66495
G1 X111.743 Y95.842 E1.71378
G1 X111.993 Y95.538 E1.73187
G1 X112.748 Y96.294 E1.78097
G1 X113.003 Y95.994 E1.79903
G1 X112.243 Y95.235 E1.84841
G1 X112.494 Y94.931 E1.86650
G1 X113.257 Y95.695 E1.91616
G1 X113.512 Y95.396 E1.93422
G1 X112.744 Y94.627 E1.98415
G1 X112.994 Y94.324 E2.00224
G1 X113.767 Y95.096 E2.05245
G1 X114.021 Y94.797 E2.07052
G1 X113.245 Y94.020 E2.12100
G1 X113.495 Y93.716 E2.13909
G1 X114.276 Y94.497 E2.18986
G1 X114.531 Y94.198 E2.20792
G1 X113.745 Y93.413 E2.25896
G1 X113.996 Y93.109 E2.27705
G1 X114.785 Y93.899 E2.32837
G1 X115.040 Y93.599 E2.34643
G1 X114.246 Y92.806 E2.39803
G1 X114.797 Y92.803 E2.42337
G1 X115.294 Y93.300 E2.45568
G1 X115.351 Y92.803 E2.47868
G1 X115.549 Y93.001 E2.49154
G92 E0
G1 X107.992 Y99.734 F7800.000
G1 X106.003 Y91.352 F7800.000
G1 X100.900 Y93.384 F7800.000
G1 X100.881 Y93.486 F7800.000
G1 X98.049 Y92.352 F7800.000
G1 X95.949 Y96.993 F7800.000
G1 X91.774 Y107.423 E0.50837 F378.000
G1 X89.725 Y107.423 E0.60110
G1 X83.686 Y92.577 E1.32632
G1 X85.345 Y92.577 E1.40140
G1 X86.909 Y96.563 E1.59517
G1 X87.097 Y97.041 E1.61839 F378.000
G1 X94.347 Y97.041 E1.94645
G1 X96.088 Y92.577 E2.16326
G1 X97.717 Y92.577 E2.23697
G1 X96.035 Y96.778 E2.44174
G1 X93.906 Y98.207 F7800.000
G1 X91.630 Y104.086 E2.72701 F378.000
G1 X90.921 Y106.198 E2.82781
G1 X90.521 Y106.197 E2.84587
G1 X90.202 Y105.195 E2.89345
G1 X89.613 Y103.544 E2.97276
G1 X87.549 Y98.207 E3.23171
G1 X93.675 Y98.207 E3.50889 F378.000
G1 X92.783 Y97.267 F7800.000
G1 X93.497 Y97.981 E3.55504 F540.000
G1 X92.947 Y97.981 E3.58020
G1 X92.233 Y97.267 E3.62635
G1 X91.682 Y97.267 E3.65151
G1 X92.396 Y97.981 E3.69766
G1 X91.845 Y97.981 E3.72283
G1 X91.131 Y97.267 E3.76897
G1 X90.580 Y97.267 E3.79414
G1 X91.294 Y97.981 E3.84028
G1 X90.744 Y97.981 E3.86545
G1 X90.030 Y97.267 E3.91160
G1 X89.479 Y97.267 E3.93676
G1 X90.193 Y97.981 E3.98291
G1 X89.642 Y97.981 E4.00807
G1 X88.928 Y97.267 E4.05422
G1 X88.378 Y97.267 E4.07938
G1 X89.092 Y97.981 E4.12553
G1 X88.541 Y97.981 E4.15070
G1 X87.827 Y97.267 E4.19684
G1 X87.276 Y97.267 E4.22201
G1 X87.990 Y97.981 E4.26815
G1 X87.439 Y97.981 E4.29332
G1 X85.295 Y95.837 E4.43187
G1 X85.673 Y96.765 F7800.000
G1 X87.367 Y98.459 E4.54131 F540.000
G1 X86.428 Y98.622 F7800.000
G1 X88.061 Y100.255 E4.64683 F540.000
G1 X87.184 Y100.479 F7800.000
G1 X88.756 Y102.051 E4.74844 F540.000
G1 X87.939 Y102.335 F7800.000
G1 X89.445 Y103.842 E4.84579 F540.000
G1 X88.694 Y104.192 F7800.000
G1 X90.046 Y105.544 E4.93318 F540.000
G1 X89.449 Y106.049 F7800.000
G1 X90.598 Y107.197 E5.00739 F540.000
G1 X91.148 Y107.197 E5.03255
G1 X90.374 Y106.423 E5.08258
G1 X90.926 Y106.424 E5.10780
G1 X91.656 Y107.154 E5.15499
G1 X91.820 Y106.767 E5.17420
G1 X91.165 Y106.112 E5.21652
G1 X91.303 Y105.700 E5.23639
G1 X91.977 Y106.374 E5.27993
G1 X92.134 Y105.980 E5.29929
G1 X91.442 Y105.288 E5.34405
G1 X91.580 Y104.875 E5.36392
G1 X92.292 Y105.587 E5.40992
G1 X92.449 Y105.194 E5.42927
G1 X91.719 Y104.463 E5.47649
G1 X91.859 Y104.053 E5.49630
G1 X92.607 Y104.800 E5.54460
G1 X92.764 Y104.407 E5.56396
G1 X92.013 Y103.656 E5.61251
G1 X92.167 Y103.259 E5.63196
G1 X92.922 Y104.014 E5.68075
G1 X93.079 Y103.621 E5.70011
G1 X92.320 Y102.862 E5.74914
G1 X92.474 Y102.465 E5.76859
G1 X93.236 Y103.227 E5.81786
G1 X93.394 Y102.834 E5.83722
G1 X92.628 Y102.068 E5.88674
G1 X92.781 Y101.671 E5.90619
G1 X93.551 Y102.441 E5.95595
G1 X93.709 Y102.047 E5.97530
G1 X92.935 Y101.274 E6.02531
G1 X93.089 Y100.877 E6.04476
G1 X93.866 Y101.654 E6.09500
G1 X94.024 Y101.261 E6.11436
G1 X93.242 Y100.480 E6.16484
G1 X93.396 Y100.083 E6.18430
G1 X94.181 Y100.868 E6.23503
G1 X94.339 Y100.474 E6.25438
G1 X93.550 Y99.686 E6.30535
G1 X93.703 Y99.289 E6.32481
G1 X94.496 Y100.081 E6.37602
G1 X94.653 Y99.688 E6.39538
G1 X93.857 Y98.892 E6.44683
G1 X94.011 Y98.495 E6.46629
G1 X94.811 Y99.294 E6.51798
G1 X94.968 Y98.901 E6.53734
G1 X93.334 Y97.267 E6.64295
G1 X93.885 Y97.267 E6.66811
G1 X95.126 Y98.508 E6.74831
G1 X95.283 Y98.115 E6.76767
G1 X94.435 Y97.267 E6.82245
G1 X94.619 Y96.900 E6.84121
G1 X95.441 Y97.721 E6.89431
G1 X95.598 Y97.328 E6.91367
G1 X94.773 Y96.503 E6.96697
G1 X94.928 Y96.107 E6.98640
G1 X95.755 Y96.935 E7.03988
G1 X95.913 Y96.542 E7.05924
G1 X95.082 Y95.711 E7.11291
G1 X95.237 Y95.315 E7.13234
G1 X96.070 Y96.148 E7.18620
G1 X96.228 Y95.755 E7.20556
G1 X95.391 Y94.919 E7.25960
G1 X95.546 Y94.522 E7.27903
G1 X96.385 Y95.362 E7.33327
G1 X96.543 Y94.968 E7.35263
G1 X95.700 Y94.126 E7.40705
G1 X95.855 Y93.730 E7.42648
G1 X96.700 Y94.575 E7.48109
G1 X96.857 Y94.182 E7.50045
G1 X96.009 Y93.334 E7.55525
G1 X96.164 Y92.938 E7.57468
G1 X97.015 Y93.789 E7.62967
G1 X97.172 Y93.395 E7.64903
G1 X96.580 Y92.803 E7.68730
G1 X97.131 Y92.803 E7.71247
G1 X97.330 Y93.002 E7.72533
G92 E0
G1 X86.665 Y96.655 F7800.000
G1 X84.918 Y94.909 E0.11288 F540.000
G1 X84.540 Y93.980 F7800.000
G1 X86.309 Y95.749 E0.22717 F540.000
G1 X85.953 Y94.842 F7800.000
G1 X84.163 Y93.052 E0.34287 F540.000
G1 X84.464 Y92.803 E0.36075
G1 X85.597 Y93.936 E0.43396
G1 X85.241 Y93.029 F7800.000
G1 X85.015 Y92.803 E0.44860 F540.000
G1 X86.051 Y97.694 F7800.000
G1 X87.714 Y99.357 E0.55608 F540.000
G1 X86.806 Y99.550 F7800.000
G1 X88.409 Y101.153 E0.65964 F540.000
G1 X87.561 Y101.407 F7800.000
G1 X89.103 Y102.949 E0.75930 F540.000
G1 X88.316 Y103.264 F7800.000
G1 X89.751 Y104.698 E0.85200 F540.000
G1 X89.072 Y105.120 F7800.000
G1 X90.304 Y106.352 E0.93161 F540.000
G1 X89.827 Y106.977 F7800.000
G1 X90.047 Y107.197 E0.94583 F540.000
M106 S255
G92 E0
G1 Z0.600 F7800.000
G1 X115.356 Y92.352 F7800.000
G1 X108.691 Y100.310 E3.11048 F600.000
G1 X108.243 Y100.775 E3.30375
G1 X108.693 Y101.587 E3.58188
G1 X114.557 Y107.648 E6.10884
G92 E0
G1 X105.003 Y106.648 F7800.000
G1 X105.003 Y106.648 F7800.000
G1 X105.899 Y102.575 F7800.000
G1 X104.967 Y98.214 E1.33630 F600.000
G1 X104.967 Y92.352 E3.09283
G1 X104.967 Y107.648 F7800.000
G1 X104.967 Y99.984 E5.38932 F600.000
G1 X105.156 Y99.099 E5.66049
G1 X105.326 Y99.099 E5.71145
G1 X106.514 Y99.495 E6.08643
G1 X107.500 Y100.377 E6.48307
G1 X109.969 Y101.699 E7.32204
G92 E0
G1 X106.003 Y99.984 F7800.000
G1 X106.003 Y99.984 F7800.000
G1 X108.772 Y106.879 F7800.000
G1 X108.003 Y107.648 F7800.000
G1 X106.003 Y108.648 F7800.000
G1 X103.932 Y108.648 F7800.000
G1 X101.932 Y107.648 F7800.000
G1 X98.763 Y104.479 F7800.000
G1 X100.881 Y93.486 F7800.000
G1 X100.900 Y93.384 F7800.000
G1 X98.049 Y91.352 F7800.000
G1 X95.934 Y91.352 F7800.000
G1 X94.567 Y91.819 F7800.000
G1 X91.985 Y93.584 F7800.000
G1 X94.193 Y96.816 F7800.000
G1 X88.728 Y100.633 F7800.000
G1 X86.352 Y97.168 E1.25890 F600.000
G1 X84.427 Y92.352 E2.81311
G92 E0
G1 X95.113 Y94.457 F7800.000
G1 X94.460 Y98.774 E1.30813 F600.000
G1 X92.276 Y104.320 E3.09418
G1 X91.568 Y106.245 E3.70872
G1 X91.300 Y106.723 E3.87304
G1 X90.757 Y106.810 E4.03792
G1 X90.187 Y106.736 E4.21016
G1 X89.893 Y106.225 E4.38676
G1 X88.977 Y103.781 E5.16887
G1 X86.990 Y98.775 E6.78268
G1 X86.853 Y97.900 E7.04820
G1 X87.250 Y97.746 E7.17570
G1 X87.877 Y97.624 E7.36708
G1 X93.577 Y97.624 E9.07506
G1 X94.193 Y97.741 E9.26297
G1 X94.593 Y97.894 E9.39110
G1 X95.088 Y97.165 E9.65512
G1 X96.990 Y92.352 E11.20582
G92 E0
G1 Z0.900 F7800.000
G1 X115.356 Y92.352 F7800.000
G1 X108.691 Y100.310 E3.11048 F600.000
G1 X108.243 Y100.775 E3.30375
G1 X108.693 Y101.587 E3.58188
G1 X114.557 Y107.648 E6.10884
G92 E0
G1 X105.003 Y106.648 F7800.000
G1 X105.003 Y106.648 F7800.000
G1 X105.899 Y102.575 F7800.000
G1 X104.967 Y98.214 E1.33630 F600.000
G1 X104.967 Y92.352 E3.09283
G1 X104.967 Y107.648 F7800.000
G1 X104.967 Y99.984 E5.38932 F600.000
G1 X105.156 Y99.099 E5.66049
G1 X105.326 Y99.099 E5.71145
G1 X106.514 Y99.495 E6.08643
G1 X107.500 Y100.377 E6.48307
G1 X109.969 Y101.699 E7.32204
G92 E0
G1 X106.003 Y99.984 F7800.000
G1 X106.003 Y99.984 F7800.000
G1 X108.772 Y106.879 F7800.000
G1 X108.003 Y107.648 F7800.000
G1 X106.003 Y108.648 F7800.000
G1 X103.932 Y108.648 F7800.000
G1 X101.932 Y107.648 F7800.000
G1 X98.763 Y104.479 F7800.000
G1 X100.881 Y93.486 F7800.000
G1 X100.900 Y93.384 F7800.000
G1 X98.049 Y91.352 F7800.000
G1 X95.934 Y91.352 F7800.000
G1 X94.567 Y91.819 F7800.000
G1 X91.985 Y93.584 F7800.000
G1 X94.193 Y96.816 F7800.000
G1 X88.729 Y100.633 F7800.000
G1 X86.352 Y97.168 E1.25890 F600.000
G1 X84.427 Y92.352 E2.81311
G92 E0
G1 X95.113 Y94.457 F7800.000
G1 X94.460 Y98.774 E1.30814 F600.000
G1 X92.276 Y104.320 E3.09418
G1 X91.568 Y106.245 E3.70873
G1 X91.300 Y106.723 E3.87305
G1 X90.757 Y106.810 E4.03793
G1 X90.187 Y106.736 E4.21017
G1 X89.893 Y106.225 E4.38676
G1 X88.977 Y103.781 E5.16887
G1 X86.990 Y98.775 E6.78269
G1 X86.853 Y97.900 E7.04820
G1 X87.250 Y97.746 E7.17571
G1 X87.877 Y97.624 E7.36709
G1 X93.577 Y97.624 E9.07507
G1 X94.193 Y97.741 E9.26298
G1 X94.593 Y97.894 E9.39111
G1 X95.088 Y97.165 E9.65512
G1 X96.990 Y92.352 E11.20582
G92 E0
G1 Z1.200 F7800.000
G1 X115.356 Y92.352 F7800.000
G1 X108.691 Y100.310 E3.11048 F600.000
G1 X108.243 Y100.775 E3.30375
G1 X108.693 Y101.587 E3.58188
G1 X114.557 Y107.648 E6.10884
G92 E0
G1 X105.003 Y106.648 F7800.000
G1 X105.003 Y106.648 F7800.000
G1 X105.899 Y102.575 F7800.000
G1 X104.967 Y98.214 E1.33630 F600.000
G1 X104.967 Y92.352 E3.09283
G1 X104.967 Y107.648 F7800.000
G1 X104.967 Y99.984 E5.38932 F600.000
G1 X105.156 Y99.099 E5.66049
G1 X105.326 Y99.099 E5.71145
G1 X106.514 Y99.495 E6.08643
G1 X107.500 Y100.377 E6.48307
G1 X109.969 Y101.699 E7.32204
G92 E0
G1 X106.003 Y99.984 F7800.000
G1 X106.003 Y99.984 F7800.000
G1 X108.772 Y106.879 F7800.000
G1 X108.003 Y107.648 F7800.000
G1 X106.003 Y108.648 F7800.000
G1 X103.932 Y108.648 F7800.000
G1 X101.932 Y107.648 F7800.000
G1 X98.763 Y104.479 F7800.000
G1 X100.881 Y93.486 F7800.000
G1 X100.900 Y93.384 F7800.000
G1 X98.049 Y91.352 F7800.000
G1 X95.934 Y91.352 F7800.000
G1 X94.567 Y91.819 F7800.000
G1 X91.985 Y93.584 F7800.000
G1 X94.193 Y96.816 F7800.000
G1 X88.729 Y100.633 F7800.000
G1 X86.352 Y97.168 E1.25890 F600.000
G1 X84.427 Y92.352 E2.81311
G92 E0
G1 X95.113 Y94.457 F7800.000
G1 X94.460 Y98.774 E1.30813 F600.000
G1 X92.276 Y104.320 E3.09418
G1 X91.568 Y106.245 E3.70872
G1 X91.300 Y106.723 E3.87304
G1 X90.757 Y106.810 E4.03792
G1 X90.187 Y106.736 E4.21016
G1 X89.893 Y106.225 E4.38676
G1 X88.977 Y103.781 E5.16887
G1 X86.990 Y98.775 E6.78268
G1 X86.853 Y97.900 E7.04820
G1 X87.250 Y97.746 E7.17570
G1 X87.877 Y97.624 E7.36708
G1 X93.577 Y97.624 E9.07506
G1 X94.193 Y97.741 E9.26297
G1 X94.593 Y97.894 E9.39110
G1 X95.088 Y97.165 E9.65512
G1 X96.990 Y92.352 E11.20582
G92 E0
G1 Z1.500 F7800.000
G1 X115.356 Y92.352 F7800.000
G1 X108.691 Y100.310 E3.11048 F600.000
G1 X108.243 Y100.775 E3.30375
G1 X108.693 Y101.587 E3.58188
G1 X114.557 Y107.648 E6.10884
G92 E0
G1 X105.003 Y106.648 F7800.000
G1 X105.003 Y106.648 F7800.000
G1 X105.899 Y102.575 F7800.000
G1 X104.967 Y98.214 E1.33630 F600.000
G1 X104.967 Y92.352 E3.09283
G1 X104.967 Y107.648 F7800.000
G1 X104.967 Y99.984 E5.38932 F600.000
G1 X105.156 Y99.099 E5.66049
G1 X105.326 Y99.099 E5.71145
G1 X106.514 Y99.495 E6.08643
G1 X107.500 Y100.377 E6.48307
G1 X109.969 Y101.699 E7.32204
G92 E0
G1 X106.003 Y99.984 F7800.000
G1 X106.003 Y99.984 F7800.000
G1 X108.772 Y106.879 F7800.000
G1 X108.003 Y107.648 F7800.000
G1 X106.003 Y108.648 F7800.000
G1 X103.932 Y108.648 F7800.000
G1 X101.932 Y107.648 F7800.000
G1 X98.763 Y104.479 F7800.000
G1 X100.881 Y93.486 F7800.000
G1 X100.900 Y93.384 F7800.000
G1 X98.049 Y91.352 F7800.000
G1 X95.934 Y91.352 F7800.000
G1 X94.567 Y91.819 F7800.000
G1 X91.985 Y93.584 F7800.000
G1 X94.193 Y96.816 F7800.000
G1 X88.728 Y100.633 F7800.000
G1 X86.352 Y97.168 E1.25890 F600.000
G1 X84.427 Y92.352 E2.81311
G92 E0
G1 X95.113 Y94.457 F7800.000
G1 X94.460 Y98.774 E1.30814 F600.000
G1 X92.276 Y104.320 E3.09418
G1 X91.568 Y106.245 E3.70873
G1 X91.300 Y106.723 E3.87305
G1 X90.757 Y106.810 E4.03793
G1 X90.187 Y106.736 E4.21017
G1 X89.893 Y106.225 E4.38676
G1 X88.977 Y103.781 E5.16887
G1 X86.990 Y98.775 E6.78269
G1 X86.853 Y97.900 E7.04820
G1 X87.250 Y97.746 E7.17571
G1 X87.877 Y97.624 E7.36709
G1 X93.577 Y97.624 E9.07507
G1 X94.193 Y97.741 E9.26298
G1 X94.593 Y97.894 E9.39111
G1 X95.088 Y97.165 E9.65512
G1 X96.990 Y92.352 E11.20582
G92 E0
G1 Z1.800 F7800.000
G1 X115.356 Y92.352 F7800.000
G1 X108.691 Y100.310 E3.11048 F600.000
G1 X108.243 Y100.775 E3.30375
G1 X108.693 Y101.587 E3.58188
