; generated by Slic3r 1.2.9 on 2016-03-11 at 01:22:18

; external perimeters extrusion width = 1.54mm
; perimeters extrusion width = 2.62mm
; infill extrusion width = 6.27mm
; solid infill extrusion width = 2.62mm
; top infill extrusion width = 2.62mm

M107
M104 S30 ; set temperature
G28 ; home all axes
G1 Z5 F5000 ; lift nozzle
M302
M92 E10000
M500
M501
G1 E100
M109 S30 ; wait for temperature to be reached
G21 ; set units to millimeters
G90 ; use absolute coordinates
M82 ; use absolute distances for extrusion
G92 E0
G1 Z0.300 F7800.000
G1 X116.281 Y97.552 F7800.000
G1 X116.281 Y107.423 E0.44666 F378.000
G1 X114.866 Y107.423 E0.51069
G1 X114.866 Y97.618 E0.95435
G1 X114.881 Y96.856 E0.98884
G1 X114.996 Y94.524 E1.09449
G1 X114.592 Y94.395 E1.11369
G1 X106.364 Y107.423 E1.81092
G1 X104.306 Y107.423 E1.90404
G1 X104.306 Y92.577 E2.57582
G1 X105.699 Y92.577 E2.63885
G1 X105.699 Y102.512 E3.08838
G1 X105.645 Y104.320 E3.17024 F378.000
G1 X105.591 Y105.392 E3.21880
G1 X105.996 Y105.520 E3.23802
G1 X114.137 Y92.577 E3.92988
G1 X116.281 Y92.577 E4.02693
G1 X116.281 Y97.321 E4.24159
G1 X115.199 Y94.923 F7800.000
G1 X116.055 Y95.779 E4.29734 F540.000
G1 X116.055 Y96.334 E4.32286
G1 X115.172 Y95.451 E4.38032
G1 X115.146 Y95.979 E4.40466
G1 X116.055 Y96.889 E4.46382
G1 X116.055 Y97.443 E4.48934
G1 X115.120 Y96.508 E4.55020
G1 X115.102 Y97.044 E4.57488
G1 X116.055 Y97.998 E4.63695
G1 X116.055 Y98.552 E4.66246
G1 X115.092 Y97.589 E4.72514
G1 X115.092 Y98.144 E4.75065
G1 X116.055 Y99.107 E4.81332
G1 X116.055 Y99.661 E4.83884
G1 X115.092 Y98.698 E4.90151
G1 X115.092 Y99.253 E4.92703
G1 X116.055 Y100.216 E4.98970
G1 X116.055 Y100.770 E5.01522
G1 X115.092 Y99.807 E5.07789
G1 X115.092 Y100.362 E5.10341
G1 X116.055 Y101.325 E5.16608
G1 X116.055 Y101.880 E5.19160
G1 X115.092 Y100.917 E5.25427
G1 X115.092 Y101.471 E5.27979
G1 X116.055 Y102.434 E5.34246
G1 X116.055 Y102.989 E5.36798
G1 X115.092 Y102.026 E5.43065
G1 X115.092 Y102.580 E5.45617
G1 X116.055 Y103.543 E5.51884
G1 X116.055 Y104.098 E5.54436
G1 X115.092 Y103.135 E5.60703
G1 X115.092 Y103.689 E5.63255
G1 X116.055 Y104.652 E5.69522
G1 X116.055 Y105.207 E5.72074
G1 X115.092 Y104.244 E5.78341
G1 X115.092 Y104.798 E5.80893
G1 X116.055 Y105.762 E5.87160
G1 X116.055 Y106.316 E5.89712
G1 X115.092 Y105.353 E5.95979
G1 X115.092 Y105.908 E5.98531
G1 X116.055 Y106.871 E6.04798
G1 X115.827 Y107.197 E6.06630
G1 X115.092 Y106.462 E6.11412
G1 X115.092 Y107.017 E6.13964
G1 X115.273 Y107.197 E6.15137
G92 E0
G1 X106.113 Y106.370 F7800.000
G1 X105.839 Y106.470 F7800.000
G1 X105.337 Y106.392 F7800.000
G1 X105.081 Y106.043 F7800.000
G1 X105.385 Y105.073 F7800.000
G1 X104.532 Y104.221 E0.05547 F540.000
G1 X104.532 Y103.666 E0.08099
G1 X105.412 Y104.546 E0.13822
G1 X105.431 Y104.010 E0.16287
G1 X104.532 Y103.112 E0.22135
G1 X104.532 Y102.557 E0.24687
G1 X105.447 Y103.472 E0.30640
G1 X105.463 Y102.933 E0.33119
G1 X104.532 Y102.002 E0.39176
G1 X104.532 Y101.448 E0.41728
G1 X105.473 Y102.389 E0.47852
G1 X105.473 Y101.834 E0.50404
G1 X104.532 Y100.893 E0.56528
G1 X104.532 Y100.339 E0.59080
G1 X105.473 Y101.280 E0.65204
G1 X105.473 Y100.725 E0.67756
G1 X104.532 Y99.784 E0.73880
G1 X104.532 Y99.230 E0.76431
G1 X105.473 Y100.171 E0.82555
G1 X105.473 Y99.616 E0.85107
G1 X104.532 Y98.675 E0.91231
G1 X104.532 Y98.120 E0.93783
G1 X105.473 Y99.062 E0.99907
G1 X105.473 Y98.507 E1.02459
G1 X104.532 Y97.566 E1.08583
G1 X104.532 Y97.011 E1.11135
G1 X105.473 Y97.952 E1.17259
G1 X105.473 Y97.398 E1.19810
G1 X104.532 Y96.457 E1.25934
G1 X104.532 Y95.902 E1.28486
G1 X105.473 Y96.843 E1.34610
G1 X105.473 Y96.289 E1.37162
G1 X104.532 Y95.348 E1.43286
G1 X104.532 Y94.793 E1.45838
G1 X105.473 Y95.734 E1.51962
G1 X105.473 Y95.180 E1.54514
G1 X104.532 Y94.238 E1.60638
G1 X104.532 Y93.684 E1.63189
G1 X105.473 Y94.625 E1.69313
G1 X105.473 Y94.070 E1.71865
G1 X104.532 Y93.129 E1.77989
G1 X104.760 Y92.803 E1.79822
G1 X105.473 Y93.516 E1.84461
G92 E0
G1 X114.449 Y93.535 F7800.000
G1 X114.630 Y93.470 F7800.000
G1 X115.286 Y93.572 F7800.000
G1 X115.506 Y93.352 F7800.000
G1 X116.055 Y93.007 F7800.000
G1 X115.852 Y92.803 E0.01325 F540.000
G1 X115.297 Y92.803 E0.03877
G1 X116.055 Y93.561 E0.08810
G1 X116.055 Y94.116 E0.11362
G1 X114.743 Y92.803 E0.19905
G1 X114.211 Y92.826 E0.22355
G1 X116.055 Y94.670 E0.34359
G1 X116.055 Y95.225 E0.36911
G1 X113.996 Y93.166 E0.50309
G1 X113.782 Y93.506 E0.52160
G1 X114.481 Y94.205 E0.56707
G1 X114.266 Y94.545 E0.58557
G1 X113.568 Y93.847 E0.63100
G1 X113.354 Y94.187 E0.64951
G1 X114.052 Y94.885 E0.69491
G1 X113.837 Y95.225 E0.71341
G1 X113.140 Y94.528 E0.75878
G1 X112.926 Y94.868 E0.77728
G1 X113.622 Y95.565 E0.82262
G1 X113.408 Y95.905 E0.84112
G1 X112.712 Y95.209 E0.88642
G1 X112.498 Y95.549 E0.90492
G1 X113.193 Y96.245 E0.95019
G1 X112.978 Y96.584 E0.96869
G1 X112.283 Y95.889 E1.01392
G1 X112.069 Y96.230 E1.03243
G1 X112.764 Y96.924 E1.07762
G1 X112.549 Y97.264 E1.09612
G1 X111.855 Y96.570 E1.14129
G1 X111.641 Y96.911 E1.15979
G1 X112.335 Y97.604 E1.20492
G1 X112.120 Y97.944 E1.22342
G1 X111.427 Y97.251 E1.26852
G1 X111.213 Y97.592 E1.28702
G1 X111.905 Y98.284 E1.33208
G1 X111.691 Y98.624 E1.35058
G1 X110.999 Y97.932 E1.39561
G1 X110.784 Y98.272 E1.41412
G1 X111.476 Y98.964 E1.45911
G1 X111.261 Y99.304 E1.47761
G1 X110.570 Y98.613 E1.52257
G1 X110.356 Y98.953 E1.54107
G1 X111.047 Y99.644 E1.58600
G1 X110.832 Y99.984 E1.60450
G1 X110.142 Y99.294 E1.64939
G1 X109.928 Y99.634 E1.66790
G1 X110.617 Y100.323 E1.71275
G1 X110.403 Y100.663 E1.73125
G1 X109.714 Y99.975 E1.77608
G1 X109.500 Y100.315 E1.79458
G1 X110.188 Y101.003 E1.83937
G1 X109.973 Y101.343 E1.85787
G1 X109.286 Y100.655 E1.90263
G1 X109.071 Y100.996 E1.92113
G1 X109.759 Y101.683 E1.96585
G1 X109.544 Y102.023 E1.98435
G1 X108.857 Y101.336 E2.02904
G1 X108.643 Y101.677 E2.04754
G1 X109.329 Y102.363 E2.09220
G1 X109.115 Y102.703 E2.11070
G1 X108.429 Y102.017 E2.15532
G1 X108.215 Y102.358 E2.17382
G1 X108.900 Y103.043 E2.21841
G1 X108.685 Y103.383 E2.23690
G1 X108.001 Y102.698 E2.28146
G1 X107.787 Y103.038 E2.29996
G1 X108.471 Y103.723 E2.34448
G1 X108.256 Y104.062 E2.36298
G1 X107.572 Y103.379 E2.40746
G1 X107.358 Y103.719 E2.42597
G1 X108.041 Y104.402 E2.47041
G1 X107.827 Y104.742 E2.48891
G1 X107.144 Y104.060 E2.53333
G1 X106.930 Y104.400 E2.55183
G1 X107.612 Y105.082 E2.59621
G1 X107.397 Y105.422 E2.61471
G1 X106.716 Y104.741 E2.65906
G1 X106.502 Y105.081 E2.67757
G1 X107.183 Y105.762 E2.72188
G1 X106.968 Y106.102 E2.74038
G1 X106.288 Y105.421 E2.78466
G1 X106.073 Y105.762 E2.80316
G1 X106.753 Y106.442 E2.84741
G1 X106.539 Y106.782 E2.86590
G1 X104.532 Y104.775 E2.99647
G1 X104.532 Y105.330 E3.02199
G1 X106.324 Y107.122 E3.13859
G1 X105.845 Y107.197 E3.16091
G1 X104.532 Y105.884 E3.24633
G1 X104.532 Y106.439 E3.27185
G1 X105.290 Y107.197 E3.32119
G1 X104.736 Y107.197 E3.34670
G1 X104.532 Y106.993 E3.35995
G92 E0
G1 X104.081 Y107.648 F7800.000
G1 X102.081 Y107.648 F7800.000
G1 X93.422 Y108.190 F7800.000
G1 X92.069 Y107.648 F7800.000
G1 X86.171 Y98.337 F7800.000
G1 X83.828 Y92.577 E0.28137 F378.000
G1 X85.487 Y92.577 E0.35645
G1 X87.052 Y96.563 E0.55023
G1 X87.239 Y97.041 E0.57344 F378.000
G1 X94.489 Y97.041 E0.90151
G1 X96.230 Y92.577 E1.11832
G1 X97.859 Y92.577 E1.19202
G1 X91.916 Y107.423 E1.91561
G1 X89.867 Y107.423 E2.00834
G1 X86.258 Y98.551 E2.44174
G1 X87.691 Y98.207 F7800.000
G1 X94.048 Y98.207 E2.72937 F378.000
G1 X91.772 Y104.086 E3.01464
G1 X91.063 Y106.198 E3.11545
G1 X90.664 Y106.197 E3.13350
G1 X90.345 Y105.195 E3.18108
G1 X89.756 Y103.544 E3.26040
G1 X87.775 Y98.422 E3.50889
G1 X87.509 Y98.459 F7800.000
G1 X85.816 Y96.765 E3.61833 F540.000
G1 X86.807 Y96.655 F7800.000
G1 X85.060 Y94.909 E3.73121 F540.000
G1 X84.683 Y93.980 F7800.000
G1 X86.451 Y95.749 E3.84550 F540.000
G1 X86.096 Y94.842 F7800.000
G1 X84.305 Y93.052 E3.96120 F540.000
G1 X84.607 Y92.803 E3.97908
G1 X85.740 Y93.936 E4.05229
G1 X85.384 Y93.029 F7800.000
G1 X85.157 Y92.803 E4.06693 F540.000
G1 X85.438 Y95.837 F7800.000
G1 X87.582 Y97.981 E4.20548 F540.000
G1 X88.133 Y97.981 E4.23065
G1 X87.419 Y97.267 E4.27679
G1 X87.969 Y97.267 E4.30196
G1 X88.683 Y97.981 E4.34810
G1 X89.234 Y97.981 E4.37327
G1 X88.520 Y97.267 E4.41942
G1 X89.071 Y97.267 E4.44458
G1 X89.785 Y97.981 E4.49073
G1 X90.336 Y97.981 E4.51589
G1 X89.621 Y97.267 E4.56204
G1 X90.172 Y97.267 E4.58720
G1 X90.886 Y97.981 E4.63335
G1 X91.437 Y97.981 E4.65851
G1 X90.723 Y97.267 E4.70466
G1 X91.274 Y97.267 E4.72983
G1 X91.988 Y97.981 E4.77597
G1 X92.538 Y97.981 E4.80114
G1 X91.824 Y97.267 E4.84728
G1 X92.375 Y97.267 E4.87245
G1 X93.089 Y97.981 E4.91860
G1 X93.640 Y97.981 E4.94376
G1 X92.926 Y97.267 E4.98991
G92 E0
G1 X87.856 Y99.357 F7800.000
G1 X86.193 Y97.694 E0.10748 F540.000
G1 X86.571 Y98.622 F7800.000
G1 X88.204 Y100.255 E0.21300 F540.000
G1 X87.326 Y100.479 F7800.000
G1 X88.898 Y102.051 E0.31461 F540.000
G1 X88.081 Y102.335 F7800.000
G1 X89.588 Y103.842 E0.41196 F540.000
G1 X88.837 Y104.192 F7800.000
G1 X90.189 Y105.544 E0.49936 F540.000
G1 X89.592 Y106.049 F7800.000
G1 X90.740 Y107.197 E0.57356 F540.000
G1 X91.291 Y107.197 E0.59873
G1 X90.517 Y106.423 E0.64875
G1 X91.069 Y106.424 E0.67397
G1 X91.799 Y107.154 E0.72116
G1 X91.962 Y106.767 E0.74037
G1 X91.307 Y106.112 E0.78269
G1 X91.446 Y105.700 E0.80256
G1 X92.120 Y106.374 E0.84610
G1 X92.277 Y105.980 E0.86546
G1 X91.584 Y105.288 E0.91023
G1 X91.723 Y104.875 E0.93010
G1 X92.434 Y105.587 E0.97609
G1 X92.592 Y105.194 E0.99545
G1 X91.861 Y104.463 E1.04266
G1 X92.002 Y104.053 E1.06247
G1 X92.749 Y104.800 E1.11078
G1 X92.907 Y104.407 E1.13013
G1 X92.155 Y103.656 E1.17868
G1 X92.309 Y103.259 E1.19813
G1 X93.064 Y104.014 E1.24692
G1 X93.222 Y103.621 E1.26628
G1 X92.463 Y102.862 E1.31531
G1 X92.617 Y102.465 E1.33476
G1 X93.379 Y103.227 E1.38404
G1 X93.536 Y102.834 E1.40339
G1 X92.770 Y102.068 E1.45291
G1 X92.924 Y101.671 E1.47236
G1 X93.694 Y102.441 E1.52212
G1 X93.851 Y102.047 E1.54148
G1 X93.078 Y101.274 E1.59148
G1 X93.231 Y100.877 E1.61093
G1 X94.009 Y101.654 E1.66117
G1 X94.166 Y101.261 E1.68053
G1 X93.385 Y100.480 E1.73102
G1 X93.539 Y100.083 E1.75047
G1 X94.324 Y100.868 E1.80120
G1 X94.481 Y100.474 E1.82056
G1 X93.692 Y99.686 E1.87153
G1 X93.846 Y99.289 E1.89098
G1 X94.638 Y100.081 E1.94219
G1 X94.796 Y99.688 E1.96155
G1 X94.000 Y98.892 E2.01300
G1 X94.153 Y98.495 E2.03246
G1 X94.953 Y99.294 E2.08416
G1 X95.111 Y98.901 E2.10351
G1 X93.476 Y97.267 E2.20912
G1 X94.027 Y97.267 E2.23429
G1 X95.268 Y98.508 E2.31448
G1 X95.426 Y98.115 E2.33384
G1 X94.578 Y97.267 E2.38862
G1 X94.761 Y96.900 E2.40738
G1 X95.583 Y97.721 E2.46049
G1 X95.740 Y97.328 E2.47984
G1 X94.916 Y96.503 E2.53314
G1 X95.070 Y96.107 E2.55257
G1 X95.898 Y96.935 E2.60605
G1 X96.055 Y96.542 E2.62541
G1 X95.225 Y95.711 E2.67908
G1 X95.379 Y95.315 E2.69851
G1 X96.213 Y96.148 E2.75237
G1 X96.370 Y95.755 E2.77173
G1 X95.534 Y94.919 E2.82578
G1 X95.688 Y94.522 E2.84521
G1 X96.528 Y95.362 E2.89944
G1 X96.685 Y94.968 E2.91880
G1 X95.843 Y94.126 E2.97322
G1 X95.997 Y93.730 E2.99266
G1 X96.842 Y94.575 E3.04727
G1 X97.000 Y94.182 E3.06662
G1 X96.152 Y93.334 E3.12142
G1 X96.306 Y92.938 E3.14086
G1 X97.157 Y93.789 E3.19584
G1 X97.315 Y93.395 E3.21520
G1 X96.723 Y92.803 E3.25347
G1 X97.273 Y92.803 E3.27864
G1 X97.472 Y93.002 E3.29150
G92 E0
G1 X88.551 Y101.153 F7800.000
G1 X86.948 Y99.550 E0.10356 F540.000
G1 X87.704 Y101.407 F7800.000
G1 X89.246 Y102.949 E0.20322 F540.000
G1 X88.459 Y103.264 F7800.000
G1 X89.893 Y104.698 E0.29592 F540.000
G1 X89.214 Y105.120 F7800.000
G1 X90.446 Y106.352 E0.37553 F540.000
G1 X89.969 Y106.977 F7800.000
G1 X90.189 Y107.197 E0.38975 F540.000
M106 S255
G92 E0
G1 Z0.600 F7800.000
G1 X105.003 Y92.352 F7800.000
G1 X105.003 Y102.501 E3.04120 F600.000
G1 X104.953 Y105.185 E3.84543
G1 X105.339 Y106.390 E4.22466
G1 X105.528 Y106.422 E4.28198
G1 X105.828 Y106.449 E4.37217
G1 X106.650 Y105.726 E4.70041
G1 X113.927 Y94.181 E8.78971
G1 X114.650 Y93.507 E9.08590
G1 X115.050 Y93.535 E9.20580
G1 X115.282 Y93.577 E9.27643
G1 X115.634 Y94.729 E9.63745
G1 X115.574 Y97.625 E10.50542
G1 X115.574 Y107.648 E13.50885
G92 E0
G1 X107.591 Y108.344 F7800.000
G1 X102.081 Y107.648 F7800.000
G1 X93.422 Y108.190 F7800.000
G1 X92.069 Y107.648 F7800.000
G1 X88.871 Y100.633 F7800.000
G1 X86.495 Y97.168 E1.25890 F600.000
G1 X84.570 Y92.352 E2.81311
G92 E0
G1 X95.256 Y94.457 F7800.000
G1 X94.602 Y98.774 E1.30813 F600.000
G1 X92.419 Y104.320 E3.09418
G1 X91.711 Y106.245 E3.70872
G1 X91.443 Y106.723 E3.87304
G1 X90.899 Y106.810 E4.03792
G1 X90.329 Y106.736 E4.21016
G1 X90.035 Y106.225 E4.38676
G1 X89.119 Y103.781 E5.16887
G1 X87.133 Y98.775 E6.78268
G1 X86.996 Y97.900 E7.04820
G1 X87.393 Y97.746 E7.17570
G1 X88.020 Y97.624 E7.36708
G1 X93.720 Y97.624 E9.07506
G1 X94.336 Y97.741 E9.26297
G1 X94.735 Y97.894 E9.39110
G1 X95.231 Y97.165 E9.65512
G1 X97.132 Y92.352 E11.20582
G92 E0
G1 Z0.900 F7800.000
G1 X105.003 Y92.352 F7800.000
G1 X105.003 Y102.501 E3.04119 F600.000
G1 X104.953 Y105.185 E3.84543
G1 X105.339 Y106.390 E4.22466
G1 X105.528 Y106.422 E4.28198
G1 X105.828 Y106.449 E4.37217
G1 X106.650 Y105.726 E4.70041
G1 X113.927 Y94.181 E8.78971
G1 X114.650 Y93.507 E9.08590
G1 X115.050 Y93.535 E9.20580
G1 X115.282 Y93.577 E9.27643
G1 X115.634 Y94.729 E9.63746
G1 X115.574 Y97.625 E10.50542
G1 X115.574 Y107.648 E13.50885
G92 E0
G1 X107.591 Y108.344 F7800.000
G1 X102.081 Y107.648 F7800.000
G1 X93.422 Y108.190 F7800.000
G1 X92.069 Y107.648 F7800.000
G1 X88.871 Y100.633 F7800.000
G1 X86.495 Y97.168 E1.25890 F600.000
G1 X84.570 Y92.352 E2.81311
G92 E0
G1 X95.256 Y94.457 F7800.000
G1 X94.602 Y98.774 E1.30814 F600.000
G1 X92.419 Y104.320 E3.09418
G1 X91.711 Y106.245 E3.70873
G1 X91.443 Y106.723 E3.87305
G1 X90.899 Y106.810 E4.03793
G1 X90.329 Y106.736 E4.21017
G1 X90.035 Y106.225 E4.38676
G1 X89.119 Y103.781 E5.16887
G1 X87.133 Y98.775 E6.78269
G1 X86.996 Y97.900 E7.04820
G1 X87.393 Y97.746 E7.17571
G1 X88.020 Y97.624 E7.36709
G1 X93.720 Y97.624 E9.07507
G1 X94.336 Y97.741 E9.26298
G1 X94.735 Y97.894 E9.39111
G1 X95.231 Y97.165 E9.65512
G1 X97.132 Y92.352 E11.20582
G92 E0
G1 Z1.200 F7800.000
G1 X105.003 Y92.352 F7800.000
G1 X105.003 Y102.501 E3.04120 F600.000
G1 X104.953 Y105.185 E3.84543
G1 X105.339 Y106.390 E4.22466
G1 X105.528 Y106.422 E4.28197
G1 X105.828 Y106.449 E4.37217
G1 X106.650 Y105.726 E4.70041
G1 X113.927 Y94.181 E8.78971
G1 X114.650 Y93.507 E9.08590
G1 X115.050 Y93.535 E9.20580
G1 X115.282 Y93.577 E9.27643
G1 X115.634 Y94.729 E9.63746
G1 X115.574 Y97.625 E10.50542
G1 X115.574 Y107.648 E13.50885
G92 E0
G1 X107.591 Y108.344 F7800.000
G1 X102.081 Y107.648 F7800.000
G1 X93.422 Y108.190 F7800.000
G1 X92.069 Y107.648 F7800.000
G1 X88.871 Y100.633 F7800.000
G1 X86.495 Y97.168 E1.25890 F600.000
G1 X84.570 Y92.352 E2.81311
G92 E0
G1 X95.256 Y94.457 F7800.000
G1 X94.602 Y98.774 E1.30813 F600.000
G1 X92.419 Y104.320 E3.09418
G1 X91.711 Y106.245 E3.70872
G1 X91.443 Y106.723 E3.87304
G1 X90.899 Y106.810 E4.03792
G1 X90.329 Y106.736 E4.21016
G1 X90.035 Y106.225 E4.38676
G1 X89.119 Y103.781 E5.16887
G1 X87.133 Y98.775 E6.78268
G1 X86.996 Y97.900 E7.04820
G1 X87.393 Y97.746 E7.17570
G1 X88.020 Y97.624 E7.36708
G1 X93.720 Y97.624 E9.07506
G1 X94.336 Y97.741 E9.26297
G1 X94.735 Y97.894 E9.39110
G1 X95.231 Y97.165 E9.65512
G1 X97.132 Y92.352 E11.20582
G92 E0
G1 Z1.500 F7800.000
G1 X105.003 Y92.352 F7800.000
G1 X105.003 Y102.501 E3.04119 F600.000
G1 X104.953 Y105.185 E3.84543
G1 X105.339 Y106.390 E4.22466
G1 X105.528 Y106.422 E4.28198
G1 X105.828 Y106.449 E4.37217
G1 X106.650 Y105.726 E4.70041
G1 X113.927 Y94.181 E8.78971
G1 X114.650 Y93.507 E9.08590
G1 X115.050 Y93.535 E9.20581
G1 X115.282 Y93.577 E9.27643
G1 X115.634 Y94.729 E9.63746
G1 X115.574 Y97.625 E10.50542
G1 X115.574 Y107.648 E13.50885
G92 E0
G1 X107.591 Y108.344 F7800.000
G1 X102.081 Y107.648 F7800.000
G1 X93.422 Y108.190 F7800.000
G1 X92.069 Y107.648 F7800.000
G1 X88.871 Y100.633 F7800.000
G1 X86.495 Y97.168 E1.25890 F600.000
G1 X84.570 Y92.352 E2.81311
G92 E0
G1 X95.256 Y94.457 F7800.000
G1 X94.602 Y98.774 E1.30814 F600.000
G1 X92.419 Y104.320 E3.09418
G1 X91.711 Y106.245 E3.70873
G1 X91.443 Y106.723 E3.87305
G1 X90.899 Y106.810 E4.03793
