; generated by Slic3r 1.2.9 on 2016-03-11 at 01:22:19

; external perimeters extrusion width = 1.54mm
; perimeters extrusion width = 2.62mm
; infill extrusion width = 6.27mm
; solid infill extrusion width = 2.62mm
; top infill extrusion width = 2.62mm

M107
M104 S30 ; set temperature
G28 ; home all axes
G1 Z5 F5000 ; lift nozzle
M302
M92 E10000
M500
M501
G1 E100
M109 S30 ; wait for temperature to be reached
G21 ; set units to millimeters
G90 ; use absolute coordinates
M82 ; use absolute distances for extrusion
G92 E0
G1 Z0.300 F7800.000
G1 X111.850 Y92.609 F7800.000
G1 X112.659 Y92.802 E0.03763 F378.000
G1 X113.832 Y93.319 E0.09562
G1 X114.850 Y94.028 E0.15174
G1 X115.695 Y94.915 E0.20719
G1 X116.372 Y95.983 E0.26441
G1 X116.866 Y97.209 E0.32424
G1 X117.165 Y98.570 E0.38724
G1 X117.264 Y100.065 E0.45507
G1 X117.166 Y101.563 E0.52300
G1 X116.871 Y102.916 E0.58564
G1 X116.383 Y104.124 E0.64461
G1 X115.713 Y105.169 E0.70079
G1 X114.872 Y106.032 E0.75532
G1 X113.856 Y106.716 E0.81073
G1 X112.683 Y107.214 E0.86838
G1 X111.371 Y107.514 E0.92928
G1 X109.922 Y107.614 E0.99503
G1 X107.758 Y107.390 E1.09347
G1 X105.954 Y106.725 E1.18048
G1 X104.495 Y105.621 E1.26326
G1 X103.418 Y104.124 E1.34668
G1 X102.769 Y102.275 E1.43535
G1 X102.551 Y100.061 E1.53603
G1 X102.648 Y98.562 E1.60401
G1 X102.941 Y97.196 E1.66724
G1 X103.427 Y95.965 E1.72712
G1 X104.094 Y94.896 E1.78414
G1 X104.932 Y94.011 E1.83927
G1 X105.944 Y93.308 E1.89503
G1 X107.116 Y92.797 E1.95288
G1 X108.433 Y92.489 E2.01408
G1 X109.897 Y92.386 E2.08048
G1 X111.255 Y92.483 E2.14211
G1 X111.626 Y92.556 E2.15919 F378.000
G1 X111.489 Y93.791 F7800.000
G1 X111.580 Y93.801 E2.16335 F378.000
G1 X112.996 Y94.368 E2.23236
G1 X114.131 Y95.317 E2.29930
G1 X114.952 Y96.605 E2.36845
G1 X115.441 Y98.190 E2.44348
G1 X115.602 Y100.065 E2.52866
G1 X115.439 Y101.868 E2.61057
G1 X114.947 Y103.408 E2.68372
G1 X114.119 Y104.678 E2.75232
G1 X112.984 Y105.623 E2.81914
G1 X111.579 Y106.188 E2.88764
G1 X109.919 Y106.374 E2.96324
G1 X108.246 Y106.191 E3.03939
G1 X106.833 Y105.634 E3.10813
G1 X105.692 Y104.701 E3.17481
G1 X104.860 Y103.438 E3.24325
G1 X104.366 Y101.890 E3.31677
G1 X104.203 Y100.065 E3.39969
G1 X104.368 Y98.242 E3.48250
G1 X104.867 Y96.676 E3.55689
G1 X105.705 Y95.372 E3.62705
G1 X106.848 Y94.394 E3.69510
G1 X108.250 Y93.808 E3.76385
G1 X109.707 Y93.637 E3.83025
G1 X109.896 Y93.615 E3.83885 F378.000
G1 X111.259 Y93.766 E3.90090
G1 X111.726 Y93.581 F7800.000
G1 X110.830 Y92.685 E3.95900 F540.000
G1 X110.234 Y92.643 E3.98641
G1 X111.104 Y93.512 E4.04281
G1 X110.481 Y93.443 E4.07153
G1 X109.662 Y92.623 E4.12471
G1 X109.145 Y92.660 E4.14847
G1 X109.883 Y93.398 E4.19636
G1 X109.389 Y93.456 E4.21923
G1 X108.629 Y92.696 E4.26853
G1 X108.150 Y92.770 E4.29076
G1 X108.894 Y93.514 E4.33901
G1 X108.399 Y93.572 E4.36188
G1 X107.702 Y92.875 E4.40710
G1 X107.254 Y92.980 E4.42822
G1 X107.978 Y93.704 E4.47520
G1 X107.588 Y93.867 E4.49460
G1 X106.852 Y93.131 E4.54237
G1 X106.466 Y93.299 E4.56165
G1 X107.198 Y94.030 E4.60910
G1 X106.808 Y94.193 E4.62850
G1 X106.081 Y93.467 E4.67563
G1 X105.745 Y93.683 E4.69399
G1 X106.500 Y94.438 E4.74300
G1 X106.202 Y94.693 E4.76100
G1 X105.418 Y93.910 E4.81185
G1 X105.100 Y94.144 E4.83000
G1 X105.904 Y94.948 E4.88216
G1 X105.606 Y95.203 E4.90015
G1 X104.824 Y94.421 E4.95092
G1 X104.547 Y94.697 E4.96887
G1 X105.375 Y95.525 E5.02259
G1 X105.159 Y95.862 E5.04095
G1 X104.278 Y94.981 E5.09812
G1 X104.061 Y95.317 E5.11647
G1 X104.942 Y96.199 E5.17368
G1 X104.726 Y96.535 E5.19204
G1 X103.848 Y95.658 E5.24900
G1 X103.636 Y95.998 E5.26741
G1 X104.570 Y96.932 E5.32805
G1 X104.436 Y97.352 E5.34825
G1 X103.475 Y96.391 E5.41062
G1 X103.319 Y96.787 E5.43018
G1 X104.303 Y97.771 E5.49404
G1 X104.169 Y98.191 E5.51423
G1 X103.162 Y97.184 E5.57957
G1 X103.062 Y97.636 E5.60084
G1 X104.108 Y98.683 E5.66874
G1 X104.062 Y99.190 E5.69210
G1 X102.964 Y98.092 E5.76335
G1 X102.870 Y98.551 E5.78484
G1 X104.016 Y99.697 E5.85922
G1 X103.982 Y100.215 E5.88306
G1 X102.836 Y99.070 E5.95739
G1 X102.803 Y99.589 E5.98126
G1 X104.036 Y100.823 E6.06131
G1 X104.090 Y101.430 E6.08929
G1 X102.793 Y100.133 E6.17347
G1 X102.854 Y100.746 E6.20176
G1 X104.146 Y102.039 E6.28563
G1 X104.405 Y102.851 E6.32476
G1 X102.914 Y101.360 E6.42153
G1 X102.975 Y101.973 E6.44983
G1 X104.675 Y103.673 E6.56014
G1 X103.514 Y103.619 F7800.000
G1 X106.572 Y106.676 E6.75857 F540.000
G1 X106.971 Y105.969 F7800.000
G1 X108.201 Y107.200 E6.83845 F540.000
G1 X108.818 Y107.264 E6.86690
G1 X107.883 Y106.329 E6.92759
G1 X108.570 Y106.463 E6.95972
G1 X109.435 Y107.328 E7.01583
G1 X110.045 Y107.385 E7.04394
G1 X109.192 Y106.531 E7.09931
G1 X109.813 Y106.600 E7.12799
G1 X110.562 Y107.349 E7.17662
G1 X111.080 Y107.313 E7.20041
G1 X110.315 Y106.549 E7.25002
G1 X110.812 Y106.493 E7.27297
G1 X111.572 Y107.253 E7.32229
G1 X112.022 Y107.150 E7.34348
G1 X111.310 Y106.437 E7.38973
G1 X111.759 Y106.333 E7.41088
G1 X112.472 Y107.047 E7.45721
G1 X112.888 Y106.909 E7.47729
G1 X112.153 Y106.174 E7.52498
G1 X112.547 Y106.016 E7.54449
G1 X113.276 Y106.745 E7.59179
G1 X113.664 Y106.580 E7.61114
G1 X112.942 Y105.857 E7.65804
G1 X113.272 Y105.634 E7.67632
G1 X114.014 Y106.376 E7.72446
G1 X114.344 Y106.153 E7.74274
G1 X113.573 Y105.383 E7.79275
G1 X113.875 Y105.132 E7.81077
G1 X114.674 Y105.930 E7.86257
G1 X114.950 Y105.653 E7.88052
G1 X114.177 Y104.880 E7.93068
G1 X114.421 Y104.571 E7.94875
G1 X115.227 Y105.377 E8.00103
G1 X115.503 Y105.100 E8.01898
G1 X114.639 Y104.236 E8.07504
G1 X114.857 Y103.902 E8.09338
G1 X115.733 Y104.777 E8.15021
G1 X115.949 Y104.440 E8.16858
G1 X115.075 Y103.567 E8.22527
G1 X115.236 Y103.175 E8.24471
G1 X116.165 Y104.103 E8.30498
G1 X116.331 Y103.716 E8.32431
G1 X115.370 Y102.756 E8.38663
G1 X115.504 Y102.337 E8.40682
G1 X116.490 Y103.322 E8.47077
G1 X116.649 Y102.928 E8.49027
G1 X115.638 Y101.918 E8.55586
G1 X115.699 Y101.425 E8.57863
G1 X116.751 Y102.478 E8.64692
G1 X116.850 Y102.023 E8.66825
G1 X115.745 Y100.918 E8.73999
G1 X115.790 Y100.411 E8.76336
G1 X116.944 Y101.565 E8.83825
G1 X116.979 Y101.046 E8.86211
G1 X115.821 Y99.888 E8.93726
G1 X115.769 Y99.283 E8.96512
G1 X117.013 Y100.527 E9.04585
G1 X117.027 Y99.988 E9.07058
G1 X115.717 Y98.678 E9.15562
G1 X115.665 Y98.073 E9.18349
G1 X116.988 Y99.396 E9.26934
G1 X116.948 Y98.803 E9.29659
G1 X115.426 Y97.281 E9.39535
G1 X115.180 Y96.482 E9.43372
G1 X116.814 Y98.116 E9.53975
G1 X116.659 Y97.408 E9.57302
G1 X114.288 Y95.037 E9.72689
G1 X114.430 Y95.179 F7800.000
G1 X112.197 Y92.946 E9.87184 F540.000
G1 X111.471 Y92.773 F7800.000
G1 X112.642 Y93.944 E9.94782 F540.000
G1 X113.083 Y93.279 F7800.000
G1 X116.293 Y96.489 E10.15607 F540.000
G1 X115.312 Y94.955 F7800.000
G1 X114.473 Y94.116 E10.21049 F540.000
G92 E0
G1 X104.939 Y95.131 F7800.000
G1 X104.138 Y96.336 F7800.000
G1 X103.574 Y98.085 F7800.000
G1 X103.377 Y100.047 F7800.000
G1 X103.328 Y100.048 F7800.000
G1 X103.215 Y102.766 F7800.000
G1 X107.448 Y107.000 E0.27471 F540.000
G1 X104.917 Y105.574 F7800.000
G1 X104.562 Y105.220 E0.29769 F540.000
G92 E0
G1 X102.325 Y100.065 F7800.000
G1 X99.328 Y96.403 F7800.000
G1 X100.279 Y94.024 F7800.000
G1 X100.447 Y93.648 F7800.000
G1 X97.208 Y92.352 F7800.000
G1 X94.592 Y94.256 F7800.000
G1 X95.247 Y92.577 E0.08153 F378.000
G1 X96.876 Y92.577 E0.15523
G1 X90.933 Y107.423 E0.87883
G1 X88.884 Y107.423 E0.97156
G1 X82.845 Y92.577 E1.69678
G1 X84.504 Y92.577 E1.77185
G1 X86.068 Y96.563 E1.96563
G1 X86.256 Y97.041 E1.98885 F378.000
G1 X93.506 Y97.041 E2.31691
G1 X94.508 Y94.471 E2.44174
G1 X93.065 Y98.207 F7800.000
G1 X90.789 Y104.086 E2.72701 F378.000
G1 X90.080 Y106.198 E2.82781
G1 X89.680 Y106.197 E2.84587
G1 X89.361 Y105.195 E2.89345
G1 X88.772 Y103.544 E2.97276
G1 X86.708 Y98.207 E3.23171
G1 X92.834 Y98.207 E3.50889 F378.000
G1 X91.942 Y97.267 F7800.000
G1 X92.656 Y97.981 E3.55504 F540.000
G1 X92.106 Y97.981 E3.58020
G1 X91.392 Y97.267 E3.62635
G1 X90.841 Y97.267 E3.65151
G1 X91.555 Y97.981 E3.69766
G1 X91.004 Y97.981 E3.72283
G1 X90.290 Y97.267 E3.76897
G1 X89.739 Y97.267 E3.79414
G1 X90.453 Y97.981 E3.84028
G1 X89.903 Y97.981 E3.86545
G1 X89.189 Y97.267 E3.91160
G1 X88.638 Y97.267 E3.93676
G1 X89.352 Y97.981 E3.98291
G1 X88.801 Y97.981 E4.00807
G1 X88.087 Y97.267 E4.05422
G1 X87.537 Y97.267 E4.07938
G1 X88.251 Y97.981 E4.12553
G1 X87.700 Y97.981 E4.15070
G1 X86.986 Y97.267 E4.19684
G1 X86.435 Y97.267 E4.22201
G1 X87.149 Y97.981 E4.26815
G1 X86.598 Y97.981 E4.29332
G1 X84.454 Y95.837 E4.43187
G1 X84.832 Y96.765 F7800.000
G1 X86.526 Y98.459 E4.54131 F540.000
G1 X85.587 Y98.622 F7800.000
G1 X87.220 Y100.255 E4.64683 F540.000
G1 X86.343 Y100.479 F7800.000
G1 X87.915 Y102.051 E4.74844 F540.000
G1 X87.098 Y102.335 F7800.000
G1 X88.604 Y103.842 E4.84579 F540.000
G1 X87.853 Y104.192 F7800.000
G1 X89.205 Y105.544 E4.93318 F540.000
G1 X88.608 Y106.049 F7800.000
G1 X89.757 Y107.197 E5.00739 F540.000
G1 X90.307 Y107.197 E5.03255
G1 X89.533 Y106.423 E5.08258
G1 X90.085 Y106.424 E5.10780
G1 X90.815 Y107.154 E5.15499
G1 X90.979 Y106.767 E5.17420
G1 X90.324 Y106.112 E5.21652
G1 X90.462 Y105.700 E5.23639
G1 X91.136 Y106.374 E5.27993
G1 X91.293 Y105.980 E5.29929
G1 X90.601 Y105.288 E5.34405
G1 X90.739 Y104.875 E5.36392
G1 X91.451 Y105.587 E5.40992
G1 X91.608 Y105.194 E5.42927
G1 X90.878 Y104.463 E5.47649
G1 X91.018 Y104.053 E5.49630
G1 X91.766 Y104.800 E5.54460
G1 X91.923 Y104.407 E5.56396
G1 X91.172 Y103.656 E5.61251
G1 X91.326 Y103.259 E5.63196
G1 X92.081 Y104.014 E5.68075
G1 X92.238 Y103.621 E5.70011
G1 X91.479 Y102.862 E5.74914
G1 X91.633 Y102.465 E5.76859
G1 X92.395 Y103.227 E5.81786
G1 X92.553 Y102.834 E5.83722
G1 X91.787 Y102.068 E5.88674
G1 X91.940 Y101.671 E5.90619
G1 X92.710 Y102.441 E5.95595
G1 X92.868 Y102.047 E5.97531
G1 X92.094 Y101.274 E6.02531
G1 X92.248 Y100.877 E6.04476
G1 X93.025 Y101.654 E6.09500
G1 X93.183 Y101.261 E6.11436
G1 X92.401 Y100.480 E6.16484
G1 X92.555 Y100.083 E6.18430
G1 X93.340 Y100.868 E6.23503
G1 X93.498 Y100.474 E6.25438
G1 X92.709 Y99.686 E6.30535
G1 X92.862 Y99.289 E6.32481
G1 X93.655 Y100.081 E6.37602
G1 X93.812 Y99.688 E6.39538
G1 X93.016 Y98.892 E6.44683
G1 X93.170 Y98.494 E6.46629
G1 X93.970 Y99.294 E6.51798
G1 X94.127 Y98.901 E6.53734
G1 X92.493 Y97.267 E6.64295
G1 X93.044 Y97.267 E6.66811
G1 X94.285 Y98.508 E6.74831
G1 X94.442 Y98.115 E6.76767
G1 X93.594 Y97.267 E6.82245
G1 X93.778 Y96.900 E6.84121
G1 X94.600 Y97.721 E6.89431
G1 X94.757 Y97.328 E6.91367
G1 X93.932 Y96.503 E6.96697
G1 X94.087 Y96.107 E6.98640
G1 X94.914 Y96.935 E7.03988
G1 X95.072 Y96.541 E7.05924
G1 X94.241 Y95.711 E7.11291
G1 X94.396 Y95.315 E7.13234
G1 X95.229 Y96.148 E7.18620
G1 X95.387 Y95.755 E7.20556
G1 X94.550 Y94.919 E7.25960
G1 X94.705 Y94.522 E7.27904
G1 X95.544 Y95.362 E7.33327
G1 X95.702 Y94.968 E7.35263
G1 X94.859 Y94.126 E7.40705
G1 X95.014 Y93.730 E7.42648
G1 X95.859 Y94.575 E7.48109
G1 X96.016 Y94.182 E7.50045
G1 X95.168 Y93.334 E7.55525
G1 X95.323 Y92.938 E7.57468
G1 X96.174 Y93.789 E7.62967
G1 X96.331 Y93.395 E7.64903
G1 X95.739 Y92.803 E7.68730
G1 X96.290 Y92.803 E7.71247
G1 X96.489 Y93.002 E7.72533
G92 E0
G1 X85.824 Y96.655 F7800.000
G1 X84.077 Y94.909 E0.11288 F540.000
G1 X83.699 Y93.980 F7800.000
G1 X85.468 Y95.749 E0.22717 F540.000
G1 X85.112 Y94.842 F7800.000
G1 X83.322 Y93.052 E0.34287 F540.000
G1 X83.623 Y92.803 E0.36075
G1 X84.756 Y93.936 E0.43396
G1 X84.400 Y93.029 F7800.000
G1 X84.174 Y92.803 E0.44860 F540.000
G1 X85.210 Y97.694 F7800.000
G1 X86.873 Y99.357 E0.55608 F540.000
G1 X85.965 Y99.550 F7800.000
G1 X87.568 Y101.153 E0.65964 F540.000
G1 X86.720 Y101.407 F7800.000
G1 X88.262 Y102.949 E0.75930 F540.000
G1 X87.475 Y103.264 F7800.000
G1 X88.910 Y104.698 E0.85200 F540.000
G1 X88.231 Y105.120 F7800.000
G1 X89.463 Y106.352 E0.93161 F540.000
G1 X88.986 Y106.977 F7800.000
G1 X89.206 Y107.197 E0.94582 F540.000
M106 S255
G92 E0
G1 Z0.600 F7800.000
G1 X103.379 Y100.047 F7800.000
G1 X103.484 Y98.678 E0.41153 F600.000
G1 X103.603 Y97.973 E0.62586
G1 X103.745 Y97.439 E0.79152
G1 X104.146 Y96.327 E1.14548
G1 X104.735 Y95.391 E1.47684
G1 X105.050 Y94.989 E1.62985
G1 X105.241 Y94.779 E1.71523
G1 X105.434 Y94.596 E1.79480
G1 X106.293 Y93.933 E2.11989
G1 X106.619 Y93.754 E2.23137
G1 X107.333 Y93.449 E2.46387
G1 X107.978 Y93.240 E2.66725
G1 X108.529 Y93.127 E2.83582
G1 X109.896 Y93.002 E3.24710
G1 X111.251 Y93.123 E3.65472
G1 X111.837 Y93.240 E3.83385
G1 X112.447 Y93.433 E4.02546
G1 X113.204 Y93.752 E4.27153
G1 X113.500 Y93.910 E4.37211
G1 X114.377 Y94.580 E4.70267
G1 X114.559 Y94.750 E4.77748
G1 X114.752 Y94.962 E4.86333
G1 X115.087 Y95.390 E5.02623
G1 X115.679 Y96.339 E5.36129
G1 X116.076 Y97.454 E5.71594
G1 X116.246 Y98.145 E5.92928
G1 X116.329 Y98.688 E6.09399
G1 X116.432 Y100.065 E6.50779
G1 X116.326 Y101.445 E6.92233
G1 X116.207 Y102.140 E7.13364
G1 X116.066 Y102.667 E7.29724
G1 X115.668 Y103.754 E7.64414
G1 X115.082 Y104.668 E7.96932
G1 X114.768 Y105.061 E8.12004
G1 X114.570 Y105.273 E8.20698
G1 X114.383 Y105.446 E8.28337
G1 X113.519 Y106.094 E8.60707
G1 X113.203 Y106.261 E8.71416
G1 X112.473 Y106.563 E8.95086
G1 X111.843 Y106.761 E9.14865
G1 X111.276 Y106.873 E9.32169
G1 X109.932 Y106.992 E9.72602
G1 X108.208 Y106.812 E10.24540
G1 X107.985 Y106.773 E10.31347
G1 X106.622 Y106.264 E10.74920
G1 X106.295 Y106.101 E10.85885
G1 X105.258 Y105.287 E11.25388
G1 X105.042 Y105.088 E11.34188
G1 X104.131 Y103.753 E11.82618
G1 X103.595 Y102.162 E12.32903
G1 X103.553 Y101.938 E12.39747
G1 X103.379 Y100.047 E12.96633
G92 E0
G1 X102.325 Y100.065 F7800.000
G1 X100.020 Y94.599 F7800.000
G1 X97.208 Y91.256 F7800.000
G1 X93.595 Y91.768 F7800.000
G1 X91.078 Y93.488 F7800.000
G1 X93.352 Y96.816 F7800.000
G1 X87.888 Y100.633 F7800.000
G1 X85.511 Y97.168 E1.25890 F600.000
G1 X83.586 Y92.352 E2.81311
G92 E0
G1 X94.272 Y94.457 F7800.000
G1 X93.619 Y98.774 E1.30813 F600.000
G1 X91.435 Y104.320 E3.09418
G1 X90.727 Y106.245 E3.70872
G1 X90.459 Y106.723 E3.87304
G1 X89.916 Y106.810 E4.03792
G1 X89.346 Y106.736 E4.21016
G1 X89.052 Y106.225 E4.38676
G1 X88.136 Y103.781 E5.16887
G1 X86.149 Y98.775 E6.78269
G1 X86.012 Y97.900 E7.04820
G1 X86.409 Y97.746 E7.17570
G1 X87.036 Y97.624 E7.36708
G1 X92.736 Y97.624 E9.07506
G1 X93.352 Y97.741 E9.26297
G1 X93.752 Y97.894 E9.39110
G1 X94.247 Y97.165 E9.65512
G1 X96.149 Y92.352 E11.20582
G92 E0
G1 Z0.900 F7800.000
G1 X103.379 Y100.047 F7800.000
G1 X103.484 Y98.678 E0.41153 F600.000
G1 X103.603 Y97.973 E0.62586
G1 X103.745 Y97.439 E0.79152
G1 X104.146 Y96.327 E1.14548
G1 X104.735 Y95.391 E1.47684
G1 X105.050 Y94.989 E1.62985
G1 X105.241 Y94.779 E1.71523
G1 X105.434 Y94.596 E1.79480
G1 X106.293 Y93.933 E2.11989
G1 X106.619 Y93.754 E2.23137
G1 X107.333 Y93.449 E2.46387
G1 X107.978 Y93.240 E2.66725
G1 X108.529 Y93.127 E2.83582
G1 X109.896 Y93.002 E3.24710
G1 X111.251 Y93.123 E3.65472
G1 X111.837 Y93.240 E3.83385
G1 X112.447 Y93.433 E4.02546
G1 X113.204 Y93.752 E4.27153
G1 X113.500 Y93.910 E4.37211
G1 X114.377 Y94.580 E4.70267
G1 X114.559 Y94.750 E4.77748
G1 X114.752 Y94.962 E4.86333
G1 X115.087 Y95.390 E5.02623
G1 X115.679 Y96.339 E5.36129
G1 X116.076 Y97.454 E5.71595
G1 X116.246 Y98.145 E5.92928
G1 X116.329 Y98.688 E6.09399
G1 X116.432 Y100.065 E6.50779
G1 X116.326 Y101.445 E6.92233
G1 X116.207 Y102.140 E7.13364
G1 X116.066 Y102.667 E7.29724
G1 X115.668 Y103.754 E7.64414
G1 X115.082 Y104.668 E7.96932
G1 X114.768 Y105.061 E8.12004
G1 X114.570 Y105.273 E8.20698
G1 X114.383 Y105.446 E8.28337
G1 X113.519 Y106.094 E8.60707
G1 X113.203 Y106.261 E8.71416
G1 X112.473 Y106.563 E8.95086
G1 X111.843 Y106.761 E9.14865
G1 X111.276 Y106.873 E9.32169
G1 X109.932 Y106.992 E9.72602
G1 X108.208 Y106.812 E10.24540
G1 X107.985 Y106.773 E10.31347
G1 X106.622 Y106.264 E10.74920
G1 X106.295 Y106.101 E10.85885
G1 X105.258 Y105.287 E11.25388
G1 X105.042 Y105.088 E11.34188
G1 X104.131 Y103.753 E11.82618
G1 X103.595 Y102.162 E12.32903
G1 X103.553 Y101.938 E12.39747
G1 X103.379 Y100.047 E12.96633
G92 E0
G1 X102.325 Y100.065 F7800.000
G1 X100.020 Y94.599 F7800.000
G1 X97.208 Y91.256 F7800.000
G1 X93.595 Y91.768 F7800.000
G1 X91.078 Y93.488 F7800.000
G1 X93.352 Y96.816 F7800.000
G1 X87.888 Y100.633 F7800.000
G1 X85.511 Y97.168 E1.25890 F600.000
G1 X83.586 Y92.352 E2.81311
