; generated by Slic3r 1.2.9 on 2016-03-11 at 01:22:22

; external perimeters extrusion width = 1.54mm
; perimeters extrusion width = 2.62mm
; infill extrusion width = 6.27mm
; solid infill extrusion width = 2.62mm
; top infill extrusion width = 2.62mm

M107
M104 S30 ; set temperature
G28 ; home all axes
G1 Z5 F5000 ; lift nozzle
M302
M92 E10000
M500
M501
G1 E100
M109 S30 ; wait for temperature to be reached
G21 ; set units to millimeters
G90 ; use absolute coordinates
M82 ; use absolute distances for extrusion
G92 E0
G1 Z0.300 F7800.000
G1 X103.915 Y101.561 F7800.000
G1 X103.915 Y92.577 E0.40652 F378.000
G1 X105.536 Y92.577 E0.47987
G1 X105.536 Y98.940 E0.76779
G1 X110.660 Y98.940 E0.99964 F378.000
G1 X114.636 Y92.577 E1.33915
G1 X116.480 Y92.577 E1.42258
G1 X112.194 Y99.088 E1.77528
G1 X113.551 Y99.461 E1.83894
G1 X114.418 Y99.924 E1.88344
G1 X115.123 Y100.565 E1.92654
G1 X115.644 Y101.351 E1.96923
G1 X115.958 Y102.254 E2.01246
G1 X116.063 Y103.277 E2.05900
G1 X115.914 Y104.492 E2.11438
G1 X115.472 Y105.500 E2.16417
G1 X114.737 Y106.318 E2.21393
G1 X113.723 Y106.927 E2.26747
G1 X112.443 Y107.297 E2.32778
G1 X110.882 Y107.423 E2.39862
G1 X103.915 Y107.423 E2.71387
G1 X103.915 Y101.792 E2.96867
G1 X105.536 Y101.792 F7800.000
G1 X105.536 Y100.127 E3.04401 F378.000
G1 X110.782 Y100.127 E3.28136 F378.000
G1 X111.826 Y100.215 E3.32878
G1 X112.723 Y100.485 E3.37118
G1 X113.458 Y100.943 E3.41038
G1 X114.002 Y101.573 E3.44805
G1 X114.327 Y102.349 E3.48612
G1 X114.434 Y103.258 E3.52750
G1 X114.326 Y104.137 E3.56758
G1 X113.994 Y104.880 E3.60440
G1 X113.439 Y105.469 E3.64102
G1 X112.691 Y105.888 E3.67983
G1 X111.772 Y106.134 E3.72287
G1 X110.694 Y106.214 E3.77181
G1 X105.536 Y106.214 E4.00517
G1 X105.536 Y102.023 E4.19481
G1 X104.141 Y98.753 F7800.000
G1 X105.310 Y99.922 E4.27017 F540.000
G1 X105.310 Y100.472 E4.29521
G1 X104.141 Y99.303 E4.37057
G1 X104.141 Y99.852 E4.39561
G1 X105.310 Y101.021 E4.47097
G1 X105.310 Y101.570 E4.49601
G1 X104.141 Y100.401 E4.57137
G1 X104.141 Y100.951 E4.59641
G1 X105.310 Y102.120 E4.67177
G1 X105.310 Y102.669 E4.69681
G1 X104.141 Y101.500 E4.77217
G1 X104.141 Y102.049 E4.79721
G1 X105.310 Y103.218 E4.87257
G1 X105.310 Y103.768 E4.89761
G1 X104.141 Y102.599 E4.97297
G1 X104.141 Y103.148 E4.99801
G1 X105.310 Y104.317 E5.07337
G1 X105.310 Y104.866 E5.09841
G1 X104.141 Y103.697 E5.17377
G1 X104.141 Y104.247 E5.19881
G1 X105.310 Y105.416 E5.27417
G1 X105.310 Y105.965 E5.29921
G1 X104.141 Y104.796 E5.37457
G1 X104.141 Y105.345 E5.39961
G1 X105.993 Y107.197 E5.51897
G1 X105.444 Y107.197 E5.54400
G1 X104.141 Y105.895 E5.62795
G1 X104.141 Y106.444 E5.65299
G1 X104.894 Y107.197 E5.70152
G1 X104.345 Y107.197 E5.72656
G1 X104.141 Y106.993 E5.73969
G1 X105.785 Y106.440 F7800.000
G1 X106.542 Y107.197 E5.78849 F540.000
G1 X107.092 Y107.197 E5.81353
G1 X106.334 Y106.440 E5.86233
G1 X106.884 Y106.440 E5.88737
G1 X107.641 Y107.197 E5.93617
G1 X108.190 Y107.197 E5.96121
G1 X107.433 Y106.440 E6.01002
G1 X107.982 Y106.440 E6.03505
G1 X108.740 Y107.197 E6.08386
G1 X109.289 Y107.197 E6.10890
G1 X108.532 Y106.440 E6.15770
G1 X109.081 Y106.440 E6.18274
G1 X109.838 Y107.197 E6.23154
G1 X110.388 Y107.197 E6.25658
G1 X109.631 Y106.440 E6.30538
G1 X110.180 Y106.440 E6.33042
G1 X110.937 Y107.197 E6.37923
G1 X111.446 Y107.157 E6.40252
G1 X110.722 Y106.433 E6.44923
G1 X111.233 Y106.395 E6.47260
G1 X111.955 Y107.116 E6.51911
G1 X112.463 Y107.075 E6.54235
G1 X111.744 Y106.356 E6.58869
G1 X112.178 Y106.241 E6.60914
G1 X112.890 Y106.953 E6.65506
G1 X113.316 Y106.830 E6.67528
G1 X112.611 Y106.125 E6.72072
G1 X112.985 Y105.949 E6.73954
G1 X113.730 Y106.694 E6.78759
G1 X114.074 Y106.488 E6.80584
G1 X113.337 Y105.752 E6.85331
G1 X113.655 Y105.520 E6.87124
G1 X114.417 Y106.282 E6.92033
G1 X114.718 Y106.034 E6.93812
G1 X113.921 Y105.237 E6.98947
G1 X114.182 Y104.948 E7.00720
G1 X114.986 Y105.753 E7.05907
G1 X115.246 Y105.464 E7.07680
G1 X114.351 Y104.569 E7.13448
G1 X114.521 Y104.189 E7.15344
G1 X115.430 Y105.098 E7.21202
G1 X115.597 Y104.716 E7.23103
G1 X114.596 Y103.714 E7.29558
G1 X114.656 Y103.225 E7.31804
G1 X115.720 Y104.289 E7.38663
G1 X115.780 Y103.800 E7.40910
G1 X114.596 Y102.616 E7.48542
G1 X114.422 Y101.893 E7.51934
G1 X115.829 Y103.300 E7.61004
G1 X112.762 Y100.232 F7800.000
G1 X111.757 Y99.227 E7.67480 F540.000
G1 X112.043 Y98.964 E7.69253
G1 X111.324 Y98.245 E7.73886
G1 X111.535 Y97.907 E7.75703
G1 X112.261 Y98.633 E7.80380
G1 X112.479 Y98.302 E7.82188
G1 X111.747 Y97.569 E7.86909
G1 X111.958 Y97.231 E7.88726
G1 X112.697 Y97.970 E7.93491
G1 X112.915 Y97.639 E7.95298
G1 X112.169 Y96.893 E8.00107
G1 X112.380 Y96.555 E8.01924
G1 X113.133 Y97.308 E8.06777
G1 X113.351 Y96.976 E8.08584
G1 X112.592 Y96.217 E8.13481
G1 X112.803 Y95.879 E8.15298
G1 X113.569 Y96.645 E8.20238
G1 X113.787 Y96.314 E8.22046
G1 X113.014 Y95.541 E8.27030
G1 X113.225 Y95.203 E8.28847
G1 X114.005 Y95.983 E8.33875
G1 X114.223 Y95.651 E8.35683
G1 X113.437 Y94.864 E8.40754
G1 X113.648 Y94.526 E8.42572
G1 X114.442 Y95.320 E8.47687
G1 X114.660 Y94.989 E8.49495
G1 X113.859 Y94.188 E8.54654
G1 X114.070 Y93.850 E8.56472
G1 X114.878 Y94.657 E8.61675
G1 X115.096 Y94.326 E8.63483
G1 X114.282 Y93.512 E8.68730
G1 X114.493 Y93.174 E8.70547
G1 X115.314 Y93.995 E8.75838
G1 X115.532 Y93.664 E8.77646
G1 X114.704 Y92.836 E8.82981
G1 X115.221 Y92.803 E8.85339
G1 X115.750 Y93.332 E8.88751
G1 X115.770 Y92.803 E8.91166
G1 X115.968 Y93.001 E8.92442
G92 E0
G1 X114.809 Y101.494 F7800.000
G1 X114.809 Y101.494 F7800.000
G1 X113.273 Y99.645 F7800.000
G1 X115.581 Y101.953 E0.14879 F540.000
G1 X115.766 Y102.688 E0.18333
G1 X112.515 Y99.436 E0.39294
G1 X111.825 Y99.295 E0.42503
G1 X111.113 Y98.583 E0.47092
G1 X110.902 Y98.921 E0.48909
G1 X111.976 Y99.995 E0.55832
G1 X111.373 Y99.943 E0.58587
G1 X110.597 Y99.166 E0.63594
G1 X110.047 Y99.166 E0.66098
G1 X110.782 Y99.901 E0.70837
G1 X110.233 Y99.901 E0.73341
G1 X109.498 Y99.166 E0.78079
G1 X108.949 Y99.166 E0.80583
G1 X109.684 Y99.901 E0.85322
G1 X109.134 Y99.901 E0.87826
G1 X108.399 Y99.166 E0.92564
G1 X107.850 Y99.166 E0.95068
G1 X108.585 Y99.901 E0.99807
G1 X108.036 Y99.901 E1.02310
G1 X107.301 Y99.166 E1.07049
G1 X106.751 Y99.166 E1.09553
G1 X107.486 Y99.901 E1.14291
G1 X106.937 Y99.901 E1.16795
G1 X106.202 Y99.166 E1.21534
G1 X105.653 Y99.166 E1.24038
G1 X106.388 Y99.901 E1.28776
G1 X105.838 Y99.901 E1.31280
G1 X104.141 Y98.204 E1.42220
G1 X104.141 Y97.655 E1.44724
G1 X105.310 Y98.824 E1.52260
G1 X105.310 Y98.274 E1.54764
G1 X104.141 Y97.105 E1.62300
G1 X104.141 Y96.556 E1.64804
G1 X105.310 Y97.725 E1.72340
G1 X105.310 Y97.176 E1.74844
G1 X104.141 Y96.007 E1.82380
G1 X104.141 Y95.457 E1.84884
G1 X105.310 Y96.626 E1.92420
G1 X105.310 Y96.077 E1.94924
G1 X104.141 Y94.908 E2.02460
G1 X104.141 Y94.359 E2.04964
G1 X105.310 Y95.528 E2.12500
G1 X105.310 Y94.978 E2.15004
G1 X104.141 Y93.809 E2.22540
G1 X104.141 Y93.260 E2.25044
G1 X105.310 Y94.429 E2.32580
G1 X105.310 Y93.880 E2.35084
G1 X104.234 Y92.803 E2.42024
G1 X104.783 Y92.803 E2.44528
G1 X105.310 Y93.330 E2.47927
G92 E0
G1 X105.761 Y98.715 F7800.000
G1 X109.327 Y93.918 F7800.000
G1 X105.761 Y91.352 F7800.000
G1 X97.801 Y91.352 F7800.000
G1 X94.319 Y91.819 F7800.000
G1 X91.736 Y93.584 F7800.000
G1 X93.945 Y96.816 F7800.000
G1 X88.793 Y105.744 F7800.000
G1 X83.437 Y92.577 E0.64322 F378.000
G1 X85.096 Y92.577 E0.71829
G1 X86.661 Y96.563 E0.91207
G1 X86.848 Y97.041 E0.93529 F378.000
G1 X94.098 Y97.041 E1.26335
G1 X95.839 Y92.577 E1.48016
G1 X97.468 Y92.577 E1.55387
G1 X91.525 Y107.423 E2.27746
G1 X89.476 Y107.423 E2.37019
G1 X88.880 Y105.958 E2.44174
G1 X90.076 Y105.578 F7800.000
G1 X89.365 Y103.544 E2.53921 F378.000
G1 X87.300 Y98.207 E2.79816
G1 X93.657 Y98.207 E3.08579 F378.000
G1 X91.381 Y104.086 E3.37105
G1 X90.672 Y106.198 E3.47186
G1 X90.273 Y106.197 E3.48992
G1 X90.146 Y105.798 E3.50888
G1 X89.798 Y105.544 F7800.000
G1 X88.446 Y104.192 E3.59628 F540.000
G1 X89.197 Y103.842 F7800.000
G1 X87.690 Y102.335 E3.69363 F540.000
G1 X88.507 Y102.051 F7800.000
G1 X86.935 Y100.479 E3.79524 F540.000
G1 X87.813 Y100.255 F7800.000
G1 X86.180 Y98.622 E3.90076 F540.000
G1 X87.118 Y98.459 F7800.000
G1 X85.425 Y96.765 E4.01020 F540.000
G1 X86.416 Y96.655 F7800.000
G1 X84.669 Y94.909 E4.12307 F540.000
G1 X84.292 Y93.980 F7800.000
G1 X86.060 Y95.749 E4.23737 F540.000
G1 X85.705 Y94.842 F7800.000
G1 X83.914 Y93.052 E4.35307 F540.000
G1 X84.216 Y92.803 E4.37094
G1 X85.349 Y93.936 E4.44416
G1 X84.993 Y93.029 F7800.000
G1 X84.766 Y92.803 E4.45880 F540.000
G1 X85.047 Y95.837 F7800.000
G1 X87.191 Y97.981 E4.59735 F540.000
G1 X87.742 Y97.981 E4.62251
G1 X87.028 Y97.267 E4.66866
G1 X87.578 Y97.267 E4.69383
G1 X88.292 Y97.981 E4.73997
G1 X88.843 Y97.981 E4.76514
G1 X88.129 Y97.267 E4.81128
G1 X88.680 Y97.267 E4.83645
G1 X89.394 Y97.981 E4.88260
G1 X89.945 Y97.981 E4.90776
G1 X89.230 Y97.267 E4.95391
G1 X89.781 Y97.267 E4.97907
G1 X90.495 Y97.981 E5.02522
G1 X91.046 Y97.981 E5.05038
G1 X90.332 Y97.267 E5.09653
G1 X90.883 Y97.267 E5.12169
G1 X91.597 Y97.981 E5.16784
G1 X92.147 Y97.981 E5.19301
G1 X91.433 Y97.267 E5.23915
G1 X91.984 Y97.267 E5.26432
G1 X92.698 Y97.981 E5.31046
G1 X93.249 Y97.981 E5.33563
G1 X92.535 Y97.267 E5.38178
G92 E0
G1 X87.465 Y99.357 F7800.000
G1 X85.802 Y97.694 E0.10748 F540.000
G1 X86.557 Y99.550 F7800.000
G1 X88.160 Y101.153 E0.21104 F540.000
G1 X87.313 Y101.407 F7800.000
G1 X88.855 Y102.949 E0.31069 F540.000
G1 X88.068 Y103.264 F7800.000
G1 X89.502 Y104.698 E0.40340 F540.000
G1 X88.823 Y105.120 F7800.000
G1 X90.055 Y106.352 E0.48301 F540.000
G1 X89.578 Y106.977 F7800.000
G1 X89.798 Y107.197 E0.49722 F540.000
G1 X89.201 Y106.049 F7800.000
G1 X90.349 Y107.197 E0.57143 F540.000
G1 X90.900 Y107.197 E0.59659
G1 X90.126 Y106.423 E0.64662
G1 X90.678 Y106.424 E0.67184
G1 X91.408 Y107.154 E0.71903
G1 X91.571 Y106.767 E0.73824
G1 X90.916 Y106.112 E0.78056
G1 X91.055 Y105.700 E0.80043
G1 X91.729 Y106.374 E0.84397
G1 X91.886 Y105.980 E0.86333
G1 X91.193 Y105.288 E0.90809
G1 X91.332 Y104.875 E0.92797
G1 X92.043 Y105.587 E0.97396
G1 X92.201 Y105.194 E0.99331
G1 X91.470 Y104.463 E1.04053
G1 X91.611 Y104.053 E1.06034
G1 X92.358 Y104.800 E1.10864
G1 X92.516 Y104.407 E1.12800
G1 X91.764 Y103.656 E1.17655
G1 X91.918 Y103.259 E1.19600
G1 X92.673 Y104.014 E1.24479
G1 X92.831 Y103.621 E1.26415
G1 X92.072 Y102.862 E1.31318
G1 X92.226 Y102.465 E1.33263
G1 X92.988 Y103.227 E1.38190
G1 X93.145 Y102.834 E1.40126
G1 X92.379 Y102.068 E1.45078
G1 X92.533 Y101.671 E1.47023
G1 X93.303 Y102.441 E1.51999
G1 X93.460 Y102.047 E1.53935
G1 X92.687 Y101.274 E1.58935
G1 X92.840 Y100.877 E1.60880
G1 X93.618 Y101.654 E1.65904
G1 X93.775 Y101.261 E1.67840
G1 X92.994 Y100.480 E1.72889
G1 X93.148 Y100.083 E1.74834
G1 X93.933 Y100.868 E1.79907
G1 X94.090 Y100.474 E1.81842
G1 X93.301 Y99.686 E1.86939
G1 X93.455 Y99.289 E1.88885
G1 X94.247 Y100.081 E1.94006
G1 X94.405 Y99.688 E1.95942
G1 X93.609 Y98.892 E2.01087
G1 X93.762 Y98.495 E2.03033
G1 X94.562 Y99.294 E2.08202
G1 X94.720 Y98.901 E2.10138
G1 X93.085 Y97.267 E2.20699
G1 X93.636 Y97.267 E2.23216
G1 X94.877 Y98.508 E2.31235
G1 X95.035 Y98.115 E2.33171
G1 X94.187 Y97.267 E2.38649
G1 X94.370 Y96.900 E2.40525
G1 X95.192 Y97.721 E2.45836
G1 X95.349 Y97.328 E2.47771
G1 X94.525 Y96.503 E2.53101
G1 X94.679 Y96.107 E2.55044
G1 X95.507 Y96.935 E2.60392
G1 X95.664 Y96.542 E2.62328
G1 X94.834 Y95.711 E2.67695
G1 X94.988 Y95.315 E2.69638
G1 X95.822 Y96.148 E2.75024
G1 X95.979 Y95.755 E2.76960
G1 X95.143 Y94.919 E2.82364
G1 X95.297 Y94.522 E2.84308
G1 X96.137 Y95.362 E2.89731
G1 X96.294 Y94.968 E2.91667
G1 X95.452 Y94.126 E2.97109
G1 X95.606 Y93.730 E2.99052
G1 X96.451 Y94.575 E3.04513
G1 X96.609 Y94.182 E3.06449
G1 X95.761 Y93.334 E3.11929
G1 X95.915 Y92.938 E3.13872
G1 X96.766 Y93.789 E3.19371
G1 X96.924 Y93.395 E3.21307
G1 X96.332 Y92.803 E3.25134
G1 X96.882 Y92.803 E3.27651
G1 X97.081 Y93.002 E3.28937
M106 S255
G92 E0
G1 Z0.600 F7800.000
G1 X104.726 Y92.352 F7800.000
G1 X104.726 Y98.715 E1.90665 F600.000
G1 X105.577 Y103.021 E3.22178
G92 E0
G1 X104.761 Y106.648 F7800.000
G1 X104.761 Y106.648 F7800.000
G1 X110.557 Y98.681 F7800.000
G1 X111.859 Y99.535 E0.46678 F600.000
G1 X112.029 Y99.623 E0.52394
G1 X112.334 Y99.745 E0.62257
G1 X113.077 Y99.974 E0.85543
G1 X113.306 Y100.075 E0.93036
G1 X113.786 Y100.352 E1.09667
G1 X114.009 Y100.504 E1.17749
G1 X114.549 Y101.058 E1.40909
G1 X114.713 Y101.314 E1.50046
G1 X114.924 Y101.708 E1.63415
G1 X115.041 Y102.016 E1.73297
G1 X115.157 Y102.431 E1.86219
G1 X115.245 Y103.269 E2.11448
G1 X115.123 Y104.275 E2.41822
G1 X114.790 Y105.060 E2.67378
G1 X114.723 Y105.164 E2.71086
G1 X114.520 Y105.426 E2.81031
G1 X114.247 Y105.723 E2.93104
G1 X113.750 Y106.096 E3.11710
G1 X113.439 Y106.276 E3.22482
G1 X112.830 Y106.516 E3.42115
G1 X112.326 Y106.657 E3.57798
G1 X111.951 Y106.721 E3.69188
G1 X110.685 Y106.818 E4.07227
G1 X105.761 Y106.818 E5.54773
G1 X104.799 Y106.539 E5.84798
G1 X104.726 Y105.989 E6.01435
G1 X104.726 Y100.352 E7.70345
G1 X104.888 Y99.533 E7.95346
G1 X110.535 Y99.533 E9.64579
G1 X110.843 Y99.506 E9.73845
G1 X111.490 Y99.293 E9.94242
G1 X111.785 Y98.448 E10.21056
G1 X115.695 Y92.352 E12.38069
G92 E0
G1 X103.690 Y91.352 F7800.000
G1 X95.686 Y91.352 F7800.000
G1 X91.736 Y93.584 F7800.000
G1 X93.945 Y96.816 F7800.000
G1 X88.480 Y100.633 F7800.000
G1 X86.104 Y97.168 E1.25890 F600.000
G1 X84.179 Y92.352 E2.81311
G92 E0
G1 X94.865 Y94.457 F7800.000
G1 X94.211 Y98.774 E1.30813 F600.000
G1 X92.028 Y104.320 E3.09418
G1 X91.320 Y106.245 E3.70872
G1 X91.052 Y106.723 E3.87304
G1 X90.508 Y106.810 E4.03792
G1 X89.938 Y106.736 E4.21016
G1 X89.644 Y106.225 E4.38676
G1 X88.728 Y103.781 E5.16887
G1 X86.742 Y98.775 E6.78268
G1 X86.605 Y97.900 E7.04820
G1 X87.002 Y97.746 E7.17570
G1 X87.629 Y97.624 E7.36708
G1 X93.329 Y97.624 E9.07506
G1 X93.945 Y97.741 E9.26297
G1 X94.344 Y97.894 E9.39110
G1 X94.840 Y97.165 E9.65512
G1 X96.741 Y92.352 E11.20582
G92 E0
G1 Z0.900 F7800.000
G1 X104.726 Y92.352 F7800.000
G1 X104.726 Y98.715 E1.90665 F600.000
G1 X105.577 Y103.021 E3.22178
G92 E0
G1 X104.761 Y106.648 F7800.000
G1 X104.761 Y106.648 F7800.000
G1 X110.557 Y98.681 F7800.000
G1 X111.859 Y99.535 E0.46678 F600.000
G1 X112.029 Y99.623 E0.52394
G1 X112.334 Y99.745 E0.62257
G1 X113.077 Y99.974 E0.85543
G1 X113.306 Y100.075 E0.93036
G1 X113.786 Y100.352 E1.09667
G1 X114.009 Y100.504 E1.17750
G1 X114.549 Y101.058 E1.40909
G1 X114.713 Y101.314 E1.50046
G1 X114.924 Y101.708 E1.63415
G1 X115.041 Y102.016 E1.73297
G1 X115.157 Y102.431 E1.86219
G1 X115.245 Y103.269 E2.11448
G1 X115.123 Y104.275 E2.41822
G1 X114.790 Y105.060 E2.67378
G1 X114.723 Y105.164 E2.71086
G1 X114.520 Y105.426 E2.81031
G1 X114.247 Y105.723 E2.93104
G1 X113.750 Y106.096 E3.11710
G1 X113.439 Y106.276 E3.22482
G1 X112.830 Y106.516 E3.42115
G1 X112.326 Y106.657 E3.57798
G1 X111.951 Y106.721 E3.69188
G1 X110.685 Y106.818 E4.07227
G1 X105.761 Y106.818 E5.54773
G1 X104.799 Y106.539 E5.84798
G1 X104.726 Y105.989 E6.01435
G1 X104.726 Y100.352 E7.70345
G1 X104.888 Y99.533 E7.95346
G1 X110.535 Y99.533 E9.64579
G1 X110.843 Y99.506 E9.73845
G1 X111.490 Y99.293 E9.94242
G1 X111.785 Y98.448 E10.21056
G1 X115.695 Y92.352 E12.38069
G92 E0
G1 X103.690 Y91.352 F7800.000
G1 X95.686 Y91.352 F7800.000
G1 X91.736 Y93.584 F7800.000
G1 X93.945 Y96.816 F7800.000
G1 X88.480 Y100.633 F7800.000
G1 X86.104 Y97.168 E1.25890 F600.000
G1 X84.179 Y92.352 E2.81311
G92 E0
G1 X94.865 Y94.457 F7800.000
G1 X94.211 Y98.774 E1.30814 F600.000
G1 X92.028 Y104.320 E3.09418
G1 X91.320 Y106.245 E3.70873
G1 X91.052 Y106.723 E3.87305
G1 X90.508 Y106.810 E4.03793
G1 X89.938 Y106.736 E4.21017
G1 X89.644 Y106.225 E4.38676
G1 X88.728 Y103.781 E5.16887
G1 X86.742 Y98.775 E6.78269
G1 X86.605 Y97.900 E7.04820
G1 X87.002 Y97.746 E7.17571
G1 X87.629 Y97.624 E7.36709
G1 X93.329 Y97.624 E9.07507
G1 X93.945 Y97.741 E9.26298
G1 X94.344 Y97.894 E9.39111
G1 X94.840 Y97.165 E9.65512
G1 X96.741 Y92.352 E11.20582
G92 E0
G1 Z1.200 F7800.000
G1 X104.726 Y92.352 F7800.000
G1 X104.726 Y98.715 E1.90665 F600.000
G1 X105.577 Y103.021 E3.22178
G92 E0
G1 X104.761 Y106.648 F7800.000
G1 X104.761 Y106.648 F7800.000
G1 X110.557 Y98.681 F7800.000
