; generated by Slic3r 1.2.9 on 2016-03-11 at 01:22:29

; external perimeters extrusion width = 1.54mm
; perimeters extrusion width = 2.62mm
; infill extrusion width = 6.27mm
; solid infill extrusion width = 2.62mm
; top infill extrusion width = 2.62mm

M107
M104 S30 ; set temperature
G28 ; home all axes
G1 Z5 F5000 ; lift nozzle
M302
M92 E10000
M500
M501
G1 E100
M109 S30 ; wait for temperature to be reached
G21 ; set units to millimeters
G90 ; use absolute coordinates
M82 ; use absolute distances for extrusion
G92 E0
G1 Z0.300 F7800.000
G1 X112.604 Y106.277 F7800.000
G1 X108.592 Y99.942 E0.33926 F378.000
G1 X103.827 Y107.423 E0.74059
G1 X102.090 Y107.423 E0.81920
G1 X107.765 Y98.759 E1.28784
G1 X107.765 Y92.577 E1.56758
G1 X109.376 Y92.577 E1.64048
G1 X109.376 Y98.759 E1.92022
G1 X115.067 Y107.423 E2.38926 F378.000
G1 X113.330 Y107.423 E2.46786
G1 X112.727 Y106.472 E2.51881
G1 X112.862 Y106.157 F7800.000
G1 X113.902 Y107.197 E2.58655 F540.000
G1 X114.457 Y107.197 E2.61212
G1 X111.904 Y104.643 E2.77849
G1 X112.684 Y104.313 F7800.000
G1 X109.986 Y101.616 E2.95423 F540.000
G1 X110.558 Y101.077 F7800.000
G1 X107.991 Y98.510 E3.12149 F540.000
G1 X107.874 Y98.948 E3.14239
G1 X108.558 Y99.633 E3.18700
G1 X108.342 Y99.972 E3.20553
G1 X107.654 Y99.283 E3.25038
G1 X107.434 Y99.619 E3.26886
G1 X108.126 Y100.311 E3.31396
G1 X107.910 Y100.650 E3.33248
G1 X107.214 Y99.954 E3.37782
G1 X106.995 Y100.290 E3.39629
G1 X107.694 Y100.989 E3.44187
G1 X107.478 Y101.329 E3.46039
G1 X106.775 Y100.625 E3.50621
G1 X106.555 Y100.961 E3.52469
G1 X107.262 Y101.668 E3.57075
G1 X107.046 Y102.007 E3.58927
G1 X106.336 Y101.296 E3.63557
G1 X106.116 Y101.632 E3.65404
G1 X106.830 Y102.346 E3.70058
G1 X106.614 Y102.685 E3.71911
G1 X105.896 Y101.967 E3.76589
G1 X105.676 Y102.303 E3.78436
G1 X106.398 Y103.024 E3.83138
G1 X106.182 Y103.363 E3.84991
G1 X105.457 Y102.638 E3.89717
G1 X105.237 Y102.973 E3.91564
G1 X105.966 Y103.703 E3.96314
G1 X105.750 Y104.042 E3.98167
G1 X105.017 Y103.309 E4.02941
G1 X104.797 Y103.644 E4.04788
G1 X105.534 Y104.381 E4.09586
G1 X105.318 Y104.720 E4.11439
G1 X104.578 Y103.980 E4.16261
G1 X104.358 Y104.315 E4.18108
G1 X105.102 Y105.059 E4.22955
G1 X104.886 Y105.398 E4.24807
G1 X104.138 Y104.651 E4.29677
G1 X103.919 Y104.986 E4.31525
G1 X104.670 Y105.738 E4.36419
G1 X104.454 Y106.077 E4.38272
G1 X103.699 Y105.322 E4.43190
G1 X103.479 Y105.657 E4.45037
G1 X104.238 Y106.416 E4.49980
G1 X104.022 Y106.755 E4.51832
G1 X103.259 Y105.993 E4.56799
G1 X103.040 Y106.328 E4.58646
G1 X103.806 Y107.094 E4.63637
G1 X103.353 Y107.197 E4.65773
G1 X102.820 Y106.664 E4.69249
G1 X102.600 Y106.999 E4.71096
G1 X102.798 Y107.197 E4.72386
G1 X108.540 Y98.582 F7800.000
G1 X108.540 Y98.582 F7800.000
G1 X110.945 Y103.130 F7800.000
G1 X113.747 Y105.931 E4.90639 F540.000
G1 X111.621 Y102.695 F7800.000
G1 X109.027 Y100.102 E5.07535 F540.000
G1 X109.495 Y99.459 F7800.000
G1 X107.991 Y97.955 E5.17338 F540.000
G1 X107.991 Y97.399 E5.19895
G1 X109.150 Y98.558 E5.27446
G1 X109.150 Y98.003 E5.30004
G1 X107.991 Y96.844 E5.37555
G1 X107.991 Y96.289 E5.40112
G1 X109.150 Y97.448 E5.47663
G1 X109.150 Y96.893 E5.50221
G1 X107.991 Y95.734 E5.57772
G1 X107.991 Y95.179 E5.60329
G1 X109.150 Y96.338 E5.67881
G1 X109.150 Y95.782 E5.70438
G1 X107.991 Y94.623 E5.77989
G1 X107.991 Y94.068 E5.80547
G1 X109.150 Y95.227 E5.88098
G1 X109.150 Y94.672 E5.90655
G1 X107.991 Y93.513 E5.98206
G1 X107.991 Y92.958 E6.00764
G1 X109.150 Y94.117 E6.08315
G1 X109.150 Y93.562 E6.10872
G1 X108.391 Y92.803 E6.15816
G1 X108.946 Y92.803 E6.18373
G1 X109.150 Y93.007 E6.19700
G92 E0
G1 X107.540 Y98.692 F7800.000
G1 X102.169 Y93.535 F7800.000
G1 X99.214 Y91.352 F7800.000
G1 X95.733 Y91.819 F7800.000
G1 X93.150 Y93.584 F7800.000
G1 X95.358 Y96.816 F7800.000
G1 X95.383 Y101.318 F7800.000
G1 X92.939 Y107.423 E0.29755 F378.000
G1 X90.890 Y107.423 E0.39028
G1 X84.851 Y92.577 E1.11550
G1 X86.510 Y92.577 E1.19057
G1 X88.074 Y96.563 E1.38435
G1 X88.262 Y97.041 E1.40757 F378.000
G1 X95.512 Y97.041 E1.73563
G1 X97.253 Y92.577 E1.95244
G1 X98.882 Y92.577 E2.02615
G1 X95.469 Y101.104 E2.44174
G1 X94.147 Y100.592 F7800.000
G1 X92.795 Y104.086 E2.61127 F378.000
G1 X92.086 Y106.198 E2.71207
G1 X91.687 Y106.197 E2.73013
G1 X91.368 Y105.195 E2.77771
G1 X90.778 Y103.544 E2.85702
G1 X88.714 Y98.207 E3.11597
G1 X95.071 Y98.207 E3.40361 F378.000
G1 X94.231 Y100.377 E3.50889
G92 E0
G1 X93.948 Y97.267 F7800.000
G1 X94.662 Y97.981 E0.04615 F540.000
G1 X94.112 Y97.981 E0.07131
G1 X93.398 Y97.267 E0.11746
G1 X92.847 Y97.267 E0.14262
G1 X93.561 Y97.981 E0.18877
G1 X93.010 Y97.981 E0.21393
G1 X92.296 Y97.267 E0.26008
G1 X91.745 Y97.267 E0.28525
G1 X92.460 Y97.981 E0.33139
G1 X91.909 Y97.981 E0.35656
G1 X91.195 Y97.267 E0.40270
G1 X90.644 Y97.267 E0.42787
G1 X91.358 Y97.981 E0.47402
G1 X90.807 Y97.981 E0.49918
G1 X90.093 Y97.267 E0.54533
G1 X89.543 Y97.267 E0.57049
G1 X90.257 Y97.981 E0.61664
G1 X89.706 Y97.981 E0.64180
G1 X88.992 Y97.267 E0.68795
G1 X88.441 Y97.267 E0.71312
G1 X89.155 Y97.981 E0.75926
G1 X88.605 Y97.981 E0.78443
G1 X86.461 Y95.837 E0.92298
G1 X86.838 Y96.765 F7800.000
G1 X88.532 Y98.459 E1.03241 F540.000
G1 X87.593 Y98.622 F7800.000
G1 X89.226 Y100.255 E1.13794 F540.000
G1 X88.349 Y100.479 F7800.000
G1 X89.921 Y102.051 E1.23954 F540.000
G1 X89.104 Y102.335 F7800.000
G1 X90.610 Y103.842 E1.33690 F540.000
G1 X89.859 Y104.192 F7800.000
G1 X91.212 Y105.544 E1.42429 F540.000
G1 X90.614 Y106.049 F7800.000
G1 X91.763 Y107.197 E1.49850 F540.000
G1 X92.313 Y107.197 E1.52366
G1 X91.539 Y106.423 E1.57369
G1 X92.091 Y106.424 E1.59891
G1 X92.822 Y107.154 E1.64610
G1 X92.985 Y106.767 E1.66531
G1 X92.330 Y106.112 E1.70763
G1 X92.468 Y105.700 E1.72750
G1 X93.142 Y106.374 E1.77104
G1 X93.300 Y105.980 E1.79040
G1 X92.607 Y105.288 E1.83516
G1 X92.745 Y104.875 E1.85503
G1 X93.457 Y105.587 E1.90102
G1 X93.614 Y105.194 E1.92038
G1 X92.884 Y104.463 E1.96760
G1 X93.024 Y104.053 E1.98741
G1 X93.772 Y104.800 E2.03571
G1 X93.929 Y104.407 E2.05507
G1 X93.178 Y103.656 E2.10362
G1 X93.332 Y103.259 E2.12307
G1 X94.087 Y104.014 E2.17186
G1 X94.244 Y103.621 E2.19121
G1 X93.485 Y102.862 E2.24025
G1 X93.639 Y102.465 E2.25970
G1 X94.402 Y103.227 E2.30897
G1 X94.559 Y102.834 E2.32833
G1 X93.793 Y102.068 E2.37784
G1 X93.946 Y101.671 E2.39730
G1 X94.716 Y102.441 E2.44706
G1 X94.874 Y102.047 E2.46641
G1 X94.100 Y101.274 E2.51641
G1 X94.254 Y100.877 E2.53587
G1 X95.031 Y101.654 E2.58611
G1 X95.189 Y101.261 E2.60547
G1 X94.408 Y100.480 E2.65595
G1 X94.561 Y100.083 E2.67541
G1 X95.346 Y100.868 E2.72613
G1 X95.504 Y100.474 E2.74549
G1 X94.715 Y99.686 E2.79646
G1 X94.869 Y99.289 E2.81592
G1 X95.661 Y100.081 E2.86713
G1 X95.818 Y99.688 E2.88649
G1 X95.022 Y98.892 E2.93794
G1 X95.176 Y98.495 E2.95739
G1 X95.976 Y99.294 E3.00909
G1 X96.133 Y98.901 E3.02845
G1 X94.499 Y97.267 E3.13406
G1 X95.050 Y97.267 E3.15922
G1 X96.291 Y98.508 E3.23942
G1 X96.448 Y98.115 E3.25878
G1 X95.600 Y97.267 E3.31356
G1 X95.784 Y96.900 E3.33232
G1 X96.606 Y97.721 E3.38542
G1 X96.763 Y97.328 E3.40478
G1 X95.938 Y96.503 E3.45807
G1 X96.093 Y96.107 E3.47751
G1 X96.920 Y96.935 E3.53099
G1 X97.078 Y96.542 E3.55035
G1 X96.247 Y95.711 E3.60402
G1 X96.402 Y95.315 E3.62345
G1 X97.235 Y96.148 E3.67731
G1 X97.393 Y95.755 E3.69667
G1 X96.556 Y94.919 E3.75071
G1 X96.711 Y94.522 E3.77014
G1 X97.550 Y95.362 E3.82438
G1 X97.708 Y94.968 E3.84374
G1 X96.865 Y94.126 E3.89816
G1 X97.020 Y93.730 E3.91759
G1 X97.865 Y94.575 E3.97220
G1 X98.023 Y94.182 E3.99156
G1 X97.175 Y93.334 E4.04636
G1 X97.329 Y92.938 E4.06579
G1 X98.180 Y93.789 E4.12078
G1 X98.337 Y93.395 E4.14014
G1 X97.745 Y92.803 E4.17841
G1 X98.296 Y92.803 E4.20357
G1 X98.495 Y93.002 E4.21643
G92 E0
G1 X87.830 Y96.655 F7800.000
G1 X86.083 Y94.909 E0.11288 F540.000
G1 X85.705 Y93.980 F7800.000
G1 X87.474 Y95.749 E0.22717 F540.000
G1 X87.118 Y94.842 F7800.000
G1 X85.328 Y93.052 E0.34287 F540.000
G1 X85.629 Y92.803 E0.36075
G1 X86.762 Y93.936 E0.43396
G1 X86.407 Y93.029 F7800.000
G1 X86.180 Y92.803 E0.44860 F540.000
G1 X87.216 Y97.694 F7800.000
G1 X88.879 Y99.357 E0.55608 F540.000
G1 X87.971 Y99.550 F7800.000
G1 X89.574 Y101.153 E0.65964 F540.000
G1 X88.726 Y101.407 F7800.000
G1 X90.268 Y102.949 E0.75930 F540.000
G1 X89.482 Y103.264 F7800.000
G1 X90.916 Y104.698 E0.85200 F540.000
G1 X90.237 Y105.120 F7800.000
G1 X91.469 Y106.352 E0.93161 F540.000
G1 X90.992 Y106.977 F7800.000
G1 X91.212 Y107.197 E0.94583 F540.000
M106 S255
G92 E0
G1 Z0.600 F7800.000
G1 X108.570 Y92.352 F7800.000
G1 X108.570 Y99.209 E2.05473 F600.000
G1 X108.697 Y99.286 E2.09907
G1 X109.335 Y99.891 E2.36271
G1 X114.339 Y107.648 E5.12860
G1 X108.540 Y98.582 F7800.000
G1 X108.540 Y98.582 F7800.000
G1 X102.817 Y107.648 F7800.000
G1 X107.835 Y99.880 E7.89969 F600.000
G1 X108.447 Y99.287 E8.15525
G1 X109.601 Y98.560 E8.56368
G92 E0
G1 X107.540 Y98.692 F7800.000
G1 X107.540 Y98.692 F7800.000
G1 X102.594 Y97.217 F7800.000
G1 X103.052 Y94.839 F7800.000
G1 X102.169 Y93.535 F7800.000
G1 X99.214 Y91.352 F7800.000
G1 X97.099 Y91.352 F7800.000
G1 X95.733 Y91.819 F7800.000
G1 X93.150 Y93.584 F7800.000
G1 X95.358 Y96.816 F7800.000
G1 X89.894 Y100.633 F7800.000
G1 X87.517 Y97.168 E1.25890 F600.000
G1 X85.592 Y92.352 E2.81311
G92 E0
G1 X96.278 Y94.457 F7800.000
G1 X95.625 Y98.774 E1.30813 F600.000
G1 X93.441 Y104.320 E3.09418
G1 X92.733 Y106.245 E3.70872
G1 X92.465 Y106.723 E3.87304
G1 X91.922 Y106.810 E4.03792
G1 X91.352 Y106.736 E4.21016
G1 X91.058 Y106.225 E4.38676
G1 X90.142 Y103.781 E5.16887
G1 X88.155 Y98.775 E6.78268
G1 X88.019 Y97.900 E7.04820
G1 X88.415 Y97.746 E7.17570
G1 X89.042 Y97.624 E7.36708
G1 X94.742 Y97.624 E9.07506
G1 X95.358 Y97.741 E9.26297
G1 X95.758 Y97.894 E9.39110
G1 X96.253 Y97.165 E9.65512
G1 X98.155 Y92.352 E11.20582
G92 E0
G1 Z0.900 F7800.000
G1 X108.570 Y92.352 F7800.000
G1 X108.570 Y99.209 E2.05473 F600.000
G1 X108.697 Y99.286 E2.09907
G1 X109.335 Y99.891 E2.36271
G1 X114.339 Y107.648 E5.12860
G1 X108.540 Y98.582 F7800.000
G1 X108.540 Y98.582 F7800.000
G1 X102.817 Y107.648 F7800.000
G1 X107.835 Y99.880 E7.89969 F600.000
G1 X108.447 Y99.287 E8.15525
G1 X109.601 Y98.560 E8.56368
G92 E0
G1 X107.540 Y98.692 F7800.000
G1 X107.540 Y98.692 F7800.000
G1 X102.594 Y97.217 F7800.000
G1 X103.052 Y94.839 F7800.000
G1 X102.169 Y93.535 F7800.000
G1 X99.214 Y91.352 F7800.000
G1 X97.099 Y91.352 F7800.000
G1 X95.733 Y91.819 F7800.000
G1 X93.150 Y93.584 F7800.000
G1 X95.358 Y96.816 F7800.000
G1 X89.894 Y100.633 F7800.000
G1 X87.517 Y97.168 E1.25890 F600.000
G1 X85.592 Y92.352 E2.81311
G92 E0
G1 X96.278 Y94.457 F7800.000
G1 X95.625 Y98.774 E1.30814 F600.000
G1 X93.441 Y104.320 E3.09418
G1 X92.733 Y106.245 E3.70873
G1 X92.465 Y106.723 E3.87305
G1 X91.922 Y106.810 E4.03793
G1 X91.352 Y106.736 E4.21017
G1 X91.058 Y106.225 E4.38676
G1 X90.142 Y103.781 E5.16887
G1 X88.155 Y98.775 E6.78269
G1 X88.019 Y97.900 E7.04820
G1 X88.415 Y97.746 E7.17571
G1 X89.042 Y97.624 E7.36709
G1 X94.742 Y97.624 E9.07507
G1 X95.358 Y97.741 E9.26298
G1 X95.758 Y97.894 E9.39111
G1 X96.253 Y97.165 E9.65512
G1 X98.155 Y92.352 E11.20582
G92 E0
G1 Z1.200 F7800.000
G1 X108.570 Y92.352 F7800.000
G1 X108.570 Y99.209 E2.05473 F600.000
G1 X108.697 Y99.286 E2.09907
G1 X109.335 Y99.891 E2.36271
G1 X114.339 Y107.648 E5.12860
G1 X108.540 Y98.582 F7800.000
G1 X108.540 Y98.582 F7800.000
G1 X102.817 Y107.648 F7800.000
G1 X107.835 Y99.880 E7.89969 F600.000
G1 X108.447 Y99.287 E8.15525
G1 X109.601 Y98.560 E8.56368
G92 E0
G1 X107.540 Y98.692 F7800.000
G1 X107.540 Y98.692 F7800.000
G1 X102.594 Y97.217 F7800.000
G1 X103.052 Y94.839 F7800.000
G1 X102.169 Y93.535 F7800.000
G1 X99.214 Y91.352 F7800.000
G1 X97.099 Y91.352 F7800.000
G1 X95.733 Y91.819 F7800.000
G1 X93.150 Y93.584 F7800.000
G1 X95.358 Y96.816 F7800.000
G1 X89.894 Y100.633 F7800.000
G1 X87.517 Y97.168 E1.25890 F600.000
G1 X85.592 Y92.352 E2.81311
G92 E0
G1 X96.278 Y94.457 F7800.000
G1 X95.625 Y98.774 E1.30813 F600.000
G1 X93.441 Y104.320 E3.09418
G1 X92.733 Y106.245 E3.70872
G1 X92.465 Y106.723 E3.87304
G1 X91.922 Y106.810 E4.03792
G1 X91.352 Y106.736 E4.21016
G1 X91.058 Y106.225 E4.38676
G1 X90.142 Y103.781 E5.16887
G1 X88.155 Y98.775 E6.78268
G1 X88.019 Y97.900 E7.04820
G1 X88.415 Y97.746 E7.17570
G1 X89.042 Y97.624 E7.36708
G1 X94.742 Y97.624 E9.07506
G1 X95.358 Y97.741 E9.26297
G1 X95.758 Y97.894 E9.39110
G1 X96.253 Y97.165 E9.65512
G1 X98.155 Y92.352 E11.20582
G92 E0
G1 Z1.500 F7800.000
G1 X108.570 Y92.352 F7800.000
G1 X108.570 Y99.209 E2.05473 F600.000
G1 X108.697 Y99.286 E2.09907
G1 X109.335 Y99.891 E2.36271
G1 X114.339 Y107.648 E5.12860
G1 X108.540 Y98.582 F7800.000
G1 X108.540 Y98.582 F7800.000
G1 X102.817 Y107.648 F7800.000
G1 X107.835 Y99.880 E7.89969 F600.000
G1 X108.447 Y99.287 E8.15525
G1 X109.601 Y98.560 E8.56368
G92 E0
G1 X107.540 Y98.692 F7800.000
G1 X107.540 Y98.692 F7800.000
G1 X102.594 Y97.217 F7800.000
G1 X103.052 Y94.839 F7800.000
G1 X102.169 Y93.535 F7800.000
G1 X99.214 Y91.352 F7800.000
G1 X97.099 Y91.352 F7800.000
G1 X95.733 Y91.819 F7800.000
G1 X93.150 Y93.584 F7800.000
G1 X95.358 Y96.816 F7800.000
G1 X89.894 Y100.633 F7800.000
G1 X87.517 Y97.168 E1.25890 F600.000
G1 X85.592 Y92.352 E2.81311
G92 E0
G1 X96.278 Y94.457 F7800.000
G1 X95.625 Y98.774 E1.30814 F600.000
G1 X93.441 Y104.320 E3.09418
G1 X92.733 Y106.245 E3.70873
G1 X92.465 Y106.723 E3.87305
G1 X91.922 Y106.810 E4.03793
G1 X91.352 Y106.736 E4.21017
G1 X91.058 Y106.225 E4.38676
G1 X90.142 Y103.781 E5.16887
G1 X88.155 Y98.775 E6.78269
G1 X88.019 Y97.900 E7.04820
G1 X88.415 Y97.746 E7.17571
G1 X89.042 Y97.624 E7.36709
G1 X94.742 Y97.624 E9.07507
G1 X95.358 Y97.741 E9.26298
G1 X95.758 Y97.894 E9.39111
G1 X96.253 Y97.165 E9.65512
G1 X98.155 Y92.352 E11.20582
G92 E0
G1 Z1.800 F7800.000
G1 X108.570 Y92.352 F7800.000
G1 X108.570 Y99.209 E2.05473 F600.000
G1 X108.697 Y99.286 E2.09907
G1 X109.335 Y99.891 E2.36271
G1 X114.339 Y107.648 E5.12860
G1 X108.540 Y98.582 F7800.000
G1 X108.540 Y98.582 F7800.000
G1 X102.817 Y107.648 F7800.000
G1 X107.835 Y99.880 E7.89969 F600.000
G1 X108.447 Y99.287 E8.15525
G1 X109.601 Y98.560 E8.56368
G92 E0
G1 X107.540 Y98.692 F7800.000
G1 X107.540 Y98.692 F7800.000
G1 X102.594 Y97.217 F7800.000
G1 X103.052 Y94.839 F7800.000
G1 X102.169 Y93.535 F7800.000
G1 X99.214 Y91.352 F7800.000
G1 X97.099 Y91.352 F7800.000
G1 X95.733 Y91.819 F7800.000
G1 X93.150 Y93.584 F7800.000
G1 X95.358 Y96.816 F7800.000
G1 X89.894 Y100.633 F7800.000
G1 X87.517 Y97.168 E1.25890 F600.000
G1 X85.592 Y92.352 E2.81311
G92 E0
G1 X96.278 Y94.457 F7800.000
G1 X95.625 Y98.774 E1.30814 F600.000
G1 X93.441 Y104.320 E3.09418
G1 X92.733 Y106.245 E3.70873
G1 X92.465 Y106.723 E3.87305
G1 X91.922 Y106.810 E4.03793
G1 X91.352 Y106.736 E4.21017
G1 X91.058 Y106.225 E4.38676
G1 X90.142 Y103.781 E5.16887
G1 X88.155 Y98.775 E6.78269
G1 X88.019 Y97.900 E7.04820
G1 X88.415 Y97.746 E7.17571
G1 X89.042 Y97.624 E7.36709
G1 X94.742 Y97.624 E9.07507
G1 X95.358 Y97.741 E9.26298
G1 X95.758 Y97.894 E9.39111
G1 X96.253 Y97.165 E9.65512
G1 X98.155 Y92.352 E11.20582
G92 E0
G1 Z2.100 F7800.000
G1 X108.570 Y92.352 F7800.000
G1 X108.570 Y99.209 E2.05473 F600.000
G1 X108.697 Y99.286 E2.09907
G1 X109.335 Y99.891 E2.36271
G1 X114.339 Y107.648 E5.12860
G92 E0
G1 X108.540 Y98.582 F7800.000
G1 X108.540 Y98.582 F7800.000
G1 X102.817 Y107.648 F7800.000
G1 X107.835 Y99.880 E2.77109 F600.000
G1 X108.447 Y99.287 E3.02666
G1 X109.601 Y98.560 E3.43508
G92 E0
G1 X107.540 Y98.692 F7800.000
G1 X107.540 Y98.692 F7800.000
G1 X102.594 Y97.217 F7800.000
G1 X103.052 Y94.839 F7800.000
G1 X102.169 Y93.535 F7800.000
G1 X99.214 Y91.352 F7800.000
G1 X97.099 Y91.352 F7800.000
G1 X95.733 Y91.819 F7800.000
G1 X93.150 Y93.584 F7800.000
G1 X95.358 Y96.816 F7800.000
G1 X89.894 Y100.633 F7800.000
G1 X87.517 Y97.168 E1.25890 F600.000
G1 X85.592 Y92.352 E2.81312
G92 E0
G1 X96.278 Y94.457 F7800.000
G1 X95.625 Y98.774 E1.30814 F600.000
G1 X93.441 Y104.320 E3.09418
G1 X92.733 Y106.245 E3.70873
G1 X92.465 Y106.723 E3.87305
G1 X91.922 Y106.810 E4.03793
G1 X91.352 Y106.736 E4.21017
G1 X91.058 Y106.225 E4.38676
G1 X90.142 Y103.781 E5.16887
G1 X88.155 Y98.775 E6.78269
G1 X88.019 Y97.900 E7.04820
G1 X88.415 Y97.746 E7.17571
G1 X89.042 Y97.624 E7.36709
