; generated by Slic3r 1.2.9 on 2016-03-11 at 01:22:31

; external perimeters extrusion width = 1.54mm
; perimeters extrusion width = 2.62mm
; infill extrusion width = 6.27mm
; solid infill extrusion width = 2.62mm
; top infill extrusion width = 2.62mm

M107
M104 S30 ; set temperature
G28 ; home all axes
G1 Z5 F5000 ; lift nozzle
M302
M92 E10000
M500
M501
G1 E100
M109 S30 ; wait for temperature to be reached
G21 ; set units to millimeters
G90 ; use absolute coordinates
M82 ; use absolute distances for extrusion
G92 E0
G1 Z0.300 F7800.000
G1 X103.895 Y94.450 F7800.000
G1 X104.724 Y96.563 E0.10275 F378.000
G1 X104.912 Y97.041 E0.12596 F378.000
G1 X112.162 Y97.041 E0.45403
G1 X113.903 Y92.577 E0.67084
G1 X115.532 Y92.577 E0.74454
G1 X109.589 Y107.423 E1.46814
G1 X107.540 Y107.423 E1.56087
G1 X101.501 Y92.577 E2.28609
G1 X103.160 Y92.577 E2.36116
G1 X103.810 Y94.235 E2.44174
G1 X105.364 Y98.207 F7800.000
G1 X111.721 Y98.207 E2.72937 F378.000
G1 X109.445 Y104.086 E3.01464
G1 X108.736 Y106.198 E3.11545
G1 X108.337 Y106.197 E3.13350
G1 X108.018 Y105.195 E3.18108
G1 X107.428 Y103.544 E3.26040
G1 X105.447 Y98.422 E3.50889
G1 X105.182 Y98.459 F7800.000
G1 X103.488 Y96.765 E3.61833 F540.000
G1 X104.480 Y96.655 F7800.000
G1 X102.733 Y94.909 E3.73121 F540.000
G1 X102.355 Y93.980 F7800.000
G1 X104.124 Y95.749 E3.84550 F540.000
G1 X103.768 Y94.842 F7800.000
G1 X101.978 Y93.052 E3.96120 F540.000
G1 X102.279 Y92.803 E3.97908
G1 X103.412 Y93.936 E4.05229
G1 X103.057 Y93.029 F7800.000
G1 X102.830 Y92.803 E4.06693 F540.000
G1 X103.111 Y95.837 F7800.000
G1 X105.255 Y97.981 E4.20548 F540.000
G1 X105.805 Y97.981 E4.23065
G1 X105.091 Y97.267 E4.27679
G1 X105.642 Y97.267 E4.30196
G1 X106.356 Y97.981 E4.34810
G1 X106.907 Y97.981 E4.37327
G1 X106.193 Y97.267 E4.41942
G1 X106.743 Y97.267 E4.44458
G1 X107.457 Y97.981 E4.49073
G1 X108.008 Y97.981 E4.51589
G1 X107.294 Y97.267 E4.56204
G1 X107.845 Y97.267 E4.58720
G1 X108.559 Y97.981 E4.63335
G1 X109.110 Y97.981 E4.65851
G1 X108.395 Y97.267 E4.70466
G1 X108.946 Y97.267 E4.72983
G1 X109.660 Y97.981 E4.77597
G1 X110.211 Y97.981 E4.80114
G1 X109.497 Y97.267 E4.84728
G1 X110.048 Y97.267 E4.87245
G1 X110.762 Y97.981 E4.91860
G1 X111.312 Y97.981 E4.94376
G1 X110.598 Y97.267 E4.98991
G92 E0
G1 X105.529 Y99.357 F7800.000
G1 X103.866 Y97.694 E0.10748 F540.000
G1 X104.243 Y98.622 F7800.000
G1 X105.876 Y100.255 E0.21300 F540.000
G1 X104.999 Y100.479 F7800.000
G1 X106.571 Y102.051 E0.31461 F540.000
G1 X105.754 Y102.335 F7800.000
G1 X107.260 Y103.842 E0.41196 F540.000
G1 X106.509 Y104.192 F7800.000
G1 X107.862 Y105.544 E0.49936 F540.000
G1 X107.264 Y106.049 F7800.000
G1 X108.413 Y107.197 E0.57356 F540.000
G1 X108.963 Y107.197 E0.59873
G1 X108.189 Y106.423 E0.64875
G1 X108.741 Y106.424 E0.67398
G1 X109.472 Y107.154 E0.72116
G1 X109.635 Y106.767 E0.74038
G1 X108.980 Y106.112 E0.78269
G1 X109.118 Y105.700 E0.80256
G1 X109.792 Y106.374 E0.84610
G1 X109.950 Y105.980 E0.86546
G1 X109.257 Y105.288 E0.91023
G1 X109.395 Y104.875 E0.93010
G1 X110.107 Y105.587 E0.97609
G1 X110.264 Y105.194 E0.99545
G1 X109.534 Y104.463 E1.04266
G1 X109.674 Y104.053 E1.06247
G1 X110.422 Y104.800 E1.11078
G1 X110.579 Y104.407 E1.13013
G1 X109.828 Y103.656 E1.17868
G1 X109.982 Y103.259 E1.19813
G1 X110.737 Y104.014 E1.24692
G1 X110.894 Y103.621 E1.26628
G1 X110.135 Y102.862 E1.31531
G1 X110.289 Y102.465 E1.33476
G1 X111.052 Y103.227 E1.38404
G1 X111.209 Y102.834 E1.40339
G1 X110.443 Y102.068 E1.45291
G1 X110.596 Y101.671 E1.47236
G1 X111.366 Y102.441 E1.52212
G1 X111.524 Y102.047 E1.54148
G1 X110.750 Y101.274 E1.59148
G1 X110.904 Y100.877 E1.61093
G1 X111.681 Y101.654 E1.66117
G1 X111.839 Y101.261 E1.68053
G1 X111.058 Y100.480 E1.73102
G1 X111.211 Y100.083 E1.75047
G1 X111.996 Y100.868 E1.80120
G1 X112.154 Y100.474 E1.82056
G1 X111.365 Y99.686 E1.87153
G1 X111.519 Y99.289 E1.89098
G1 X112.311 Y100.081 E1.94219
G1 X112.468 Y99.688 E1.96155
G1 X111.672 Y98.892 E2.01300
G1 X111.826 Y98.495 E2.03246
G1 X112.626 Y99.294 E2.08416
G1 X112.783 Y98.901 E2.10351
G1 X111.149 Y97.267 E2.20912
G1 X111.700 Y97.267 E2.23429
G1 X112.941 Y98.508 E2.31448
G1 X113.098 Y98.115 E2.33384
G1 X112.251 Y97.267 E2.38862
G1 X112.434 Y96.900 E2.40738
G1 X113.256 Y97.721 E2.46049
G1 X113.413 Y97.328 E2.47984
G1 X112.588 Y96.503 E2.53314
G1 X112.743 Y96.107 E2.55257
G1 X113.571 Y96.935 E2.60605
G1 X113.728 Y96.542 E2.62541
G1 X112.897 Y95.711 E2.67908
G1 X113.052 Y95.315 E2.69851
G1 X113.885 Y96.148 E2.75237
G1 X114.043 Y95.755 E2.77173
G1 X113.206 Y94.919 E2.82577
G1 X113.361 Y94.522 E2.84521
G1 X114.200 Y95.362 E2.89944
G1 X114.358 Y94.968 E2.91880
G1 X113.515 Y94.126 E2.97322
G1 X113.670 Y93.730 E2.99265
G1 X114.515 Y94.575 E3.04727
G1 X114.673 Y94.182 E3.06662
G1 X113.825 Y93.334 E3.12142
G1 X113.979 Y92.938 E3.14085
G1 X114.830 Y93.789 E3.19584
G1 X114.987 Y93.395 E3.21520
G1 X114.395 Y92.803 E3.25347
G1 X114.946 Y92.803 E3.27864
G1 X115.145 Y93.002 E3.29150
G92 E0
G1 X106.224 Y101.153 F7800.000
G1 X104.621 Y99.550 E0.10356 F540.000
G1 X105.376 Y101.407 F7800.000
G1 X106.918 Y102.949 E0.20322 F540.000
G1 X106.132 Y103.264 F7800.000
G1 X107.566 Y104.698 E0.29592 F540.000
G1 X106.887 Y105.120 F7800.000
G1 X108.119 Y106.352 E0.37553 F540.000
G1 X107.642 Y106.977 F7800.000
G1 X107.862 Y107.197 E0.38975 F540.000
G92 E0
G1 X107.388 Y107.648 F7800.000
G1 X106.043 Y108.195 F7800.000
G1 X99.355 Y105.164 F7800.000
G1 X95.046 Y103.922 F7800.000
G1 X94.773 Y103.449 F7800.000
G1 X94.818 Y103.901 E0.02055 F378.000
G1 X94.255 Y105.853 E0.11246
G1 X92.576 Y107.019 E0.20497
G1 X89.662 Y107.423 E0.33807
G1 X84.361 Y107.423 E0.57796
G1 X84.361 Y92.577 E1.24973
G1 X90.318 Y92.577 E1.51929
G1 X91.773 Y92.689 E1.58532
G1 X91.920 Y92.700 E1.59199 F378.000
G1 X93.247 Y93.064 E1.65424
G1 X94.311 Y93.663 E1.70948
G1 X95.086 Y94.467 E1.76001
G1 X95.549 Y95.456 E1.80945
G1 X95.706 Y96.650 E1.86393
G1 X95.603 Y97.552 E1.90504
G1 X95.297 Y98.339 E1.94322
G1 X94.786 Y99.016 E1.98158
G1 X94.083 Y99.561 E2.02182
G1 X93.197 Y99.946 E2.06556
G1 X92.078 Y100.177 E2.11726
G1 X92.055 Y100.600 E2.13639
G1 X92.908 Y100.878 E2.17701
G1 X93.578 Y101.267 E2.21206
G1 X94.113 Y101.778 E2.24557
G1 X94.504 Y102.398 E2.27871
G1 X94.740 Y103.110 E2.31266
G1 X94.751 Y103.219 E2.31763
G92 E0
G1 X93.896 Y103.026 F7800.000
G1 X93.896 Y103.026 F7800.000
G1 X92.244 Y99.420 F7800.000
G1 X90.072 Y99.729 E0.09930 F378.000
G1 X85.982 Y99.729 E0.28437
G1 X85.982 Y93.786 E0.55329
G1 X90.226 Y93.786 E0.74535 F378.000
G1 X91.402 Y93.866 E0.79866
G1 X92.370 Y94.113 E0.84386
G1 X93.119 Y94.537 E0.88284
G1 X93.650 Y95.139 E0.91915
G1 X93.965 Y95.902 E0.95651
G1 X94.069 Y96.831 E0.99878
G1 X93.615 Y98.445 E1.07466
G1 X92.433 Y99.286 E1.14033
G1 X91.593 Y101.188 F7800.000
G1 X92.288 Y101.567 E1.17616 F378.000
G1 X92.793 Y102.117 E1.20992
G1 X93.093 Y102.825 E1.24472
G1 X93.190 Y103.676 E1.28348
G1 X93.089 Y104.489 E1.32056
G1 X92.773 Y105.154 E1.35385
G1 X92.246 Y105.643 E1.38639
G1 X91.546 Y105.966 E1.42130
G1 X90.690 Y106.153 E1.46091
G1 X89.684 Y106.214 E1.50656
G1 X85.982 Y106.214 E1.67406
G1 X85.982 Y100.895 E1.91474
G1 X89.684 Y100.895 E2.08229 F378.000
G1 X90.723 Y100.967 E2.12937
G1 X91.370 Y101.131 E2.15958
G1 X91.844 Y100.912 F7800.000
G1 X92.573 Y101.227 E2.23739 F540.000
G1 X91.904 Y99.839 F7800.000
G1 X92.340 Y99.763 E2.28084 F540.000
G1 X92.761 Y99.589 E2.32544
G1 X92.965 Y99.394 F7800.000
G1 X93.268 Y99.697 E2.34502 F540.000
G1 X93.652 Y99.530 E2.36416
G1 X93.142 Y99.019 E2.39717
G1 X93.464 Y98.790 E2.41523
G1 X94.031 Y99.357 E2.45189
G1 X94.341 Y99.117 E2.46984
G1 X93.786 Y98.561 E2.50574
G1 X93.916 Y98.140 E2.52588
G1 X94.650 Y98.875 E2.57337
G1 X94.887 Y98.561 E2.59135
G1 X94.037 Y97.710 E2.64633
G1 X94.158 Y97.280 E2.66676
G1 X95.118 Y98.241 E2.72885
G1 X95.273 Y97.844 E2.74830
G1 X94.279 Y96.850 E2.81257
G1 X94.242 Y96.263 E2.83946
G1 X95.400 Y97.420 E2.91427
G1 X95.456 Y96.926 E2.93702
G1 X94.121 Y95.591 E3.02332
G1 X94.912 Y94.729 F7800.000
G1 X93.974 Y93.791 E3.08401 F540.000
G1 X92.846 Y93.214 F7800.000
G1 X95.344 Y95.711 E3.24546 F540.000
G1 X95.427 Y96.346 E3.27470
G1 X92.087 Y93.006 E3.49062
G1 X91.426 Y92.895 E3.52128
G1 X92.392 Y93.862 E3.58376
G1 X91.652 Y93.673 E3.61865
G1 X90.829 Y92.849 E3.67192
G1 X90.232 Y92.804 E3.69929
G1 X91.037 Y93.609 E3.75136
G1 X90.446 Y93.569 E3.77845
G1 X89.680 Y92.803 E3.82796
G1 X89.129 Y92.803 E3.85315
G1 X89.886 Y93.560 E3.90210
G1 X89.335 Y93.560 E3.92728
G1 X88.578 Y92.803 E3.97623
G1 X88.027 Y92.803 E4.00142
G1 X88.784 Y93.560 E4.05037
G1 X88.233 Y93.560 E4.07556
G1 X87.476 Y92.803 E4.12450
G1 X86.925 Y92.803 E4.14969
G1 X87.682 Y93.560 E4.19864
G1 X87.131 Y93.560 E4.22383
G1 X86.374 Y92.803 E4.27277
G1 X85.823 Y92.803 E4.29796
G1 X86.580 Y93.560 E4.34691
G1 X86.029 Y93.560 E4.37210
G1 X85.272 Y92.803 E4.42105
G1 X84.721 Y92.803 E4.44623
G1 X85.756 Y93.837 E4.51311
G1 X85.756 Y94.388 E4.53829
G1 X84.587 Y93.219 E4.61388
G1 X84.587 Y93.770 E4.63907
G1 X85.756 Y94.939 E4.71465
G1 X85.756 Y95.490 E4.73984
G1 X84.587 Y94.321 E4.81542
G1 X84.587 Y94.872 E4.84061
G1 X85.756 Y96.041 E4.91620
G1 X85.756 Y96.592 E4.94139
G1 X84.587 Y95.423 E5.01697
G1 X84.587 Y95.974 E5.04216
G1 X85.756 Y97.143 E5.11774
G1 X85.756 Y97.694 E5.14293
G1 X84.587 Y96.525 E5.21852
G1 X84.587 Y97.076 E5.24370
G1 X85.756 Y98.245 E5.31929
G1 X85.756 Y98.796 E5.34448
G1 X84.587 Y97.627 E5.42006
G1 X84.587 Y98.178 E5.44525
G1 X85.756 Y99.347 E5.52083
G1 X85.756 Y99.898 E5.54602
G1 X84.587 Y98.729 E5.62161
G1 X84.587 Y99.280 E5.64680
G1 X85.976 Y100.669 E5.73661
G1 X85.756 Y101.000 F7800.000
G1 X84.587 Y99.831 E5.81219 F540.000
G1 X84.587 Y100.382 E5.83738
G1 X85.756 Y101.551 E5.91297
G1 X85.756 Y102.102 E5.93816
G1 X84.587 Y100.933 E6.01374
G1 X84.587 Y101.484 E6.03893
G1 X85.756 Y102.653 E6.11451
G1 X85.756 Y103.204 E6.13970
G1 X84.587 Y102.035 E6.21529
G1 X84.587 Y102.586 E6.24047
G1 X85.756 Y103.755 E6.31606
G1 X85.756 Y104.306 E6.34125
G1 X84.587 Y103.137 E6.41683
G1 X84.587 Y103.688 E6.44202
G1 X85.756 Y104.857 E6.51760
G1 X85.756 Y105.408 E6.54279
G1 X84.587 Y104.239 E6.61838
G1 X84.587 Y104.790 E6.64357
G1 X85.756 Y105.959 E6.71915
G1 X85.686 Y106.440 E6.74138
G1 X86.443 Y107.197 E6.79033
G1 X86.994 Y107.197 E6.81552
G1 X86.237 Y106.440 E6.86447
G1 X85.756 Y106.510 E6.88670
G1 X84.587 Y105.341 E6.96228
G1 X84.587 Y105.892 E6.98747
G1 X85.892 Y107.197 E7.07187
G1 X85.341 Y107.197 E7.09706
G1 X84.587 Y106.442 E7.14585
G1 X84.587 Y106.993 E7.17103
G1 X84.790 Y107.197 E7.18420
G1 X86.788 Y106.440 F7800.000
G1 X87.545 Y107.197 E7.23314 F540.000
G1 X88.096 Y107.197 E7.25833
G1 X87.339 Y106.440 E7.30728
G1 X87.890 Y106.440 E7.33247
G1 X88.647 Y107.197 E7.38141
G1 X89.198 Y107.197 E7.40660
G1 X88.441 Y106.440 E7.45555
G1 X88.992 Y106.440 E7.48074
G1 X89.746 Y107.194 E7.52948
G1 X90.230 Y107.127 E7.55181
G1 X89.543 Y106.440 E7.59621
G1 X90.066 Y106.412 E7.62017
G1 X90.713 Y107.060 E7.66201
G1 X91.197 Y106.992 E7.68434
G1 X90.586 Y106.381 E7.72387
G1 X91.046 Y106.290 E7.74532
G1 X91.681 Y106.925 E7.78636
G1 X92.165 Y106.858 E7.80869
G1 X91.498 Y106.191 E7.85178
G1 X91.886 Y106.028 E7.87102
G1 X92.614 Y106.756 E7.91806
G1 X92.939 Y106.530 E7.93616
G1 X92.264 Y105.855 E7.97983
G1 X92.567 Y105.608 E7.99774
G1 X93.264 Y106.305 E8.04280
G1 X93.589 Y106.079 E8.06090
G1 X92.853 Y105.342 E8.10851
G1 X93.065 Y105.003 E8.12679
G1 X93.915 Y105.853 E8.18173
G1 X94.135 Y105.523 E8.19989
G1 X93.242 Y104.630 E8.25764
G1 X93.345 Y104.182 E8.27865
G1 X94.259 Y105.095 E8.33770
G1 X94.382 Y104.667 E8.35805
G1 X93.406 Y103.692 E8.42111
G1 X93.361 Y103.096 E8.44845
G1 X94.505 Y104.240 E8.52241
G1 X94.567 Y103.751 E8.54493
G1 X93.188 Y102.371 E8.63413
G1 X92.731 Y101.364 F7800.000
G1 X94.467 Y103.100 E8.74637 F540.000
G1 X91.657 Y100.840 F7800.000
G1 X90.677 Y99.860 E8.80973 F540.000
G1 X91.159 Y99.792 E8.83200
G1 X91.755 Y100.387 E8.87050
G1 X91.062 Y100.796 F7800.000
G1 X90.194 Y99.929 E8.92657 F540.000
G1 X89.670 Y99.955 E8.95060
G1 X90.429 Y100.714 E8.99967
G1 X89.837 Y100.673 E9.02679
G1 X89.119 Y99.955 E9.07323
G1 X88.568 Y99.955 E9.09841
G1 X89.282 Y100.669 E9.14458
G1 X88.731 Y100.669 E9.16977
G1 X88.017 Y99.955 E9.21594
G1 X87.466 Y99.955 E9.24113
G1 X88.180 Y100.669 E9.28729
G1 X87.629 Y100.669 E9.31248
G1 X86.915 Y99.955 E9.35865
G1 X86.364 Y99.955 E9.38384
G1 X87.078 Y100.669 E9.43000
G1 X86.527 Y100.669 E9.45519
G1 X85.813 Y99.955 E9.50136
M106 S255
G92 E0
G1 Z0.600 F7800.000
G1 X106.544 Y100.633 F7800.000
G1 X104.167 Y97.168 E1.25890 F600.000
G1 X102.242 Y92.352 E2.81311
G92 E0
G1 X112.928 Y94.457 F7800.000
G1 X112.275 Y98.774 E1.30813 F600.000
G1 X110.091 Y104.320 E3.09418
G1 X109.383 Y106.245 E3.70872
G1 X109.115 Y106.723 E3.87304
G1 X108.572 Y106.810 E4.03792
G1 X108.002 Y106.736 E4.21016
G1 X107.708 Y106.225 E4.38675
G1 X106.792 Y103.781 E5.16887
G1 X104.805 Y98.775 E6.78268
G1 X104.669 Y97.900 E7.04819
G1 X105.065 Y97.746 E7.17570
G1 X105.692 Y97.624 E7.36708
G1 X111.392 Y97.624 E9.07506
G1 X112.008 Y97.741 E9.26297
G1 X112.408 Y97.894 E9.39110
G1 X112.903 Y97.165 E9.65512
G1 X114.805 Y92.352 E11.20582
G92 E0
G1 X112.008 Y96.816 F7800.000
G1 X112.008 Y96.816 F7800.000
G1 X109.800 Y93.584 F7800.000
G1 X107.269 Y93.584 F7800.000
G1 X104.677 Y91.817 F7800.000
G1 X103.313 Y91.352 F7800.000
G1 X101.166 Y91.352 F7800.000
G1 X98.272 Y93.446 F7800.000
G1 X98.303 Y93.517 F7800.000
G1 X98.553 Y94.088 F7800.000
G1 X98.865 Y94.986 F7800.000
G1 X99.192 Y96.220 F7800.000
G1 X99.355 Y97.038 F7800.000
G1 X99.490 Y98.025 F7800.000
G1 X99.563 Y99.065 F7800.000
G1 X99.570 Y100.038 F7800.000
G1 X95.495 Y98.449 F7800.000
G1 X86.009 Y103.801 F7800.000
G1 X85.171 Y99.504 E1.31181 F600.000
G1 X85.171 Y94.011 E2.95776
G1 X85.244 Y93.461 E3.12413
G1 X86.207 Y93.181 E3.42438
G1 X90.275 Y93.182 E4.64347
G1 X91.572 Y93.283 E5.03310
G1 X91.812 Y93.322 E5.10601
G1 X92.708 Y93.575 E5.38510
G1 X92.989 Y93.691 E5.47618
G1 X93.418 Y93.932 E5.62358
G1 X93.854 Y94.254 E5.78597
G1 X94.188 Y94.615 E5.93341
G1 X94.389 Y94.875 E6.03188
G1 X94.753 Y95.689 E6.29910
G1 X94.877 Y96.695 E6.60295
G1 X94.839 Y97.093 E6.72260
G1 X94.788 Y97.351 E6.80140
G1 X94.589 Y97.944 E6.98890
G1 X94.297 Y98.533 E7.18599
G1 X93.890 Y98.969 E7.36455
G1 X93.781 Y99.050 E7.40539
G1 X93.045 Y99.466 E7.65870
G1 X92.510 Y99.699 E7.83357
G1 X92.175 Y99.792 E7.93766
G1 X91.320 Y100.308 E8.23701
G1 X90.522 Y101.178 E8.59081
G1 X85.329 Y100.312 F7800.000
G1 X90.172 Y100.324 E10.04216 F600.000
G1 X90.748 Y100.303 E10.21476
G1 X91.304 Y100.326 E10.38160
G1 X91.678 Y100.739 E10.54855
G1 X91.812 Y100.848 E10.60020
G1 X92.099 Y101.022 E10.70084
G1 X92.654 Y101.282 E10.88451
G1 X93.227 Y101.734 E11.10321
G1 X93.579 Y102.215 E11.28195
G1 X93.827 Y102.718 E11.44981
G1 X93.951 Y103.277 E11.62148
G1 X93.992 Y103.825 E11.78626
G1 X93.844 Y104.547 E12.00708
G1 X93.757 Y104.846 E12.10042
G1 X93.564 Y105.357 E12.26400
G1 X93.225 Y105.704 E12.40931
G1 X92.725 Y106.106 E12.60154
G1 X92.320 Y106.363 E12.74540
G1 X91.648 Y106.549 E12.95418
G1 X90.827 Y106.696 E13.20415
G1 X89.620 Y106.818 E13.56760
G1 X86.207 Y106.818 E14.59050
G1 X85.244 Y106.539 E14.89076
G1 X85.171 Y105.989 E15.05713
G1 X85.171 Y101.120 E16.51610
G1 X85.329 Y100.312 E16.76278
G92 E0
G1 Z0.900 F7800.000
G1 X106.544 Y100.633 F7800.000
G1 X104.167 Y97.168 E1.25890 F600.000
G1 X102.242 Y92.352 E2.81311
G92 E0
G1 X112.928 Y94.457 F7800.000
G1 X112.275 Y98.774 E1.30813 F600.000
G1 X110.091 Y104.320 E3.09418
G1 X109.383 Y106.245 E3.70872
G1 X109.115 Y106.723 E3.87304
G1 X108.572 Y106.810 E4.03792
G1 X108.002 Y106.736 E4.21016
G1 X107.708 Y106.225 E4.38675
G1 X106.792 Y103.781 E5.16887
G1 X104.805 Y98.775 E6.78268
G1 X104.669 Y97.900 E7.04819
G1 X105.065 Y97.746 E7.17570
G1 X105.692 Y97.624 E7.36708
G1 X111.392 Y97.624 E9.07506
G1 X112.008 Y97.741 E9.26297
G1 X112.408 Y97.894 E9.39110
G1 X112.903 Y97.165 E9.65512
G1 X114.805 Y92.352 E11.20582
G92 E0
G1 X112.008 Y96.816 F7800.000
G1 X112.008 Y96.816 F7800.000
G1 X109.800 Y93.584 F7800.000
G1 X107.269 Y93.584 F7800.000
G1 X104.677 Y91.817 F7800.000
G1 X103.313 Y91.352 F7800.000
G1 X101.166 Y91.352 F7800.000
G1 X98.272 Y93.446 F7800.000
