; generated by Slic3r 1.2.9 on 2016-03-11 at 01:22:35

; external perimeters extrusion width = 1.54mm
; perimeters extrusion width = 2.62mm
; infill extrusion width = 6.27mm
; solid infill extrusion width = 2.62mm
; top infill extrusion width = 2.62mm

M107
M104 S30 ; set temperature
G28 ; home all axes
G1 Z5 F5000 ; lift nozzle
M302
M92 E10000
M500
M501
G1 E100
M109 S30 ; wait for temperature to be reached
G21 ; set units to millimeters
G90 ; use absolute coordinates
M82 ; use absolute distances for extrusion
G92 E0
G1 Z0.300 F7800.000
G1 X111.342 Y106.181 F7800.000
G1 X114.741 Y106.181 E0.15380 F378.000
G1 X114.741 Y107.423 E0.21000
G1 X103.621 Y107.423 E0.71318
G1 X103.621 Y92.577 E1.38495
G1 X115.185 Y92.577 E1.90821
G1 X115.185 Y93.819 E1.96441
G1 X105.242 Y93.819 E2.41432 F378.000
G1 X105.242 Y99.611 E2.67641
G1 X114.091 Y99.611 E3.07682
G1 X114.091 Y100.831 E3.13202
G1 X105.242 Y100.831 E3.53243
G1 X105.242 Y106.181 E3.77451
G1 X111.111 Y106.181 E4.04008
G1 X114.173 Y106.407 F7800.000
G1 X114.515 Y106.749 E4.06198 F540.000
G1 X114.417 Y107.197 E4.08274
G1 X113.627 Y106.407 E4.13332
G1 X113.082 Y106.407 E4.15803
G1 X113.872 Y107.197 E4.20861
G1 X113.326 Y107.197 E4.23331
G1 X112.536 Y106.407 E4.28390
G1 X111.990 Y106.407 E4.30860
G1 X112.780 Y107.197 E4.35919
G1 X112.235 Y107.197 E4.38389
G1 X111.445 Y106.407 E4.43448
G1 X110.899 Y106.407 E4.45918
G1 X111.689 Y107.197 E4.50976
G1 X111.144 Y107.197 E4.53447
G1 X110.353 Y106.407 E4.58505
G1 X109.808 Y106.407 E4.60975
G1 X110.598 Y107.197 E4.66034
G1 X110.052 Y107.197 E4.68504
G1 X109.262 Y106.407 E4.73563
G1 X108.717 Y106.407 E4.76033
G1 X109.507 Y107.197 E4.81092
G1 X108.961 Y107.197 E4.83562
G1 X108.171 Y106.407 E4.88620
G1 X107.625 Y106.407 E4.91091
G1 X108.415 Y107.197 E4.96149
G1 X107.870 Y107.197 E4.98619
G1 X107.080 Y106.407 E5.03678
G1 X106.534 Y106.407 E5.06148
G1 X107.324 Y107.197 E5.11207
G1 X106.778 Y107.197 E5.13677
G1 X105.988 Y106.407 E5.18736
G1 X105.443 Y106.407 E5.21206
G1 X106.233 Y107.197 E5.26264
G1 X105.687 Y107.197 E5.28735
G1 X103.847 Y105.357 E5.40518
G1 X103.847 Y104.811 E5.42988
G1 X105.016 Y105.980 E5.50474
G1 X105.016 Y105.434 E5.52944
G1 X103.847 Y104.265 E5.60429
G1 X103.847 Y103.720 E5.62899
G1 X105.016 Y104.889 E5.70384
G1 X105.016 Y104.343 E5.72854
G1 X103.847 Y103.174 E5.80340
G1 X103.847 Y102.628 E5.82810
G1 X105.016 Y103.798 E5.90295
G1 X105.016 Y103.252 E5.92765
G1 X103.847 Y102.083 E6.00250
G1 X103.847 Y101.537 E6.02720
G1 X105.016 Y102.706 E6.10206
G1 X105.016 Y102.161 E6.12676
G1 X103.847 Y100.992 E6.20161
G1 X103.847 Y100.446 E6.22631
G1 X105.016 Y101.615 E6.30116
G1 X105.016 Y101.069 E6.32587
G1 X103.847 Y99.900 E6.40072
G1 X103.847 Y99.355 E6.42542
G1 X105.097 Y100.605 E6.50548
G1 X105.643 Y100.605 E6.53018
G1 X103.847 Y98.809 E6.64517
G1 X103.847 Y98.263 E6.66987
G1 X105.016 Y99.432 E6.74472
G1 X105.016 Y98.887 E6.76942
G1 X103.847 Y97.718 E6.84428
G1 X103.847 Y97.172 E6.86898
G1 X105.016 Y98.341 E6.94383
G1 X105.016 Y97.796 E6.96853
G1 X103.847 Y96.626 E7.04338
G1 X103.847 Y96.081 E7.06809
G1 X105.016 Y97.250 E7.14294
G1 X105.016 Y96.704 E7.16764
G1 X103.847 Y95.535 E7.24249
G1 X103.847 Y94.990 E7.26719
G1 X105.016 Y96.159 E7.34204
G1 X105.016 Y95.613 E7.36675
G1 X103.847 Y94.444 E7.44160
G1 X103.847 Y93.898 E7.46630
G1 X105.016 Y95.067 E7.54115
G1 X105.016 Y94.522 E7.56585
G1 X103.847 Y93.353 E7.64070
G1 X103.865 Y92.825 E7.66461
G1 X105.016 Y93.976 E7.73831
G1 X105.178 Y93.593 F7800.000
G1 X104.388 Y92.803 E7.78890 F540.000
G1 X104.934 Y92.803 E7.81360
G1 X105.724 Y93.593 E7.86418
G1 X106.270 Y93.593 E7.88889
G1 X105.480 Y92.803 E7.93947
G1 X106.025 Y92.803 E7.96417
G1 X106.815 Y93.593 E8.01476
G1 X107.361 Y93.593 E8.03946
G1 X106.571 Y92.803 E8.09005
G1 X107.116 Y92.803 E8.11475
G1 X107.906 Y93.593 E8.16533
G1 X108.452 Y93.593 E8.19003
G1 X107.662 Y92.803 E8.24062
G1 X108.208 Y92.803 E8.26532
G1 X108.998 Y93.593 E8.31591
G1 X109.543 Y93.593 E8.34061
G1 X108.753 Y92.803 E8.39119
G1 X109.299 Y92.803 E8.41590
G1 X110.089 Y93.593 E8.46648
G1 X110.635 Y93.593 E8.49118
G1 X109.845 Y92.803 E8.54177
G1 X110.390 Y92.803 E8.56647
G1 X111.180 Y93.593 E8.61706
G1 X111.726 Y93.593 E8.64176
G1 X110.936 Y92.803 E8.69234
G1 X111.481 Y92.803 E8.71705
G1 X112.272 Y93.593 E8.76763
G1 X112.817 Y93.593 E8.79233
G1 X112.027 Y92.803 E8.84292
G1 X112.573 Y92.803 E8.86762
G1 X113.363 Y93.593 E8.91821
G1 X113.908 Y93.593 E8.94291
G1 X113.118 Y92.803 E8.99349
G1 X113.664 Y92.803 E9.01819
G1 X114.454 Y93.593 E9.06878
G1 X114.959 Y93.552 E9.09171
G1 X114.210 Y92.803 E9.13968
G1 X114.755 Y92.803 E9.16438
G1 X114.959 Y93.007 E9.17742
G92 E0
G1 X104.467 Y93.352 F7800.000
G1 X104.467 Y93.352 F7800.000
G1 X113.865 Y100.097 F7800.000
G1 X113.605 Y99.837 E0.01665 F540.000
G1 X113.059 Y99.837 E0.04135
G1 X113.827 Y100.605 E0.09053
G1 X113.282 Y100.605 F7800.000
G1 X112.514 Y99.837 E0.13971 F540.000
G1 X111.968 Y99.837 E0.16441
G1 X112.736 Y100.605 E0.21359
G1 X112.190 Y100.605 E0.23829
G1 X111.422 Y99.837 E0.28747
G1 X110.877 Y99.837 E0.31217
G1 X111.645 Y100.605 E0.36135
G1 X111.099 Y100.605 E0.38605
G1 X110.331 Y99.837 E0.43522
G1 X109.785 Y99.837 E0.45993
G1 X110.553 Y100.605 E0.50910
G1 X110.008 Y100.605 E0.53381
G1 X109.240 Y99.837 E0.58298
G1 X108.694 Y99.837 E0.60769
G1 X109.462 Y100.605 E0.65686
G1 X108.917 Y100.605 E0.68156
G1 X108.148 Y99.837 E0.73074
G1 X107.603 Y99.837 E0.75544
G1 X108.371 Y100.605 E0.80462
G1 X107.825 Y100.605 E0.82932
G1 X107.057 Y99.837 E0.87850
G1 X106.512 Y99.837 E0.90320
G1 X107.280 Y100.605 E0.95238
G1 X106.734 Y100.605 E0.97708
G1 X105.966 Y99.837 E1.02626
G1 X105.420 Y99.837 E1.05096
G1 X106.188 Y100.605 E1.10014
G92 E0
G1 X104.467 Y106.648 F7800.000
G1 X104.467 Y106.648 F7800.000
G1 X104.431 Y106.612 F7800.000
G1 X104.396 Y106.648 F7800.000
G1 X103.847 Y105.902 F7800.000
G1 X105.142 Y107.197 E0.08290 F540.000
G1 X104.596 Y107.197 E0.10760
G1 X103.847 Y106.448 E0.15557
G1 X103.847 Y106.993 E0.18027
G1 X104.050 Y107.197 E0.19331
G92 E0
G1 X105.467 Y99.386 F7800.000
G1 X114.316 Y96.715 F7800.000
G1 X116.410 Y94.044 F7800.000
G1 X116.238 Y91.524 F7800.000
G1 X103.396 Y91.352 F7800.000
G1 X99.794 Y94.924 F7800.000
G1 X99.877 Y96.190 F7800.000
G1 X96.387 Y96.648 F7800.000
G1 X88.168 Y92.577 F7800.000
G1 X90.773 Y92.577 E0.11784 F378.000
G1 X92.227 Y92.689 E0.18387
G1 X92.374 Y92.700 E0.19054 F378.000
G1 X93.701 Y93.064 E0.25279
G1 X94.765 Y93.663 E0.30803
G1 X95.540 Y94.467 E0.35856
G1 X96.004 Y95.456 E0.40801
G1 X96.161 Y96.650 E0.46248
G1 X96.058 Y97.552 E0.50359
G1 X95.751 Y98.339 E0.54177
G1 X95.241 Y99.016 E0.58013
G1 X94.538 Y99.561 E0.62037
G1 X93.652 Y99.946 E0.66411
G1 X92.533 Y100.177 E0.71581
G1 X92.509 Y100.600 E0.73495
G1 X93.362 Y100.878 E0.77556
G1 X94.033 Y101.267 E0.81062
G1 X94.568 Y101.778 E0.84413
G1 X94.959 Y102.398 E0.87726
G1 X95.195 Y103.110 E0.91121
G1 X95.272 Y103.901 E0.94718
G1 X94.710 Y105.853 E1.03909
G1 X93.030 Y107.019 E1.13160
G1 X90.117 Y107.423 E1.26470
G1 X84.815 Y107.423 E1.50459
G1 X84.815 Y92.577 E2.17636
G1 X87.937 Y92.577 E2.31763
G1 X87.937 Y93.786 F7800.000
G1 X90.681 Y93.786 E2.44177 F378.000
G1 X91.856 Y93.866 E2.49508
G1 X92.824 Y94.113 E2.54028
G1 X93.574 Y94.537 E2.57926
G1 X94.104 Y95.139 E2.61557
G1 X94.419 Y95.902 E2.65293
G1 X94.524 Y96.831 E2.69520
G1 X94.070 Y98.445 E2.77108
G1 X92.699 Y99.420 E2.84720
G1 X90.526 Y99.729 E2.94650
G1 X86.436 Y99.729 E3.13157
G1 X86.436 Y93.786 E3.40049
G1 X87.706 Y93.786 E3.45795 F378.000
G92 E0
G1 X85.661 Y100.504 F7800.000
G1 X85.661 Y100.504 F7800.000
G1 X87.706 Y100.895 F7800.000
G1 X90.139 Y100.895 E0.11008 F378.000
G1 X91.177 Y100.967 E0.15716
G1 X92.048 Y101.188 E0.19782
G1 X92.743 Y101.567 E0.23365
G1 X93.248 Y102.117 E0.26741
G1 X93.547 Y102.825 E0.30222
G1 X93.645 Y103.676 E0.34097
G1 X93.543 Y104.489 E0.37805
G1 X93.228 Y105.154 E0.41134
G1 X92.701 Y105.643 E0.44388
G1 X92.000 Y105.966 E0.47879
G1 X91.145 Y106.153 E0.51841
G1 X90.138 Y106.214 E0.56405
G1 X86.436 Y106.214 E0.73155
G1 X86.436 Y100.895 E0.97223
G1 X87.475 Y100.895 E1.01925 F378.000
G1 X92.299 Y100.912 F7800.000
G1 X93.027 Y101.227 E1.09706 F540.000
G1 X92.358 Y99.839 F7800.000
G1 X92.795 Y99.763 E1.14051 F540.000
G1 X93.215 Y99.589 E1.18511
G1 X93.420 Y99.394 F7800.000
G1 X93.723 Y99.697 E1.20469 F540.000
G1 X94.107 Y99.530 E1.22383
G1 X93.596 Y99.019 E1.25684
G1 X93.918 Y98.790 E1.27491
G1 X94.485 Y99.357 E1.31156
G1 X94.795 Y99.117 E1.32951
G1 X94.240 Y98.561 E1.36541
G1 X94.370 Y98.140 E1.38555
G1 X95.105 Y98.875 E1.43304
G1 X95.342 Y98.561 E1.45103
G1 X94.491 Y97.710 E1.50601
G1 X94.612 Y97.280 E1.52643
G1 X95.573 Y98.241 E1.58852
G1 X95.727 Y97.844 E1.60797
G1 X94.733 Y96.850 E1.67224
G1 X94.697 Y96.263 E1.69913
G1 X95.854 Y97.420 E1.77394
G1 X95.910 Y96.926 E1.79670
G1 X94.576 Y95.591 E1.88300
G1 X95.367 Y94.729 F7800.000
G1 X94.428 Y93.791 E1.94368 F540.000
G1 X93.301 Y93.214 F7800.000
G1 X95.798 Y95.711 E2.10513 F540.000
G1 X95.881 Y96.346 E2.13437
G1 X92.542 Y93.006 E2.35029
G1 X91.880 Y92.895 E2.38095
G1 X92.847 Y93.862 E2.44344
G1 X92.107 Y93.673 E2.47833
G1 X91.283 Y92.849 E2.53159
G1 X90.686 Y92.804 E2.55896
G1 X91.492 Y93.609 E2.61103
G1 X90.900 Y93.569 E2.63812
G1 X90.135 Y92.803 E2.68763
G1 X89.584 Y92.803 E2.71282
G1 X90.341 Y93.560 E2.76177
G1 X89.790 Y93.560 E2.78696
G1 X89.033 Y92.803 E2.83590
G1 X88.482 Y92.803 E2.86109
G1 X89.239 Y93.560 E2.91004
G1 X88.688 Y93.560 E2.93523
G1 X87.931 Y92.803 E2.98418
G1 X87.380 Y92.803 E3.00936
G1 X88.137 Y93.560 E3.05831
G1 X87.586 Y93.560 E3.08350
G1 X86.829 Y92.803 E3.13245
G1 X86.278 Y92.803 E3.15763
G1 X87.035 Y93.560 E3.20658
G1 X86.484 Y93.560 E3.23177
G1 X85.727 Y92.803 E3.28072
G1 X85.176 Y92.803 E3.30591
G1 X86.210 Y93.837 E3.37278
G1 X86.210 Y94.388 E3.39797
G1 X85.041 Y93.219 E3.47355
G1 X85.041 Y93.770 E3.49874
G1 X86.210 Y94.939 E3.57432
G1 X86.210 Y95.490 E3.59951
G1 X85.041 Y94.321 E3.67510
G1 X85.041 Y94.872 E3.70029
G1 X86.210 Y96.041 E3.77587
G1 X86.210 Y96.592 E3.80106
G1 X85.041 Y95.423 E3.87664
G1 X85.041 Y95.974 E3.90183
G1 X86.210 Y97.143 E3.97742
G1 X86.210 Y97.694 E4.00260
G1 X85.041 Y96.525 E4.07819
G1 X85.041 Y97.076 E4.10338
G1 X86.210 Y98.245 E4.17896
G1 X86.210 Y98.796 E4.20415
G1 X85.041 Y97.627 E4.27973
G1 X85.041 Y98.178 E4.30492
G1 X86.210 Y99.347 E4.38051
G1 X86.210 Y99.898 E4.40570
G1 X85.041 Y98.729 E4.48128
G1 X85.041 Y99.280 E4.50647
G1 X86.430 Y100.669 E4.59628
G1 X86.210 Y101.000 F7800.000
G1 X85.041 Y99.831 E4.67187 F540.000
G1 X85.041 Y100.382 E4.69705
G1 X86.210 Y101.551 E4.77264
G1 X86.210 Y102.102 E4.79783
G1 X85.041 Y100.933 E4.87341
G1 X85.041 Y101.484 E4.89860
G1 X86.210 Y102.653 E4.97419
G1 X86.210 Y103.204 E4.99937
G1 X85.041 Y102.035 E5.07496
G1 X85.041 Y102.586 E5.10015
G1 X86.210 Y103.755 E5.17573
G1 X86.210 Y104.306 E5.20092
G1 X85.041 Y103.137 E5.27650
G1 X85.041 Y103.688 E5.30169
G1 X86.210 Y104.857 E5.37728
G1 X86.210 Y105.408 E5.40247
G1 X85.041 Y104.239 E5.47805
G1 X85.041 Y104.790 E5.50324
G1 X86.210 Y105.959 E5.57882
G1 X86.141 Y106.440 E5.60105
G1 X86.898 Y107.197 E5.65000
G1 X87.449 Y107.197 E5.67519
G1 X86.692 Y106.440 E5.72414
G1 X86.210 Y106.510 E5.74637
G1 X85.041 Y105.341 E5.82195
G1 X85.041 Y105.892 E5.84714
G1 X86.347 Y107.197 E5.93155
G1 X85.796 Y107.197 E5.95673
G1 X85.041 Y106.442 E6.00552
G1 X85.041 Y106.993 E6.03071
G1 X85.245 Y107.197 E6.04387
G1 X87.242 Y106.440 F7800.000
G1 X88.000 Y107.197 E6.09282 F540.000
G1 X88.551 Y107.197 E6.11800
G1 X87.793 Y106.440 E6.16695
G1 X88.344 Y106.440 E6.19214
G1 X89.102 Y107.197 E6.24109
G1 X89.653 Y107.197 E6.26628
G1 X88.895 Y106.440 E6.31522
G1 X89.446 Y106.440 E6.34041
G1 X90.200 Y107.194 E6.38915
G1 X90.684 Y107.127 E6.41148
G1 X89.997 Y106.440 E6.45588
G1 X90.521 Y106.412 E6.47984
G1 X91.168 Y107.060 E6.52168
G1 X91.652 Y106.992 E6.54401
G1 X91.040 Y106.381 E6.58354
G1 X91.501 Y106.290 E6.60499
G1 X92.136 Y106.925 E6.64603
G1 X92.619 Y106.858 E6.66836
G1 X91.953 Y106.191 E6.71145
G1 X92.341 Y106.028 E6.73069
G1 X93.068 Y106.756 E6.77773
G1 X93.394 Y106.530 E6.79583
G1 X92.718 Y105.855 E6.83950
G1 X93.022 Y105.608 E6.85741
G1 X93.719 Y106.305 E6.90247
G1 X94.044 Y106.079 E6.92057
G1 X93.307 Y105.342 E6.96819
G1 X93.519 Y105.003 E6.98646
G1 X94.369 Y105.853 E7.04141
G1 X94.590 Y105.523 E7.05957
G1 X93.697 Y104.630 E7.11731
G1 X93.800 Y104.182 E7.13833
G1 X94.713 Y105.095 E7.19738
G1 X94.836 Y104.667 E7.21773
G1 X93.861 Y103.692 E7.28079
G1 X93.816 Y103.096 E7.30813
G1 X94.960 Y104.240 E7.38209
G1 X95.022 Y103.751 E7.40461
G1 X93.642 Y102.371 E7.49381
G1 X93.186 Y101.364 F7800.000
G1 X94.922 Y103.100 E7.60604 F540.000
G1 X92.111 Y100.840 F7800.000
G1 X91.131 Y99.860 E7.66940 F540.000
G1 X90.649 Y99.929 E7.69168
G1 X91.516 Y100.796 E7.74775
G1 X90.883 Y100.714 E7.77694
G1 X90.124 Y99.955 E7.82601
G1 X89.573 Y99.955 E7.85120
G1 X90.291 Y100.673 E7.89764
G1 X89.736 Y100.669 E7.92301
G1 X89.022 Y99.955 E7.96918
G1 X88.471 Y99.955 E7.99437
G1 X89.185 Y100.669 E8.04054
G1 X88.634 Y100.669 E8.06573
G1 X87.920 Y99.955 E8.11189
G1 X87.369 Y99.955 E8.13708
G1 X88.083 Y100.669 E8.18325
G1 X87.532 Y100.669 E8.20844
G1 X86.818 Y99.955 E8.25461
G1 X86.267 Y99.955 E8.27979
G1 X86.981 Y100.669 E8.32596
G1 X91.614 Y99.792 F7800.000
G1 X92.209 Y100.387 E8.36446 F540.000
M106 S255
G92 E0
G1 Z0.600 F7800.000
G1 X115.410 Y93.198 F7800.000
G1 X105.467 Y93.198 E2.97938 F600.000
G1 X104.511 Y93.468 E3.27683
G1 X104.431 Y94.044 E3.45118
G1 X104.431 Y99.386 E5.05189
G1 X105.302 Y103.706 E6.37226
G1 X104.467 Y106.648 F7800.000
G1 X104.467 Y106.648 F7800.000
G1 X114.966 Y106.802 F7800.000
G1 X105.467 Y106.802 E9.21860 F600.000
G1 X104.511 Y106.532 E9.51604
G1 X104.431 Y105.956 E9.69039
G1 X104.431 Y101.056 E11.15866
G1 X104.600 Y100.221 E11.41390
G1 X114.316 Y100.221 E14.32531
G92 E0
G1 X114.922 Y103.468 F7800.000
G1 X116.092 Y108.331 F7800.000
G1 X101.396 Y107.648 F7800.000
G1 X99.396 Y102.673 F7800.000
G1 X99.196 Y101.119 F7800.000
G1 X98.887 Y101.068 F7800.000
G1 X95.164 Y102.301 F7800.000
G1 X86.464 Y103.801 F7800.000
G1 X85.626 Y99.504 E1.31181 F600.000
G1 X85.626 Y94.011 E2.95776
G1 X85.699 Y93.461 E3.12413
G1 X86.661 Y93.181 E3.42438
G1 X90.730 Y93.182 E4.64347
G1 X92.026 Y93.283 E5.03310
G1 X92.266 Y93.322 E5.10601
G1 X93.163 Y93.575 E5.38510
G1 X93.444 Y93.691 E5.47618
G1 X93.872 Y93.932 E5.62358
G1 X94.309 Y94.254 E5.78597
G1 X94.642 Y94.615 E5.93341
G1 X94.844 Y94.875 E6.03188
G1 X95.208 Y95.689 E6.29910
G1 X95.332 Y96.695 E6.60295
G1 X95.293 Y97.093 E6.72260
G1 X95.242 Y97.351 E6.80140
G1 X95.044 Y97.944 E6.98890
G1 X94.752 Y98.533 E7.18599
G1 X94.345 Y98.969 E7.36455
G1 X94.235 Y99.050 E7.40539
G1 X93.499 Y99.466 E7.65870
G1 X92.964 Y99.699 E7.83357
G1 X92.630 Y99.792 E7.93766
G1 X91.775 Y100.308 E8.23701
G1 X90.976 Y101.178 E8.59081
G1 X85.783 Y100.312 F7800.000
G1 X90.627 Y100.324 E10.04216 F600.000
G1 X91.202 Y100.303 E10.21476
G1 X91.759 Y100.326 E10.38160
G1 X92.132 Y100.739 E10.54855
G1 X92.266 Y100.848 E10.60020
G1 X92.553 Y101.022 E10.70084
G1 X93.109 Y101.282 E10.88451
G1 X93.682 Y101.734 E11.10321
G1 X94.033 Y102.215 E11.28195
G1 X94.282 Y102.718 E11.44981
G1 X94.406 Y103.277 E11.62148
G1 X94.447 Y103.825 E11.78626
G1 X94.298 Y104.547 E12.00708
G1 X94.212 Y104.846 E12.10042
G1 X94.019 Y105.357 E12.26400
G1 X93.679 Y105.704 E12.40931
G1 X93.180 Y106.106 E12.60154
G1 X92.774 Y106.363 E12.74540
G1 X92.103 Y106.549 E12.95418
G1 X91.282 Y106.696 E13.20415
G1 X90.075 Y106.818 E13.56760
G1 X86.661 Y106.818 E14.59050
G1 X85.699 Y106.539 E14.89076
G1 X85.626 Y105.989 E15.05713
G1 X85.626 Y101.120 E16.51610
G1 X85.783 Y100.312 E16.76278
G92 E0
G1 Z0.900 F7800.000
G1 X115.410 Y93.198 F7800.000
G1 X105.467 Y93.198 E2.97938 F600.000
G1 X104.511 Y93.468 E3.27683
G1 X104.431 Y94.044 E3.45118
G1 X104.431 Y99.386 E5.05189
G1 X105.302 Y103.706 E6.37226
G1 X104.467 Y106.648 F7800.000
G1 X104.467 Y106.648 F7800.000
G1 X114.966 Y106.802 F7800.000
G1 X105.467 Y106.802 E9.21860 F600.000
G1 X104.511 Y106.532 E9.51604
G1 X104.431 Y105.956 E9.69039
G1 X104.431 Y101.056 E11.15866
G1 X104.600 Y100.221 E11.41390
G1 X114.316 Y100.221 E14.32531
G92 E0
G1 X114.922 Y103.468 F7800.000
