; generated by Slic3r 1.2.9 on 2016-03-11 at 01:22:38

; external perimeters extrusion width = 1.54mm
; perimeters extrusion width = 2.62mm
; infill extrusion width = 6.27mm
; solid infill extrusion width = 2.62mm
; top infill extrusion width = 2.62mm

M107
M104 S30 ; set temperature
G28 ; home all axes
G1 Z5 F5000 ; lift nozzle
M302
M92 E10000
M500
M501
G1 E100
M109 S30 ; wait for temperature to be reached
G21 ; set units to millimeters
G90 ; use absolute coordinates
M82 ; use absolute distances for extrusion
G92 E0
G1 Z0.300 F7800.000
G1 X103.419 Y101.896 F7800.000
G1 X103.419 Y92.577 E0.42168 F378.000
G1 X105.040 Y92.577 E0.49503
G1 X105.040 Y99.674 E0.81617
G1 X113.773 Y99.674 E1.21133 F378.000
G1 X113.773 Y92.577 E1.53246
G1 X115.394 Y92.577 E1.60581
G1 X115.394 Y107.423 E2.27758
G1 X113.773 Y107.423 E2.35093
G1 X113.773 Y100.959 E2.64342
G1 X105.040 Y100.959 E3.03858
G1 X105.040 Y107.423 E3.33108
G1 X103.419 Y107.423 E3.40442
G1 X103.419 Y102.127 E3.64406
G1 X104.814 Y99.844 F7800.000
G1 X103.645 Y98.675 E3.72014 F540.000
G1 X103.645 Y98.120 E3.74565
G1 X104.814 Y99.290 E3.82173
G1 X104.814 Y98.735 E3.84725
G1 X103.645 Y97.566 E3.92333
G1 X103.645 Y97.011 E3.94884
G1 X104.814 Y98.180 E4.02492
G1 X104.814 Y97.626 E4.05044
G1 X103.645 Y96.457 E4.12652
G1 X103.645 Y95.902 E4.15203
G1 X104.814 Y97.071 E4.22811
G1 X104.814 Y96.517 E4.25363
G1 X103.645 Y95.348 E4.32970
G1 X103.645 Y94.793 E4.35522
G1 X104.814 Y95.962 E4.43130
G1 X104.814 Y95.408 E4.45682
G1 X103.645 Y94.238 E4.53289
G1 X103.645 Y93.684 E4.55841
G1 X104.814 Y94.853 E4.63449
G1 X104.814 Y94.298 E4.66001
G1 X103.645 Y93.129 E4.73608
G1 X103.873 Y92.803 E4.75441
G1 X104.814 Y93.744 E4.81564
G1 X104.814 Y93.189 E4.84115
G1 X104.428 Y92.803 E4.86630
G92 E0
G1 X114.548 Y93.352 F7800.000
G1 X114.548 Y93.352 F7800.000
G1 X114.583 Y93.387 F7800.000
G1 X114.619 Y93.352 F7800.000
G1 X115.168 Y93.007 F7800.000
G1 X114.964 Y92.803 E0.01325 F540.000
G1 X114.410 Y92.803 E0.03877
G1 X115.168 Y93.561 E0.08810
G1 X115.168 Y94.116 E0.11362
G1 X113.999 Y92.947 E0.18970
G1 X113.999 Y93.501 E0.21522
G1 X115.168 Y94.670 E0.29129
G1 X115.168 Y95.225 E0.31681
G1 X113.999 Y94.056 E0.39289
G1 X113.999 Y94.610 E0.41841
G1 X115.168 Y95.779 E0.49448
G1 X115.168 Y96.334 E0.52000
G1 X113.999 Y95.165 E0.59608
G1 X113.999 Y95.719 E0.62160
G1 X115.168 Y96.889 E0.69767
G1 X115.168 Y97.443 E0.72319
G1 X113.999 Y96.274 E0.79927
G1 X113.999 Y96.829 E0.82479
G1 X115.168 Y97.998 E0.90086
G1 X115.168 Y98.552 E0.92638
G1 X113.999 Y97.383 E1.00246
G1 X113.999 Y97.938 E1.02798
G1 X115.168 Y99.107 E1.10405
G1 X115.168 Y99.661 E1.12957
G1 X113.999 Y98.492 E1.20565
G1 X113.999 Y99.047 E1.23117
G1 X115.168 Y100.216 E1.30724
G1 X115.168 Y100.770 E1.33276
G1 X113.999 Y99.601 E1.40884
G1 X113.743 Y99.900 F7800.000
G1 X115.168 Y101.325 E1.50157 F540.000
G1 X115.168 Y101.880 E1.52709
G1 X113.188 Y99.900 E1.65591
G1 X112.634 Y99.900 E1.68143
G1 X113.467 Y100.733 E1.73564
G1 X112.912 Y100.733 E1.76116
G1 X112.079 Y99.900 E1.81537
G1 X111.525 Y99.900 E1.84089
G1 X112.358 Y100.733 E1.89510
G1 X111.803 Y100.733 E1.92062
G1 X110.970 Y99.900 E1.97483
G1 X110.415 Y99.900 E2.00035
G1 X111.248 Y100.733 E2.05456
G1 X110.694 Y100.733 E2.08008
G1 X109.861 Y99.900 E2.13429
G1 X109.306 Y99.900 E2.15981
G1 X110.139 Y100.733 E2.21402
G1 X109.585 Y100.733 E2.23954
G1 X108.752 Y99.900 E2.29375
G1 X108.197 Y99.900 E2.31927
G1 X109.030 Y100.733 E2.37348
G1 X108.476 Y100.733 E2.39900
G1 X107.643 Y99.900 E2.45322
G1 X107.088 Y99.900 E2.47873
G1 X107.921 Y100.733 E2.53295
G1 X107.367 Y100.733 E2.55846
G1 X106.533 Y99.900 E2.61268
G1 X105.979 Y99.900 E2.63819
G1 X106.812 Y100.733 E2.69241
G1 X106.257 Y100.733 E2.71792
G1 X105.424 Y99.900 E2.77214
G1 X104.870 Y99.900 E2.79765
G1 X105.703 Y100.733 E2.85187
G1 X105.148 Y100.733 E2.87738
G1 X103.645 Y99.230 E2.97522
G1 X103.645 Y99.784 E3.00074
G1 X104.814 Y100.953 E3.07682
G1 X104.814 Y101.508 E3.10233
G1 X103.645 Y100.339 E3.17841
G1 X103.645 Y100.893 E3.20393
G1 X104.814 Y102.062 E3.28001
G1 X104.814 Y102.617 E3.30552
G1 X103.645 Y101.448 E3.38160
G1 X103.645 Y102.002 E3.40712
G1 X104.814 Y103.171 E3.48319
G1 X104.814 Y103.726 E3.50871
G1 X103.645 Y102.557 E3.58479
G1 X103.645 Y103.112 E3.61031
G1 X104.814 Y104.281 E3.68638
G1 X104.814 Y104.835 E3.71190
G1 X103.645 Y103.666 E3.78798
G1 X103.645 Y104.221 E3.81350
G1 X104.814 Y105.390 E3.88957
G1 X104.814 Y105.944 E3.91509
G1 X103.645 Y104.775 E3.99117
G1 X103.645 Y105.330 E4.01669
G1 X104.814 Y106.499 E4.09276
G1 X104.814 Y107.053 E4.11828
G1 X103.645 Y105.884 E4.19436
G1 X103.645 Y106.439 E4.21988
G1 X104.403 Y107.197 E4.26921
G1 X103.848 Y107.197 E4.29473
G1 X103.645 Y106.993 E4.30798
G92 E0
G1 X104.265 Y106.648 F7800.000
G1 X104.265 Y106.648 F7800.000
G1 X114.385 Y107.197 F7800.000
G1 X113.999 Y106.811 E0.02514 F540.000
G1 X113.999 Y106.256 E0.05066
G1 X114.940 Y107.197 E0.11188
G1 X115.168 Y106.871 E0.13021
G1 X113.999 Y105.702 E0.20628
G1 X113.999 Y105.147 E0.23180
G1 X115.168 Y106.316 E0.30788
G1 X115.168 Y105.762 E0.33340
G1 X113.999 Y104.592 E0.40947
G1 X113.999 Y104.038 E0.43499
G1 X115.168 Y105.207 E0.51107
G1 X115.168 Y104.652 E0.53659
G1 X113.999 Y103.483 E0.61266
G1 X113.999 Y102.929 E0.63818
G1 X115.168 Y104.098 E0.71426
G1 X115.168 Y103.543 E0.73978
G1 X113.999 Y102.374 E0.81585
G1 X113.999 Y101.820 E0.84137
G1 X115.168 Y102.989 E0.91745
G1 X115.168 Y102.434 E0.94297
G1 X113.999 Y101.265 E1.01904
G92 E0
G1 X105.265 Y99.449 F7800.000
G1 X105.265 Y91.352 F7800.000
G1 X101.194 Y92.352 F7800.000
G1 X99.335 Y99.851 F7800.000
G1 X99.097 Y101.775 F7800.000
G1 X99.233 Y103.536 F7800.000
G1 X95.291 Y103.922 F7800.000
G1 X88.105 Y107.423 F7800.000
G1 X84.606 Y107.423 E0.15830 F378.000
G1 X84.606 Y92.577 E0.83007
G1 X90.564 Y92.577 E1.09963
G1 X92.018 Y92.689 E1.16566
G1 X92.165 Y92.700 E1.17233 F378.000
G1 X93.492 Y93.064 E1.23458
G1 X94.556 Y93.663 E1.28982
G1 X95.331 Y94.467 E1.34035
G1 X95.795 Y95.456 E1.38979
G1 X95.952 Y96.650 E1.44427
G1 X95.849 Y97.552 E1.48538
G1 X95.542 Y98.339 E1.52356
G1 X95.032 Y99.016 E1.56192
G1 X94.329 Y99.561 E1.60216
G1 X93.443 Y99.946 E1.64590
G1 X92.324 Y100.177 E1.69760
G1 X92.300 Y100.600 E1.71673
G1 X93.153 Y100.878 E1.75735
G1 X93.824 Y101.267 E1.79240
G1 X94.359 Y101.778 E1.82591
G1 X94.750 Y102.398 E1.85905
G1 X94.986 Y103.110 E1.89300
G1 X95.063 Y103.901 E1.92897
G1 X94.501 Y105.853 E2.02088
G1 X92.821 Y107.019 E2.11339
G1 X89.908 Y107.423 E2.24649
G1 X88.336 Y107.423 E2.31763
G1 X85.452 Y106.648 F7800.000
G1 X85.417 Y106.612 F7800.000
G1 X85.452 Y100.504 F7800.000
G1 X85.452 Y100.504 F7800.000
G1 X88.336 Y99.729 F7800.000
G1 X86.227 Y99.729 E2.41303 F378.000
G1 X86.227 Y93.786 E2.68194
G1 X90.472 Y93.786 E2.87401 F378.000
G1 X91.647 Y93.866 E2.92731
G1 X92.615 Y94.113 E2.97251
G1 X93.365 Y94.537 E3.01149
G1 X93.895 Y95.139 E3.04781
G1 X94.210 Y95.902 E3.08516
G1 X94.315 Y96.831 E3.12743
G1 X93.861 Y98.445 E3.20332
G1 X92.490 Y99.420 E3.27944
G1 X90.317 Y99.729 E3.37874
G1 X88.567 Y99.729 E3.45795
G1 X88.567 Y100.895 F7800.000
G1 X89.930 Y100.895 E3.51965 F378.000
G1 X90.968 Y100.967 E3.56673
G1 X91.839 Y101.188 E3.60739
G1 X92.534 Y101.567 E3.64322
G1 X93.039 Y102.117 E3.67698
G1 X93.338 Y102.825 E3.71179
G1 X93.436 Y103.676 E3.75054
G1 X93.334 Y104.489 E3.78762
G1 X93.019 Y105.154 E3.82091
G1 X92.492 Y105.643 E3.85345
G1 X91.791 Y105.966 E3.88836
G1 X90.936 Y106.153 E3.92798
G1 X89.929 Y106.214 E3.97362
G1 X86.227 Y106.214 E4.14112
G1 X86.227 Y100.895 E4.38180
G1 X88.336 Y100.895 E4.47720 F378.000
G1 X92.090 Y100.912 F7800.000
G1 X92.818 Y101.227 E4.55501 F540.000
G1 X92.149 Y99.839 F7800.000
G1 X92.586 Y99.763 E4.59846 F540.000
G1 X93.006 Y99.589 E4.64306
G1 X93.211 Y99.394 F7800.000
G1 X93.514 Y99.697 E4.66265 F540.000
G1 X93.898 Y99.530 E4.68179
G1 X93.387 Y99.019 E4.71480
G1 X93.709 Y98.790 E4.73286
G1 X94.276 Y99.357 E4.76952
G1 X94.586 Y99.117 E4.78747
G1 X94.031 Y98.561 E4.82337
G1 X94.161 Y98.140 E4.84351
G1 X94.896 Y98.875 E4.89099
G1 X95.133 Y98.561 E4.90898
G1 X94.282 Y97.710 E4.96396
G1 X94.403 Y97.280 E4.98438
G1 X95.364 Y98.241 E5.04648
G1 X95.518 Y97.844 E5.06593
G1 X94.524 Y96.850 E5.13020
G1 X94.488 Y96.263 E5.15709
G1 X95.645 Y97.420 E5.23189
G1 X95.701 Y96.926 E5.25465
G1 X94.367 Y95.591 E5.34095
G1 X95.158 Y94.729 F7800.000
G1 X94.219 Y93.791 E5.40164 F540.000
G1 X93.092 Y93.214 F7800.000
G1 X95.589 Y95.711 E5.56309 F540.000
G1 X95.672 Y96.346 E5.59233
G1 X92.333 Y93.006 E5.80825
G1 X91.671 Y92.895 E5.83891
G1 X92.638 Y93.862 E5.90139
G1 X91.898 Y93.673 E5.93628
G1 X91.074 Y92.849 E5.98954
G1 X90.477 Y92.804 E6.01691
G1 X91.283 Y93.609 E6.06899
G1 X90.691 Y93.569 E6.09608
G1 X89.926 Y92.803 E6.14559
G1 X89.375 Y92.803 E6.17077
G1 X90.132 Y93.560 E6.21972
G1 X89.581 Y93.560 E6.24491
G1 X88.824 Y92.803 E6.29386
G1 X88.273 Y92.803 E6.31905
G1 X89.030 Y93.560 E6.36799
G1 X88.479 Y93.560 E6.39318
G1 X87.722 Y92.803 E6.44213
G1 X87.171 Y92.803 E6.46732
G1 X87.928 Y93.560 E6.51627
G1 X87.377 Y93.560 E6.54145
G1 X86.620 Y92.803 E6.59040
G1 X86.069 Y92.803 E6.61559
G1 X86.826 Y93.560 E6.66454
G1 X86.275 Y93.560 E6.68972
G1 X85.518 Y92.803 E6.73867
G1 X84.967 Y92.803 E6.76386
G1 X86.001 Y93.837 E6.83073
G1 X86.001 Y94.388 E6.85592
G1 X84.832 Y93.219 E6.93151
G1 X84.832 Y93.770 E6.95669
G1 X86.001 Y94.939 E7.03228
G1 X86.001 Y95.490 E7.05747
G1 X84.832 Y94.321 E7.13305
G1 X84.832 Y94.872 E7.15824
G1 X86.001 Y96.041 E7.23382
G1 X86.001 Y96.592 E7.25901
G1 X84.832 Y95.423 E7.33460
G1 X84.832 Y95.974 E7.35979
G1 X86.001 Y97.143 E7.43537
G1 X86.001 Y97.694 E7.46056
G1 X84.832 Y96.525 E7.53614
G1 X84.832 Y97.076 E7.56133
G1 X86.001 Y98.245 E7.63692
G1 X86.001 Y98.796 E7.66210
G1 X84.832 Y97.627 E7.73769
G1 X84.832 Y98.178 E7.76288
G1 X86.001 Y99.347 E7.83846
G1 X86.001 Y99.898 E7.86365
G1 X84.832 Y98.729 E7.93923
G1 X84.832 Y99.280 E7.96442
G1 X86.221 Y100.669 E8.05424
G1 X86.001 Y101.000 F7800.000
G1 X84.832 Y99.831 E8.12982 F540.000
G1 X84.832 Y100.382 E8.15501
G1 X86.001 Y101.551 E8.23059
G1 X86.001 Y102.102 E8.25578
G1 X84.832 Y100.933 E8.33137
G1 X84.832 Y101.484 E8.35656
G1 X86.001 Y102.653 E8.43214
G1 X86.001 Y103.204 E8.45733
G1 X84.832 Y102.035 E8.53291
G1 X84.832 Y102.586 E8.55810
G1 X86.001 Y103.755 E8.63369
G1 X86.001 Y104.306 E8.65887
G1 X84.832 Y103.137 E8.73446
G1 X84.832 Y103.688 E8.75965
G1 X86.001 Y104.857 E8.83523
G1 X86.001 Y105.408 E8.86042
G1 X84.832 Y104.239 E8.93601
G1 X84.832 Y104.790 E8.96119
G1 X86.001 Y105.959 E9.03678
G1 X85.932 Y106.440 E9.05901
G1 X86.689 Y107.197 E9.10796
G1 X87.240 Y107.197 E9.13315
G1 X86.483 Y106.440 E9.18209
G1 X86.001 Y106.510 E9.20432
G1 X84.832 Y105.341 E9.27991
G1 X84.832 Y105.892 E9.30510
G1 X86.138 Y107.197 E9.38950
G1 X85.587 Y107.197 E9.41469
G1 X84.832 Y106.442 E9.46347
G1 X84.832 Y106.993 E9.48866
G1 X85.036 Y107.197 E9.50182
G1 X87.033 Y106.440 F7800.000
G1 X87.791 Y107.197 E9.55077 F540.000
G1 X88.342 Y107.197 E9.57596
G1 X87.584 Y106.440 E9.62491
G1 X88.135 Y106.440 E9.65009
G1 X88.893 Y107.197 E9.69904
G1 X89.444 Y107.197 E9.72423
G1 X88.686 Y106.440 E9.77318
G1 X89.237 Y106.440 E9.79837
G1 X89.991 Y107.194 E9.84711
G1 X90.475 Y107.127 E9.86944
G1 X89.788 Y106.440 E9.91383
G1 X90.312 Y106.412 E9.93780
G1 X90.959 Y107.060 E9.97963
G1 X91.443 Y106.992 E10.00196
G1 X90.831 Y106.381 E10.04149
G1 X91.292 Y106.290 E10.06295
G1 X91.927 Y106.925 E10.10399
G1 X92.410 Y106.858 E10.12631
G1 X91.744 Y106.191 E10.16941
G1 X92.132 Y106.028 E10.18865
G1 X92.859 Y106.756 E10.23569
G1 X93.185 Y106.530 E10.25379
G1 X92.509 Y105.855 E10.29746
G1 X92.813 Y105.608 E10.31536
G1 X93.510 Y106.305 E10.36042
G1 X93.835 Y106.079 E10.37852
G1 X93.098 Y105.342 E10.42614
G1 X93.310 Y105.003 E10.44442
G1 X94.160 Y105.853 E10.49936
G1 X94.381 Y105.523 E10.51752
G1 X93.488 Y104.630 E10.57527
G1 X93.591 Y104.182 E10.59628
G1 X94.504 Y105.095 E10.65533
G1 X94.627 Y104.667 E10.67568
G1 X93.652 Y103.692 E10.73874
G1 X93.607 Y103.096 E10.76608
G1 X94.751 Y104.240 E10.84004
G1 X94.813 Y103.751 E10.86256
G1 X93.433 Y102.371 E10.95176
G1 X92.977 Y101.364 F7800.000
G1 X94.713 Y103.100 E11.06400 F540.000
G1 X91.902 Y100.840 F7800.000
G1 X90.922 Y99.860 E11.12736 F540.000
G1 X91.405 Y99.792 E11.14963
G1 X92.000 Y100.387 E11.18812
G1 X91.307 Y100.796 F7800.000
G1 X90.440 Y99.929 E11.24420 F540.000
G1 X89.915 Y99.955 E11.26823
G1 X90.674 Y100.714 E11.31730
G1 X90.082 Y100.673 E11.34442
G1 X89.364 Y99.955 E11.39085
G1 X88.813 Y99.955 E11.41604
G1 X89.527 Y100.669 E11.46221
G1 X88.976 Y100.669 E11.48740
G1 X88.262 Y99.955 E11.53357
G1 X87.711 Y99.955 E11.55875
G1 X88.425 Y100.669 E11.60492
G1 X87.874 Y100.669 E11.63011
G1 X87.160 Y99.955 E11.67628
G1 X86.609 Y99.955 E11.70147
G1 X87.323 Y100.669 E11.74763
G1 X86.772 Y100.669 E11.77282
G1 X86.058 Y99.955 E11.81899
M106 S255
G92 E0
G1 Z0.600 F7800.000
G1 X104.229 Y92.352 F7800.000
G1 X104.229 Y99.449 E2.12659 F600.000
G1 X105.140 Y103.796 E3.45730
G92 E0
G1 X114.548 Y106.648 F7800.000
G1 X114.548 Y106.648 F7800.000
G1 X114.583 Y107.648 F7800.000
G1 X114.583 Y101.184 E1.93691 F600.000
G1 X114.402 Y100.316 E2.20250
G1 X114.583 Y99.449 E2.46808
G1 X114.583 Y92.352 E4.59467
G92 E0
G1 X104.265 Y93.352 F7800.000
G1 X104.229 Y93.387 F7800.000
G1 X104.229 Y106.612 F7800.000
G1 X104.265 Y106.648 F7800.000
G1 X104.229 Y107.648 F7800.000
G1 X104.229 Y101.184 E1.93691 F600.000
G1 X104.411 Y100.316 E2.20250
G1 X115.619 Y100.316 E5.56087
G92 E0
G1 X105.265 Y101.184 F7800.000
G1 X105.265 Y101.184 F7800.000
G1 X109.406 Y105.325 F7800.000
G1 X109.406 Y105.507 F7800.000
G1 X107.265 Y107.648 F7800.000
G1 X105.265 Y108.648 F7800.000
G1 X103.194 Y108.648 F7800.000
G1 X101.194 Y107.648 F7800.000
G1 X99.092 Y105.546 F7800.000
G1 X99.164 Y105.038 F7800.000
G1 X99.233 Y103.536 F7800.000
G1 X99.191 Y102.673 F7800.000
G1 X95.207 Y103.063 F7800.000
G1 X86.255 Y103.801 F7800.000
G1 X85.417 Y99.504 E1.31181 F600.000
G1 X85.417 Y94.011 E2.95776
G1 X85.490 Y93.461 E3.12413
G1 X86.452 Y93.181 E3.42438
G1 X90.521 Y93.182 E4.64347
G1 X91.817 Y93.283 E5.03310
G1 X92.057 Y93.322 E5.10601
G1 X92.954 Y93.575 E5.38510
G1 X93.235 Y93.691 E5.47618
G1 X93.663 Y93.932 E5.62358
G1 X94.100 Y94.254 E5.78597
G1 X94.433 Y94.615 E5.93341
G1 X94.635 Y94.875 E6.03188
G1 X94.999 Y95.689 E6.29910
G1 X95.123 Y96.695 E6.60295
G1 X95.084 Y97.093 E6.72260
G1 X95.033 Y97.351 E6.80140
G1 X94.835 Y97.944 E6.98890
G1 X94.543 Y98.533 E7.18599
G1 X94.136 Y98.969 E7.36455
G1 X94.026 Y99.050 E7.40539
G1 X93.290 Y99.466 E7.65870
G1 X92.755 Y99.699 E7.83357
G1 X92.421 Y99.792 E7.93766
G1 X91.566 Y100.308 E8.23701
G1 X90.767 Y101.178 E8.59081
G1 X85.574 Y100.312 F7800.000
G1 X90.418 Y100.324 E10.04216 F600.000
G1 X90.993 Y100.303 E10.21476
G1 X91.550 Y100.326 E10.38160
G1 X91.923 Y100.739 E10.54855
G1 X92.057 Y100.848 E10.60020
G1 X92.344 Y101.022 E10.70084
G1 X92.900 Y101.282 E10.88451
G1 X93.473 Y101.734 E11.10321
G1 X93.824 Y102.215 E11.28195
G1 X94.073 Y102.718 E11.44981
G1 X94.197 Y103.277 E11.62148
G1 X94.238 Y103.825 E11.78626
G1 X94.089 Y104.547 E12.00708
G1 X94.003 Y104.846 E12.10042
G1 X93.810 Y105.357 E12.26400
G1 X93.470 Y105.704 E12.40931
G1 X92.971 Y106.106 E12.60154
G1 X92.565 Y106.363 E12.74540
G1 X91.894 Y106.549 E12.95418
G1 X91.073 Y106.696 E13.20415
G1 X89.866 Y106.818 E13.56760
G1 X86.452 Y106.818 E14.59050
G1 X85.490 Y106.539 E14.89076
G1 X85.417 Y105.989 E15.05713
G1 X85.417 Y101.120 E16.51610
G1 X85.574 Y100.312 E16.76278
G92 E0
G1 Z0.900 F7800.000
G1 X104.229 Y92.352 F7800.000
G1 X104.229 Y99.449 E2.12659 F600.000
G1 X105.140 Y103.796 E3.45730
G92 E0
G1 X114.548 Y106.648 F7800.000
G1 X114.548 Y106.648 F7800.000
G1 X114.583 Y107.648 F7800.000
G1 X114.583 Y101.184 E1.93691 F600.000
G1 X114.402 Y100.316 E2.20250
G1 X114.583 Y99.449 E2.46808
G1 X114.583 Y92.352 E4.59467
G92 E0
G1 X104.265 Y93.352 F7800.000
G1 X104.229 Y93.387 F7800.000
G1 X104.229 Y106.612 F7800.000
G1 X104.265 Y106.648 F7800.000
G1 X104.229 Y107.648 F7800.000
G1 X104.229 Y101.184 E1.93691 F600.000
G1 X104.411 Y100.316 E2.20250
G1 X115.619 Y100.316 E5.56087
G92 E0
G1 X105.265 Y101.184 F7800.000
G1 X105.265 Y101.184 F7800.000
G1 X109.406 Y105.325 F7800.000
