; generated by Slic3r 1.2.9 on 2016-03-11 at 01:22:47

; external perimeters extrusion width = 1.54mm
; perimeters extrusion width = 2.62mm
; infill extrusion width = 6.27mm
; solid infill extrusion width = 2.62mm
; top infill extrusion width = 2.62mm

M107
M104 S30 ; set temperature
G28 ; home all axes
G1 Z5 F5000 ; lift nozzle
M302
M92 E10000
M500
M501
G1 E100
M109 S30 ; wait for temperature to be reached
G21 ; set units to millimeters
G90 ; use absolute coordinates
M82 ; use absolute distances for extrusion
G92 E0
G1 Z0.300 F7800.000
G1 X110.148 Y94.442 F7800.000
G1 X112.159 Y94.939 E0.09377 F378.000
G1 X113.615 Y95.730 E0.16873
G1 X114.797 Y96.886 E0.24356
G1 X115.672 Y98.354 E0.32086
G1 X116.199 Y100.076 E0.40239
G1 X116.377 Y102.063 E0.49261
G1 X116.278 Y103.562 E0.56061
G1 X115.984 Y104.919 E0.62342
G1 X115.495 Y106.130 E0.68254
G1 X114.825 Y107.179 E0.73884
G1 X113.984 Y108.044 E0.79345
G1 X112.968 Y108.730 E0.84892
G1 X111.796 Y109.229 E0.90658
G1 X110.484 Y109.530 E0.96749
G1 X109.034 Y109.630 E1.03323
G1 X106.870 Y109.406 E1.13167
G1 X105.066 Y108.738 E1.21870
G1 X103.607 Y107.631 E1.30157
G1 X102.531 Y106.131 E1.38514
G1 X101.882 Y104.276 E1.47405
G1 X101.663 Y102.055 E1.57504
G1 X101.752 Y100.611 E1.64051
G1 X102.018 Y99.290 E1.70150
G1 X102.461 Y98.094 E1.75917
G1 X103.068 Y97.048 E1.81393
G1 X103.831 Y96.169 E1.86657
G1 X104.752 Y95.456 E1.91928
G1 X105.818 Y94.918 E1.97331
G1 X107.016 Y94.566 E2.02980
G1 X108.499 Y94.383 E2.09744
G1 X109.032 Y92.960 E2.16619
G1 X109.589 Y91.961 E2.21794
G1 X110.216 Y91.243 E2.26105
G1 X110.937 Y90.760 E2.30032
G1 X111.783 Y90.468 E2.34082
G1 X112.769 Y90.369 E2.38564
G1 X113.322 Y90.393 E2.41069
G1 X113.995 Y90.473 E2.44136 F378.000
G1 X114.468 Y90.567 E2.46320
G1 X114.468 Y91.566 E2.50839
G1 X113.898 Y91.490 E2.53442
G1 X113.439 Y91.470 E2.55520
G1 X112.703 Y91.541 E2.58866
G1 X112.043 Y91.762 E2.62016
G1 X111.471 Y92.132 E2.65099
G1 X110.985 Y92.661 E2.68349
G1 X110.576 Y93.357 E2.72002
G1 X110.232 Y94.227 E2.76235
G1 X110.068 Y95.705 F7800.000
G1 X110.692 Y95.774 E2.79080 F378.000
G1 X112.109 Y96.343 E2.85985
G1 X113.244 Y97.295 E2.92688
G1 X114.065 Y98.588 E2.99620
G1 X114.553 Y100.178 E3.07146
G1 X114.714 Y102.059 E3.15691
G1 X114.552 Y103.869 E3.23911
G1 X114.059 Y105.414 E3.31249
G1 X113.232 Y106.688 E3.38123
G1 X112.097 Y107.636 E3.44815
G1 X110.692 Y108.203 E3.51669
G1 X109.032 Y108.390 E3.59231
G1 X107.359 Y108.206 E3.66847
G1 X105.945 Y107.647 E3.73725
G1 X104.804 Y106.711 E3.80402
G1 X103.973 Y105.443 E3.87263
G1 X103.478 Y103.890 E3.94637
G1 X103.315 Y102.059 E4.02957
G1 X103.480 Y100.230 E4.11265
G1 X103.979 Y98.659 E4.18726
G1 X104.818 Y97.350 E4.25759
G1 X105.960 Y96.369 E4.32574
G1 X107.362 Y95.781 E4.39453
G1 X108.735 Y95.619 E4.45706
G1 X109.009 Y95.587 E4.46955 F378.000
G1 X109.838 Y95.679 E4.50732
G1 X111.410 Y95.779 F7800.000
G1 X110.386 Y94.756 E4.57314 F540.000
G1 X109.816 Y94.734 E4.59912
G1 X108.920 Y93.838 E4.65676
G1 X112.326 Y96.147 F7800.000
G1 X111.115 Y94.936 E4.73468 F540.000
G1 X111.843 Y95.116 E4.76879
G1 X115.551 Y98.824 E5.00732
G1 X115.793 Y99.614 F7800.000
G1 X113.761 Y97.583 E5.13801 F540.000
G1 X114.931 Y97.656 F7800.000
G1 X112.965 Y95.690 E5.26446 F540.000
G1 X114.380 Y98.750 F7800.000
G1 X115.990 Y100.360 E5.36804 F540.000
G1 X116.044 Y100.962 E5.39552
G1 X114.623 Y99.541 E5.48695
G1 X114.794 Y100.260 E5.52059
G1 X116.098 Y101.564 E5.60444
G1 X116.149 Y102.163 E5.63179
G1 X114.846 Y100.860 E5.71563
G1 X114.897 Y101.459 E5.74299
G1 X116.115 Y102.677 E5.82135
G1 X116.081 Y103.192 E5.84479
G1 X114.935 Y102.046 E5.91851
G1 X114.890 Y102.549 E5.94148
G1 X116.034 Y103.693 E6.01508
G1 X115.937 Y104.143 E6.03604
G1 X114.845 Y103.052 E6.10627
G1 X114.800 Y103.555 E6.12924
G1 X115.839 Y104.594 E6.19608
G1 X115.723 Y105.026 E6.21645
G1 X114.718 Y104.021 E6.28110
G1 X114.586 Y104.437 E6.30094
G1 X115.566 Y105.417 E6.36399
G1 X115.408 Y105.808 E6.38315
G1 X114.453 Y104.853 E6.44459
G1 X114.321 Y105.268 E6.46443
G1 X115.233 Y106.180 E6.52308
G1 X115.019 Y106.514 E6.54113
G1 X114.144 Y105.640 E6.59737
G1 X113.928 Y105.972 E6.61539
G1 X114.805 Y106.849 E6.67177
G1 X114.568 Y107.160 E6.68956
G1 X113.713 Y106.305 E6.74456
G1 X113.497 Y106.637 E6.76258
G1 X114.294 Y107.434 E6.81384
G1 X114.020 Y107.708 E6.83147
G1 X113.242 Y106.930 E6.88150
G1 X112.943 Y107.180 E6.89920
G1 X113.739 Y107.975 E6.95037
G1 X113.412 Y108.196 E6.96833
G1 X112.645 Y107.429 E7.01767
G1 X112.346 Y107.679 E7.03537
G1 X113.085 Y108.417 E7.08287
G1 X112.732 Y108.613 E7.10121
G1 X112.008 Y107.889 E7.14777
G1 X111.618 Y108.047 E7.16693
G1 X112.347 Y108.777 E7.21387
G1 X111.963 Y108.940 E7.23288
G1 X111.227 Y108.204 E7.28021
G1 X110.837 Y108.362 E7.29936
G1 X111.546 Y109.071 E7.34497
G1 X111.100 Y109.173 E7.36578
G1 X110.383 Y108.457 E7.41188
G1 X109.891 Y108.512 E7.43442
G1 X110.654 Y109.276 E7.48352
G1 X110.161 Y109.331 E7.50607
G1 X109.398 Y108.568 E7.55516
G1 X108.894 Y108.612 E7.57817
G1 X109.648 Y109.367 E7.62670
G1 X109.136 Y109.402 E7.65008
G1 X108.278 Y108.544 E7.70526
G1 X107.662 Y108.476 E7.73345
G1 X108.527 Y109.341 E7.78910
G1 X107.915 Y109.278 E7.81707
G1 X106.972 Y108.335 E7.87774
G1 X106.065 Y107.976 F7800.000
G1 X107.304 Y109.214 E7.95740 F540.000
G1 X106.552 Y109.011 E7.99279
G1 X102.336 Y104.795 E8.26398
G1 X102.090 Y104.001 E8.30181
G1 X103.824 Y105.735 E8.41333
G1 X103.530 Y104.893 F7800.000
G1 X102.030 Y103.393 E8.50983 F540.000
G1 X101.970 Y102.785 E8.53762
G1 X103.274 Y104.089 E8.62150
G1 X103.207 Y103.473 E8.64968
G1 X101.910 Y102.177 E8.73307
G1 X101.911 Y101.629 E8.75799
G1 X103.153 Y102.871 E8.83791
G1 X103.100 Y102.270 E8.86539
G1 X101.943 Y101.112 E8.93982
G1 X101.974 Y100.596 E8.96335
G1 X103.124 Y101.746 E9.03729
G1 X103.169 Y101.243 E9.06025
G1 X102.063 Y100.137 E9.13139
G1 X102.155 Y99.681 E9.15256
G1 X103.215 Y100.740 E9.22070
G1 X103.262 Y100.240 E9.24356
G1 X102.255 Y99.233 E9.30832
G1 X102.403 Y98.833 E9.32772
G1 X103.394 Y99.824 E9.39146
G1 X103.526 Y99.407 E9.41131
G1 X102.552 Y98.433 E9.47402
G1 X102.714 Y98.047 E9.49305
G1 X103.659 Y98.991 E9.55378
G1 X103.797 Y98.582 E9.57344
G1 X102.916 Y97.700 E9.63014
G1 X103.117 Y97.354 E9.64838
G1 X104.011 Y98.248 E9.70590
G1 X104.225 Y97.914 E9.72395
G1 X103.340 Y97.028 E9.78091
G1 X103.595 Y96.735 E9.79858
G1 X104.439 Y97.579 E9.85291
G1 X104.653 Y97.245 E9.87096
G1 X103.855 Y96.447 E9.92229
G1 X104.135 Y96.178 E9.93993
G1 X104.944 Y96.988 E9.99198
G1 X105.239 Y96.735 E10.00966
G1 X104.443 Y95.939 E10.06082
G1 X104.752 Y95.700 E10.07859
G1 X105.534 Y96.481 E10.12884
G1 X105.829 Y96.228 E10.14652
G1 X105.102 Y95.501 E10.19327
G1 X105.466 Y95.317 E10.21183
G1 X106.199 Y96.051 E10.25900
G1 X106.586 Y95.889 E10.27804
G1 X105.830 Y95.133 E10.32662
G1 X106.251 Y95.006 E10.34660
G1 X106.972 Y95.727 E10.39297
G1 X107.358 Y95.565 E10.41202
G1 X106.674 Y94.881 E10.45598
G1 X107.113 Y94.772 E10.47655
G1 X107.846 Y95.505 E10.52369
G1 X108.337 Y95.447 E10.54615
G1 X107.601 Y94.712 E10.59346
G1 X108.089 Y94.651 E10.61581
G1 X108.827 Y95.389 E10.66328
G1 X109.376 Y95.391 E10.68826
G1 X108.577 Y94.591 E10.73968
G1 X108.770 Y94.236 E10.75806
G1 X109.993 Y95.459 E10.83672
G1 X110.610 Y95.528 E10.86495
G1 X109.658 Y94.576 E10.92617
G1 X109.971 Y94.340 E10.94397
G1 X109.069 Y93.439 E11.00197
G1 X109.218 Y93.040 E11.02133
G1 X110.126 Y93.947 E11.07970
G1 X110.281 Y93.554 E11.09892
G1 X109.411 Y92.684 E11.15488
G1 X109.607 Y92.332 E11.17321
G1 X110.453 Y93.179 E11.22764
G1 X110.657 Y92.834 E11.24585
G1 X109.816 Y91.993 E11.29990
G1 X110.072 Y91.701 E11.31757
G1 X110.872 Y92.501 E11.36902
G1 X111.134 Y92.215 E11.38666
G1 X110.328 Y91.408 E11.43854
G1 X110.652 Y91.185 E11.45647
G1 X111.408 Y91.941 E11.50508
G1 X111.741 Y91.725 E11.52311
G1 X110.980 Y90.965 E11.57202
G1 X111.385 Y90.821 E11.59155
G1 X112.093 Y91.530 E11.63711
G1 X112.504 Y91.392 E11.65682
G1 X111.798 Y90.686 E11.70224
G1 X112.296 Y90.636 E11.72501
G1 X112.957 Y91.297 E11.76752
G1 X113.457 Y91.248 E11.79034
G1 X112.809 Y90.601 E11.83199
G1 X113.396 Y90.640 E11.85874
G1 X114.023 Y91.267 E11.89908
G1 X114.033 Y90.729 E11.92356
G1 X114.242 Y90.938 E11.93701
G92 E0
G1 X109.164 Y94.824 F7800.000
G1 X102.440 Y102.041 F7800.000
G1 X102.632 Y105.639 F7800.000
G1 X105.683 Y108.690 E0.19624 F540.000
G1 X104.031 Y107.586 F7800.000
G1 X103.676 Y107.231 E0.21905 F540.000
G92 E0
G1 X101.528 Y100.581 F7800.000
G1 X98.530 Y98.568 F7800.000
G1 X98.578 Y98.036 F7800.000
G1 X98.703 Y96.926 F7800.000
G1 X95.030 Y97.408 F7800.000
G1 X86.659 Y94.593 F7800.000
G1 X89.580 Y94.593 E0.13216 F378.000
G1 X91.081 Y94.709 E0.20027
G1 X91.182 Y94.716 E0.20485 F378.000
G1 X92.509 Y95.080 E0.26711
G1 X93.573 Y95.679 E0.32235
G1 X94.348 Y96.483 E0.37287
G1 X94.811 Y97.472 E0.42232
G1 X94.968 Y98.666 E0.47680
G1 X94.865 Y99.568 E0.51790
G1 X94.559 Y100.355 E0.55608
G1 X94.048 Y101.032 E0.59445
G1 X93.345 Y101.577 E0.63468
G1 X92.459 Y101.962 E0.67842
G1 X91.340 Y102.193 E0.73013
G1 X91.317 Y102.616 E0.74926
G1 X92.170 Y102.894 E0.78987
G1 X92.840 Y103.283 E0.82493
G1 X93.375 Y103.794 E0.85844
G1 X93.766 Y104.414 E0.89157
G1 X94.002 Y105.126 E0.92552
G1 X94.080 Y105.917 E0.96150
G1 X93.517 Y107.869 E1.05340
G1 X91.838 Y109.035 E1.14591
G1 X88.924 Y109.439 E1.27901
G1 X83.623 Y109.439 E1.51890
G1 X83.623 Y94.593 E2.19067
G1 X86.428 Y94.593 E2.31763
G1 X86.428 Y95.802 F7800.000
G1 X89.488 Y95.802 E2.45609 F378.000
G1 X90.664 Y95.882 E2.50939
G1 X91.632 Y96.129 E2.55459
G1 X92.381 Y96.553 E2.59357
G1 X92.912 Y97.155 E2.62988
G1 X93.227 Y97.918 E2.66724
G1 X93.331 Y98.847 E2.70951
G1 X92.877 Y100.461 E2.78539
G1 X91.506 Y101.436 E2.86151
G1 X89.334 Y101.745 E2.96082
G1 X85.244 Y101.745 E3.14588
G1 X85.244 Y95.802 E3.41480
G1 X86.197 Y95.802 E3.45795 F378.000
G92 E0
G1 X84.469 Y102.520 F7800.000
G1 X84.469 Y102.520 F7800.000
G1 X86.197 Y102.911 F7800.000
G1 X88.946 Y102.911 E0.12439 F378.000
G1 X89.985 Y102.983 E0.17147
G1 X90.855 Y103.204 E0.21213
G1 X91.550 Y103.583 E0.24796
G1 X92.055 Y104.133 E0.28172
G1 X92.355 Y104.841 E0.31653
G1 X92.452 Y105.692 E0.35529
G1 X92.351 Y106.505 E0.39237
G1 X92.035 Y107.170 E0.42566
G1 X91.508 Y107.659 E0.45820
G1 X90.808 Y107.982 E0.49311
G1 X89.952 Y108.169 E0.53272
G1 X88.946 Y108.230 E0.57836
G1 X85.244 Y108.230 E0.74587
G1 X85.244 Y102.911 E0.98655
G1 X85.966 Y102.911 E1.01925 F378.000
G1 X91.106 Y102.928 F7800.000
G1 X91.835 Y103.243 E1.09706 F540.000
G1 X91.166 Y101.855 F7800.000
G1 X91.602 Y101.779 E1.14051 F540.000
G1 X92.023 Y101.605 E1.18511
G1 X92.227 Y101.410 F7800.000
G1 X92.530 Y101.713 E1.20469 F540.000
G1 X92.914 Y101.546 E1.22383
G1 X92.404 Y101.035 E1.25684
G1 X92.726 Y100.806 E1.27491
G1 X93.293 Y101.373 E1.31156
G1 X93.603 Y101.133 E1.32951
G1 X93.048 Y100.577 E1.36541
G1 X93.178 Y100.156 E1.38555
G1 X93.912 Y100.891 E1.43304
G1 X94.149 Y100.577 E1.45103
G1 X93.299 Y99.726 E1.50601
G1 X93.420 Y99.296 E1.52643
G1 X94.380 Y100.257 E1.58852
G1 X94.535 Y99.860 E1.60797
G1 X93.541 Y98.866 E1.67224
G1 X93.504 Y98.279 E1.69913
G1 X94.662 Y99.436 E1.77394
G1 X94.718 Y98.942 E1.79670
G1 X93.383 Y97.607 E1.88300
G1 X94.174 Y96.745 F7800.000
G1 X93.236 Y95.807 E1.94368 F540.000
G1 X92.108 Y95.230 F7800.000
G1 X94.606 Y97.727 E2.10513 F540.000
G1 X94.689 Y98.362 E2.13437
G1 X91.349 Y95.022 E2.35029
G1 X90.688 Y94.911 E2.38095
G1 X91.654 Y95.878 E2.44344
G1 X90.914 Y95.689 E2.47833
G1 X90.091 Y94.865 E2.53159
G1 X89.494 Y94.820 E2.55896
G1 X90.299 Y95.625 E2.61103
G1 X89.708 Y95.585 E2.63812
G1 X88.942 Y94.819 E2.68763
G1 X88.391 Y94.819 E2.71282
G1 X89.148 Y95.576 E2.76177
G1 X88.597 Y95.576 E2.78696
G1 X87.840 Y94.819 E2.83590
G1 X87.289 Y94.819 E2.86109
G1 X88.046 Y95.576 E2.91004
G1 X87.495 Y95.576 E2.93523
G1 X86.738 Y94.819 E2.98418
G1 X86.187 Y94.819 E3.00936
G1 X86.944 Y95.576 E3.05831
G1 X86.393 Y95.576 E3.08350
G1 X85.636 Y94.819 E3.13245
G1 X85.085 Y94.819 E3.15763
G1 X85.842 Y95.576 E3.20658
G1 X85.291 Y95.576 E3.23177
G1 X84.534 Y94.819 E3.28072
G1 X83.983 Y94.819 E3.30591
G1 X85.018 Y95.853 E3.37278
G1 X85.018 Y96.404 E3.39797
G1 X83.849 Y95.235 E3.47355
G1 X83.849 Y95.786 E3.49874
G1 X85.018 Y96.955 E3.57432
G1 X85.018 Y97.506 E3.59951
G1 X83.849 Y96.337 E3.67510
G1 X83.849 Y96.888 E3.70029
G1 X85.018 Y98.057 E3.77587
G1 X85.018 Y98.608 E3.80106
G1 X83.849 Y97.439 E3.87664
G1 X83.849 Y97.990 E3.90183
G1 X85.018 Y99.159 E3.97742
G1 X85.018 Y99.710 E4.00260
G1 X83.849 Y98.541 E4.07819
G1 X83.849 Y99.092 E4.10338
G1 X85.018 Y100.261 E4.17896
G1 X85.018 Y100.812 E4.20415
G1 X83.849 Y99.643 E4.27974
G1 X83.849 Y100.194 E4.30492
G1 X85.018 Y101.363 E4.38051
G1 X85.018 Y101.914 E4.40570
G1 X83.849 Y100.745 E4.48128
G1 X83.849 Y101.296 E4.50647
G1 X85.238 Y102.685 E4.59628
G1 X85.018 Y103.016 F7800.000
G1 X83.849 Y101.847 E4.67187 F540.000
G1 X83.849 Y102.398 E4.69706
G1 X85.018 Y103.567 E4.77264
G1 X85.018 Y104.118 E4.79783
G1 X83.849 Y102.949 E4.87341
G1 X83.849 Y103.500 E4.89860
G1 X85.018 Y104.669 E4.97419
G1 X85.018 Y105.220 E4.99937
G1 X83.849 Y104.051 E5.07496
G1 X83.849 Y104.602 E5.10015
G1 X85.018 Y105.771 E5.17573
G1 X85.018 Y106.322 E5.20092
G1 X83.849 Y105.153 E5.27651
G1 X83.849 Y105.704 E5.30169
G1 X85.018 Y106.873 E5.37728
G1 X85.018 Y107.424 E5.40247
G1 X83.849 Y106.255 E5.47805
G1 X83.849 Y106.806 E5.50324
G1 X85.018 Y107.975 E5.57882
G1 X84.948 Y108.456 E5.60106
G1 X85.705 Y109.213 E5.65000
G1 X86.256 Y109.213 E5.67519
G1 X85.499 Y108.456 E5.72414
G1 X85.018 Y108.526 E5.74637
G1 X83.849 Y107.357 E5.82195
G1 X83.849 Y107.908 E5.84714
G1 X85.154 Y109.213 E5.93155
G1 X84.603 Y109.213 E5.95674
G1 X83.849 Y108.458 E6.00552
G1 X83.849 Y109.009 E6.03071
G1 X84.052 Y109.213 E6.04387
G1 X86.050 Y108.456 F7800.000
G1 X86.807 Y109.213 E6.09282 F540.000
G1 X87.358 Y109.213 E6.11800
G1 X86.601 Y108.456 E6.16695
G1 X87.152 Y108.456 E6.19214
G1 X87.909 Y109.213 E6.24109
G1 X88.460 Y109.213 E6.26628
G1 X87.703 Y108.456 E6.31522
G1 X88.254 Y108.456 E6.34041
G1 X89.008 Y109.210 E6.38915
G1 X89.492 Y109.143 E6.41148
G1 X88.805 Y108.456 E6.45588
G1 X89.328 Y108.428 E6.47984
G1 X89.975 Y109.076 E6.52168
G1 X90.459 Y109.008 E6.54401
G1 X89.848 Y108.397 E6.58354
G1 X90.308 Y108.306 E6.60499
G1 X90.943 Y108.941 E6.64603
G1 X91.427 Y108.874 E6.66836
G1 X90.760 Y108.207 E6.71145
G1 X91.148 Y108.044 E6.73069
G1 X91.876 Y108.772 E6.77773
G1 X92.201 Y108.546 E6.79583
G1 X91.526 Y107.871 E6.83950
G1 X91.829 Y107.624 E6.85741
G1 X92.526 Y108.321 E6.90247
G1 X92.851 Y108.095 E6.92057
G1 X92.115 Y107.358 E6.96819
G1 X92.327 Y107.019 E6.98646
G1 X93.177 Y107.869 E7.04141
G1 X93.397 Y107.539 E7.05957
G1 X92.504 Y106.646 E7.11731
G1 X92.607 Y106.198 E7.13832
G1 X93.521 Y107.111 E7.19738
G1 X93.644 Y106.683 E7.21772
G1 X92.668 Y105.708 E7.28079
G1 X92.623 Y105.112 E7.30812
G1 X93.767 Y106.256 E7.38208
G1 X93.829 Y105.767 E7.40461
G1 X92.450 Y104.387 E7.49381
G1 X91.993 Y103.380 F7800.000
G1 X93.729 Y105.116 E7.60604 F540.000
G1 X90.919 Y102.856 F7800.000
G1 X89.939 Y101.876 E7.66940 F540.000
G1 X90.421 Y101.808 E7.69167
G1 X91.017 Y102.403 E7.73017
G1 X90.324 Y102.812 F7800.000
G1 X89.456 Y101.945 E7.78624 F540.000
G1 X88.932 Y101.971 E7.81027
G1 X89.691 Y102.730 E7.85935
G1 X89.099 Y102.689 E7.88646
G1 X88.381 Y101.971 E7.93290
G1 X87.830 Y101.971 E7.95809
G1 X88.544 Y102.685 E8.00425
G1 X87.993 Y102.685 E8.02944
G1 X87.279 Y101.971 E8.07561
G1 X86.728 Y101.971 E8.10080
G1 X87.442 Y102.685 E8.14697
G1 X86.891 Y102.685 E8.17215
G1 X86.177 Y101.971 E8.21832
G1 X85.626 Y101.971 E8.24351
G1 X86.340 Y102.685 E8.28968
G1 X85.789 Y102.685 E8.31487
G1 X85.075 Y101.971 E8.36103
M106 S255
G92 E0
G1 Z0.600 F7800.000
G1 X108.285 Y94.182 F7800.000
G1 X110.249 Y95.103 E0.65005 F600.000
G1 X110.940 Y95.241 E0.86102
G1 X111.919 Y95.558 E1.16951
G1 X112.311 Y95.742 E1.29934
G1 X112.547 Y95.877 E1.38056
G1 X113.185 Y96.312 E1.61210
G1 X113.661 Y96.743 E1.80458
G1 X113.855 Y96.948 E1.88904
G1 X114.192 Y97.363 E2.04931
G1 X114.682 Y98.160 E2.32964
G1 X114.933 Y98.681 E2.50305
G1 X115.313 Y99.920 E2.89116
G1 X115.386 Y100.236 E2.98830
G1 X115.544 Y102.072 E3.54073
G1 X115.439 Y103.444 E3.95299
G1 X115.320 Y104.140 E4.16440
G1 X115.178 Y104.671 E4.32910
