; generated by Slic3r 1.2.9 on 2016-03-11 at 01:22:48

; external perimeters extrusion width = 1.54mm
; perimeters extrusion width = 2.62mm
; infill extrusion width = 6.27mm
; solid infill extrusion width = 2.62mm
; top infill extrusion width = 2.62mm

M107
M104 S30 ; set temperature
G28 ; home all axes
G1 Z5 F5000 ; lift nozzle
M302
M92 E10000
M500
M501
G1 E100
M109 S30 ; wait for temperature to be reached
G21 ; set units to millimeters
G90 ; use absolute coordinates
M82 ; use absolute distances for extrusion
G92 E0
G1 Z0.300 F7800.000
G1 X104.649 Y95.372 F7800.000
G1 X104.649 Y98.940 E0.16147 F378.000
G1 X109.773 Y98.940 E0.39331 F378.000
G1 X113.749 Y92.577 E0.73282
G1 X115.592 Y92.577 E0.81625
G1 X111.307 Y99.088 E1.16896
G1 X112.663 Y99.461 E1.23261
G1 X113.531 Y99.924 E1.27711
G1 X114.236 Y100.565 E1.32022
G1 X114.757 Y101.351 E1.36290
G1 X115.070 Y102.254 E1.40613
G1 X115.175 Y103.277 E1.45267
G1 X115.026 Y104.492 E1.50806
G1 X114.585 Y105.500 E1.55785
G1 X113.850 Y106.318 E1.60760
G1 X112.836 Y106.927 E1.66114
G1 X111.555 Y107.297 E1.72145
G1 X109.995 Y107.423 E1.79229
G1 X103.028 Y107.423 E2.10754
G1 X103.028 Y92.577 E2.77931
G1 X104.649 Y92.577 E2.85266
G1 X104.649 Y95.141 E2.96867
G1 X104.649 Y100.127 F7800.000
G1 X109.894 Y100.127 E3.20602 F378.000
G1 X110.938 Y100.215 E3.25343
G1 X111.836 Y100.485 E3.29583
G1 X112.571 Y100.943 E3.33503
G1 X113.115 Y101.573 E3.37271
G1 X113.440 Y102.349 E3.41078
G1 X113.546 Y103.258 E3.45216
G1 X113.438 Y104.137 E3.49224
G1 X113.106 Y104.880 E3.52906
G1 X112.552 Y105.469 E3.56567
G1 X111.804 Y105.888 E3.60449
G1 X110.885 Y106.134 E3.64753
G1 X109.806 Y106.214 E3.69646
G1 X104.649 Y106.214 E3.92983
G1 X104.649 Y100.358 E4.19481
G1 X104.423 Y98.824 F7800.000
G1 X103.254 Y97.655 E4.27017 F540.000
G1 X103.254 Y97.105 E4.29521
G1 X104.423 Y98.274 E4.37057
G1 X104.423 Y97.725 E4.39561
G1 X103.254 Y96.556 E4.47097
G1 X103.254 Y96.007 E4.49601
G1 X104.423 Y97.176 E4.57137
G1 X104.423 Y96.626 E4.59641
G1 X103.254 Y95.457 E4.67177
G1 X103.254 Y94.908 E4.69681
G1 X104.423 Y96.077 E4.77217
G1 X104.423 Y95.528 E4.79721
G1 X103.254 Y94.359 E4.87257
G1 X103.254 Y93.809 E4.89761
G1 X104.423 Y94.978 E4.97297
G1 X104.423 Y94.429 E4.99801
G1 X103.254 Y93.260 E5.07337
G1 X103.346 Y92.803 E5.09462
G1 X104.423 Y93.880 E5.16402
G1 X104.423 Y93.330 E5.18906
G1 X103.896 Y92.803 E5.22305
G92 E0
G1 X103.874 Y93.352 F7800.000
G1 X103.874 Y93.352 F7800.000
G1 X111.874 Y100.232 F7800.000
G1 X110.869 Y99.227 E0.06477 F540.000
G1 X111.155 Y98.964 E0.08249
G1 X110.437 Y98.245 E0.12882
G1 X110.648 Y97.907 E0.14699
G1 X111.373 Y98.633 E0.19376
G1 X111.591 Y98.302 E0.21184
G1 X110.859 Y97.569 E0.25905
G1 X111.070 Y97.231 E0.27722
G1 X111.810 Y97.970 E0.32487
G1 X112.028 Y97.639 E0.34295
G1 X111.282 Y96.893 E0.39103
G1 X111.493 Y96.555 E0.40920
G1 X112.246 Y97.308 E0.45773
G1 X112.464 Y96.976 E0.47581
G1 X111.704 Y96.217 E0.52477
G1 X111.915 Y95.879 E0.54294
G1 X112.682 Y96.645 E0.59234
G1 X112.900 Y96.314 E0.61042
G1 X112.127 Y95.541 E0.66026
G1 X112.338 Y95.203 E0.67843
G1 X113.118 Y95.983 E0.72871
G1 X113.336 Y95.651 E0.74679
G1 X112.549 Y94.864 E0.79751
G1 X112.760 Y94.526 E0.81568
G1 X113.554 Y95.320 E0.86684
G1 X113.772 Y94.989 E0.88491
G1 X112.972 Y94.188 E0.93651
G1 X113.183 Y93.850 E0.95468
G1 X113.990 Y94.657 E1.00671
G1 X114.208 Y94.326 E1.02479
G1 X113.394 Y93.512 E1.07726
G1 X113.605 Y93.174 E1.09543
G1 X114.426 Y93.995 E1.14835
G1 X114.644 Y93.664 E1.16642
G1 X113.817 Y92.836 E1.21977
G1 X114.333 Y92.803 E1.24336
G1 X114.862 Y93.332 E1.27748
G1 X114.882 Y92.803 E1.30162
G1 X115.080 Y93.001 E1.31439
G92 E0
G1 X113.922 Y101.494 F7800.000
G1 X113.922 Y101.494 F7800.000
G1 X112.385 Y99.645 F7800.000
G1 X114.693 Y101.953 E0.14879 F540.000
G1 X114.879 Y102.688 E0.18333
G1 X111.627 Y99.436 E0.39294
G1 X110.937 Y99.295 E0.42503
G1 X110.225 Y98.583 E0.47092
G1 X110.014 Y98.921 E0.48909
G1 X111.088 Y99.995 E0.55832
G1 X110.486 Y99.943 E0.58587
G1 X109.709 Y99.166 E0.63594
G1 X109.160 Y99.166 E0.66098
G1 X109.895 Y99.901 E0.70837
G1 X109.346 Y99.901 E0.73341
G1 X108.610 Y99.166 E0.78079
G1 X108.061 Y99.166 E0.80583
G1 X108.796 Y99.901 E0.85322
G1 X108.247 Y99.901 E0.87826
G1 X107.512 Y99.166 E0.92564
G1 X106.962 Y99.166 E0.95068
G1 X107.698 Y99.901 E0.99807
G1 X107.148 Y99.901 E1.02310
G1 X106.413 Y99.166 E1.07049
G1 X105.864 Y99.166 E1.09553
G1 X106.599 Y99.901 E1.14291
G1 X106.050 Y99.901 E1.16795
G1 X105.314 Y99.166 E1.21534
G1 X104.765 Y99.166 E1.24038
G1 X105.500 Y99.901 E1.28776
G1 X104.951 Y99.901 E1.31280
G1 X103.254 Y98.204 E1.42220
G1 X103.254 Y98.753 E1.44724
G1 X104.423 Y99.922 E1.52260
G1 X104.423 Y100.472 E1.54764
G1 X103.254 Y99.303 E1.62300
G1 X103.254 Y99.852 E1.64804
G1 X104.423 Y101.021 E1.72340
G1 X104.423 Y101.570 E1.74844
G1 X103.254 Y100.401 E1.82380
G1 X103.254 Y100.951 E1.84884
G1 X104.423 Y102.120 E1.92420
G1 X104.423 Y102.669 E1.94924
G1 X103.254 Y101.500 E2.02460
G1 X103.254 Y102.049 E2.04964
G1 X104.423 Y103.218 E2.12500
G1 X104.423 Y103.768 E2.15004
G1 X103.254 Y102.599 E2.22540
G1 X103.254 Y103.148 E2.25044
G1 X104.423 Y104.317 E2.32580
G1 X104.423 Y104.866 E2.35084
G1 X103.254 Y103.697 E2.42620
G1 X103.254 Y104.247 E2.45124
G1 X104.423 Y105.416 E2.52660
G1 X104.423 Y105.965 E2.55164
G1 X103.254 Y104.796 E2.62700
G1 X103.254 Y105.345 E2.65204
G1 X105.105 Y107.197 E2.77140
G1 X105.655 Y107.197 E2.79644
G1 X104.898 Y106.440 E2.84524
G1 X105.447 Y106.440 E2.87028
G1 X106.204 Y107.197 E2.91908
G1 X106.753 Y107.197 E2.94412
G1 X105.996 Y106.440 E2.99292
G1 X106.546 Y106.440 E3.01796
G1 X107.303 Y107.197 E3.06677
G1 X107.852 Y107.197 E3.09180
G1 X107.095 Y106.440 E3.14061
G1 X107.644 Y106.440 E3.16565
G1 X108.401 Y107.197 E3.21445
G1 X108.951 Y107.197 E3.23949
G1 X108.194 Y106.440 E3.28829
G1 X108.743 Y106.440 E3.31333
G1 X109.500 Y107.197 E3.36214
G1 X110.049 Y107.197 E3.38717
G1 X109.292 Y106.440 E3.43598
G1 X109.834 Y106.433 E3.46069
G1 X110.559 Y107.157 E3.50739
G1 X111.067 Y107.116 E3.53064
G1 X110.346 Y106.395 E3.57714
G1 X110.857 Y106.356 E3.60050
G1 X111.576 Y107.075 E3.64684
G1 X112.003 Y106.953 E3.66708
G1 X111.290 Y106.241 E3.71300
G1 X111.724 Y106.125 E3.73345
G1 X112.429 Y106.830 E3.77890
G1 X112.843 Y106.694 E3.79875
G1 X112.097 Y105.949 E3.84680
G1 X112.450 Y105.752 E3.86520
G1 X113.186 Y106.488 E3.91267
G1 X113.529 Y106.282 E3.93092
G1 X112.768 Y105.520 E3.98001
G1 X113.034 Y105.237 E3.99773
G1 X113.831 Y106.034 E4.04908
G1 X114.099 Y105.753 E4.06679
G1 X113.294 Y104.948 E4.11866
G1 X113.464 Y104.569 E4.13761
G1 X114.359 Y105.464 E4.19530
G1 X114.542 Y105.098 E4.21395
G1 X113.634 Y104.189 E4.27254
G1 X113.708 Y103.714 E4.29443
G1 X114.710 Y104.716 E4.35898
G1 X114.833 Y104.289 E4.37920
G1 X113.769 Y103.225 E4.44779
G1 X113.709 Y102.616 E4.47569
G1 X114.893 Y103.800 E4.55201
G1 X114.942 Y103.300 E4.57493
G1 X113.535 Y101.893 E4.66563
G92 E0
G1 X103.874 Y106.648 F7800.000
G1 X103.874 Y106.648 F7800.000
G1 X103.838 Y106.612 F7800.000
G1 X103.803 Y106.648 F7800.000
G1 X103.254 Y105.895 F7800.000
G1 X104.556 Y107.197 E0.08395 F540.000
G1 X104.007 Y107.197 E0.10898
G1 X103.254 Y106.444 E0.15752
G1 X103.254 Y106.993 E0.18256
G1 X103.457 Y107.197 E0.19568
G92 E0
G1 X102.803 Y107.648 F7800.000
G1 X98.842 Y103.536 F7800.000
G1 X98.600 Y101.119 F7800.000
G1 X98.287 Y101.068 F7800.000
G1 X94.564 Y102.301 F7800.000
G1 X84.215 Y95.477 F7800.000
G1 X84.215 Y92.577 E0.13121 F378.000
G1 X90.173 Y92.577 E0.40078
G1 X91.627 Y92.689 E0.46680
G1 X91.774 Y92.700 E0.47347 F378.000
G1 X93.101 Y93.064 E0.53573
G1 X94.165 Y93.663 E0.59097
G1 X94.940 Y94.467 E0.64149
G1 X95.404 Y95.456 E0.69094
G1 X95.561 Y96.650 E0.74542
G1 X95.458 Y97.552 E0.78652
G1 X95.151 Y98.339 E0.82470
G1 X94.641 Y99.016 E0.86307
G1 X93.938 Y99.561 E0.90330
G1 X93.052 Y99.946 E0.94704
G1 X91.933 Y100.177 E0.99875
G1 X91.909 Y100.600 E1.01788
G1 X92.762 Y100.878 E1.05849
G1 X93.433 Y101.267 E1.09355
G1 X93.968 Y101.778 E1.12706
G1 X94.359 Y102.398 E1.16019
G1 X94.595 Y103.110 E1.19415
G1 X94.672 Y103.901 E1.23012
G1 X94.110 Y105.853 E1.32202
G1 X92.430 Y107.019 E1.41453
G1 X89.517 Y107.423 E1.54763
G1 X84.215 Y107.423 E1.78752
G1 X84.215 Y95.708 E2.31763
G1 X85.836 Y95.708 F7800.000
G1 X85.836 Y93.786 E2.40458 F378.000
G1 X90.081 Y93.786 E2.59665 F378.000
G1 X91.256 Y93.866 E2.64995
G1 X92.224 Y94.113 E2.69515
G1 X92.974 Y94.537 E2.73413
G1 X93.504 Y95.139 E2.77045
G1 X93.819 Y95.902 E2.80781
G1 X93.924 Y96.831 E2.85007
G1 X93.470 Y98.445 E2.92596
G1 X92.099 Y99.420 E3.00208
G1 X89.926 Y99.729 E3.10138
G1 X85.836 Y99.729 E3.28645
G1 X85.836 Y95.939 E3.45795
G1 X85.836 Y100.895 F7800.000
G1 X89.539 Y100.895 E3.62550 F378.000
G1 X90.577 Y100.967 E3.67258
G1 X91.448 Y101.188 E3.71324
G1 X92.143 Y101.567 E3.74907
G1 X92.648 Y102.117 E3.78283
G1 X92.947 Y102.825 E3.81764
G1 X93.045 Y103.676 E3.85640
G1 X92.943 Y104.489 E3.89348
G1 X92.628 Y105.154 E3.92676
G1 X92.101 Y105.643 E3.95931
G1 X91.400 Y105.966 E3.99422
G1 X90.545 Y106.153 E4.03383
G1 X89.538 Y106.214 E4.07947
G1 X85.836 Y106.214 E4.24697
G1 X85.836 Y101.126 E4.47720
G1 X91.699 Y100.912 F7800.000
G1 X92.427 Y101.227 E4.55501 F540.000
G1 X91.758 Y99.839 F7800.000
G1 X92.195 Y99.763 E4.59846 F540.000
G1 X92.615 Y99.589 E4.64306
G1 X92.820 Y99.394 F7800.000
G1 X93.123 Y99.697 E4.66265 F540.000
G1 X93.507 Y99.530 E4.68179
G1 X92.996 Y99.019 E4.71480
G1 X93.318 Y98.790 E4.73286
G1 X93.885 Y99.357 E4.76952
G1 X94.195 Y99.117 E4.78747
G1 X93.640 Y98.561 E4.82337
G1 X93.770 Y98.140 E4.84351
G1 X94.505 Y98.875 E4.89099
G1 X94.742 Y98.561 E4.90898
G1 X93.891 Y97.710 E4.96396
G1 X94.012 Y97.280 E4.98438
G1 X94.973 Y98.241 E5.04648
G1 X95.127 Y97.844 E5.06593
G1 X94.133 Y96.850 E5.13020
G1 X94.097 Y96.263 E5.15709
G1 X95.254 Y97.420 E5.23189
G1 X95.310 Y96.926 E5.25465
G1 X93.976 Y95.591 E5.34095
G1 X94.767 Y94.729 F7800.000
G1 X93.828 Y93.791 E5.40164 F540.000
G1 X92.701 Y93.214 F7800.000
G1 X95.198 Y95.711 E5.56309 F540.000
G1 X95.281 Y96.346 E5.59233
G1 X91.942 Y93.006 E5.80825
G1 X91.280 Y92.895 E5.83891
G1 X92.247 Y93.862 E5.90139
G1 X91.507 Y93.673 E5.93628
G1 X90.683 Y92.849 E5.98954
G1 X90.086 Y92.804 E6.01691
G1 X90.892 Y93.609 E6.06899
G1 X90.300 Y93.569 E6.09608
G1 X89.535 Y92.803 E6.14559
G1 X88.984 Y92.803 E6.17077
G1 X89.741 Y93.560 E6.21972
G1 X89.190 Y93.560 E6.24491
G1 X88.433 Y92.803 E6.29386
G1 X87.882 Y92.803 E6.31905
G1 X88.639 Y93.560 E6.36799
G1 X88.088 Y93.560 E6.39318
G1 X87.331 Y92.803 E6.44213
G1 X86.780 Y92.803 E6.46732
G1 X87.537 Y93.560 E6.51626
G1 X86.986 Y93.560 E6.54145
G1 X86.229 Y92.803 E6.59040
G1 X85.678 Y92.803 E6.61559
G1 X86.435 Y93.560 E6.66454
G1 X85.884 Y93.560 E6.68972
G1 X85.127 Y92.803 E6.73867
G1 X84.576 Y92.803 E6.76386
G1 X85.610 Y93.837 E6.83073
G1 X85.610 Y94.388 E6.85592
G1 X84.441 Y93.219 E6.93150
G1 X84.441 Y93.770 E6.95669
G1 X85.610 Y94.939 E7.03228
G1 X85.610 Y95.490 E7.05747
G1 X84.441 Y94.321 E7.13305
G1 X84.441 Y94.872 E7.15824
G1 X85.610 Y96.041 E7.23382
G1 X85.610 Y96.592 E7.25901
G1 X84.441 Y95.423 E7.33460
G1 X84.441 Y95.974 E7.35978
G1 X85.610 Y97.143 E7.43537
G1 X85.610 Y97.694 E7.46056
G1 X84.441 Y96.525 E7.53614
G1 X84.441 Y97.076 E7.56133
G1 X85.610 Y98.245 E7.63691
G1 X85.610 Y98.796 E7.66210
G1 X84.441 Y97.627 E7.73769
G1 X84.441 Y98.178 E7.76288
G1 X85.610 Y99.347 E7.83846
G1 X85.610 Y99.898 E7.86365
G1 X84.441 Y98.729 E7.93923
G1 X84.441 Y99.280 E7.96442
G1 X85.830 Y100.669 E8.05424
G1 X85.610 Y101.000 F7800.000
G1 X84.441 Y99.831 E8.12982 F540.000
G1 X84.441 Y100.382 E8.15501
G1 X85.610 Y101.551 E8.23059
G1 X85.610 Y102.102 E8.25578
G1 X84.441 Y100.933 E8.33137
G1 X84.441 Y101.484 E8.35655
G1 X85.610 Y102.653 E8.43214
G1 X85.610 Y103.204 E8.45733
G1 X84.441 Y102.035 E8.53291
G1 X84.441 Y102.586 E8.55810
G1 X85.610 Y103.755 E8.63368
G1 X85.610 Y104.306 E8.65887
G1 X84.441 Y103.137 E8.73446
G1 X84.441 Y103.688 E8.75965
G1 X85.610 Y104.857 E8.83523
G1 X85.610 Y105.408 E8.86042
G1 X84.441 Y104.239 E8.93600
G1 X84.441 Y104.790 E8.96119
G1 X85.610 Y105.959 E9.03678
G1 X85.541 Y106.440 E9.05901
G1 X86.298 Y107.197 E9.10796
G1 X86.849 Y107.197 E9.13314
G1 X86.092 Y106.440 E9.18209
G1 X85.610 Y106.510 E9.20432
G1 X84.441 Y105.341 E9.27991
G1 X84.441 Y105.892 E9.30510
G1 X85.747 Y107.197 E9.38950
G1 X85.196 Y107.197 E9.41469
G1 X84.441 Y106.442 E9.46347
G1 X84.441 Y106.993 E9.48866
G1 X84.645 Y107.197 E9.50182
G1 X86.642 Y106.440 F7800.000
G1 X87.400 Y107.197 E9.55077 F540.000
G1 X87.951 Y107.197 E9.57596
G1 X87.193 Y106.440 E9.62490
G1 X87.744 Y106.440 E9.65009
G1 X88.502 Y107.197 E9.69904
G1 X89.053 Y107.197 E9.72423
G1 X88.295 Y106.440 E9.77318
G1 X88.846 Y106.440 E9.79836
G1 X89.600 Y107.194 E9.84710
G1 X90.084 Y107.127 E9.86943
G1 X89.397 Y106.440 E9.91383
G1 X89.921 Y106.412 E9.93779
G1 X90.568 Y107.060 E9.97963
G1 X91.052 Y106.992 E10.00196
G1 X90.440 Y106.381 E10.04149
G1 X90.901 Y106.290 E10.06295
G1 X91.536 Y106.925 E10.10398
G1 X92.019 Y106.858 E10.12631
G1 X91.353 Y106.191 E10.16941
G1 X91.741 Y106.028 E10.18864
G1 X92.468 Y106.756 E10.23569
G1 X92.794 Y106.530 E10.25379
G1 X92.118 Y105.855 E10.29746
G1 X92.422 Y105.608 E10.31536
G1 X93.119 Y106.305 E10.36042
G1 X93.444 Y106.079 E10.37852
G1 X92.707 Y105.342 E10.42614
G1 X92.919 Y105.003 E10.44442
G1 X93.769 Y105.853 E10.49936
G1 X93.990 Y105.523 E10.51752
G1 X93.097 Y104.630 E10.57527
G1 X93.200 Y104.182 E10.59628
G1 X94.113 Y105.095 E10.65533
G1 X94.236 Y104.667 E10.67568
G1 X93.261 Y103.692 E10.73874
G1 X93.216 Y103.096 E10.76608
G1 X94.360 Y104.240 E10.84004
G1 X94.422 Y103.751 E10.86256
G1 X93.042 Y102.371 E10.95176
G1 X92.586 Y101.364 F7800.000
G1 X94.322 Y103.100 E11.06400 F540.000
G1 X91.511 Y100.840 F7800.000
G1 X90.531 Y99.860 E11.12735 F540.000
G1 X91.014 Y99.792 E11.14963
G1 X91.609 Y100.387 E11.18812
G1 X90.916 Y100.796 F7800.000
G1 X90.049 Y99.929 E11.24420 F540.000
G1 X89.524 Y99.955 E11.26822
G1 X90.283 Y100.714 E11.31730
G1 X89.691 Y100.673 E11.34442
G1 X88.973 Y99.955 E11.39085
G1 X88.422 Y99.955 E11.41604
G1 X89.136 Y100.669 E11.46221
G1 X88.585 Y100.669 E11.48740
G1 X87.871 Y99.955 E11.53356
G1 X87.320 Y99.955 E11.55875
G1 X88.034 Y100.669 E11.60492
G1 X87.483 Y100.669 E11.63011
G1 X86.769 Y99.955 E11.67627
G1 X86.218 Y99.955 E11.70146
G1 X86.932 Y100.669 E11.74763
G1 X86.381 Y100.669 E11.77282
G1 X85.667 Y99.955 E11.81899
M106 S255
G92 E0
G1 Z0.600 F7800.000
G1 X103.838 Y92.352 F7800.000
G1 X103.838 Y98.715 E1.90665 F600.000
G1 X104.689 Y103.021 E3.22178
G92 E0
G1 X103.874 Y106.648 F7800.000
G1 X103.874 Y106.648 F7800.000
G1 X109.669 Y98.681 F7800.000
G1 X110.972 Y99.535 E0.46678 F600.000
G1 X111.141 Y99.623 E0.52394
G1 X111.447 Y99.745 E0.62257
G1 X112.189 Y99.974 E0.85543
G1 X112.418 Y100.075 E0.93036
G1 X112.899 Y100.352 E1.09667
G1 X113.122 Y100.504 E1.17750
G1 X113.661 Y101.058 E1.40909
G1 X113.826 Y101.314 E1.50046
G1 X114.036 Y101.708 E1.63415
G1 X114.154 Y102.016 E1.73297
G1 X114.270 Y102.431 E1.86219
G1 X114.358 Y103.269 E2.11448
G1 X114.236 Y104.275 E2.41822
G1 X113.903 Y105.060 E2.67378
G1 X113.835 Y105.164 E2.71086
G1 X113.632 Y105.426 E2.81031
G1 X113.360 Y105.723 E2.93104
G1 X112.863 Y106.096 E3.11710
G1 X112.552 Y106.276 E3.22482
G1 X111.942 Y106.516 E3.42115
G1 X111.438 Y106.657 E3.57798
G1 X111.064 Y106.721 E3.69188
G1 X109.798 Y106.818 E4.07227
G1 X104.874 Y106.818 E5.54773
G1 X103.911 Y106.539 E5.84798
G1 X103.838 Y105.989 E6.01435
G1 X103.838 Y100.352 E7.70345
G1 X104.000 Y99.533 E7.95346
G1 X109.648 Y99.533 E9.64579
G1 X109.956 Y99.506 E9.73845
G1 X110.602 Y99.293 E9.94242
G1 X110.898 Y98.448 E10.21056
G1 X114.808 Y92.352 E12.38069
G92 E0
G1 X109.648 Y98.715 F7800.000
G1 X109.648 Y98.715 F7800.000
G1 X107.945 Y95.644 F7800.000
G1 X108.440 Y93.918 F7800.000
G1 X106.874 Y92.352 F7800.000
G1 X104.874 Y91.352 F7800.000
G1 X102.803 Y91.352 F7800.000
G1 X100.803 Y92.352 F7800.000
G1 X99.090 Y94.065 F7800.000
G1 X99.197 Y94.923 F7800.000
G1 X99.280 Y96.190 F7800.000
G1 X99.284 Y97.047 F7800.000
G1 X99.229 Y98.012 F7800.000
G1 X99.114 Y98.947 F7800.000
G1 X98.944 Y99.851 F7800.000
G1 X98.658 Y100.944 F7800.000
G1 X98.600 Y101.119 F7800.000
G1 X98.287 Y101.068 F7800.000
