; generated by Slic3r 1.2.9 on 2016-03-11 at 01:22:49

; external perimeters extrusion width = 1.54mm
; perimeters extrusion width = 2.62mm
; infill extrusion width = 6.27mm
; solid infill extrusion width = 2.62mm
; top infill extrusion width = 2.62mm

M107
M104 S30 ; set temperature
G28 ; home all axes
G1 Z5 F5000 ; lift nozzle
M302
M92 E10000
M500
M501
G1 E100
M109 S30 ; wait for temperature to be reached
G21 ; set units to millimeters
G90 ; use absolute coordinates
M82 ; use absolute distances for extrusion
G92 E0
G1 Z0.300 F7800.000
G1 X104.268 Y101.614 F7800.000
G1 X104.597 Y101.265 E0.02167 F378.000
G1 X104.978 Y100.966 E0.04361
G1 X105.449 Y100.681 E0.06850
G1 X106.010 Y100.413 E0.09663
G1 X106.714 Y100.153 E0.13059
G1 X107.615 Y99.890 E0.17307
G1 X110.614 Y99.180 E0.31251
G1 X111.168 Y99.030 E0.33850
G1 X111.674 Y98.855 E0.36272
G1 X112.131 Y98.655 E0.38529
G1 X112.537 Y98.420 E0.40653
G1 X112.885 Y98.141 E0.42670
G1 X113.172 Y97.817 E0.44631
G1 X113.386 Y97.431 E0.46627
G1 X113.513 Y96.981 E0.48742
G1 X113.555 Y96.467 E0.51073
G1 X113.424 Y95.589 E0.55093
G1 X113.024 Y94.847 E0.58907
G1 X112.365 Y94.270 E0.62869
G1 X111.488 Y93.866 E0.67240
G1 X110.496 Y93.646 E0.71836
G1 X109.156 Y93.551 E0.77918
G1 X107.924 Y93.624 E0.83499
G1 X106.866 Y93.847 E0.88392
G1 X105.980 Y94.225 E0.92754
G1 X105.268 Y94.774 E0.96818
G1 X104.742 Y95.498 E1.00871
G1 X104.481 Y96.185 E1.04194
G1 X102.954 Y95.880 E1.11241
G1 X103.900 Y94.045 E1.20581
G1 X105.959 Y92.808 E1.31451
G1 X109.086 Y92.386 E1.45726
G1 X110.773 Y92.503 E1.53380
G1 X110.892 Y92.512 E1.53920 F378.000
G1 X112.397 Y92.886 E1.60937
G1 X113.594 Y93.502 E1.67030
G1 X114.460 Y94.330 E1.72451
G1 X114.976 Y95.351 E1.77627
G1 X115.152 Y96.593 E1.83304
G1 X115.127 Y97.090 E1.85555
G1 X115.054 Y97.546 E1.87645
G1 X114.933 Y97.953 E1.89565
G1 X114.770 Y98.320 E1.91384
G1 X114.570 Y98.653 E1.93140
G1 X114.333 Y98.952 E1.94864
G1 X114.061 Y99.220 E1.96594
G1 X113.758 Y99.461 E1.98349
G1 X113.420 Y99.675 E2.00158
G1 X113.055 Y99.867 E2.02021
G1 X112.259 Y100.205 E2.05936
G1 X111.399 Y100.480 E2.10021
G1 X108.299 Y101.222 E2.24443
G1 X107.352 Y101.487 E2.28892
G1 X106.706 Y101.724 E2.32010
G1 X106.246 Y101.967 E2.34361
G1 X105.859 Y102.246 E2.36521
G1 X105.543 Y102.568 E2.38562
G1 X105.308 Y102.947 E2.40578
G1 X105.168 Y103.384 E2.42656
G1 X105.122 Y103.877 E2.44896
G1 X105.238 Y104.675 E2.48546
G1 X105.597 Y105.346 E2.51990
G1 X106.187 Y105.864 E2.55542
G1 X106.976 Y106.224 E2.59469
G1 X107.947 Y106.434 E2.63962
G1 X109.100 Y106.503 E2.69190
G1 X110.160 Y106.441 E2.73992
G1 X111.066 Y106.250 E2.78184
G1 X111.821 Y105.925 E2.81903
G1 X112.429 Y105.449 E2.85397
G1 X112.889 Y104.813 E2.88950
G1 X113.123 Y104.221 E2.91827
G1 X114.708 Y104.500 E2.99109
G1 X114.361 Y105.373 E3.03361
G1 X113.752 Y106.231 E3.08119
G1 X112.976 Y106.848 E3.12605
G1 X111.974 Y107.270 E3.17527
G1 X110.688 Y107.528 E3.23461
G1 X109.123 Y107.615 E3.30555
G1 X107.439 Y107.499 E3.38194
G1 X106.053 Y107.157 E3.44652
G1 X104.963 Y106.595 E3.50201
G1 X104.182 Y105.839 E3.55119
G1 X103.716 Y104.901 E3.59859
G1 X103.557 Y103.754 E3.65099
G1 X103.587 Y103.243 E3.67417
G1 X103.676 Y102.768 E3.69601
G1 X103.825 Y102.338 E3.71660
G1 X104.029 Y101.947 E3.73659
G1 X104.133 Y101.801 E3.74469
G1 X106.022 Y100.628 F7800.000
G1 X106.849 Y101.455 E3.79798 F540.000
G1 X106.470 Y101.625 E3.81689
G1 X105.650 Y100.805 E3.86970
G1 X105.297 Y101.001 E3.88809
G1 X106.117 Y101.821 E3.94090
G1 X105.799 Y102.051 E3.95880
G1 X104.967 Y101.220 E4.01238
G1 X104.667 Y101.469 E4.03013
G1 X105.518 Y102.320 E4.08492
G1 X105.277 Y102.627 E4.10272
G1 X104.405 Y101.755 E4.15889
G1 X104.181 Y102.081 E4.17687
G1 X105.082 Y102.981 E4.23487
G1 X104.949 Y103.397 E4.25474
G1 X104.002 Y102.450 E4.31574
G1 X103.873 Y102.870 E4.33576
G1 X104.900 Y103.897 E4.40191
G1 X104.975 Y104.521 E4.43050
G1 X103.802 Y103.349 E4.50599
G1 X103.820 Y103.915 E4.53178
G1 X105.325 Y105.420 E4.62877
G1 X105.959 Y106.054 F7800.000
G1 X107.054 Y107.149 E4.69929 F540.000
G1 X106.915 Y106.461 E4.73121
G1 X107.741 Y107.288 E4.78441
G1 X108.331 Y107.328 E4.81131
G1 X107.616 Y106.613 E4.85733
G1 X108.235 Y106.683 E4.88568
G1 X108.920 Y107.368 E4.92982
G1 X109.474 Y107.373 E4.95504
G1 X108.818 Y106.718 E4.99724
G1 X109.359 Y106.710 E5.02187
G1 X109.994 Y107.344 E5.06274
G1 X110.514 Y107.315 E5.08646
G1 X109.877 Y106.679 E5.12745
G1 X110.361 Y106.614 E5.14967
G1 X110.997 Y107.250 E5.19065
G1 X111.454 Y107.158 E5.21188
G1 X110.814 Y106.518 E5.25309
G1 X111.239 Y106.394 E5.27323
G1 X111.911 Y107.067 E5.31656
G1 X112.306 Y106.912 E5.33585
G1 X111.622 Y106.229 E5.37988
G1 X111.985 Y106.042 E5.39844
G1 X112.692 Y106.750 E5.44401
G1 X113.041 Y106.550 E5.46233
G1 X112.292 Y105.801 E5.51056
G1 X112.593 Y105.552 E5.52832
G1 X113.347 Y106.307 E5.57690
G1 X113.634 Y106.045 E5.59459
G1 X112.823 Y105.234 E5.64681
G1 X113.054 Y104.916 E5.66471
G1 X113.869 Y105.731 E5.71722
G1 X114.097 Y105.410 E5.73515
G1 X113.218 Y104.531 E5.79179
G1 X113.826 Y104.590 E5.81962
G1 X114.276 Y105.040 E5.84862
G92 E0
G1 X113.113 Y98.952 F7800.000
G1 X113.113 Y98.952 F7800.000
G1 X112.440 Y99.910 F7800.000
G1 X111.619 Y99.089 E0.05287 F540.000
G1 X112.006 Y98.928 E0.07199
G1 X112.825 Y99.747 E0.12472
G1 X113.197 Y99.569 E0.14347
G1 X112.370 Y98.743 E0.19669
G1 X112.707 Y98.531 E0.21482
G1 X113.543 Y99.367 E0.26863
G1 X113.859 Y99.135 E0.28652
G1 X113.012 Y98.287 E0.34111
G1 X113.270 Y97.996 E0.35882
G1 X114.143 Y98.869 E0.41506
G1 X114.391 Y98.568 E0.43282
G1 X113.483 Y97.661 E0.49127
G1 X113.645 Y97.274 E0.51038
G1 X114.594 Y98.223 E0.57150
G1 X114.754 Y97.833 E0.59067
G1 X113.746 Y96.825 E0.65557
G1 X113.772 Y96.302 E0.67943
G1 X114.862 Y97.393 E0.74965
G1 X114.914 Y96.896 E0.77238
G1 X113.676 Y95.658 E0.85214
G1 X113.244 Y94.677 F7800.000
G1 X114.870 Y96.303 E0.95685 F540.000
G1 X114.780 Y95.664 E0.98624
G1 X112.215 Y93.099 E1.15143
G1 X113.478 Y93.813 F7800.000
G1 X114.320 Y94.655 E1.20565 F540.000
G1 X112.955 Y94.388 F7800.000
G1 X111.481 Y92.914 E1.30059 F540.000
G1 X110.753 Y92.734 E1.33476
G1 X111.676 Y93.658 E1.39426
G1 X110.969 Y93.499 E1.42730
G1 X110.163 Y92.693 E1.47920
G1 X109.573 Y92.652 E1.50613
G1 X110.321 Y93.401 E1.55435
G1 X109.730 Y93.359 E1.58133
G1 X108.988 Y92.617 E1.62912
G1 X108.505 Y92.682 E1.65134
G1 X109.152 Y93.329 E1.69301
G1 X108.634 Y93.360 E1.71664
G1 X108.021 Y92.747 E1.75610
G1 X107.538 Y92.813 E1.77833
G1 X108.116 Y93.391 E1.81557
G1 X107.644 Y93.468 E1.83736
G1 X107.054 Y92.878 E1.87534
G1 X106.570 Y92.943 E1.89756
G1 X107.190 Y93.563 E1.93750
G1 X106.755 Y93.677 E1.95799
G1 X106.087 Y93.009 E2.00102
G1 X105.713 Y93.184 E2.01982
G1 X106.370 Y93.841 E2.06213
G1 X105.985 Y94.005 E2.08118
G1 X105.370 Y93.390 E2.12079
G1 X105.028 Y93.596 E2.13901
G1 X105.660 Y94.228 E2.17973
G1 X105.350 Y94.467 E2.19755
G1 X104.685 Y93.802 E2.24040
G1 X104.342 Y94.008 E2.25862
G1 X105.062 Y94.728 E2.30502
G1 X104.831 Y95.046 E2.32292
G1 X104.024 Y94.239 E2.37490
G1 X103.836 Y94.600 E2.39343
G1 X104.600 Y95.364 E2.44263
G1 X104.432 Y95.745 E2.46159
G1 X103.649 Y94.962 E2.51199
G1 X103.463 Y95.324 E2.53054
G1 X103.973 Y95.835 E2.56343
G92 E0
G1 X105.451 Y101.585 F7800.000
G1 X105.451 Y101.585 F7800.000
G1 X106.420 Y100.478 F7800.000
G1 X107.251 Y101.308 E0.05349 F540.000
G1 X107.674 Y101.182 E0.07358
G1 X106.827 Y100.335 E0.12815
G1 X107.251 Y100.211 E0.14830
G1 X108.103 Y101.062 E0.20313
G1 X108.539 Y100.950 E0.22365
G1 X107.679 Y100.090 E0.27903
G1 X108.123 Y99.985 E0.29981
G1 X108.982 Y100.844 E0.35513
G1 X109.425 Y100.738 E0.37587
G1 X108.567 Y99.880 E0.43114
G1 X109.011 Y99.775 E0.45191
G1 X109.868 Y100.632 E0.50712
G1 X110.311 Y100.526 E0.52786
G1 X109.454 Y99.670 E0.58301
G1 X109.898 Y99.564 E0.60378
G1 X110.754 Y100.420 E0.65887
G1 X111.197 Y100.314 E0.67961
G1 X110.342 Y99.459 E0.73464
G1 X110.781 Y99.350 E0.75525
G1 X111.625 Y100.193 E0.80958
G1 X112.040 Y100.060 E0.82945
G1 X111.211 Y99.230 E0.88288
G1 X105.451 Y101.585 F7800.000
G1 X104.428 Y102.968 F7800.000
G1 X103.908 Y104.551 F7800.000
G1 X106.325 Y106.968 E1.03856 F540.000
G1 X105.237 Y106.430 F7800.000
G1 X104.324 Y105.517 E1.09737 F540.000
G92 E0
G1 X103.837 Y101.828 F7800.000
G1 X100.588 Y99.491 F7800.000
G1 X100.017 Y99.052 F7800.000
G1 X96.310 Y97.607 F7800.000
G1 X95.015 Y93.888 F7800.000
G1 X95.573 Y94.467 E0.03636 F378.000
G1 X96.036 Y95.456 E0.08580
G1 X96.193 Y96.650 E0.14028
G1 X96.090 Y97.552 E0.18139
G1 X95.784 Y98.339 E0.21957
G1 X95.273 Y99.016 E0.25793
G1 X94.570 Y99.561 E0.29817
G1 X93.684 Y99.946 E0.34190
G1 X92.565 Y100.177 E0.39361
G1 X92.542 Y100.600 E0.41274
G1 X93.395 Y100.878 E0.45336
G1 X94.065 Y101.267 E0.48841
G1 X94.600 Y101.778 E0.52192
G1 X94.991 Y102.398 E0.55506
G1 X95.227 Y103.110 E0.58901
G1 X95.305 Y103.901 E0.62498
G1 X94.742 Y105.853 E0.71689
G1 X93.063 Y107.019 E0.80939
G1 X90.149 Y107.423 E0.94250
G1 X84.848 Y107.423 E1.18238
G1 X84.848 Y92.577 E1.85415
G1 X90.805 Y92.577 E2.12372
G1 X92.306 Y92.693 E2.19184
G1 X92.407 Y92.700 E2.19642 F378.000
G1 X93.734 Y93.064 E2.25867
G1 X94.798 Y93.663 E2.31391
G1 X94.855 Y93.722 E2.31763
G1 X93.748 Y94.697 F7800.000
G1 X94.137 Y95.139 E2.34428 F378.000
G1 X94.452 Y95.902 E2.38164
G1 X94.556 Y96.831 E2.42390
G1 X94.102 Y98.445 E2.49979
G1 X92.731 Y99.420 E2.57591
G1 X90.559 Y99.729 E2.67521
G1 X86.469 Y99.729 E2.86028
G1 X86.469 Y93.786 E3.12919
G1 X90.713 Y93.786 E3.32126 F378.000
G1 X91.889 Y93.866 E3.37456
G1 X92.857 Y94.113 E3.41976
G1 X93.591 Y94.528 E3.45795
G92 E0
G1 X95.011 Y98.076 F7800.000
G1 X95.011 Y98.076 F7800.000
G1 X91.912 Y101.145 F7800.000
G1 X92.080 Y101.188 E0.00785 F378.000
G1 X92.775 Y101.567 E0.04367
G1 X93.280 Y102.117 E0.07743
G1 X93.580 Y102.825 E0.11224
G1 X93.677 Y103.676 E0.15100
G1 X93.576 Y104.489 E0.18808
G1 X93.260 Y105.154 E0.22137
G1 X92.733 Y105.643 E0.25391
G1 X92.033 Y105.966 E0.28882
G1 X91.177 Y106.153 E0.32843
G1 X90.171 Y106.214 E0.37408
G1 X86.469 Y106.214 E0.54158
G1 X86.469 Y100.895 E0.78226
G1 X90.171 Y100.895 E0.94981 F378.000
G1 X91.210 Y100.967 E0.99689
G1 X91.688 Y101.088 E1.01925
G1 X92.331 Y100.912 F7800.000
G1 X93.060 Y101.227 E1.09706 F540.000
G1 X92.391 Y99.839 F7800.000
G1 X92.827 Y99.763 E1.14051 F540.000
G1 X93.248 Y99.589 E1.18511
G1 X93.452 Y99.394 F7800.000
G1 X93.755 Y99.697 E1.20469 F540.000
G1 X94.139 Y99.530 E1.22383
G1 X93.629 Y99.019 E1.25684
G1 X93.951 Y98.790 E1.27491
G1 X94.518 Y99.357 E1.31156
G1 X94.828 Y99.117 E1.32951
G1 X94.273 Y98.561 E1.36541
G1 X94.403 Y98.140 E1.38555
G1 X95.137 Y98.875 E1.43304
G1 X95.374 Y98.561 E1.45103
G1 X94.524 Y97.710 E1.50601
G1 X94.645 Y97.280 E1.52643
G1 X95.605 Y98.241 E1.58852
G1 X95.760 Y97.844 E1.60797
G1 X94.766 Y96.850 E1.67224
G1 X94.729 Y96.263 E1.69913
G1 X95.887 Y97.420 E1.77394
G1 X95.943 Y96.926 E1.79670
G1 X94.608 Y95.591 E1.88300
G1 X95.399 Y94.729 F7800.000
G1 X94.461 Y93.791 E1.94368 F540.000
G1 X93.333 Y93.214 F7800.000
G1 X95.831 Y95.711 E2.10513 F540.000
G1 X95.914 Y96.346 E2.13437
G1 X92.574 Y93.006 E2.35029
G1 X91.913 Y92.895 E2.38095
G1 X92.879 Y93.862 E2.44344
G1 X92.139 Y93.673 E2.47833
G1 X91.316 Y92.849 E2.53159
G1 X90.719 Y92.804 E2.55896
G1 X91.524 Y93.609 E2.61103
G1 X90.933 Y93.569 E2.63813
G1 X90.167 Y92.803 E2.68763
G1 X89.616 Y92.803 E2.71282
G1 X90.373 Y93.560 E2.76177
G1 X89.822 Y93.560 E2.78696
G1 X89.065 Y92.803 E2.83590
G1 X88.514 Y92.803 E2.86109
G1 X89.271 Y93.560 E2.91004
G1 X88.720 Y93.560 E2.93523
G1 X87.963 Y92.803 E2.98418
G1 X87.412 Y92.803 E3.00936
G1 X88.169 Y93.560 E3.05831
G1 X87.618 Y93.560 E3.08350
G1 X86.861 Y92.803 E3.13245
G1 X86.310 Y92.803 E3.15764
G1 X87.067 Y93.560 E3.20658
G1 X86.516 Y93.560 E3.23177
G1 X85.759 Y92.803 E3.28072
G1 X85.208 Y92.803 E3.30591
G1 X86.243 Y93.837 E3.37278
G1 X86.243 Y94.388 E3.39797
G1 X85.074 Y93.219 E3.47355
G1 X85.074 Y93.770 E3.49874
G1 X86.243 Y94.939 E3.57433
G1 X86.243 Y95.490 E3.59951
G1 X85.074 Y94.321 E3.67510
G1 X85.074 Y94.872 E3.70029
G1 X86.243 Y96.041 E3.77587
G1 X86.243 Y96.592 E3.80106
G1 X85.074 Y95.423 E3.87664
G1 X85.074 Y95.974 E3.90183
G1 X86.243 Y97.143 E3.97742
G1 X86.243 Y97.694 E4.00260
G1 X85.074 Y96.525 E4.07819
G1 X85.074 Y97.076 E4.10338
G1 X86.243 Y98.245 E4.17896
G1 X86.243 Y98.796 E4.20415
G1 X85.074 Y97.627 E4.27974
G1 X85.074 Y98.178 E4.30492
G1 X86.243 Y99.347 E4.38051
G1 X86.243 Y99.898 E4.40570
G1 X85.074 Y98.729 E4.48128
G1 X85.074 Y99.280 E4.50647
G1 X86.463 Y100.669 E4.59628
G1 X86.243 Y101.000 F7800.000
G1 X85.074 Y99.831 E4.67187 F540.000
G1 X85.074 Y100.382 E4.69706
G1 X86.243 Y101.551 E4.77264
G1 X86.243 Y102.102 E4.79783
G1 X85.074 Y100.933 E4.87341
G1 X85.074 Y101.484 E4.89860
G1 X86.243 Y102.653 E4.97419
G1 X86.243 Y103.204 E4.99937
G1 X85.074 Y102.035 E5.07496
G1 X85.074 Y102.586 E5.10015
G1 X86.243 Y103.755 E5.17573
G1 X86.243 Y104.306 E5.20092
G1 X85.074 Y103.137 E5.27650
G1 X85.074 Y103.688 E5.30169
G1 X86.243 Y104.857 E5.37728
G1 X86.243 Y105.408 E5.40247
G1 X85.074 Y104.239 E5.47805
G1 X85.074 Y104.790 E5.50324
G1 X86.243 Y105.959 E5.57882
G1 X86.173 Y106.440 E5.60105
G1 X86.930 Y107.197 E5.65000
G1 X86.379 Y107.197 E5.67519
G1 X85.074 Y105.892 E5.75960
G1 X85.074 Y106.442 E5.78478
G1 X85.828 Y107.197 E5.83357
G1 X85.277 Y107.197 E5.85875
G1 X85.074 Y106.993 E5.87192
G1 X86.243 Y106.510 F7800.000
G1 X85.074 Y105.341 E5.94750 F540.000
G1 X86.724 Y106.440 F7800.000
G1 X87.481 Y107.197 E5.99645 F540.000
G1 X88.032 Y107.197 E6.02164
G1 X87.275 Y106.440 E6.07058
G1 X87.826 Y106.440 E6.09577
G1 X88.583 Y107.197 E6.14472
G1 X89.134 Y107.197 E6.16991
G1 X88.377 Y106.440 E6.21886
G1 X88.928 Y106.440 E6.24404
G1 X89.685 Y107.197 E6.29299
G1 X90.233 Y107.194 E6.31803
G1 X89.479 Y106.440 E6.36677
G1 X90.030 Y106.440 E6.39196
G1 X90.717 Y107.127 E6.43636
G1 X91.200 Y107.060 E6.45869
G1 X90.553 Y106.412 E6.50053
G1 X91.073 Y106.381 E6.52432
G1 X91.684 Y106.992 E6.56385
G1 X92.168 Y106.925 E6.58618
G1 X91.533 Y106.290 E6.62722
G1 X91.985 Y106.191 E6.64837
G1 X92.652 Y106.858 E6.69147
G1 X93.101 Y106.756 E6.71252
G1 X92.373 Y106.028 E6.75956
G1 X92.751 Y105.855 E6.77855
G1 X93.426 Y106.530 E6.82222
G1 X93.751 Y106.305 E6.84032
G1 X93.054 Y105.608 E6.88538
G1 X93.340 Y105.342 E6.90320
G1 X94.076 Y106.079 E6.95082
G1 X94.402 Y105.853 E6.96892
G1 X93.552 Y105.003 E7.02386
G1 X93.729 Y104.630 E7.04277
G1 X94.622 Y105.523 E7.10052
G1 X94.746 Y105.095 E7.12087
G1 X93.832 Y104.182 E7.17992
G1 X93.893 Y103.692 E7.20248
G1 X94.869 Y104.667 E7.26554
G1 X94.992 Y104.240 E7.28589
G1 X93.848 Y103.096 E7.35985
G1 X93.675 Y102.371 E7.39391
G1 X95.054 Y103.751 E7.48311
G1 X94.954 Y103.100 E7.51322
G1 X93.218 Y101.364 E7.62546
G1 X92.144 Y100.840 F7800.000
G1 X91.164 Y99.860 E7.68882 F540.000
G1 X90.681 Y99.929 E7.71109
G1 X91.549 Y100.796 E7.76716
G1 X90.916 Y100.714 E7.79635
G1 X90.157 Y99.955 E7.84543
G1 X89.606 Y99.955 E7.87062
G1 X90.324 Y100.673 E7.91705
G1 X89.769 Y100.669 E7.94243
G1 X89.055 Y99.955 E7.98860
G1 X88.504 Y99.955 E8.01379
G1 X89.218 Y100.669 E8.05995
G1 X88.667 Y100.669 E8.08514
G1 X87.953 Y99.955 E8.13131
G1 X87.402 Y99.955 E8.15650
G1 X88.116 Y100.669 E8.20266
G1 X87.565 Y100.669 E8.22785
G1 X86.851 Y99.955 E8.27402
G1 X86.300 Y99.955 E8.29921
G1 X87.014 Y100.669 E8.34538
G1 X91.646 Y99.792 F7800.000
G1 X92.242 Y100.387 E8.38387 F540.000
M106 S255
G92 E0
G1 Z0.600 F7800.000
G1 X114.270 Y104.194 F7800.000
G1 X113.191 Y105.700 E0.55491 F600.000
G1 X112.847 Y106.033 E0.69860
G1 X112.606 Y106.223 E0.79046
G1 X112.254 Y106.430 E0.91289
G1 X111.783 Y106.647 E1.06842
G1 X111.166 Y106.831 E1.26133
G1 X110.614 Y106.944 E1.43012
G1 X110.176 Y106.998 E1.56233
G1 X109.126 Y107.058 E1.87733
G1 X107.932 Y106.983 E2.23605
G1 X107.528 Y106.930 E2.35813
G1 X106.881 Y106.780 E2.55716
G1 X106.270 Y106.577 E2.74986
G1 X105.754 Y106.307 E2.92442
G1 X105.361 Y106.040 E3.06680
G1 X105.185 Y105.878 E3.13852
G1 X104.967 Y105.636 E3.23611
G1 X104.787 Y105.397 E3.32584
G1 X104.610 Y105.055 E3.44121
G1 X104.460 Y104.671 E3.56451
G1 X104.367 Y104.014 E3.76345
G1 X104.347 Y103.723 E3.85102
G1 X104.376 Y103.334 E3.96772
G1 X104.455 Y102.975 E4.07798
G1 X104.563 Y102.656 E4.17893
G1 X104.643 Y102.501 E4.23124
