; generated by Slic3r 1.2.9 on 2016-03-11 at 01:22:52

; external perimeters extrusion width = 1.54mm
; perimeters extrusion width = 2.62mm
; infill extrusion width = 6.27mm
; solid infill extrusion width = 2.62mm
; top infill extrusion width = 2.62mm

M107
M104 S30 ; set temperature
G28 ; home all axes
G1 Z5 F5000 ; lift nozzle
M302
M92 E10000
M500
M501
G1 E100
M109 S30 ; wait for temperature to be reached
G21 ; set units to millimeters
G90 ; use absolute coordinates
M82 ; use absolute distances for extrusion
G92 E0
G1 Z0.300 F7800.000
G1 X103.851 Y105.945 F7800.000
G1 X103.273 Y107.423 E0.07181 F378.000
G1 X101.582 Y107.423 E0.14833
G1 X107.621 Y92.577 E0.87355
G1 X109.465 Y92.577 E0.95700
G1 X115.162 Y106.586 E1.64130
G1 X115.503 Y107.423 E1.68221 F378.000
G1 X113.811 Y107.423 E1.75876
G1 X109.673 Y96.800 E2.27461
G1 X108.751 Y94.056 E2.40562
G1 X108.356 Y94.056 E2.42351
G1 X107.433 Y96.800 E2.55452
G1 X103.936 Y105.730 E2.98848
G1 X102.171 Y107.197 F7800.000
G1 X101.972 Y106.998 E3.00127 F540.000
G1 X102.130 Y106.609 E3.02038
G1 X102.719 Y107.197 E3.05820
G1 X103.179 Y107.110 E3.07950
G1 X102.289 Y106.219 E3.13674
G1 X102.447 Y105.830 E3.15585
G1 X103.333 Y106.716 E3.21281
G1 X103.487 Y106.322 E3.23203
G1 X102.605 Y105.440 E3.28871
G1 X102.764 Y105.051 E3.30782
G1 X103.641 Y105.929 E3.36424
G1 X103.796 Y105.535 E3.38346
G1 X102.922 Y104.662 E3.43960
G1 X103.081 Y104.272 E3.45871
G1 X103.950 Y105.141 E3.51458
G1 X104.104 Y104.747 E3.53380
G1 X103.239 Y103.883 E3.58939
G1 X103.397 Y103.493 E3.60850
G1 X104.258 Y104.354 E3.66383
G1 X104.412 Y103.960 E3.68305
G1 X103.556 Y103.104 E3.73810
G1 X103.714 Y102.714 E3.75721
G1 X104.566 Y103.566 E3.81198
G1 X104.721 Y103.173 E3.83120
G1 X103.873 Y102.325 E3.88571
G1 X104.031 Y101.935 E3.90482
G1 X104.875 Y102.779 E3.95905
G1 X105.029 Y102.385 E3.97827
G1 X104.189 Y101.546 E4.03223
G1 X104.348 Y101.157 E4.05134
G1 X105.183 Y101.992 E4.10502
G1 X105.337 Y101.598 E4.12424
G1 X104.506 Y100.767 E4.17766
G1 X104.665 Y100.378 E4.19677
G1 X105.491 Y101.204 E4.24991
G1 X105.646 Y100.811 E4.26913
G1 X104.823 Y99.988 E4.32199
G1 X104.982 Y99.599 E4.34111
G1 X105.800 Y100.417 E4.39370
G1 X105.954 Y100.023 E4.41292
G1 X105.140 Y99.209 E4.46524
G1 X105.298 Y98.820 E4.48435
G1 X106.108 Y99.630 E4.53640
G1 X106.262 Y99.236 E4.55562
G1 X105.457 Y98.431 E4.60740
G1 X105.615 Y98.041 E4.62651
G1 X106.416 Y98.842 E4.67801
G1 X106.571 Y98.449 E4.69723
G1 X105.774 Y97.652 E4.74846
G1 X105.932 Y97.262 E4.76757
G1 X106.725 Y98.055 E4.81853
G1 X106.879 Y97.661 E4.83775
G1 X106.090 Y96.873 E4.88843
G1 X106.249 Y96.483 E4.90754
G1 X107.033 Y97.268 E4.95795
G1 X107.187 Y96.874 E4.97717
G1 X106.407 Y96.094 E5.02731
G1 X106.566 Y95.704 E5.04642
G1 X107.329 Y96.468 E5.09550
G1 X107.467 Y96.058 E5.11516
G1 X106.724 Y95.315 E5.16292
G1 X106.882 Y94.926 E5.18203
G1 X107.605 Y95.648 E5.22847
G1 X107.743 Y95.238 E5.24813
G1 X107.041 Y94.536 E5.29324
G1 X107.199 Y94.147 E5.31236
G1 X107.881 Y94.828 E5.35615
G1 X108.018 Y94.418 E5.37581
G1 X107.358 Y93.757 E5.41829
G1 X107.516 Y93.368 E5.43740
G1 X108.156 Y94.008 E5.47855
G1 X108.526 Y93.830 F7800.000
G1 X107.675 Y92.978 E5.53328 F540.000
G1 X108.047 Y92.803 E5.55199
G1 X110.114 Y94.870 E5.68486
G1 X109.435 Y95.286 F7800.000
G1 X110.865 Y96.717 E5.77679 F540.000
G1 X110.017 Y96.965 F7800.000
G1 X111.616 Y98.563 E5.87956 F540.000
G1 X110.717 Y98.760 F7800.000
G1 X112.367 Y100.410 E5.98566 F540.000
G1 X111.416 Y100.555 F7800.000
G1 X113.118 Y102.257 E6.09509 F540.000
G1 X112.743 Y101.334 F7800.000
G1 X111.066 Y99.657 E6.20286 F540.000
G1 X111.991 Y99.487 F7800.000
G1 X110.367 Y97.862 E6.30729 F540.000
G1 X111.240 Y97.640 F7800.000
G1 X109.712 Y96.111 E6.40555 F540.000
G1 X110.489 Y95.793 F7800.000
G1 X109.158 Y94.461 E6.49116 F540.000
G1 X109.738 Y93.946 F7800.000
G1 X108.595 Y92.803 E6.56466 F540.000
G1 X109.143 Y92.803 E6.58957
G1 X109.363 Y93.023 E6.60371
G1 X111.765 Y101.452 F7800.000
G1 X113.494 Y103.180 E6.71481 F540.000
G1 X113.869 Y104.104 F7800.000
G1 X112.115 Y102.350 E6.82758 F540.000
G1 X112.465 Y103.247 F7800.000
G1 X114.245 Y105.027 E6.94202 F540.000
G1 X114.620 Y105.951 F7800.000
G1 X112.814 Y104.145 E7.05812 F540.000
G1 X113.164 Y105.042 F7800.000
G1 X114.996 Y106.874 E7.17589 F540.000
G1 X114.771 Y107.197 E7.19378
G1 X113.514 Y105.939 E7.27462
G1 X113.863 Y106.837 F7800.000
G1 X114.223 Y107.197 E7.29778 F540.000
G92 E0
G1 X109.461 Y96.877 F7800.000
G1 X108.545 Y105.621 F7800.000
G1 X101.247 Y108.648 F7800.000
G1 X98.961 Y102.674 F7800.000
G1 X99.064 Y101.167 F7800.000
G1 X99.083 Y101.134 F7800.000
G1 X95.522 Y98.449 F7800.000
G1 X84.388 Y102.766 F7800.000
G1 X84.388 Y92.577 E0.46104 F378.000
G1 X90.345 Y92.577 E0.73061
G1 X91.800 Y92.689 E0.79663
G1 X91.947 Y92.700 E0.80331 F378.000
G1 X93.274 Y93.064 E0.86556
G1 X94.338 Y93.663 E0.92080
G1 X95.113 Y94.467 E0.97132
G1 X95.576 Y95.456 E1.02077
G1 X95.733 Y96.650 E1.07525
G1 X95.630 Y97.552 E1.11636
G1 X95.324 Y98.339 E1.15454
G1 X94.813 Y99.016 E1.19290
G1 X94.110 Y99.561 E1.23314
G1 X93.224 Y99.946 E1.27687
G1 X92.105 Y100.177 E1.32858
G1 X92.082 Y100.600 E1.34771
G1 X92.935 Y100.878 E1.38833
G1 X93.605 Y101.267 E1.42338
G1 X94.140 Y101.778 E1.45689
G1 X94.531 Y102.398 E1.49003
G1 X94.767 Y103.110 E1.52398
G1 X94.845 Y103.901 E1.55995
G1 X94.282 Y105.853 E1.65186
G1 X92.603 Y107.019 E1.74436
G1 X89.689 Y107.423 E1.87747
G1 X84.388 Y107.423 E2.11735
G1 X84.388 Y102.997 E2.31763
G1 X86.009 Y99.729 F7800.000
G1 X86.009 Y93.786 E2.58654 F378.000
G1 X90.253 Y93.786 E2.77861 F378.000
G1 X91.429 Y93.866 E2.83191
G1 X92.397 Y94.113 E2.87711
G1 X93.146 Y94.537 E2.91609
G1 X93.677 Y95.139 E2.95241
G1 X93.992 Y95.902 E2.98977
G1 X94.096 Y96.831 E3.03203
G1 X93.642 Y98.445 E3.10792
G1 X92.271 Y99.420 E3.18404
G1 X90.099 Y99.729 E3.28334
G1 X86.240 Y99.729 E3.45795
G1 X86.240 Y100.895 F7800.000
G1 X89.711 Y100.895 E3.61505 F378.000
G1 X90.750 Y100.967 E3.66213
G1 X91.620 Y101.188 E3.70279
G1 X92.315 Y101.567 E3.73862
G1 X92.820 Y102.117 E3.77238
G1 X93.120 Y102.825 E3.80719
G1 X93.217 Y103.676 E3.84594
G1 X93.116 Y104.489 E3.88302
G1 X92.800 Y105.154 E3.91631
G1 X92.273 Y105.643 E3.94885
G1 X91.573 Y105.966 E3.98376
G1 X90.717 Y106.153 E4.02338
G1 X89.711 Y106.214 E4.06902
G1 X86.009 Y106.214 E4.23652
G1 X86.009 Y100.895 E4.47720
G1 X91.871 Y100.912 F7800.000
G1 X92.600 Y101.227 E4.55501 F540.000
G1 X91.931 Y99.839 F7800.000
G1 X92.367 Y99.763 E4.59846 F540.000
G1 X92.788 Y99.589 E4.64306
G1 X92.992 Y99.394 F7800.000
G1 X93.295 Y99.697 E4.66265 F540.000
G1 X93.679 Y99.530 E4.68179
G1 X93.169 Y99.019 E4.71480
G1 X93.491 Y98.790 E4.73286
G1 X94.058 Y99.357 E4.76952
G1 X94.368 Y99.117 E4.78747
G1 X93.813 Y98.561 E4.82337
G1 X93.943 Y98.140 E4.84351
G1 X94.677 Y98.875 E4.89099
G1 X94.914 Y98.561 E4.90898
G1 X94.064 Y97.710 E4.96396
G1 X94.185 Y97.280 E4.98438
G1 X95.145 Y98.241 E5.04648
G1 X95.300 Y97.844 E5.06593
G1 X94.306 Y96.850 E5.13020
G1 X94.269 Y96.263 E5.15709
G1 X95.427 Y97.420 E5.23189
G1 X95.483 Y96.926 E5.25465
G1 X94.148 Y95.591 E5.34095
G1 X94.939 Y94.729 F7800.000
G1 X94.001 Y93.791 E5.40164 F540.000
G1 X92.873 Y93.214 F7800.000
G1 X95.371 Y95.711 E5.56309 F540.000
G1 X95.454 Y96.346 E5.59233
G1 X92.114 Y93.006 E5.80825
G1 X91.453 Y92.895 E5.83891
G1 X92.419 Y93.862 E5.90139
G1 X91.679 Y93.673 E5.93628
G1 X90.856 Y92.849 E5.98954
G1 X90.259 Y92.804 E6.01691
G1 X91.064 Y93.609 E6.06899
G1 X90.473 Y93.569 E6.09608
G1 X89.707 Y92.803 E6.14559
G1 X89.156 Y92.803 E6.17077
G1 X89.913 Y93.560 E6.21972
G1 X89.362 Y93.560 E6.24491
G1 X88.605 Y92.803 E6.29386
G1 X88.054 Y92.803 E6.31905
G1 X88.811 Y93.560 E6.36799
G1 X88.260 Y93.560 E6.39318
G1 X87.503 Y92.803 E6.44213
G1 X86.952 Y92.803 E6.46732
G1 X87.709 Y93.560 E6.51626
G1 X87.158 Y93.560 E6.54145
G1 X86.401 Y92.803 E6.59040
G1 X85.850 Y92.803 E6.61559
G1 X86.607 Y93.560 E6.66454
G1 X86.056 Y93.560 E6.68972
G1 X85.299 Y92.803 E6.73867
G1 X84.748 Y92.803 E6.76386
G1 X85.783 Y93.837 E6.83073
G1 X85.783 Y94.388 E6.85592
G1 X84.614 Y93.219 E6.93151
G1 X84.614 Y93.770 E6.95669
G1 X85.783 Y94.939 E7.03228
G1 X85.783 Y95.490 E7.05747
G1 X84.614 Y94.321 E7.13305
G1 X84.614 Y94.872 E7.15824
G1 X85.783 Y96.041 E7.23382
G1 X85.783 Y96.592 E7.25901
G1 X84.614 Y95.423 E7.33460
G1 X84.614 Y95.974 E7.35978
G1 X85.783 Y97.143 E7.43537
G1 X85.783 Y97.694 E7.46056
G1 X84.614 Y96.525 E7.53614
G1 X84.614 Y97.076 E7.56133
G1 X85.783 Y98.245 E7.63692
G1 X85.783 Y98.796 E7.66210
G1 X84.614 Y97.627 E7.73769
G1 X84.614 Y98.178 E7.76288
G1 X85.783 Y99.347 E7.83846
G1 X85.783 Y99.898 E7.86365
G1 X84.614 Y98.729 E7.93923
G1 X84.614 Y99.280 E7.96442
G1 X86.003 Y100.669 E8.05424
G1 X85.783 Y101.000 F7800.000
G1 X84.614 Y99.831 E8.12982 F540.000
G1 X84.614 Y100.382 E8.15501
G1 X85.783 Y101.551 E8.23059
G1 X85.783 Y102.102 E8.25578
G1 X84.614 Y100.933 E8.33137
G1 X84.614 Y101.484 E8.35655
G1 X85.783 Y102.653 E8.43214
G1 X85.783 Y103.204 E8.45733
G1 X84.614 Y102.035 E8.53291
G1 X84.614 Y102.586 E8.55810
G1 X85.783 Y103.755 E8.63369
G1 X85.783 Y104.306 E8.65887
G1 X84.614 Y103.137 E8.73446
G1 X84.614 Y103.688 E8.75965
G1 X85.783 Y104.857 E8.83523
G1 X85.783 Y105.408 E8.86042
G1 X84.614 Y104.239 E8.93600
G1 X84.614 Y104.790 E8.96119
G1 X85.783 Y105.959 E9.03678
G1 X85.713 Y106.440 E9.05901
G1 X86.470 Y107.197 E9.10796
G1 X87.021 Y107.197 E9.13314
G1 X86.264 Y106.440 E9.18209
G1 X85.783 Y106.510 E9.20432
G1 X84.614 Y105.341 E9.27991
G1 X84.614 Y105.892 E9.30510
G1 X85.919 Y107.197 E9.38950
G1 X85.368 Y107.197 E9.41469
G1 X84.614 Y106.442 E9.46347
G1 X84.614 Y106.993 E9.48866
G1 X84.817 Y107.197 E9.50182
G1 X86.815 Y106.440 F7800.000
G1 X87.572 Y107.197 E9.55077 F540.000
G1 X88.123 Y107.197 E9.57596
G1 X87.366 Y106.440 E9.62491
G1 X87.917 Y106.440 E9.65009
G1 X88.674 Y107.197 E9.69904
G1 X89.225 Y107.197 E9.72423
G1 X88.468 Y106.440 E9.77318
G1 X89.019 Y106.440 E9.79836
G1 X89.773 Y107.194 E9.84711
G1 X90.257 Y107.127 E9.86944
G1 X89.570 Y106.440 E9.91383
G1 X90.093 Y106.412 E9.93779
G1 X90.740 Y107.060 E9.97963
G1 X91.224 Y106.992 E10.00196
G1 X90.613 Y106.381 E10.04149
G1 X91.073 Y106.290 E10.06295
G1 X91.708 Y106.925 E10.10398
G1 X92.192 Y106.858 E10.12631
G1 X91.525 Y106.191 E10.16941
G1 X91.913 Y106.028 E10.18864
G1 X92.641 Y106.756 E10.23569
G1 X92.966 Y106.530 E10.25379
G1 X92.291 Y105.855 E10.29746
G1 X92.594 Y105.608 E10.31536
G1 X93.291 Y106.305 E10.36042
G1 X93.616 Y106.079 E10.37852
G1 X92.880 Y105.342 E10.42614
G1 X93.092 Y105.003 E10.44442
G1 X93.942 Y105.853 E10.49936
G1 X94.162 Y105.523 E10.51752
G1 X93.269 Y104.630 E10.57527
G1 X93.372 Y104.182 E10.59628
G1 X94.286 Y105.095 E10.65533
G1 X94.409 Y104.667 E10.67568
G1 X93.433 Y103.692 E10.73874
G1 X93.388 Y103.096 E10.76608
G1 X94.532 Y104.240 E10.84004
G1 X94.594 Y103.751 E10.86256
G1 X93.215 Y102.371 E10.95176
G1 X92.758 Y101.364 F7800.000
G1 X94.494 Y103.100 E11.06400 F540.000
G1 X91.684 Y100.840 F7800.000
G1 X90.704 Y99.860 E11.12736 F540.000
G1 X91.186 Y99.792 E11.14963
G1 X91.782 Y100.387 E11.18812
G1 X91.089 Y100.796 F7800.000
G1 X90.221 Y99.929 E11.24420 F540.000
G1 X89.697 Y99.955 E11.26823
G1 X90.456 Y100.714 E11.31730
G1 X89.864 Y100.673 E11.34442
G1 X89.146 Y99.955 E11.39085
G1 X88.595 Y99.955 E11.41604
G1 X89.309 Y100.669 E11.46221
G1 X88.758 Y100.669 E11.48740
G1 X88.044 Y99.955 E11.53357
G1 X87.493 Y99.955 E11.55875
G1 X88.207 Y100.669 E11.60492
G1 X87.656 Y100.669 E11.63011
G1 X86.942 Y99.955 E11.67628
G1 X86.391 Y99.955 E11.70146
G1 X87.105 Y100.669 E11.74763
G1 X86.554 Y100.669 E11.77282
G1 X85.840 Y99.955 E11.81899
M106 S255
G92 E0
G1 Z0.600 F7800.000
G1 X114.744 Y107.648 F7800.000
G1 X110.331 Y96.562 E3.57549 F600.000
G1 X109.385 Y94.013 E4.39000
G1 X108.945 Y93.349 E4.62869
G1 X108.518 Y93.316 E4.75724
G1 X108.143 Y93.353 E4.87012
G1 X107.712 Y94.010 E5.10552
G1 X106.767 Y96.558 E5.91986
G1 X102.340 Y107.648 E9.49798
G92 E0
G1 X101.247 Y107.648 F7800.000
G1 X98.077 Y106.145 F7800.000
G1 X97.227 Y106.785 F7800.000
G1 X94.476 Y105.992 F7800.000
G1 X86.036 Y103.801 F7800.000
G1 X85.198 Y99.504 E1.31181 F600.000
G1 X85.198 Y94.011 E2.95776
G1 X85.271 Y93.461 E3.12413
G1 X86.234 Y93.181 E3.42438
G1 X90.302 Y93.182 E4.64347
G1 X91.599 Y93.283 E5.03310
G1 X91.839 Y93.322 E5.10601
G1 X92.735 Y93.575 E5.38510
G1 X93.016 Y93.691 E5.47618
G1 X93.445 Y93.932 E5.62358
G1 X93.881 Y94.254 E5.78597
G1 X94.215 Y94.615 E5.93341
G1 X94.416 Y94.875 E6.03188
G1 X94.780 Y95.689 E6.29910
G1 X94.904 Y96.695 E6.60295
G1 X94.866 Y97.093 E6.72260
G1 X94.815 Y97.351 E6.80140
G1 X94.616 Y97.944 E6.98890
G1 X94.324 Y98.533 E7.18599
G1 X93.917 Y98.969 E7.36455
G1 X93.808 Y99.050 E7.40539
G1 X93.072 Y99.466 E7.65870
G1 X92.537 Y99.699 E7.83357
G1 X92.202 Y99.792 E7.93766
G1 X91.347 Y100.308 E8.23701
G1 X90.549 Y101.178 E8.59081
G1 X85.356 Y100.312 F7800.000
G1 X90.199 Y100.324 E10.04216 F600.000
G1 X90.775 Y100.303 E10.21476
G1 X91.331 Y100.326 E10.38160
G1 X91.705 Y100.739 E10.54855
G1 X91.839 Y100.848 E10.60020
G1 X92.126 Y101.022 E10.70084
G1 X92.681 Y101.282 E10.88451
G1 X93.254 Y101.734 E11.10321
G1 X93.606 Y102.215 E11.28195
G1 X93.854 Y102.718 E11.44981
G1 X93.978 Y103.277 E11.62148
G1 X94.019 Y103.825 E11.78626
G1 X93.871 Y104.547 E12.00708
G1 X93.784 Y104.846 E12.10042
G1 X93.591 Y105.357 E12.26400
G1 X93.252 Y105.704 E12.40931
G1 X92.752 Y106.106 E12.60154
G1 X92.347 Y106.363 E12.74540
G1 X91.675 Y106.549 E12.95418
G1 X90.854 Y106.696 E13.20415
G1 X89.647 Y106.818 E13.56760
G1 X86.234 Y106.818 E14.59050
G1 X85.271 Y106.539 E14.89076
G1 X85.198 Y105.989 E15.05713
G1 X85.198 Y101.120 E16.51610
G1 X85.356 Y100.312 E16.76278
G92 E0
G1 Z0.900 F7800.000
G1 X114.744 Y107.648 F7800.000
G1 X110.331 Y96.562 E3.57549 F600.000
G1 X109.385 Y94.013 E4.39000
G1 X108.945 Y93.349 E4.62869
G1 X108.518 Y93.316 E4.75724
G1 X108.143 Y93.353 E4.87012
G1 X107.712 Y94.010 E5.10552
G1 X106.767 Y96.558 E5.91986
G1 X102.340 Y107.648 E9.49798
G92 E0
G1 X101.247 Y107.648 F7800.000
G1 X98.077 Y106.145 F7800.000
G1 X97.227 Y106.785 F7800.000
G1 X94.476 Y105.992 F7800.000
G1 X86.036 Y103.801 F7800.000
G1 X85.198 Y99.504 E1.31181 F600.000
G1 X85.198 Y94.011 E2.95776
G1 X85.271 Y93.461 E3.12413
G1 X86.234 Y93.181 E3.42438
G1 X90.302 Y93.182 E4.64347
G1 X91.599 Y93.283 E5.03310
G1 X91.839 Y93.322 E5.10601
G1 X92.735 Y93.575 E5.38510
G1 X93.016 Y93.691 E5.47618
G1 X93.445 Y93.932 E5.62358
G1 X93.881 Y94.254 E5.78597
G1 X94.215 Y94.615 E5.93341
G1 X94.416 Y94.875 E6.03188
G1 X94.780 Y95.689 E6.29910
G1 X94.904 Y96.695 E6.60295
G1 X94.866 Y97.093 E6.72260
G1 X94.815 Y97.351 E6.80140
G1 X94.616 Y97.944 E6.98890
G1 X94.324 Y98.533 E7.18599
G1 X93.917 Y98.969 E7.36455
G1 X93.808 Y99.050 E7.40539
G1 X93.072 Y99.466 E7.65870
G1 X92.537 Y99.699 E7.83357
G1 X92.202 Y99.792 E7.93766
G1 X91.347 Y100.308 E8.23702
G1 X90.549 Y101.178 E8.59081
G92 E0
G1 X85.356 Y100.312 F7800.000
G1 X90.199 Y100.324 E1.45135 F600.000
G1 X90.775 Y100.303 E1.62395
G1 X91.331 Y100.326 E1.79079
G1 X91.705 Y100.739 E1.95774
G1 X91.839 Y100.848 E2.00938
G1 X92.126 Y101.022 E2.11002
G1 X92.681 Y101.282 E2.29370
G1 X93.254 Y101.734 E2.51240
G1 X93.606 Y102.215 E2.69113
G1 X93.854 Y102.718 E2.85899
G1 X93.978 Y103.277 E3.03067
G1 X94.019 Y103.825 E3.19545
G1 X93.871 Y104.547 E3.41627
G1 X93.784 Y104.846 E3.50961
G1 X93.591 Y105.357 E3.67319
G1 X93.252 Y105.704 E3.81849
G1 X92.752 Y106.106 E4.01073
G1 X92.347 Y106.363 E4.15459
G1 X91.675 Y106.549 E4.36336
G1 X90.854 Y106.696 E4.61333
G1 X89.647 Y106.818 E4.97679
G1 X86.234 Y106.818 E5.99969
G1 X85.271 Y106.539 E6.29995
G1 X85.198 Y105.989 E6.46631
G1 X85.198 Y101.120 E7.92529
G1 X85.356 Y100.312 E8.17197
G92 E0
G1 Z1.200 F7800.000
G1 X114.744 Y107.648 F7800.000
G1 X110.331 Y96.562 E3.57549 F600.000
G1 X109.385 Y94.013 E4.39000
G1 X108.945 Y93.349 E4.62869
G1 X108.518 Y93.316 E4.75724
G1 X108.143 Y93.353 E4.87012
G1 X107.712 Y94.010 E5.10552
G1 X106.767 Y96.558 E5.91986
G1 X102.340 Y107.648 E9.49798
G92 E0
G1 X101.247 Y107.648 F7800.000
G1 X98.077 Y106.145 F7800.000
G1 X97.227 Y106.785 F7800.000
G1 X94.476 Y105.992 F7800.000
G1 X86.036 Y103.801 F7800.000
G1 X85.198 Y99.504 E1.31181 F600.000
G1 X85.198 Y94.011 E2.95776
