; generated by Slic3r 1.2.9 on 2016-03-11 at 01:23:00

; external perimeters extrusion width = 1.54mm
; perimeters extrusion width = 2.62mm
; infill extrusion width = 6.27mm
; solid infill extrusion width = 2.62mm
; top infill extrusion width = 2.62mm

M107
M104 S30 ; set temperature
G28 ; home all axes
G1 Z5 F5000 ; lift nozzle
M302
M92 E10000
M500
M501
G1 E100
M109 S30 ; wait for temperature to be reached
G21 ; set units to millimeters
G90 ; use absolute coordinates
M82 ; use absolute distances for extrusion
G92 E0
G1 Z0.300 F7800.000
G1 X115.603 Y96.737 F7800.000
G1 X114.433 Y95.102 E0.09097 F378.000
G1 X112.748 Y94.000 E0.18210
G1 X110.702 Y93.635 E0.27612
G1 X109.078 Y93.832 E0.35014
G1 X107.689 Y94.425 E0.41851
G1 X106.541 Y95.414 E0.48709
G1 X105.689 Y96.722 E0.55770
G1 X105.182 Y98.274 E0.63159
G1 X105.014 Y100.064 E0.71290
G1 X105.175 Y101.863 E0.79463
G1 X105.662 Y103.401 E0.86764
G1 X106.482 Y104.672 E0.93609
G1 X107.602 Y105.620 E1.00249
G1 X108.982 Y106.187 E1.07002
G1 X110.604 Y106.374 E1.14389
G1 X111.676 Y106.293 E1.19251
G1 X112.648 Y106.050 E1.23787
G1 X113.524 Y105.642 E1.28159
G1 X114.278 Y105.077 E1.32421
G1 X114.880 Y104.364 E1.36646
G1 X115.230 Y103.697 E1.40052
G1 X116.758 Y104.202 E1.47333
G1 X116.285 Y105.088 E1.51877
G1 X115.514 Y105.989 E1.57244
G1 X114.558 Y106.694 E1.62622
G1 X113.417 Y107.204 E1.68274
G1 X112.094 Y107.511 E1.74419
G1 X110.592 Y107.614 E1.81233
G1 X108.478 Y107.390 E1.90854
G1 X106.712 Y106.723 E1.99396
G1 X105.278 Y105.616 E2.07591
G1 X104.218 Y104.118 E2.15897
G1 X103.578 Y102.270 E2.24744
G1 X103.363 Y100.061 E2.34789
G1 X103.459 Y98.546 E2.41658
G1 X103.747 Y97.176 E2.47992
G1 X104.224 Y95.954 E2.53929
G1 X104.881 Y94.896 E2.59563
G1 X105.707 Y94.017 E2.65024
G1 X106.707 Y93.314 E2.70556
G1 X107.864 Y92.799 E2.76283
G1 X109.160 Y92.489 E2.82314
G1 X110.598 Y92.386 E2.88838
G1 X111.918 Y92.490 E2.94828
G1 X112.007 Y92.497 E2.95231 F378.000
G1 X113.290 Y92.829 E3.01228
G1 X114.451 Y93.381 E3.07046
G1 X115.470 Y94.143 E3.12804
G1 X116.326 Y95.107 E3.18640
G1 X116.907 Y96.088 E3.23795
G1 X115.810 Y96.634 E3.29341
G1 X115.566 Y94.704 F7800.000
G1 X115.067 Y94.204 E3.32537 F540.000
G1 X114.576 Y94.805 F7800.000
G1 X116.060 Y96.288 E3.42037 F540.000
G1 X116.424 Y96.107 E3.43879
G1 X113.582 Y93.266 E3.62069
G1 X113.147 Y93.922 F7800.000
G1 X111.970 Y92.745 E3.69605 F540.000
G1 X111.359 Y92.679 E3.72387
G1 X112.366 Y93.686 E3.78836
G1 X111.702 Y93.568 E3.81890
G1 X110.767 Y92.632 E3.87878
G1 X110.222 Y92.634 E3.90342
G1 X111.038 Y93.449 E3.95563
G1 X110.486 Y93.443 E3.98062
G1 X109.714 Y92.670 E4.03006
G1 X109.205 Y92.707 E4.05316
G1 X109.999 Y93.502 E4.10402
G1 X109.513 Y93.561 E4.12621
G1 X108.754 Y92.802 E4.17480
G1 X108.313 Y92.907 E4.19529
G1 X109.038 Y93.631 E4.24165
G1 X108.655 Y93.794 E4.26047
G1 X107.874 Y93.013 E4.31047
G1 X107.497 Y93.181 E4.32918
G1 X108.273 Y93.958 E4.37889
G1 X107.891 Y94.121 E4.39771
G1 X107.119 Y93.349 E4.44712
G1 X106.747 Y93.523 E4.46570
G1 X107.531 Y94.307 E4.51591
G1 X107.238 Y94.560 E4.53342
G1 X106.427 Y93.748 E4.58537
G1 X106.106 Y93.973 E4.60310
G1 X106.945 Y94.812 E4.65679
G1 X106.652 Y95.065 E4.67430
G1 X105.807 Y94.219 E4.72843
G1 X105.534 Y94.492 E4.74589
G1 X106.367 Y95.325 E4.79922
G1 X106.152 Y95.655 E4.81707
G1 X105.265 Y94.768 E4.87387
G1 X105.009 Y95.059 E4.89137
G1 X105.937 Y95.986 E4.95073
G1 X105.722 Y96.316 E4.96858
G1 X104.800 Y95.395 E5.02756
G1 X104.591 Y95.732 E5.04549
G1 X105.506 Y96.647 E5.10407
G1 X105.366 Y97.052 E5.12349
G1 X104.392 Y96.078 E5.18586
G1 X104.239 Y96.471 E5.20493
G1 X105.232 Y97.464 E5.26849
G1 X105.097 Y97.875 E5.28807
G1 X104.086 Y96.863 E5.35284
G1 X103.943 Y97.266 E5.37220
G1 X104.963 Y98.286 E5.43748
G1 X104.914 Y98.783 E5.46009
G1 X103.848 Y97.717 E5.52833
G1 X103.754 Y98.168 E5.54919
G1 X104.868 Y99.282 E5.62050
G1 X104.821 Y99.780 E5.64318
G1 X103.675 Y98.634 E5.71656
G1 X103.642 Y99.147 E5.73983
G1 X104.801 Y100.306 E5.81404
G1 X104.855 Y100.906 E5.84127
G1 X103.609 Y99.660 E5.92100
G1 X103.612 Y100.209 E5.94583
G1 X104.908 Y101.505 E6.02881
G1 X104.995 Y102.137 E6.05769
G1 X103.671 Y100.813 E6.14243
G1 X103.730 Y101.418 E6.16993
G1 X105.248 Y102.936 E6.26711
G1 X105.612 Y103.845 F7800.000
G1 X103.789 Y102.022 E6.38379 F540.000
G1 X104.040 Y102.819 E6.42159
G1 X108.245 Y107.024 E6.69080
G1 X108.973 Y107.206 E6.72475
G1 X107.720 Y105.953 E6.80498
G1 X107.369 Y106.693 F7800.000
G1 X104.329 Y103.653 E6.99959 F540.000
G1 X105.352 Y105.222 F7800.000
G1 X105.710 Y105.580 E7.02251 F540.000
G1 X108.646 Y106.333 F7800.000
G1 X109.583 Y107.271 E7.08251 F540.000
G1 X110.194 Y107.335 E7.11029
G1 X109.322 Y106.464 E7.16611
G1 X109.938 Y106.535 E7.19420
G1 X110.784 Y107.380 E7.24832
G1 X111.294 Y107.345 E7.27148
G1 X110.548 Y106.599 E7.31925
G1 X111.055 Y106.561 E7.34228
G1 X111.805 Y107.310 E7.39025
G1 X112.291 Y107.250 E7.41242
G1 X111.563 Y106.522 E7.45903
G1 X112.010 Y106.424 E7.47977
G1 X112.733 Y107.147 E7.52606
G1 X113.176 Y107.044 E7.54663
G1 X112.447 Y106.315 E7.59331
G1 X112.852 Y106.175 E7.61272
G1 X113.586 Y106.909 E7.65975
G1 X113.964 Y106.741 E7.67845
G1 X113.224 Y106.001 E7.72580
G1 X113.596 Y105.828 E7.74438
G1 X114.341 Y106.573 E7.79205
G1 X114.679 Y106.365 E7.81001
G1 X113.909 Y105.595 E7.85930
G1 X114.221 Y105.361 E7.87694
G1 X114.993 Y106.133 E7.92638
G1 X115.303 Y105.898 E7.94401
G1 X114.508 Y105.103 E7.99492
G1 X114.758 Y104.807 E8.01244
G1 X115.574 Y105.623 E8.06470
G1 X115.825 Y105.329 E8.08222
G1 X115.008 Y104.511 E8.13457
G1 X115.207 Y104.166 E8.15265
G1 X116.077 Y105.035 E8.20833
G1 X116.275 Y104.688 E8.22643
G1 X115.714 Y104.126 E8.26240
G92 E0
G1 X115.611 Y104.639 F7800.000
G1 X115.611 Y104.639 F7800.000
G1 X114.723 Y94.952 F7800.000
G1 X112.706 Y92.935 E0.12914 F540.000
G92 E0
G1 X104.701 Y94.758 F7800.000
G1 X98.798 Y100.064 F7800.000
G1 X100.334 Y105.825 F7800.000
G1 X98.241 Y107.037 F7800.000
G1 X97.005 Y107.607 F7800.000
G1 X95.308 Y106.155 F7800.000
G1 X85.666 Y106.195 F7800.000
G1 X84.917 Y105.616 E0.04282 F378.000
G1 X83.857 Y104.118 E0.12588
G1 X83.217 Y102.270 E0.21435
G1 X83.002 Y100.061 E0.31480
G1 X83.098 Y98.546 E0.38349
G1 X83.386 Y97.176 E0.44683
G1 X83.863 Y95.954 E0.50620
G1 X84.520 Y94.896 E0.56254
G1 X85.347 Y94.017 E0.61715
G1 X86.347 Y93.314 E0.67247
G1 X87.503 Y92.799 E0.72974
G1 X88.799 Y92.489 E0.79005
G1 X90.237 Y92.386 E0.85529
G1 X91.557 Y92.490 E0.91519
G1 X91.646 Y92.497 E0.91922 F378.000
G1 X92.929 Y92.829 E0.97919
G1 X94.090 Y93.381 E1.03737
G1 X95.110 Y94.143 E1.09495
G1 X95.965 Y95.107 E1.15331
G1 X96.546 Y96.088 E1.20486
G1 X95.243 Y96.737 E1.27077
G1 X94.073 Y95.102 E1.36174
G1 X92.387 Y94.000 E1.45288
G1 X90.342 Y93.635 E1.54690
G1 X88.718 Y93.832 E1.62092
G1 X87.328 Y94.425 E1.68929
G1 X86.180 Y95.414 E1.75786
G1 X85.329 Y96.722 E1.82848
G1 X84.821 Y98.274 E1.90237
G1 X84.653 Y100.064 E1.98368
G1 X84.814 Y101.863 E2.06541
G1 X85.302 Y103.401 E2.13842
G1 X86.121 Y104.672 E2.20687
G1 X87.241 Y105.620 E2.27326
G1 X88.622 Y106.187 E2.34079
G1 X90.244 Y106.374 E2.41467
G1 X91.315 Y106.293 E2.46329
G1 X92.288 Y106.050 E2.50865
G1 X93.163 Y105.642 E2.55237
G1 X93.917 Y105.077 E2.59499
G1 X94.520 Y104.364 E2.63724
G1 X94.870 Y103.697 E2.67129
G1 X96.398 Y104.202 E2.74411
G1 X95.925 Y105.088 E2.78955
G1 X95.154 Y105.989 E2.84321
G1 X94.197 Y106.694 E2.89699
G1 X93.056 Y107.204 E2.95352
G1 X91.734 Y107.511 E3.01497
G1 X90.231 Y107.614 E3.08311
G1 X88.117 Y107.390 E3.17932
G1 X86.351 Y106.723 E3.26474
G1 X85.849 Y106.336 E3.29341
G1 X85.349 Y105.580 F7800.000
G1 X84.991 Y105.222 E3.31633 F540.000
G1 X85.251 Y103.845 F7800.000
G1 X83.428 Y102.022 E3.43302 F540.000
G1 X83.679 Y102.819 E3.47082
G1 X87.884 Y107.024 E3.74004
G1 X88.612 Y107.206 E3.77399
G1 X87.359 Y105.953 E3.85420
G1 X87.008 Y106.693 F7800.000
G1 X83.968 Y103.653 E4.04882 F540.000
G1 X84.887 Y102.936 F7800.000
G1 X83.369 Y101.418 E4.14600 F540.000
G1 X83.311 Y100.813 E4.17349
G1 X84.634 Y102.137 E4.25824
G1 X84.548 Y101.505 E4.28712
G1 X83.252 Y100.209 E4.37009
G1 X83.249 Y99.660 E4.39492
G1 X84.494 Y100.906 E4.47465
G1 X84.440 Y100.306 E4.50189
G1 X83.281 Y99.147 E4.57610
G1 X83.314 Y98.634 E4.59937
G1 X84.460 Y99.780 E4.67276
G1 X84.507 Y99.282 E4.69544
G1 X83.393 Y98.168 E4.76675
G1 X83.488 Y97.717 E4.78760
G1 X84.554 Y98.783 E4.85584
G1 X84.602 Y98.286 E4.87846
G1 X83.582 Y97.266 E4.94373
G1 X83.725 Y96.863 E4.96309
G1 X84.737 Y97.875 E5.02785
G1 X84.871 Y97.463 E5.04743
G1 X83.878 Y96.471 E5.11100
G1 X84.031 Y96.078 E5.13007
G1 X85.005 Y97.052 E5.19243
G1 X85.146 Y96.647 E5.21185
G1 X84.231 Y95.732 E5.27042
G1 X84.440 Y95.395 E5.28836
G1 X85.361 Y96.316 E5.34733
G1 X85.576 Y95.986 E5.36518
G1 X84.649 Y95.059 E5.42455
G1 X84.904 Y94.768 E5.44205
G1 X85.791 Y95.656 E5.49885
G1 X86.006 Y95.325 E5.51670
G1 X85.173 Y94.492 E5.57003
G1 X85.446 Y94.219 E5.58749
G1 X86.291 Y95.065 E5.64162
G1 X86.584 Y94.812 E5.65913
G1 X85.746 Y93.973 E5.71282
G1 X86.066 Y93.748 E5.73055
G1 X86.877 Y94.560 E5.78250
G1 X87.170 Y94.307 E5.80001
G1 X86.386 Y93.523 E5.85022
G1 X86.758 Y93.349 E5.86880
G1 X87.530 Y94.121 E5.91821
G1 X87.912 Y93.958 E5.93703
G1 X87.136 Y93.181 E5.98673
G1 X87.513 Y93.013 E6.00544
G1 X88.294 Y93.794 E6.05545
G1 X88.677 Y93.631 E6.07426
G1 X87.953 Y92.907 E6.12062
G1 X88.393 Y92.802 E6.14112
G1 X89.152 Y93.561 E6.18971
G1 X89.638 Y93.502 E6.21189
G1 X88.844 Y92.707 E6.26276
G1 X89.353 Y92.670 E6.28585
G1 X90.125 Y93.443 E6.33529
G1 X90.677 Y93.449 E6.36028
G1 X89.862 Y92.634 E6.41249
G1 X90.406 Y92.632 E6.43712
G1 X91.341 Y93.568 E6.49701
G1 X92.005 Y93.686 E6.52755
G1 X90.998 Y92.679 E6.59203
G1 X91.609 Y92.745 E6.61986
G1 X92.786 Y93.922 E6.69521
G1 X93.222 Y93.266 F7800.000
G1 X96.063 Y96.107 E6.87711 F540.000
G1 X95.699 Y96.288 E6.89553
G1 X94.215 Y94.805 E6.99051
G1 X94.363 Y94.952 F7800.000
G1 X92.345 Y92.935 E7.11964 F540.000
G1 X94.706 Y94.204 F7800.000
G1 X95.205 Y94.704 E7.15162 F540.000
G92 E0
G1 X95.250 Y104.639 F7800.000
G1 X95.250 Y104.639 F7800.000
G1 X95.353 Y104.126 F7800.000
G1 X95.915 Y104.688 E0.03597 F540.000
G1 X95.716 Y105.035 E0.05407
G1 X94.847 Y104.166 E0.10974
G1 X94.647 Y104.511 E0.12782
G1 X95.465 Y105.329 E0.18018
G1 X95.213 Y105.623 E0.19769
G1 X94.397 Y104.807 E0.24995
G1 X94.147 Y105.103 E0.26748
G1 X94.942 Y105.898 E0.31839
G1 X94.632 Y106.133 E0.33601
G1 X93.860 Y105.361 E0.38546
G1 X93.548 Y105.595 E0.40310
G1 X94.318 Y106.365 E0.45239
G1 X93.980 Y106.573 E0.47035
G1 X93.236 Y105.828 E0.51801
G1 X92.863 Y106.001 E0.53660
G1 X93.603 Y106.741 E0.58395
G1 X93.226 Y106.909 E0.60265
G1 X92.491 Y106.175 E0.64967
G1 X92.086 Y106.315 E0.66908
G1 X92.815 Y107.044 E0.71576
G1 X92.373 Y107.147 E0.73634
G1 X91.650 Y106.424 E0.78262
G1 X91.202 Y106.522 E0.80337
G1 X91.930 Y107.250 E0.84998
G1 X91.444 Y107.310 E0.87214
G1 X90.695 Y106.561 E0.92011
G1 X90.187 Y106.599 E0.94314
G1 X90.933 Y107.345 E0.99091
G1 X90.423 Y107.380 E1.01407
G1 X89.578 Y106.535 E1.06819
G1 X88.961 Y106.464 E1.09628
G1 X89.833 Y107.335 E1.15209
G1 X89.222 Y107.271 E1.17988
G1 X88.285 Y106.334 E1.23988
M106 S255
G92 E0
G1 Z0.600 F7800.000
G1 X95.848 Y103.783 F7800.000
G1 X95.091 Y104.879 E0.39909 F600.000
G1 X94.628 Y105.424 E0.61327
G1 X94.504 Y105.540 E0.66423
G1 X93.827 Y106.059 E0.91980
G1 X93.434 Y106.278 E1.05466
G1 X92.837 Y106.551 E1.25121
G1 X92.424 Y106.685 E1.38131
G1 X91.638 Y106.874 E1.62348
G1 X91.343 Y106.915 E1.71288
G1 X90.243 Y106.992 E2.04329
G1 X88.581 Y106.811 E2.54418
G1 X88.269 Y106.749 E2.63946
G1 X87.018 Y106.256 E3.04241
G1 X86.702 Y106.095 E3.14884
G1 X85.668 Y105.260 E3.54707
G1 X85.475 Y105.081 E3.62574
G1 X84.648 Y103.857 E4.06830
G1 X84.579 Y103.747 E4.10737
G1 X84.530 Y103.614 E4.14996
G1 X84.026 Y102.094 E4.62983
G1 X83.829 Y100.047 E5.24586
G1 X83.937 Y98.660 E5.66270
G1 X84.050 Y97.996 E5.86469
G1 X84.205 Y97.420 E6.04323
G1 X84.606 Y96.325 E6.39259
G1 X85.186 Y95.408 E6.71790
G1 X85.499 Y95.010 E6.86979
G1 X85.873 Y94.624 E7.03066
G1 X86.717 Y93.966 E7.35121
G1 X87.082 Y93.761 E7.47683
G1 X87.733 Y93.477 E7.68948
G1 X88.433 Y93.246 E7.91034
G1 X88.901 Y93.144 E8.05389
G1 X90.235 Y93.015 E8.45567
G1 X90.484 Y93.029 E8.53032
G1 X91.534 Y93.164 E8.84758
G1 X92.454 Y93.364 E9.12967
G1 X92.707 Y93.440 E9.20884
G1 X93.715 Y94.003 E9.55475
G1 X94.419 Y94.496 E9.81218
G1 X94.628 Y94.666 E9.89305
G1 X95.343 Y95.561 E10.23635
G1 X96.021 Y96.600 E10.60817
G92 E0
G1 X105.968 Y91.705 F7800.000
G1 X112.127 Y91.219 F7800.000
G1 X116.892 Y92.279 F7800.000
G1 X118.149 Y95.633 F7800.000
G1 X110.580 Y100.778 F7800.000
G1 X110.895 Y101.459 F7800.000
G1 X111.309 Y101.945 F7800.000
G1 X113.408 Y105.448 F7800.000
G1 X116.209 Y103.783 F7800.000
G1 X115.452 Y104.879 E0.39907 F600.000
G1 X114.989 Y105.424 E0.61327
G1 X114.864 Y105.540 E0.66419
G1 X114.187 Y106.059 E0.91981
G1 X113.795 Y106.278 E1.05467
G1 X113.198 Y106.550 E1.25119
G1 X112.785 Y106.685 E1.38132
G1 X111.999 Y106.874 E1.62349
G1 X111.704 Y106.915 E1.71289
G1 X110.604 Y106.992 E2.04330
G1 X108.942 Y106.811 E2.54416
G1 X108.630 Y106.749 E2.63944
G1 X107.379 Y106.256 E3.04239
G1 X107.062 Y106.095 E3.14885
G1 X106.029 Y105.260 E3.54706
G1 X105.836 Y105.081 E3.62575
G1 X105.009 Y103.857 E4.06831
G1 X104.940 Y103.747 E4.10737
G1 X104.890 Y103.614 E4.14996
G1 X104.387 Y102.094 E4.62983
G1 X104.190 Y100.047 E5.24586
G1 X104.298 Y98.660 E5.66270
G1 X104.411 Y97.996 E5.86470
G1 X104.565 Y97.420 E6.04324
G1 X104.966 Y96.326 E6.39258
G1 X105.547 Y95.408 E6.71790
G1 X105.860 Y95.010 E6.86976
G1 X106.234 Y94.624 E7.03068
G1 X107.077 Y93.966 E7.35120
G1 X107.443 Y93.761 E7.47684
G1 X108.093 Y93.477 E7.68949
G1 X108.793 Y93.246 E7.91035
G1 X109.261 Y93.144 E8.05388
G1 X110.596 Y93.015 E8.45566
G1 X110.845 Y93.029 E8.53030
G1 X111.895 Y93.164 E8.84756
G1 X112.815 Y93.364 E9.12965
G1 X113.068 Y93.440 E9.20882
G1 X114.075 Y94.003 E9.55475
G1 X114.779 Y94.496 E9.81217
G1 X114.989 Y94.666 E9.89306
G1 X115.704 Y95.561 E10.23633
G1 X116.382 Y96.600 E10.60816
G92 E0
G1 Z0.900 F7800.000
G1 X95.848 Y103.783 F7800.000
G1 X95.091 Y104.879 E0.39909 F600.000
G1 X94.628 Y105.424 E0.61327
G1 X94.504 Y105.540 E0.66423
G1 X93.827 Y106.059 E0.91980
G1 X93.434 Y106.278 E1.05466
G1 X92.837 Y106.551 E1.25121
G1 X92.424 Y106.685 E1.38131
G1 X91.638 Y106.874 E1.62348
G1 X91.343 Y106.915 E1.71288
G1 X90.243 Y106.992 E2.04329
G1 X88.581 Y106.811 E2.54418
G1 X88.269 Y106.749 E2.63946
G1 X87.018 Y106.256 E3.04241
G1 X86.702 Y106.095 E3.14884
G1 X85.668 Y105.260 E3.54707
G1 X85.475 Y105.081 E3.62574
G1 X84.648 Y103.857 E4.06830
G1 X84.579 Y103.747 E4.10737
G1 X84.530 Y103.614 E4.14996
G1 X84.026 Y102.094 E4.62983
G1 X83.829 Y100.047 E5.24586
G1 X83.937 Y98.660 E5.66270
G1 X84.050 Y97.996 E5.86469
G1 X84.205 Y97.420 E6.04323
G1 X84.606 Y96.325 E6.39259
G1 X85.186 Y95.408 E6.71790
G1 X85.499 Y95.010 E6.86979
G1 X85.873 Y94.624 E7.03066
G1 X86.717 Y93.966 E7.35122
G1 X87.082 Y93.761 E7.47683
G1 X87.733 Y93.477 E7.68948
G1 X88.433 Y93.246 E7.91034
G1 X88.901 Y93.144 E8.05389
G1 X90.235 Y93.015 E8.45568
G1 X90.484 Y93.029 E8.53032
G1 X91.534 Y93.164 E8.84758
G1 X92.454 Y93.364 E9.12967
G1 X92.707 Y93.440 E9.20884
G1 X93.715 Y94.003 E9.55475
G1 X94.419 Y94.496 E9.81218
G1 X94.628 Y94.666 E9.89305
G1 X95.343 Y95.561 E10.23635
G1 X96.021 Y96.600 E10.60817
G92 E0
G1 X105.968 Y91.705 F7800.000
G1 X117.164 Y92.609 F7800.000
G1 X117.841 Y97.419 F7800.000
G1 X110.566 Y100.905 F7800.000
G1 X110.895 Y101.459 F7800.000
G1 X111.309 Y101.945 F7800.000
G1 X113.408 Y105.448 F7800.000
G1 X116.209 Y103.783 F7800.000
G1 X115.452 Y104.879 E0.39907 F600.000
G1 X114.989 Y105.424 E0.61327
G1 X114.864 Y105.540 E0.66419
G1 X114.187 Y106.059 E0.91981
G1 X113.795 Y106.278 E1.05467
G1 X113.198 Y106.550 E1.25120
G1 X112.785 Y106.685 E1.38132
G1 X111.999 Y106.874 E1.62349
G1 X111.704 Y106.915 E1.71289
G1 X110.604 Y106.992 E2.04330
G1 X108.942 Y106.811 E2.54416
G1 X108.630 Y106.749 E2.63944
G1 X107.379 Y106.256 E3.04239
G1 X107.062 Y106.095 E3.14885
G1 X106.029 Y105.260 E3.54706
G1 X105.836 Y105.081 E3.62575
G1 X105.009 Y103.857 E4.06831
G1 X104.940 Y103.747 E4.10737
G1 X104.890 Y103.614 E4.14996
G1 X104.387 Y102.094 E4.62983
G1 X104.190 Y100.047 E5.24586
