; generated by Slic3r 1.2.9 on 2016-03-11 at 01:23:03

; external perimeters extrusion width = 1.54mm
; perimeters extrusion width = 2.62mm
; infill extrusion width = 6.27mm
; solid infill extrusion width = 2.62mm
; top infill extrusion width = 2.62mm

M107
M104 S30 ; set temperature
G28 ; home all axes
G1 Z5 F5000 ; lift nozzle
M302
M92 E10000
M500
M501
G1 E100
M109 S30 ; wait for temperature to be reached
G21 ; set units to millimeters
G90 ; use absolute coordinates
M82 ; use absolute distances for extrusion
G92 E0
G1 Z0.300 F7800.000
G1 X94.784 Y93.107 F7800.000
G1 X95.359 Y93.381 E0.02882 F378.000
G1 X96.379 Y94.143 E0.08640
G1 X97.234 Y95.107 E0.14476
G1 X97.815 Y96.088 E0.19631
G1 X96.512 Y96.737 E0.26222
G1 X95.342 Y95.102 E0.35319
G1 X93.656 Y94.000 E0.44432
G1 X91.611 Y93.635 E0.53834
G1 X89.987 Y93.832 E0.61237
G1 X88.597 Y94.425 E0.68074
G1 X87.449 Y95.414 E0.74931
G1 X86.598 Y96.722 E0.81993
G1 X86.090 Y98.274 E0.89381
G1 X85.922 Y100.064 E0.97513
G1 X86.083 Y101.863 E1.05686
G1 X86.571 Y103.401 E1.12987
G1 X87.390 Y104.672 E1.19831
G1 X88.510 Y105.620 E1.26471
G1 X89.891 Y106.187 E1.33224
G1 X91.513 Y106.374 E1.40612
G1 X92.584 Y106.293 E1.45474
G1 X93.557 Y106.050 E1.50010
G1 X94.432 Y105.642 E1.54382
G1 X95.186 Y105.077 E1.58643
G1 X95.789 Y104.364 E1.62869
G1 X96.139 Y103.697 E1.66274
G1 X97.667 Y104.202 E1.73555
G1 X97.194 Y105.088 E1.78100
G1 X96.423 Y105.989 E1.83466
G1 X95.466 Y106.694 E1.88844
G1 X94.325 Y107.204 E1.94497
G1 X93.003 Y107.511 E2.00642
G1 X91.500 Y107.614 E2.07456
G1 X89.386 Y107.390 E2.17076
G1 X87.620 Y106.723 E2.25618
G1 X86.186 Y105.616 E2.33813
G1 X85.126 Y104.118 E2.42119
G1 X84.486 Y102.270 E2.50967
G1 X84.271 Y100.061 E2.61011
G1 X84.367 Y98.546 E2.67880
G1 X84.655 Y97.176 E2.74215
G1 X85.132 Y95.954 E2.80151
G1 X85.789 Y94.896 E2.85786
G1 X86.616 Y94.017 E2.91246
G1 X87.616 Y93.314 E2.96779
G1 X88.772 Y92.799 E3.02505
G1 X90.068 Y92.489 E3.08537
G1 X91.506 Y92.386 E3.15060
G1 X92.826 Y92.490 E3.21050
G1 X92.915 Y92.497 E3.21453 F378.000
G1 X94.198 Y92.829 E3.27451
G1 X94.575 Y93.008 E3.29341
G1 X94.491 Y93.266 F7800.000
G1 X97.332 Y96.107 E3.47532 F540.000
G1 X96.968 Y96.288 E3.49374
G1 X95.484 Y94.805 E3.58872
G1 X95.632 Y94.952 F7800.000
G1 X93.614 Y92.935 E3.71785 F540.000
G1 X94.055 Y93.922 F7800.000
G1 X92.878 Y92.745 E3.79320 F540.000
G1 X92.267 Y92.679 E3.82102
G1 X93.274 Y93.686 E3.88551
G1 X92.610 Y93.568 E3.91605
G1 X91.675 Y92.632 E3.97593
G1 X91.131 Y92.634 E4.00057
G1 X91.946 Y93.449 E4.05277
G1 X91.394 Y93.443 E4.07777
G1 X90.622 Y92.670 E4.12720
G1 X90.113 Y92.707 E4.15030
G1 X90.907 Y93.502 E4.20116
G1 X90.421 Y93.561 E4.22335
G1 X89.662 Y92.802 E4.27194
G1 X89.222 Y92.907 E4.29243
G1 X89.946 Y93.631 E4.33879
G1 X89.563 Y93.794 E4.35761
G1 X88.782 Y93.013 E4.40761
G1 X88.405 Y93.181 E4.42632
G1 X89.181 Y93.958 E4.47603
G1 X88.799 Y94.121 E4.49484
G1 X88.027 Y93.349 E4.54425
G1 X87.655 Y93.523 E4.56284
G1 X88.439 Y94.307 E4.61304
G1 X88.146 Y94.560 E4.63055
G1 X87.335 Y93.748 E4.68250
G1 X87.015 Y93.973 E4.70023
G1 X87.853 Y94.812 E4.75392
G1 X87.560 Y95.065 E4.77143
G1 X86.715 Y94.219 E4.82556
G1 X86.442 Y94.492 E4.84302
G1 X87.275 Y95.325 E4.89636
G1 X87.060 Y95.656 E4.91421
G1 X86.173 Y94.768 E4.97101
G1 X85.918 Y95.059 E4.98851
G1 X86.845 Y95.986 E5.04787
G1 X86.630 Y96.316 E5.06572
G1 X85.709 Y95.395 E5.12469
G1 X85.500 Y95.732 E5.14263
G1 X86.415 Y96.647 E5.20121
G1 X86.274 Y97.052 E5.22063
G1 X85.300 Y96.078 E5.28299
G1 X85.147 Y96.471 E5.30206
G1 X86.140 Y97.463 E5.36562
G1 X86.006 Y97.875 E5.38520
G1 X84.994 Y96.863 E5.44997
G1 X84.851 Y97.266 E5.46932
G1 X85.871 Y98.286 E5.53460
G1 X85.823 Y98.783 E5.55721
G1 X84.757 Y97.717 E5.62545
G1 X84.662 Y98.168 E5.64631
G1 X85.776 Y99.282 E5.71762
G1 X85.729 Y99.780 E5.74030
G1 X84.583 Y98.634 E5.81368
G1 X84.550 Y99.147 E5.83696
G1 X85.709 Y100.306 E5.91117
G1 X85.763 Y100.906 E5.93840
G1 X84.518 Y99.660 E6.01813
G1 X84.521 Y100.209 E6.04296
G1 X85.817 Y101.505 E6.12594
G1 X85.903 Y102.137 E6.15482
G1 X84.580 Y100.813 E6.23956
G1 X84.638 Y101.418 E6.26706
G1 X86.156 Y102.936 E6.36424
G1 X86.520 Y103.845 F7800.000
G1 X84.697 Y102.022 E6.48092 F540.000
G1 X84.948 Y102.819 E6.51872
G1 X89.153 Y107.024 E6.78794
G1 X89.881 Y107.206 E6.82189
G1 X88.628 Y105.953 E6.90211
G1 X88.277 Y106.693 F7800.000
G1 X85.237 Y103.653 E7.09672 F540.000
G1 X86.260 Y105.222 F7800.000
G1 X86.618 Y105.580 E7.11964 F540.000
G1 X89.554 Y106.334 F7800.000
G1 X90.491 Y107.271 E7.17964 F540.000
G1 X91.102 Y107.335 E7.20742
G1 X90.230 Y106.464 E7.26323
G1 X90.847 Y106.535 E7.29133
G1 X91.692 Y107.380 E7.34544
G1 X92.202 Y107.345 E7.36861
G1 X91.456 Y106.599 E7.41637
G1 X91.964 Y106.561 E7.43940
G1 X92.713 Y107.310 E7.48738
G1 X93.199 Y107.250 E7.50954
G1 X92.471 Y106.522 E7.55615
G1 X92.919 Y106.424 E7.57690
G1 X93.642 Y107.147 E7.62318
G1 X94.084 Y107.044 E7.64375
G1 X93.355 Y106.315 E7.69043
G1 X93.760 Y106.175 E7.70984
G1 X94.495 Y106.909 E7.75687
G1 X94.872 Y106.741 E7.77557
G1 X94.132 Y106.001 E7.82291
G1 X94.505 Y105.828 E7.84150
G1 X95.249 Y106.573 E7.88917
G1 X95.587 Y106.365 E7.90712
G1 X94.817 Y105.595 E7.95642
G1 X95.129 Y105.361 E7.97406
G1 X95.901 Y106.133 E8.02350
G1 X96.211 Y105.898 E8.04113
G1 X95.416 Y105.103 E8.09204
G1 X95.666 Y104.807 E8.10956
G1 X96.482 Y105.623 E8.16182
G1 X96.734 Y105.329 E8.17934
G1 X95.916 Y104.511 E8.23169
G1 X96.116 Y104.166 E8.24977
G1 X96.985 Y105.035 E8.30545
G1 X97.184 Y104.688 E8.32355
G1 X96.622 Y104.126 E8.35952
G92 E0
G1 X96.519 Y104.639 F7800.000
G1 X96.519 Y104.639 F7800.000
G1 X96.474 Y94.704 F7800.000
G1 X95.975 Y94.204 E0.03198 F540.000
G92 E0
G1 X98.132 Y96.181 F7800.000
G1 X102.906 Y92.352 F7800.000
G1 X109.361 Y92.352 F7800.000
G1 X113.747 Y94.367 F7800.000
G1 X116.824 Y98.575 F7800.000
G1 X115.121 Y103.122 F7800.000
G1 X110.003 Y103.122 F7800.000
G1 X107.169 Y105.956 F7800.000
G1 X112.734 Y107.423 F7800.000
G1 X105.323 Y107.423 E0.33536 F378.000
G1 X105.323 Y92.577 E1.00713
G1 X106.944 Y92.577 E1.08048
G1 X106.944 Y98.800 E1.36207
G1 X115.469 Y98.800 E1.74782 F378.000
G1 X115.469 Y100.063 E1.80497
G1 X106.944 Y100.063 E2.19072
G1 X106.944 Y106.181 E2.46755
G1 X115.730 Y106.181 E2.86511
G1 X115.730 Y107.423 E2.92131
G1 X112.965 Y107.423 E3.04641
G1 X115.504 Y106.583 F7800.000
G1 X115.328 Y106.407 E3.05767 F540.000
G1 X114.782 Y106.407 E3.08236
G1 X115.504 Y107.128 E3.12855
G1 X115.027 Y107.197 E3.15036
G1 X114.237 Y106.407 E3.20094
G1 X113.691 Y106.407 E3.22564
G1 X114.481 Y107.197 E3.27622
G1 X113.936 Y107.197 E3.30091
G1 X113.146 Y106.407 E3.35149
G1 X112.600 Y106.407 E3.37619
G1 X113.390 Y107.197 E3.42677
G1 X112.845 Y107.197 E3.45146
G1 X112.055 Y106.407 E3.50204
G1 X111.509 Y106.407 E3.52674
G1 X112.299 Y107.197 E3.57732
G1 X111.754 Y107.197 E3.60202
G1 X110.963 Y106.407 E3.65259
G1 X110.418 Y106.407 E3.67729
G1 X111.208 Y107.197 E3.72787
G1 X110.662 Y107.197 E3.75257
G1 X109.872 Y106.407 E3.80315
G1 X109.327 Y106.407 E3.82784
G1 X110.117 Y107.197 E3.87842
G1 X109.571 Y107.197 E3.90312
G1 X108.781 Y106.407 E3.95370
G1 X108.236 Y106.407 E3.97839
G1 X109.026 Y107.197 E4.02897
G1 X108.480 Y107.197 E4.05367
G1 X107.690 Y106.407 E4.10425
G1 X107.145 Y106.407 E4.12894
G1 X107.935 Y107.197 E4.17952
G1 X107.389 Y107.197 E4.20422
G1 X105.549 Y105.357 E4.32203
G1 X105.549 Y104.811 E4.34672
G1 X106.718 Y105.980 E4.42157
G1 X106.718 Y105.435 E4.44626
G1 X105.549 Y104.266 E4.52110
G1 X105.549 Y103.720 E4.54580
G1 X106.718 Y104.889 E4.62064
G1 X106.718 Y104.344 E4.64534
G1 X105.549 Y103.175 E4.72018
G1 X105.549 Y102.629 E4.74488
G1 X106.718 Y103.798 E4.81972
G1 X106.718 Y103.252 E4.84441
G1 X105.549 Y102.083 E4.91926
G1 X105.549 Y101.538 E4.94395
G1 X106.718 Y102.707 E5.01879
G1 X106.718 Y102.161 E5.04349
G1 X105.549 Y100.992 E5.11833
G1 X105.549 Y100.447 E5.14303
G1 X106.718 Y101.616 E5.21787
G1 X106.718 Y101.070 E5.24257
G1 X105.549 Y99.901 E5.31741
G1 X105.549 Y99.356 E5.34210
G1 X106.718 Y100.525 E5.41695
G1 X106.718 Y99.979 E5.44164
G1 X105.549 Y98.810 E5.51648
G1 X105.549 Y98.264 E5.54118
G1 X107.121 Y99.837 E5.64185
G1 X107.667 Y99.837 E5.66655
G1 X106.856 Y99.026 E5.71847
G1 X107.401 Y99.026 E5.74317
G1 X108.213 Y99.837 E5.79509
G1 X108.758 Y99.837 E5.81979
G1 X107.947 Y99.026 E5.87171
G1 X108.493 Y99.026 E5.89641
G1 X109.304 Y99.837 E5.94833
G1 X109.849 Y99.837 E5.97303
G1 X109.038 Y99.026 E6.02495
G1 X109.584 Y99.026 E6.04965
G1 X110.395 Y99.837 E6.10157
G1 X110.940 Y99.837 E6.12627
G1 X110.129 Y99.026 E6.17819
G1 X110.675 Y99.026 E6.20289
G1 X111.486 Y99.837 E6.25481
G1 X112.031 Y99.837 E6.27951
G1 X111.220 Y99.026 E6.33143
G1 X111.766 Y99.026 E6.35613
G1 X112.577 Y99.837 E6.40805
G1 X113.123 Y99.837 E6.43275
G1 X112.311 Y99.026 E6.48467
G1 X112.857 Y99.026 E6.50937
G1 X113.668 Y99.837 E6.56129
G1 X114.214 Y99.837 E6.58599
G1 X113.403 Y99.026 E6.63791
G1 X113.948 Y99.026 E6.66261
G1 X114.759 Y99.837 E6.71453
G1 X115.243 Y99.775 E6.73660
G1 X114.494 Y99.026 E6.78456
G1 X115.039 Y99.026 E6.80926
G1 X115.243 Y99.230 E6.82229
G1 X106.718 Y98.888 F7800.000
G1 X105.549 Y97.719 E6.89713 F540.000
G1 X105.549 Y97.173 E6.92183
G1 X106.718 Y98.342 E6.99667
G1 X106.718 Y97.797 E7.02137
G1 X105.549 Y96.628 E7.09621
G1 X105.549 Y96.082 E7.12091
G1 X106.718 Y97.251 E7.19575
G1 X106.718 Y96.706 E7.22044
G1 X105.549 Y95.537 E7.29529
G1 X105.549 Y94.991 E7.31998
G1 X106.718 Y96.160 E7.39482
G1 X106.718 Y95.615 E7.41952
G1 X105.549 Y94.446 E7.49436
G1 X105.549 Y93.900 E7.51906
G1 X106.718 Y95.069 E7.59390
G1 X106.718 Y94.523 E7.61860
G1 X105.549 Y93.354 E7.69344
G1 X105.566 Y92.826 E7.71737
G1 X106.718 Y93.978 E7.79112
G1 X106.718 Y93.432 E7.81582
G1 X106.088 Y92.803 E7.85611
G1 X105.549 Y106.993 F7800.000
G1 X105.752 Y107.197 E7.86915 F540.000
G1 X106.298 Y107.197 E7.89384
G1 X105.549 Y106.448 E7.94180
G1 X105.549 Y105.902 E7.96650
G1 X106.844 Y107.197 E8.04938
M106 S255
G92 E0
G1 Z0.600 F7800.000
G1 X97.117 Y103.783 F7800.000
G1 X96.360 Y104.879 E0.39909 F600.000
G1 X95.897 Y105.424 E0.61327
G1 X95.773 Y105.540 E0.66423
G1 X95.096 Y106.059 E0.91980
G1 X94.703 Y106.278 E1.05466
G1 X94.106 Y106.551 E1.25121
G1 X93.693 Y106.685 E1.38131
G1 X92.907 Y106.874 E1.62348
G1 X92.612 Y106.915 E1.71288
G1 X91.512 Y106.992 E2.04329
G1 X89.850 Y106.811 E2.54418
G1 X89.538 Y106.749 E2.63946
G1 X88.287 Y106.256 E3.04241
G1 X87.971 Y106.095 E3.14884
G1 X86.937 Y105.260 E3.54707
G1 X86.744 Y105.081 E3.62574
G1 X85.917 Y103.857 E4.06830
G1 X85.848 Y103.747 E4.10737
G1 X85.799 Y103.614 E4.14996
G1 X85.295 Y102.094 E4.62983
G1 X85.098 Y100.047 E5.24586
G1 X85.206 Y98.660 E5.66270
G1 X85.319 Y97.996 E5.86469
G1 X85.474 Y97.420 E6.04323
G1 X85.875 Y96.325 E6.39259
G1 X86.455 Y95.408 E6.71790
G1 X86.768 Y95.010 E6.86979
G1 X87.142 Y94.624 E7.03066
G1 X87.986 Y93.966 E7.35121
G1 X88.351 Y93.761 E7.47683
G1 X89.002 Y93.477 E7.68948
G1 X89.702 Y93.246 E7.91034
G1 X90.170 Y93.144 E8.05389
G1 X91.504 Y93.015 E8.45567
G1 X91.753 Y93.029 E8.53032
G1 X92.803 Y93.164 E8.84758
G1 X93.723 Y93.364 E9.12967
G1 X93.976 Y93.440 E9.20884
G1 X94.984 Y94.003 E9.55475
G1 X95.688 Y94.496 E9.81218
G1 X95.897 Y94.666 E9.89305
G1 X96.612 Y95.561 E10.23635
G1 X97.290 Y96.600 E10.60817
G92 E0
G1 X98.132 Y96.181 F7800.000
G1 X105.098 Y91.256 F7800.000
G1 X111.376 Y94.367 F7800.000
G1 X115.694 Y96.314 F7800.000
G1 X115.694 Y102.549 F7800.000
G1 X110.003 Y103.122 F7800.000
G1 X107.169 Y100.288 F7800.000
G1 X107.030 Y102.912 F7800.000
G1 X106.133 Y98.575 E1.32720 F600.000
G1 X106.133 Y92.352 E3.19190
G1 X106.169 Y93.352 F7800.000
G1 X106.133 Y93.387 F7800.000
G1 X106.133 Y106.612 F7800.000
G1 X106.169 Y106.648 F7800.000
G1 X115.955 Y106.802 F7800.000
G1 X107.169 Y106.802 E5.82459 F600.000
G1 X106.214 Y106.532 E6.12204
G1 X106.133 Y105.956 E6.29639
G1 X106.133 Y100.288 E7.99479
G1 X106.310 Y99.431 E8.25686
G1 X115.694 Y99.431 E11.06856
G92 E0
G1 Z0.900 F7800.000
G1 X97.117 Y103.783 F7800.000
G1 X96.360 Y104.879 E0.39909 F600.000
G1 X95.897 Y105.424 E0.61327
G1 X95.773 Y105.540 E0.66423
G1 X95.096 Y106.059 E0.91980
G1 X94.703 Y106.278 E1.05466
G1 X94.106 Y106.551 E1.25121
G1 X93.693 Y106.685 E1.38131
G1 X92.907 Y106.874 E1.62348
G1 X92.612 Y106.915 E1.71288
G1 X91.512 Y106.992 E2.04329
G1 X89.850 Y106.811 E2.54418
G1 X89.538 Y106.749 E2.63946
G1 X88.287 Y106.256 E3.04241
G1 X87.971 Y106.095 E3.14884
G1 X86.937 Y105.260 E3.54707
G1 X86.744 Y105.081 E3.62574
G1 X85.917 Y103.857 E4.06830
G1 X85.848 Y103.747 E4.10737
G1 X85.799 Y103.614 E4.14996
G1 X85.295 Y102.094 E4.62983
G1 X85.098 Y100.047 E5.24586
G1 X85.206 Y98.660 E5.66270
G1 X85.319 Y97.996 E5.86469
G1 X85.474 Y97.420 E6.04323
G1 X85.875 Y96.325 E6.39259
G1 X86.455 Y95.408 E6.71790
G1 X86.768 Y95.010 E6.86979
G1 X87.142 Y94.624 E7.03066
G1 X87.986 Y93.966 E7.35122
G1 X88.351 Y93.761 E7.47683
G1 X89.002 Y93.477 E7.68948
G1 X89.702 Y93.246 E7.91034
G1 X90.170 Y93.144 E8.05389
G1 X91.504 Y93.015 E8.45568
G1 X91.753 Y93.029 E8.53032
G1 X92.803 Y93.164 E8.84758
G1 X93.723 Y93.364 E9.12967
G1 X93.976 Y93.440 E9.20884
G1 X94.984 Y94.003 E9.55475
G1 X95.688 Y94.496 E9.81218
G1 X95.897 Y94.666 E9.89305
G1 X96.612 Y95.561 E10.23635
G1 X97.290 Y96.600 E10.60817
G92 E0
G1 X98.132 Y96.181 F7800.000
G1 X105.098 Y91.256 F7800.000
G1 X111.376 Y94.367 F7800.000
G1 X115.694 Y96.314 F7800.000
G1 X115.694 Y102.549 F7800.000
G1 X110.003 Y103.122 F7800.000
G1 X107.169 Y100.288 F7800.000
G1 X107.030 Y102.912 F7800.000
G1 X106.133 Y98.575 E1.32720 F600.000
G1 X106.133 Y92.352 E3.19190
G1 X106.169 Y93.352 F7800.000
G1 X106.133 Y93.387 F7800.000
G1 X106.133 Y106.612 F7800.000
G1 X106.169 Y106.648 F7800.000
G1 X115.955 Y106.802 F7800.000
G1 X107.169 Y106.802 E5.82459 F600.000
G1 X106.214 Y106.532 E6.12204
G1 X106.133 Y105.956 E6.29639
G1 X106.133 Y100.288 E7.99479
G1 X106.310 Y99.431 E8.25686
G1 X115.694 Y99.431 E11.06856
G92 E0
G1 Z1.200 F7800.000
G1 X97.117 Y103.783 F7800.000
G1 X96.360 Y104.879 E0.39909 F600.000
G1 X95.897 Y105.424 E0.61327
G1 X95.773 Y105.540 E0.66423
G1 X95.096 Y106.059 E0.91980
G1 X94.703 Y106.278 E1.05466
G1 X94.106 Y106.551 E1.25121
G1 X93.693 Y106.685 E1.38131
G1 X92.907 Y106.874 E1.62348
G1 X92.612 Y106.915 E1.71288
G1 X91.512 Y106.992 E2.04329
G1 X89.850 Y106.811 E2.54418
G1 X89.538 Y106.749 E2.63946
G1 X88.287 Y106.256 E3.04241
G1 X87.971 Y106.095 E3.14884
G1 X86.937 Y105.260 E3.54707
G1 X86.744 Y105.081 E3.62574
G1 X85.917 Y103.857 E4.06831
G1 X85.848 Y103.747 E4.10737
G1 X85.799 Y103.614 E4.14996
G1 X85.295 Y102.094 E4.62983
G1 X85.098 Y100.047 E5.24586
G1 X85.206 Y98.660 E5.66270
G1 X85.319 Y97.996 E5.86469
G1 X85.474 Y97.420 E6.04323
G1 X85.875 Y96.325 E6.39259
G1 X86.455 Y95.408 E6.71790
G1 X86.768 Y95.010 E6.86979
G1 X87.142 Y94.624 E7.03066
G1 X87.986 Y93.966 E7.35122
G1 X88.351 Y93.761 E7.47683
G1 X89.002 Y93.477 E7.68948
G1 X89.702 Y93.246 E7.91034
G1 X90.170 Y93.144 E8.05389
G1 X91.504 Y93.015 E8.45568
G1 X91.753 Y93.029 E8.53032
G1 X92.803 Y93.164 E8.84758
G1 X93.723 Y93.364 E9.12967
G1 X93.976 Y93.440 E9.20884
G1 X94.984 Y94.003 E9.55476
G1 X95.688 Y94.496 E9.81218
G1 X95.897 Y94.666 E9.89305
G1 X96.612 Y95.561 E10.23635
G1 X97.290 Y96.600 E10.60817
G92 E0
G1 X98.132 Y96.181 F7800.000
G1 X105.098 Y91.256 F7800.000
G1 X111.376 Y94.367 F7800.000
G1 X115.694 Y96.314 F7800.000
G1 X115.694 Y102.549 F7800.000
G1 X110.003 Y103.122 F7800.000
G1 X107.169 Y100.288 F7800.000
G1 X107.030 Y102.912 F7800.000
G1 X106.133 Y98.575 E1.32720 F600.000
G1 X106.133 Y92.352 E3.19190
G1 X106.169 Y93.352 F7800.000
G1 X106.133 Y93.387 F7800.000
G1 X106.133 Y106.612 F7800.000
G1 X106.169 Y106.648 F7800.000
G1 X115.955 Y106.802 F7800.000
G1 X107.169 Y106.802 E5.82459 F600.000
G1 X106.214 Y106.532 E6.12204
G1 X106.133 Y105.956 E6.29639
G1 X106.133 Y100.288 E7.99479
G1 X106.310 Y99.431 E8.25686
G1 X115.694 Y99.431 E11.06856
G92 E0
G1 Z1.500 F7800.000
G1 X97.117 Y103.783 F7800.000
G1 X96.360 Y104.879 E0.39909 F600.000
G1 X95.897 Y105.424 E0.61327
G1 X95.773 Y105.540 E0.66423
G1 X95.096 Y106.059 E0.91980
G1 X94.703 Y106.278 E1.05466
G1 X94.106 Y106.551 E1.25121
G1 X93.693 Y106.685 E1.38131
G1 X92.907 Y106.874 E1.62348
G1 X92.612 Y106.915 E1.71288
G1 X91.512 Y106.992 E2.04329
