; generated by Slic3r 1.2.9 on 2016-03-11 at 01:23:06

; external perimeters extrusion width = 1.54mm
; perimeters extrusion width = 2.62mm
; infill extrusion width = 6.27mm
; solid infill extrusion width = 2.62mm
; top infill extrusion width = 2.62mm

M107
M104 S30 ; set temperature
G28 ; home all axes
G1 Z5 F5000 ; lift nozzle
M302
M92 E10000
M500
M501
G1 E100
M109 S30 ; wait for temperature to be reached
G21 ; set units to millimeters
G90 ; use absolute coordinates
M82 ; use absolute distances for extrusion
G92 E0
G1 Z0.300 F7800.000
G1 X88.953 Y97.137 F7800.000
G1 X89.415 Y95.954 E0.05745 F378.000
G1 X90.072 Y94.896 E0.11379
G1 X90.899 Y94.017 E0.16839
G1 X91.899 Y93.314 E0.22372
G1 X93.055 Y92.799 E0.28099
G1 X94.351 Y92.489 E0.34130
G1 X95.789 Y92.386 E0.40654
G1 X97.109 Y92.490 E0.46644
G1 X97.198 Y92.497 E0.47047 F378.000
G1 X98.481 Y92.829 E0.53044
G1 X99.642 Y93.381 E0.58862
G1 X100.662 Y94.143 E0.64620
G1 X101.517 Y95.107 E0.70456
G1 X102.098 Y96.088 E0.75611
G1 X100.795 Y96.737 E0.82202
G1 X99.625 Y95.102 E0.91299
G1 X97.939 Y94.000 E1.00412
G1 X95.894 Y93.635 E1.09814
G1 X94.270 Y93.832 E1.17217
G1 X92.880 Y94.425 E1.24054
G1 X91.732 Y95.414 E1.30911
G1 X90.881 Y96.722 E1.37973
G1 X90.373 Y98.274 E1.45361
G1 X90.205 Y100.064 E1.53493
G1 X90.366 Y101.863 E1.61666
G1 X90.854 Y103.401 E1.68967
G1 X91.673 Y104.672 E1.75811
G1 X92.793 Y105.620 E1.82451
G1 X94.174 Y106.187 E1.89204
G1 X95.796 Y106.374 E1.96592
G1 X96.867 Y106.293 E2.01454
G1 X97.840 Y106.050 E2.05990
G1 X98.715 Y105.642 E2.10361
G1 X99.469 Y105.077 E2.14623
G1 X100.072 Y104.364 E2.18849
G1 X100.422 Y103.697 E2.22254
G1 X101.950 Y104.202 E2.29535
G1 X101.477 Y105.088 E2.34079
G1 X100.706 Y105.989 E2.39446
G1 X99.749 Y106.694 E2.44824
G1 X98.608 Y107.204 E2.50477
G1 X97.286 Y107.511 E2.56621
G1 X95.783 Y107.614 E2.63436
G1 X93.669 Y107.390 E2.73056
G1 X91.903 Y106.723 E2.81598
G1 X90.469 Y105.616 E2.89793
G1 X89.409 Y104.118 E2.98099
G1 X88.769 Y102.270 E3.06947
G1 X88.554 Y100.061 E3.16991
G1 X88.650 Y98.546 E3.23860
G1 X88.899 Y97.361 E3.29341
G1 X90.439 Y102.936 F7800.000
G1 X88.921 Y101.418 E3.39059 F540.000
G1 X88.863 Y100.813 E3.41809
G1 X90.186 Y102.137 E3.50283
G1 X90.100 Y101.505 E3.53171
G1 X88.804 Y100.209 E3.61469
G1 X88.801 Y99.660 E3.63952
G1 X90.046 Y100.906 E3.71925
G1 X89.992 Y100.306 E3.74648
G1 X88.833 Y99.147 E3.82070
G1 X88.866 Y98.634 E3.84397
G1 X90.012 Y99.780 E3.91735
G1 X90.059 Y99.282 E3.94003
G1 X88.945 Y98.168 E4.01134
G1 X89.040 Y97.717 E4.03220
G1 X90.106 Y98.783 E4.10044
G1 X90.154 Y98.286 E4.12305
G1 X89.134 Y97.266 E4.18833
G1 X89.277 Y96.863 E4.20768
G1 X90.289 Y97.875 E4.27245
G1 X90.423 Y97.463 E4.29203
G1 X89.430 Y96.471 E4.35560
G1 X89.583 Y96.078 E4.37466
G1 X90.557 Y97.052 E4.43703
G1 X90.698 Y96.647 E4.45644
G1 X89.783 Y95.732 E4.51502
G1 X89.992 Y95.395 E4.53296
G1 X90.913 Y96.316 E4.59193
G1 X91.128 Y95.986 E4.60978
G1 X90.201 Y95.059 E4.66915
G1 X90.456 Y94.768 E4.68665
G1 X91.343 Y95.656 E4.74344
G1 X91.558 Y95.325 E4.76129
G1 X90.725 Y94.492 E4.81463
G1 X90.998 Y94.219 E4.83209
G1 X91.843 Y95.065 E4.88622
G1 X92.136 Y94.812 E4.90373
G1 X91.298 Y93.973 E4.95742
G1 X91.618 Y93.748 E4.97515
G1 X92.429 Y94.560 E5.02710
G1 X92.722 Y94.307 E5.04461
G1 X91.938 Y93.523 E5.09482
G1 X92.310 Y93.349 E5.11340
G1 X93.082 Y94.121 E5.16281
G1 X93.464 Y93.958 E5.18163
G1 X92.688 Y93.181 E5.23133
G1 X93.065 Y93.013 E5.25004
G1 X93.846 Y93.794 E5.30004
G1 X94.229 Y93.631 E5.31886
G1 X93.505 Y92.907 E5.36522
G1 X93.945 Y92.802 E5.38572
G1 X94.704 Y93.561 E5.43430
G1 X95.190 Y93.502 E5.45649
G1 X94.396 Y92.707 E5.50735
G1 X94.905 Y92.670 E5.53045
G1 X95.677 Y93.443 E5.57988
G1 X96.229 Y93.449 E5.60488
G1 X95.414 Y92.634 E5.65708
G1 X95.958 Y92.632 E5.68172
G1 X96.893 Y93.568 E5.74160
G1 X97.557 Y93.686 E5.77215
G1 X96.550 Y92.679 E5.83663
G1 X97.161 Y92.745 E5.86445
G1 X98.338 Y93.922 E5.93980
G1 X98.774 Y93.266 F7800.000
G1 X101.615 Y96.107 E6.12171 F540.000
G1 X101.251 Y96.288 E6.14013
G1 X99.767 Y94.805 E6.23511
G1 X99.915 Y94.952 F7800.000
G1 X97.897 Y92.935 E6.36424 F540.000
G1 X100.258 Y94.204 F7800.000
G1 X100.757 Y94.704 E6.39622 F540.000
G92 E0
G1 X100.802 Y104.639 F7800.000
G1 X100.802 Y104.639 F7800.000
G1 X100.905 Y104.126 F7800.000
G1 X101.467 Y104.688 E0.03597 F540.000
G1 X101.268 Y105.035 E0.05407
G1 X100.399 Y104.166 E0.10974
G1 X100.199 Y104.511 E0.12782
G1 X101.017 Y105.329 E0.18018
G1 X100.765 Y105.623 E0.19769
G1 X99.949 Y104.807 E0.24995
G1 X99.699 Y105.103 E0.26748
G1 X100.494 Y105.898 E0.31839
G1 X100.184 Y106.133 E0.33601
G1 X99.412 Y105.361 E0.38546
G1 X99.100 Y105.595 E0.40310
G1 X99.870 Y106.365 E0.45239
G1 X99.532 Y106.573 E0.47035
G1 X98.788 Y105.828 E0.51801
G1 X98.415 Y106.001 E0.53660
G1 X99.155 Y106.741 E0.58395
G1 X98.778 Y106.909 E0.60265
G1 X98.043 Y106.175 E0.64967
G1 X97.638 Y106.315 E0.66908
G1 X98.367 Y107.044 E0.71576
G1 X97.925 Y107.147 E0.73634
G1 X97.202 Y106.424 E0.78262
G1 X96.754 Y106.522 E0.80337
G1 X97.482 Y107.250 E0.84998
G1 X96.996 Y107.310 E0.87214
G1 X96.247 Y106.561 E0.92011
G1 X95.739 Y106.599 E0.94314
G1 X96.485 Y107.345 E0.99091
G1 X95.975 Y107.380 E1.01407
G1 X95.130 Y106.535 E1.06819
G1 X94.513 Y106.464 E1.09628
G1 X95.385 Y107.335 E1.15209
G1 X94.774 Y107.271 E1.17988
G1 X93.837 Y106.334 E1.23988
G1 X92.911 Y105.953 F7800.000
G1 X94.164 Y107.206 E1.32009 F540.000
G1 X93.436 Y107.024 E1.35404
G1 X89.231 Y102.819 E1.62326
G1 X88.980 Y102.022 E1.66106
G1 X90.803 Y103.845 E1.77775
G1 X89.520 Y103.653 F7800.000
G1 X92.560 Y106.693 E1.97236 F540.000
G1 X90.901 Y105.580 F7800.000
G1 X90.543 Y105.222 E1.99528 F540.000
G92 E0
G1 X98.680 Y107.418 F7800.000
G1 X102.072 Y107.798 F7800.000
G1 X104.437 Y106.696 F7800.000
G1 X107.408 Y107.648 F7800.000
G1 X109.600 Y107.648 F7800.000
G1 X109.825 Y99.844 F7800.000
G1 X109.825 Y92.577 E0.32882 F378.000
G1 X111.447 Y92.577 E0.40222
G1 X111.447 Y107.423 E1.07399
G1 X109.825 Y107.423 E1.14738 F378.000
G1 X109.825 Y100.075 E1.47988
G1 X110.254 Y107.197 F7800.000
G1 X110.051 Y106.993 E1.49329 F540.000
G1 X110.051 Y106.432 E1.51944
G1 X110.816 Y107.197 E1.56983
G1 X111.221 Y107.041 E1.59005
G1 X110.051 Y105.871 E1.66713
G1 X110.051 Y105.309 E1.69327
G1 X111.221 Y106.479 E1.77035
G1 X111.221 Y105.918 E1.79650
G1 X110.051 Y104.748 E1.87358
G1 X110.051 Y104.187 E1.89972
G1 X111.221 Y105.357 E1.97680
G1 X111.221 Y104.795 E2.00295
G1 X110.051 Y103.625 E2.08002
G1 X110.051 Y103.064 E2.10617
G1 X111.221 Y104.234 E2.18325
G1 X111.221 Y103.673 E2.20940
G1 X110.051 Y102.502 E2.28647
G1 X110.051 Y101.941 E2.31262
G1 X111.221 Y103.111 E2.38970
G1 X111.221 Y102.550 E2.41585
G1 X110.051 Y101.380 E2.49292
G1 X110.051 Y100.818 E2.51907
G1 X111.221 Y101.988 E2.59615
G1 X111.221 Y101.427 E2.62229
G1 X110.051 Y100.257 E2.69937
G1 X110.051 Y99.696 E2.72552
G1 X111.221 Y100.866 E2.80260
G1 X111.221 Y100.304 E2.82874
G1 X110.051 Y99.134 E2.90582
G1 X110.051 Y98.573 E2.93197
G1 X111.221 Y99.743 E3.00904
G1 X111.221 Y99.182 E3.03519
G1 X110.051 Y98.012 E3.11227
G1 X110.051 Y97.450 E3.13842
G1 X111.221 Y98.620 E3.21549
G1 X111.221 Y98.059 E3.24164
G1 X110.051 Y96.889 E3.31872
G1 X110.051 Y96.327 E3.34487
G1 X111.221 Y97.498 E3.42194
G1 X111.221 Y96.936 E3.44809
G1 X110.051 Y95.766 E3.52517
G1 X110.051 Y95.205 E3.55131
G1 X111.221 Y96.375 E3.62839
G1 X111.221 Y95.813 E3.65454
G1 X110.051 Y94.643 E3.73162
G1 X110.051 Y94.082 E3.75776
G1 X111.221 Y95.252 E3.83484
G1 X111.221 Y94.691 E3.86099
G1 X110.051 Y93.521 E3.93806
G1 X110.051 Y92.959 E3.96421
G1 X111.221 Y94.129 E4.04129
G1 X111.221 Y93.568 E4.06744
G1 X110.456 Y92.803 E4.11783
G1 X111.017 Y92.803 E4.14398
G1 X111.221 Y93.007 E4.15739
M106 S255
G92 E0
G1 Z0.600 F7800.000
G1 X101.400 Y103.783 F7800.000
G1 X100.643 Y104.879 E0.39909 F600.000
G1 X100.180 Y105.424 E0.61327
G1 X100.056 Y105.540 E0.66423
G1 X99.379 Y106.059 E0.91980
G1 X98.986 Y106.278 E1.05466
G1 X98.389 Y106.551 E1.25121
G1 X97.976 Y106.685 E1.38131
G1 X97.190 Y106.874 E1.62348
G1 X96.895 Y106.915 E1.71288
G1 X95.795 Y106.992 E2.04329
G1 X94.133 Y106.811 E2.54418
G1 X93.821 Y106.749 E2.63946
G1 X92.570 Y106.256 E3.04241
G1 X92.254 Y106.095 E3.14884
G1 X91.220 Y105.260 E3.54707
G1 X91.027 Y105.081 E3.62574
G1 X90.200 Y103.857 E4.06830
G1 X90.131 Y103.747 E4.10737
G1 X90.082 Y103.614 E4.14996
G1 X89.578 Y102.094 E4.62983
G1 X89.381 Y100.047 E5.24586
G1 X89.489 Y98.660 E5.66270
G1 X89.602 Y97.996 E5.86469
G1 X89.757 Y97.420 E6.04323
G1 X90.158 Y96.325 E6.39259
G1 X90.738 Y95.408 E6.71790
G1 X91.051 Y95.010 E6.86979
G1 X91.425 Y94.624 E7.03066
G1 X92.269 Y93.966 E7.35121
G1 X92.634 Y93.761 E7.47683
G1 X93.285 Y93.477 E7.68948
G1 X93.985 Y93.246 E7.91034
G1 X94.453 Y93.144 E8.05389
G1 X95.787 Y93.015 E8.45567
G1 X96.036 Y93.029 E8.53032
G1 X97.086 Y93.164 E8.84758
G1 X98.006 Y93.364 E9.12967
G1 X98.259 Y93.440 E9.20884
G1 X99.267 Y94.003 E9.55475
G1 X99.971 Y94.496 E9.81218
G1 X100.180 Y94.666 E9.89305
G1 X100.895 Y95.561 E10.23635
G1 X101.573 Y96.600 E10.60817
G92 E0
G1 X104.899 Y100.172 F7800.000
G1 X105.699 Y105.939 F7800.000
G1 X107.408 Y107.648 F7800.000
G1 X109.600 Y107.648 F7800.000
G1 X110.636 Y107.648 F7800.000
G1 X110.636 Y92.352 E4.58339 F600.000
G92 E0
G1 Z0.900 F7800.000
G1 X101.400 Y103.783 F7800.000
G1 X100.643 Y104.879 E0.39909 F600.000
G1 X100.180 Y105.424 E0.61327
G1 X100.056 Y105.540 E0.66423
G1 X99.379 Y106.059 E0.91980
G1 X98.986 Y106.278 E1.05466
G1 X98.389 Y106.551 E1.25121
G1 X97.976 Y106.685 E1.38131
G1 X97.190 Y106.874 E1.62348
G1 X96.895 Y106.915 E1.71288
G1 X95.795 Y106.992 E2.04329
G1 X94.133 Y106.811 E2.54418
G1 X93.821 Y106.749 E2.63946
G1 X92.570 Y106.256 E3.04241
G1 X92.254 Y106.095 E3.14884
G1 X91.220 Y105.260 E3.54707
G1 X91.027 Y105.081 E3.62574
G1 X90.200 Y103.857 E4.06830
G1 X90.131 Y103.747 E4.10737
G1 X90.082 Y103.614 E4.14996
G1 X89.578 Y102.094 E4.62983
G1 X89.381 Y100.047 E5.24586
G1 X89.489 Y98.660 E5.66270
G1 X89.602 Y97.996 E5.86469
G1 X89.757 Y97.420 E6.04323
G1 X90.158 Y96.325 E6.39259
G1 X90.738 Y95.408 E6.71790
G1 X91.051 Y95.010 E6.86979
G1 X91.425 Y94.624 E7.03066
G1 X92.269 Y93.966 E7.35122
G1 X92.634 Y93.761 E7.47683
G1 X93.285 Y93.477 E7.68948
G1 X93.985 Y93.246 E7.91034
G1 X94.453 Y93.144 E8.05389
G1 X95.787 Y93.015 E8.45568
G1 X96.036 Y93.029 E8.53032
G1 X97.086 Y93.164 E8.84758
G1 X98.006 Y93.364 E9.12967
G1 X98.259 Y93.440 E9.20884
G1 X99.267 Y94.003 E9.55475
G1 X99.971 Y94.496 E9.81218
G1 X100.180 Y94.666 E9.89305
G1 X100.895 Y95.561 E10.23635
G1 X101.573 Y96.600 E10.60817
G92 E0
G1 X104.899 Y100.172 F7800.000
G1 X105.699 Y105.939 F7800.000
G1 X107.408 Y107.648 F7800.000
G1 X109.600 Y107.648 F7800.000
G1 X110.636 Y107.648 F7800.000
G1 X110.636 Y92.352 E4.58339 F600.000
G92 E0
G1 Z1.200 F7800.000
G1 X101.400 Y103.783 F7800.000
G1 X100.643 Y104.879 E0.39909 F600.000
G1 X100.180 Y105.424 E0.61327
G1 X100.056 Y105.540 E0.66423
G1 X99.379 Y106.059 E0.91980
G1 X98.986 Y106.278 E1.05466
G1 X98.389 Y106.551 E1.25121
G1 X97.976 Y106.685 E1.38131
G1 X97.190 Y106.874 E1.62348
G1 X96.895 Y106.915 E1.71288
G1 X95.795 Y106.992 E2.04329
G1 X94.133 Y106.811 E2.54418
G1 X93.821 Y106.749 E2.63946
G1 X92.570 Y106.256 E3.04241
G1 X92.254 Y106.095 E3.14884
G1 X91.220 Y105.260 E3.54707
G1 X91.027 Y105.081 E3.62574
G1 X90.200 Y103.857 E4.06831
G1 X90.131 Y103.747 E4.10737
G1 X90.082 Y103.614 E4.14996
G1 X89.578 Y102.094 E4.62983
G1 X89.381 Y100.047 E5.24586
G1 X89.489 Y98.660 E5.66270
G1 X89.602 Y97.996 E5.86469
G1 X89.757 Y97.420 E6.04323
G1 X90.158 Y96.325 E6.39259
G1 X90.738 Y95.408 E6.71790
G1 X91.051 Y95.010 E6.86979
G1 X91.425 Y94.624 E7.03066
G1 X92.269 Y93.966 E7.35122
G1 X92.634 Y93.761 E7.47683
G1 X93.285 Y93.477 E7.68948
G1 X93.985 Y93.246 E7.91034
G1 X94.453 Y93.144 E8.05389
G1 X95.787 Y93.015 E8.45568
G1 X96.036 Y93.029 E8.53032
G1 X97.086 Y93.164 E8.84758
G1 X98.006 Y93.364 E9.12967
G1 X98.259 Y93.440 E9.20884
G1 X99.267 Y94.003 E9.55476
G1 X99.971 Y94.496 E9.81218
G1 X100.180 Y94.666 E9.89305
G1 X100.895 Y95.561 E10.23635
G1 X101.573 Y96.600 E10.60817
G92 E0
G1 X104.899 Y100.172 F7800.000
G1 X105.699 Y105.939 F7800.000
G1 X107.408 Y107.648 F7800.000
G1 X109.600 Y107.648 F7800.000
G1 X110.636 Y107.648 F7800.000
G1 X110.636 Y92.352 E4.58339 F600.000
G92 E0
G1 Z1.500 F7800.000
G1 X101.400 Y103.783 F7800.000
G1 X100.643 Y104.879 E0.39909 F600.000
G1 X100.180 Y105.424 E0.61327
G1 X100.056 Y105.540 E0.66423
G1 X99.379 Y106.059 E0.91980
G1 X98.986 Y106.278 E1.05466
G1 X98.389 Y106.551 E1.25121
G1 X97.976 Y106.685 E1.38131
G1 X97.190 Y106.874 E1.62348
G1 X96.895 Y106.915 E1.71288
G1 X95.795 Y106.992 E2.04329
G1 X94.133 Y106.811 E2.54418
G1 X93.821 Y106.749 E2.63946
G1 X92.570 Y106.256 E3.04241
G1 X92.254 Y106.095 E3.14884
G1 X91.220 Y105.260 E3.54707
G1 X91.027 Y105.081 E3.62574
G1 X90.200 Y103.857 E4.06830
G1 X90.131 Y103.747 E4.10737
G1 X90.082 Y103.614 E4.14996
G1 X89.578 Y102.094 E4.62983
G1 X89.381 Y100.047 E5.24586
G1 X89.489 Y98.660 E5.66270
G1 X89.602 Y97.996 E5.86469
G1 X89.757 Y97.420 E6.04323
G1 X90.158 Y96.325 E6.39259
G1 X90.738 Y95.408 E6.71789
G1 X91.051 Y95.010 E6.86979
G1 X91.425 Y94.624 E7.03066
G1 X92.269 Y93.966 E7.35121
G1 X92.634 Y93.761 E7.47683
G1 X93.285 Y93.477 E7.68948
G1 X93.985 Y93.246 E7.91034
G1 X94.453 Y93.144 E8.05389
G1 X95.787 Y93.015 E8.45567
G1 X96.036 Y93.029 E8.53032
G1 X97.086 Y93.164 E8.84757
G1 X98.006 Y93.364 E9.12966
G1 X98.259 Y93.440 E9.20884
G1 X99.267 Y94.003 E9.55475
G1 X99.971 Y94.496 E9.81218
G1 X100.180 Y94.666 E9.89305
G1 X100.895 Y95.561 E10.23635
G1 X101.573 Y96.600 E10.60817
G92 E0
G1 X104.899 Y100.172 F7800.000
G1 X105.699 Y105.939 F7800.000
G1 X107.408 Y107.648 F7800.000
G1 X109.600 Y107.648 F7800.000
G1 X110.636 Y107.648 F7800.000
G1 X110.636 Y92.352 E4.58339 F600.000
G92 E0
G1 Z1.800 F7800.000
G1 X101.400 Y103.783 F7800.000
G1 X100.643 Y104.879 E0.39909 F600.000
G1 X100.180 Y105.424 E0.61327
G1 X100.056 Y105.540 E0.66423
G1 X99.379 Y106.059 E0.91980
G1 X98.986 Y106.278 E1.05466
G1 X98.389 Y106.551 E1.25121
G1 X97.976 Y106.685 E1.38131
G1 X97.190 Y106.874 E1.62348
G1 X96.895 Y106.915 E1.71288
G1 X95.795 Y106.992 E2.04329
G1 X94.133 Y106.811 E2.54418
G1 X93.821 Y106.749 E2.63946
G1 X92.570 Y106.256 E3.04241
G1 X92.254 Y106.095 E3.14884
G1 X91.220 Y105.260 E3.54707
G1 X91.027 Y105.081 E3.62574
G1 X90.200 Y103.857 E4.06830
G1 X90.131 Y103.747 E4.10737
G1 X90.082 Y103.614 E4.14996
G1 X89.578 Y102.094 E4.62983
G1 X89.381 Y100.047 E5.24586
G1 X89.489 Y98.660 E5.66270
G1 X89.602 Y97.996 E5.86469
G1 X89.757 Y97.420 E6.04323
G1 X90.158 Y96.325 E6.39259
G1 X90.738 Y95.408 E6.71790
G1 X91.051 Y95.010 E6.86979
G1 X91.425 Y94.624 E7.03066
G1 X92.269 Y93.966 E7.35121
G1 X92.634 Y93.761 E7.47682
G1 X93.285 Y93.477 E7.68948
G1 X93.985 Y93.246 E7.91034
G1 X94.453 Y93.144 E8.05389
G1 X95.787 Y93.015 E8.45568
G1 X95.977 Y93.022 E8.51243
G1 X97.086 Y93.164 E8.84761
G1 X98.006 Y93.364 E9.12970
G1 X98.259 Y93.440 E9.20887
G1 X99.267 Y94.003 E9.55479
G1 X99.971 Y94.496 E9.81222
G1 X100.180 Y94.666 E9.89309
G1 X100.895 Y95.561 E10.23639
G1 X101.573 Y96.600 E10.60820
G92 E0
G1 X104.899 Y100.172 F7800.000
G1 X105.699 Y105.939 F7800.000
G1 X107.408 Y107.648 F7800.000
G1 X109.600 Y107.648 F7800.000
G1 X110.636 Y107.648 F7800.000
G1 X110.636 Y92.352 E4.58339 F600.000
G92 E0
G1 Z2.100 F7800.000
G1 X101.400 Y103.783 F7800.000
G1 X100.643 Y104.879 E0.39909 F600.000
G1 X100.180 Y105.424 E0.61327
G1 X100.056 Y105.540 E0.66423
G1 X99.379 Y106.059 E0.91980
G1 X99.089 Y106.229 E1.02064
G1 X98.389 Y106.551 E1.25130
G1 X97.976 Y106.685 E1.38140
G1 X97.190 Y106.874 E1.62357
G1 X96.895 Y106.915 E1.71297
G1 X95.795 Y106.992 E2.04338
G1 X94.133 Y106.811 E2.54427
G1 X93.821 Y106.749 E2.63955
G1 X92.570 Y106.256 E3.04250
G1 X92.254 Y106.095 E3.14893
G1 X91.220 Y105.260 E3.54716
G1 X91.027 Y105.081 E3.62584
G1 X90.200 Y103.857 E4.06840
G1 X90.131 Y103.747 E4.10746
G1 X90.082 Y103.614 E4.15005
G1 X89.578 Y102.094 E4.62992
G1 X89.381 Y100.047 E5.24595
G1 X89.489 Y98.660 E5.66280
G1 X89.602 Y97.996 E5.86478
G1 X89.757 Y97.420 E6.04332
G1 X90.158 Y96.325 E6.39268
G1 X90.738 Y95.408 E6.71799
G1 X91.051 Y95.010 E6.86988
G1 X91.425 Y94.624 E7.03076
