; generated by Slic3r 1.2.9 on 2016-03-11 at 01:23:12

; external perimeters extrusion width = 1.54mm
; perimeters extrusion width = 2.62mm
; infill extrusion width = 6.27mm
; solid infill extrusion width = 2.62mm
; top infill extrusion width = 2.62mm

M107
M104 S30 ; set temperature
G28 ; home all axes
G1 Z5 F5000 ; lift nozzle
M302
M92 E10000
M500
M501
G1 E100
M109 S30 ; wait for temperature to be reached
G21 ; set units to millimeters
G90 ; use absolute coordinates
M82 ; use absolute distances for extrusion
G92 E0
G1 Z0.300 F7800.000
G1 X106.984 Y107.019 F7800.000
G1 X106.188 Y106.725 E0.03842 F378.000
G1 X104.729 Y105.621 E0.12121
G1 X103.652 Y104.124 E0.20462
G1 X103.003 Y102.275 E0.29330
G1 X102.785 Y100.061 E0.39397
G1 X102.882 Y98.562 E0.46195
G1 X103.175 Y97.196 E0.52519
G1 X103.661 Y95.965 E0.58506
G1 X104.328 Y94.896 E0.64209
G1 X105.166 Y94.011 E0.69722
G1 X106.178 Y93.308 E0.75297
G1 X107.350 Y92.797 E0.81083
G1 X108.667 Y92.489 E0.87203
G1 X110.131 Y92.386 E0.93843
G1 X111.597 Y92.491 E1.00493
G1 X112.894 Y92.802 E1.06527 F378.000
G1 X114.066 Y93.319 E1.12327
G1 X115.084 Y94.028 E1.17939
G1 X115.929 Y94.915 E1.23484
G1 X116.606 Y95.983 E1.29205
G1 X117.101 Y97.209 E1.35188
G1 X117.399 Y98.570 E1.41489
G1 X117.498 Y100.065 E1.48271
G1 X117.400 Y101.563 E1.55065
G1 X117.105 Y102.916 E1.61328
G1 X116.617 Y104.124 E1.67226
G1 X115.947 Y105.169 E1.72844
G1 X115.106 Y106.032 E1.78296
G1 X114.090 Y106.716 E1.83838
G1 X112.917 Y107.214 E1.89602
G1 X111.605 Y107.514 E1.95692
G1 X110.156 Y107.614 E2.02267
G1 X107.992 Y107.390 E2.12111
G1 X107.201 Y107.099 E2.15925
G1 X107.683 Y105.876 F7800.000
G1 X107.067 Y105.634 E2.18919 F378.000
G1 X105.926 Y104.701 E2.25587
G1 X105.094 Y103.438 E2.32431
G1 X104.600 Y101.890 E2.39783
G1 X104.437 Y100.065 E2.48075
G1 X104.602 Y98.242 E2.56356
G1 X105.101 Y96.676 E2.63795
G1 X105.939 Y95.372 E2.70811
G1 X107.082 Y94.394 E2.77617
G1 X108.484 Y93.808 E2.84491 F378.000
G1 X110.130 Y93.615 E2.91991
G1 X111.814 Y93.801 E2.99657
G1 X113.230 Y94.368 E3.06558
G1 X114.365 Y95.317 E3.13252
G1 X115.187 Y96.605 E3.20167
G1 X115.675 Y98.190 E3.27670
G1 X115.836 Y100.065 E3.36188
G1 X115.673 Y101.868 E3.44379
G1 X115.181 Y103.408 E3.51695
G1 X114.353 Y104.678 E3.58554
G1 X113.218 Y105.623 E3.65236
G1 X111.813 Y106.188 E3.72087
G1 X110.153 Y106.374 E3.79647
G1 X108.480 Y106.191 E3.87261
G1 X107.898 Y105.961 E3.90095
G1 X107.205 Y105.969 F7800.000
G1 X108.435 Y107.200 E3.98083 F540.000
G1 X109.052 Y107.264 E4.00929
G1 X108.117 Y106.329 E4.06997
G1 X108.804 Y106.463 E4.10210
G1 X109.669 Y107.328 E4.15822
G1 X110.279 Y107.385 E4.18632
G1 X109.426 Y106.531 E4.24170
G1 X110.047 Y106.600 E4.27038
G1 X110.796 Y107.349 E4.31900
G1 X111.314 Y107.313 E4.34279
G1 X110.549 Y106.549 E4.39240
G1 X111.046 Y106.493 E4.41536
G1 X111.806 Y107.253 E4.46467
G1 X112.256 Y107.150 E4.48586
G1 X111.544 Y106.437 E4.53212
G1 X111.993 Y106.333 E4.55327
G1 X112.707 Y107.047 E4.59960
G1 X113.122 Y106.909 E4.61968
G1 X112.387 Y106.174 E4.66737
G1 X112.781 Y106.016 E4.68688
G1 X113.510 Y106.745 E4.73418
G1 X113.898 Y106.580 E4.75353
G1 X113.176 Y105.857 E4.80043
G1 X113.506 Y105.634 E4.81870
G1 X114.248 Y106.376 E4.86685
G1 X114.578 Y106.153 E4.88513
G1 X113.808 Y105.383 E4.93513
G1 X114.109 Y105.132 E4.95315
G1 X114.908 Y105.930 E5.00495
G1 X115.184 Y105.653 E5.02290
G1 X114.411 Y104.880 E5.07306
G1 X114.655 Y104.571 E5.09113
G1 X115.461 Y105.377 E5.14342
G1 X115.737 Y105.100 E5.16136
G1 X114.873 Y104.236 E5.21742
G1 X115.091 Y103.902 E5.23576
G1 X115.967 Y104.777 E5.29259
G1 X116.183 Y104.440 E5.31096
G1 X115.310 Y103.567 E5.36764
G1 X115.471 Y103.175 E5.38709
G1 X116.399 Y104.103 E5.44735
G1 X116.565 Y103.716 E5.46668
G1 X115.605 Y102.756 E5.52900
G1 X115.739 Y102.337 E5.54919
G1 X116.724 Y103.322 E5.61314
G1 X116.883 Y102.928 E5.63263
G1 X115.873 Y101.918 E5.69822
G1 X115.933 Y101.425 E5.72099
G1 X116.985 Y102.478 E5.78929
G1 X117.084 Y102.023 E5.81062
G1 X115.979 Y100.918 E5.88236
G1 X116.024 Y100.411 E5.90573
G1 X117.179 Y101.565 E5.98062
G1 X117.213 Y101.046 E6.00449
G1 X116.055 Y99.888 E6.07964
G1 X116.003 Y99.283 E6.10750
G1 X117.247 Y100.527 E6.18823
G1 X117.261 Y99.988 E6.21296
G1 X115.951 Y98.678 E6.29800
G1 X115.899 Y98.073 E6.32586
G1 X117.222 Y99.396 E6.41170
G1 X117.182 Y98.803 E6.43895
G1 X115.660 Y97.281 E6.53771
G1 X115.414 Y96.482 E6.57607
G1 X117.048 Y98.116 E6.68210
G1 X116.893 Y97.408 E6.71537
G1 X114.522 Y95.037 E6.86925
G1 X114.664 Y95.179 F7800.000
G1 X112.430 Y92.945 E7.01424 F540.000
G1 X111.703 Y92.771 F7800.000
G1 X112.876 Y93.944 E7.09038 F540.000
G1 X113.317 Y93.279 F7800.000
G1 X116.527 Y96.489 E7.29864 F540.000
G1 X115.547 Y94.956 F7800.000
G1 X114.707 Y94.116 E7.35315 F540.000
G1 X111.960 Y93.581 F7800.000
G1 X111.064 Y92.685 E7.41125 F540.000
G1 X110.468 Y92.643 E7.43866
G1 X111.338 Y93.512 E7.49506
G1 X110.716 Y93.443 E7.52378
G1 X109.896 Y92.623 E7.57695
G1 X109.379 Y92.660 E7.60072
G1 X110.117 Y93.398 E7.64861
G1 X109.623 Y93.456 E7.67147
G1 X108.863 Y92.696 E7.72077
G1 X108.384 Y92.770 E7.74300
G1 X109.128 Y93.514 E7.79126
G1 X108.633 Y93.572 E7.81412
G1 X107.936 Y92.875 E7.85934
G1 X107.488 Y92.980 E7.88046
G1 X108.212 Y93.704 E7.92745
G1 X107.822 Y93.867 E7.94685
G1 X107.086 Y93.131 E7.99462
G1 X106.701 Y93.299 E8.01390
G1 X107.432 Y94.030 E8.06135
G1 X107.042 Y94.193 E8.08075
G1 X106.315 Y93.467 E8.12788
G1 X105.979 Y93.683 E8.14625
G1 X106.734 Y94.438 E8.19526
G1 X106.436 Y94.693 E8.21326
G1 X105.652 Y93.910 E8.26411
G1 X105.334 Y94.144 E8.28225
G1 X106.138 Y94.948 E8.33442
G1 X105.840 Y95.203 E8.35241
G1 X105.058 Y94.421 E8.40318
G1 X104.781 Y94.697 E8.42112
G1 X105.609 Y95.525 E8.47485
G1 X105.393 Y95.862 E8.49321
G1 X104.512 Y94.981 E8.55038
G1 X104.295 Y95.317 E8.56873
G1 X105.176 Y96.199 E8.62594
G1 X104.960 Y96.535 E8.64430
G1 X104.082 Y95.658 E8.70126
G1 X103.870 Y95.998 E8.71967
G1 X104.804 Y96.933 E8.78031
G1 X104.671 Y97.352 E8.80051
G1 X103.709 Y96.391 E8.86289
G1 X103.553 Y96.787 E8.88245
G1 X104.537 Y97.771 E8.94630
G1 X104.403 Y98.191 E8.96650
G1 X103.396 Y97.184 E9.03184
G1 X103.296 Y97.636 E9.05311
G1 X104.342 Y98.683 E9.12100
G1 X104.296 Y99.190 E9.14437
G1 X103.198 Y98.092 E9.21561
G1 X103.104 Y98.551 E9.23711
G1 X104.250 Y99.697 E9.31148
G1 X104.216 Y100.215 E9.33533
G1 X103.070 Y99.070 E9.40966
G1 X103.037 Y99.589 E9.43353
G1 X104.270 Y100.823 E9.51358
G1 X104.324 Y101.430 E9.54156
G1 X103.027 Y100.133 E9.62574
G1 X103.088 Y100.746 E9.65403
G1 X104.380 Y102.039 E9.73790
G1 X104.640 Y102.851 E9.77704
G1 X103.148 Y101.360 E9.87381
G1 X103.209 Y101.973 E9.90210
G1 X104.909 Y103.674 E10.01243
G1 X103.748 Y103.619 F7800.000
G1 X106.806 Y106.676 E10.21086 F540.000
G1 X107.682 Y106.999 F7800.000
G1 X103.449 Y102.766 E10.48557 F540.000
G1 X104.796 Y105.220 F7800.000
G1 X105.151 Y105.574 E10.50855 F540.000
G92 E0
G1 X102.559 Y100.065 F7800.000
G1 X90.551 Y99.972 F7800.000
G1 X89.707 Y99.058 F7800.000
G1 X89.553 Y98.799 F7800.000
G1 X89.548 Y98.788 F7800.000
G1 X86.948 Y94.618 F7800.000
G1 X82.832 Y97.434 F7800.000
G1 X82.886 Y97.176 E0.01194 F378.000
G1 X83.363 Y95.954 E0.07131
G1 X84.020 Y94.896 E0.12765
G1 X84.847 Y94.017 E0.18225
G1 X85.847 Y93.314 E0.23758
G1 X87.003 Y92.799 E0.29485
G1 X88.299 Y92.489 E0.35516
G1 X89.737 Y92.386 E0.42040
G1 X91.057 Y92.490 E0.48030
G1 X91.146 Y92.497 E0.48432 F378.000
G1 X92.429 Y92.829 E0.54430
G1 X93.590 Y93.381 E0.60248
G1 X94.610 Y94.143 E0.66006
G1 X95.465 Y95.107 E0.71842
G1 X96.046 Y96.088 E0.76997
G1 X94.743 Y96.737 E0.83588
G1 X93.573 Y95.102 E0.92685
G1 X91.887 Y94.000 E1.01798
G1 X89.842 Y93.635 E1.11200
G1 X88.218 Y93.832 E1.18603
G1 X86.828 Y94.425 E1.25440
G1 X85.680 Y95.414 E1.32297
G1 X84.829 Y96.722 E1.39359
G1 X84.321 Y98.274 E1.46747
G1 X84.153 Y100.064 E1.54879
G1 X84.314 Y101.863 E1.63052
G1 X84.802 Y103.401 E1.70353
G1 X85.621 Y104.672 E1.77197
G1 X86.741 Y105.620 E1.83837
G1 X88.122 Y106.187 E1.90590
G1 X89.744 Y106.374 E1.97978
G1 X90.815 Y106.293 E2.02840
G1 X91.788 Y106.050 E2.07376
G1 X92.663 Y105.642 E2.11747
G1 X93.417 Y105.077 E2.16009
G1 X94.020 Y104.364 E2.20235
G1 X94.370 Y103.697 E2.23640
G1 X95.898 Y104.202 E2.30921
G1 X95.425 Y105.088 E2.35465
G1 X94.654 Y105.989 E2.40832
G1 X93.697 Y106.694 E2.46210
G1 X92.556 Y107.204 E2.51863
G1 X91.234 Y107.511 E2.58007
G1 X89.731 Y107.614 E2.64822
G1 X87.617 Y107.390 E2.74442
G1 X85.851 Y106.723 E2.82984
G1 X84.417 Y105.616 E2.91179
G1 X83.357 Y104.118 E2.99485
G1 X82.717 Y102.270 E3.08332
G1 X82.502 Y100.061 E3.18377
G1 X82.598 Y98.546 E3.25246
G1 X82.784 Y97.660 E3.29341
G1 X84.387 Y102.936 F7800.000
G1 X82.869 Y101.418 E3.39059 F540.000
G1 X82.811 Y100.813 E3.41809
G1 X84.134 Y102.137 E3.50283
G1 X84.048 Y101.505 E3.53171
G1 X82.752 Y100.209 E3.61469
G1 X82.749 Y99.660 E3.63952
G1 X83.994 Y100.906 E3.71925
G1 X83.940 Y100.306 E3.74648
G1 X82.781 Y99.147 E3.82070
G1 X82.814 Y98.634 E3.84397
G1 X83.960 Y99.780 E3.91735
G1 X84.007 Y99.282 E3.94003
G1 X82.893 Y98.168 E4.01134
G1 X82.988 Y97.717 E4.03220
G1 X84.054 Y98.783 E4.10044
G1 X84.102 Y98.286 E4.12305
G1 X83.082 Y97.266 E4.18833
G1 X83.225 Y96.863 E4.20768
G1 X84.237 Y97.875 E4.27245
G1 X84.371 Y97.463 E4.29203
G1 X83.378 Y96.471 E4.35560
G1 X83.531 Y96.078 E4.37466
G1 X84.505 Y97.052 E4.43703
G1 X84.646 Y96.647 E4.45644
G1 X83.731 Y95.732 E4.51502
G1 X83.940 Y95.395 E4.53296
G1 X84.861 Y96.316 E4.59193
G1 X85.076 Y95.986 E4.60978
G1 X84.149 Y95.059 E4.66915
G1 X84.404 Y94.768 E4.68665
G1 X85.291 Y95.656 E4.74344
G1 X85.506 Y95.325 E4.76129
G1 X84.673 Y94.492 E4.81463
G1 X84.946 Y94.219 E4.83209
G1 X85.791 Y95.065 E4.88622
G1 X86.084 Y94.812 E4.90373
G1 X85.246 Y93.973 E4.95742
G1 X85.566 Y93.748 E4.97515
G1 X86.377 Y94.560 E5.02710
G1 X86.670 Y94.307 E5.04461
G1 X85.886 Y93.523 E5.09482
G1 X86.258 Y93.349 E5.11340
G1 X87.030 Y94.121 E5.16281
G1 X87.412 Y93.958 E5.18162
G1 X86.636 Y93.181 E5.23133
G1 X87.013 Y93.013 E5.25004
G1 X87.794 Y93.794 E5.30004
G1 X88.177 Y93.631 E5.31886
G1 X87.453 Y92.907 E5.36522
G1 X87.893 Y92.802 E5.38571
G1 X88.652 Y93.561 E5.43430
G1 X89.138 Y93.502 E5.45649
G1 X88.344 Y92.707 E5.50735
G1 X88.853 Y92.670 E5.53045
G1 X89.625 Y93.443 E5.57988
G1 X90.177 Y93.449 E5.60488
G1 X89.362 Y92.634 E5.65708
G1 X89.906 Y92.632 E5.68172
G1 X90.841 Y93.568 E5.74160
G1 X91.505 Y93.686 E5.77215
G1 X90.498 Y92.679 E5.83663
G1 X91.109 Y92.745 E5.86445
G1 X92.286 Y93.922 E5.93980
G1 X92.722 Y93.266 F7800.000
G1 X95.563 Y96.107 E6.12171 F540.000
G1 X95.199 Y96.288 E6.14013
G1 X93.715 Y94.805 E6.23511
G1 X93.863 Y94.952 F7800.000
G1 X91.845 Y92.935 E6.36424 F540.000
G1 X94.206 Y94.204 F7800.000
G1 X94.705 Y94.704 E6.39622 F540.000
G92 E0
G1 X94.750 Y104.639 F7800.000
G1 X94.750 Y104.639 F7800.000
G1 X94.853 Y104.126 F7800.000
G1 X95.415 Y104.688 E0.03597 F540.000
G1 X95.216 Y105.035 E0.05407
G1 X94.347 Y104.166 E0.10974
G1 X94.147 Y104.511 E0.12782
G1 X94.965 Y105.329 E0.18018
G1 X94.713 Y105.623 E0.19769
G1 X93.897 Y104.807 E0.24995
G1 X93.647 Y105.103 E0.26748
G1 X94.442 Y105.898 E0.31839
G1 X94.132 Y106.133 E0.33601
G1 X93.360 Y105.361 E0.38546
G1 X93.048 Y105.595 E0.40310
G1 X93.818 Y106.365 E0.45239
G1 X93.480 Y106.573 E0.47035
G1 X92.736 Y105.828 E0.51801
G1 X92.363 Y106.001 E0.53660
G1 X93.103 Y106.741 E0.58395
G1 X92.726 Y106.909 E0.60265
G1 X91.991 Y106.175 E0.64967
G1 X91.586 Y106.315 E0.66908
G1 X92.315 Y107.044 E0.71576
G1 X91.873 Y107.147 E0.73634
G1 X91.150 Y106.424 E0.78262
G1 X90.702 Y106.522 E0.80337
G1 X91.430 Y107.250 E0.84997
G1 X90.944 Y107.310 E0.87214
G1 X90.195 Y106.561 E0.92011
G1 X89.687 Y106.599 E0.94314
G1 X90.433 Y107.345 E0.99091
G1 X89.923 Y107.380 E1.01407
G1 X89.078 Y106.535 E1.06819
G1 X88.461 Y106.464 E1.09628
G1 X89.333 Y107.335 E1.15209
G1 X88.722 Y107.271 E1.17988
G1 X87.785 Y106.334 E1.23987
G1 X86.859 Y105.953 F7800.000
G1 X88.112 Y107.206 E1.32009 F540.000
G1 X87.384 Y107.024 E1.35404
G1 X83.179 Y102.819 E1.62326
G1 X82.928 Y102.022 E1.66106
G1 X84.751 Y103.845 E1.77775
G1 X83.468 Y103.653 F7800.000
G1 X86.508 Y106.693 E1.97236 F540.000
G1 X84.849 Y105.580 F7800.000
G1 X84.491 Y105.222 E1.99528 F540.000
M106 S255
G92 E0
G1 Z0.600 F7800.000
G1 X95.348 Y103.783 F7800.000
G1 X94.591 Y104.879 E0.39909 F600.000
G1 X94.128 Y105.424 E0.61327
G1 X94.004 Y105.540 E0.66423
G1 X93.327 Y106.059 E0.91980
G1 X92.934 Y106.278 E1.05466
G1 X92.337 Y106.551 E1.25121
G1 X91.924 Y106.685 E1.38131
G1 X91.138 Y106.874 E1.62348
G1 X90.843 Y106.915 E1.71288
G1 X89.743 Y106.992 E2.04329
G1 X88.081 Y106.811 E2.54418
G1 X87.769 Y106.749 E2.63946
G1 X86.518 Y106.256 E3.04241
G1 X86.202 Y106.095 E3.14884
G1 X85.168 Y105.260 E3.54707
G1 X84.975 Y105.081 E3.62574
G1 X84.148 Y103.857 E4.06830
G1 X84.079 Y103.747 E4.10737
G1 X84.030 Y103.614 E4.14996
G1 X83.526 Y102.094 E4.62983
G1 X83.329 Y100.047 E5.24586
G1 X83.437 Y98.660 E5.66270
G1 X83.550 Y97.996 E5.86469
G1 X83.705 Y97.420 E6.04323
G1 X84.106 Y96.325 E6.39259
G1 X84.686 Y95.408 E6.71790
G1 X84.999 Y95.010 E6.86979
G1 X85.373 Y94.624 E7.03066
G1 X86.217 Y93.966 E7.35121
G1 X86.582 Y93.761 E7.47683
G1 X87.233 Y93.477 E7.68948
G1 X87.933 Y93.246 E7.91034
G1 X88.401 Y93.144 E8.05389
G1 X89.735 Y93.015 E8.45567
G1 X89.984 Y93.029 E8.53032
G1 X91.034 Y93.164 E8.84758
G1 X91.954 Y93.364 E9.12967
G1 X92.207 Y93.440 E9.20884
G1 X93.215 Y94.003 E9.55475
G1 X93.919 Y94.496 E9.81218
G1 X94.128 Y94.666 E9.89305
G1 X94.843 Y95.561 E10.23635
G1 X95.521 Y96.600 E10.60817
G92 E0
G1 X98.274 Y100.016 F7800.000
G1 X99.158 Y98.303 F7800.000
G1 X102.659 Y98.531 F7800.000
G1 X103.613 Y100.047 F7800.000
G1 X103.718 Y98.678 E0.41153 F600.000
G1 X103.837 Y97.973 E0.62588
G1 X103.979 Y97.439 E0.79152
G1 X104.380 Y96.328 E1.14547
G1 X104.969 Y95.391 E1.47686
G1 X105.284 Y94.989 E1.62983
G1 X105.476 Y94.779 E1.71524
G1 X105.668 Y94.596 E1.79480
G1 X106.527 Y93.933 E2.11988
G1 X106.853 Y93.754 E2.23138
G1 X107.567 Y93.449 E2.46386
G1 X108.213 Y93.240 E2.66727
G1 X108.764 Y93.127 E2.83584
G1 X110.130 Y93.002 E3.24709
G1 X111.485 Y93.123 E3.65471
G1 X112.071 Y93.240 E3.83387
G1 X112.681 Y93.433 E4.02548
G1 X113.438 Y93.752 E4.27153
G1 X113.734 Y93.910 E4.37210
G1 X114.611 Y94.580 E4.70267
G1 X114.793 Y94.750 E4.77747
G1 X114.986 Y94.962 E4.86330
G1 X115.322 Y95.390 E5.02624
G1 X115.913 Y96.339 E5.36128
G1 X116.310 Y97.454 E5.71595
G1 X116.480 Y98.145 E5.92930
G1 X116.563 Y98.688 E6.09398
G1 X116.666 Y100.066 E6.50780
G1 X116.560 Y101.445 E6.92234
G1 X116.441 Y102.140 E7.13364
G1 X116.300 Y102.667 E7.29722
G1 X115.902 Y103.754 E7.64416
G1 X115.316 Y104.668 E7.96932
G1 X115.002 Y105.061 E8.12006
G1 X114.804 Y105.273 E8.20699
G1 X114.617 Y105.446 E8.28338
G1 X113.753 Y106.094 E8.60709
G1 X113.437 Y106.261 E8.71416
G1 X112.707 Y106.563 E8.95085
G1 X112.077 Y106.761 E9.14868
G1 X111.510 Y106.873 E9.32168
G1 X110.166 Y106.992 E9.72604
G1 X108.442 Y106.812 E10.24542
G1 X108.219 Y106.773 E10.31349
G1 X106.856 Y106.264 E10.74920
G1 X106.529 Y106.101 E10.85884
G1 X105.492 Y105.287 E11.25388
G1 X105.276 Y105.088 E11.34191
G1 X104.365 Y103.753 E11.82619
G1 X103.829 Y102.162 E12.32902
G1 X103.787 Y101.938 E12.39748
G1 X103.613 Y100.047 E12.96634
G92 E0
G1 Z0.900 F7800.000
G1 X95.348 Y103.783 F7800.000
G1 X94.591 Y104.879 E0.39909 F600.000
G1 X94.128 Y105.424 E0.61327
G1 X94.004 Y105.540 E0.66423
G1 X93.327 Y106.059 E0.91980
G1 X92.934 Y106.278 E1.05466
G1 X92.337 Y106.551 E1.25121
G1 X91.924 Y106.685 E1.38131
G1 X91.138 Y106.874 E1.62348
G1 X90.843 Y106.915 E1.71288
G1 X89.743 Y106.992 E2.04329
G1 X88.081 Y106.811 E2.54418
G1 X87.769 Y106.749 E2.63946
G1 X86.518 Y106.256 E3.04241
G1 X86.202 Y106.095 E3.14884
G1 X85.168 Y105.260 E3.54707
G1 X84.975 Y105.081 E3.62574
G1 X84.148 Y103.857 E4.06830
G1 X84.079 Y103.747 E4.10737
G1 X84.030 Y103.614 E4.14996
G1 X83.526 Y102.094 E4.62983
G1 X83.329 Y100.047 E5.24586
G1 X83.437 Y98.660 E5.66270
G1 X83.550 Y97.996 E5.86469
G1 X83.705 Y97.420 E6.04323
G1 X84.106 Y96.325 E6.39259
G1 X84.686 Y95.408 E6.71790
G1 X84.999 Y95.010 E6.86979
G1 X85.373 Y94.624 E7.03066
G1 X86.217 Y93.966 E7.35122
G1 X86.582 Y93.761 E7.47683
G1 X87.233 Y93.477 E7.68948
G1 X87.933 Y93.246 E7.91034
G1 X88.401 Y93.144 E8.05389
