; generated by Slic3r 1.2.9 on 2016-03-11 at 01:23:15

; external perimeters extrusion width = 1.54mm
; perimeters extrusion width = 2.62mm
; infill extrusion width = 6.27mm
; solid infill extrusion width = 2.62mm
; top infill extrusion width = 2.62mm

M107
M104 S30 ; set temperature
G28 ; home all axes
G1 Z5 F5000 ; lift nozzle
M302
M92 E10000
M500
M501
G1 E100
M109 S30 ; wait for temperature to be reached
G21 ; set units to millimeters
G90 ; use absolute coordinates
M82 ; use absolute distances for extrusion
G92 E0
G1 Z0.300 F7800.000
G1 X83.478 Y97.176 F7800.000
G1 X83.956 Y95.954 E0.05937 F378.000
G1 X84.612 Y94.896 E0.11571
G1 X85.439 Y94.017 E0.17031
G1 X86.439 Y93.314 E0.22564
G1 X87.596 Y92.799 E0.28291
G1 X88.892 Y92.489 E0.34322
G1 X90.330 Y92.386 E0.40846
G1 X91.650 Y92.490 E0.46836
G1 X91.738 Y92.497 E0.47239 F378.000
G1 X93.022 Y92.829 E0.53236
G1 X94.183 Y93.381 E0.59054
G1 X95.202 Y94.143 E0.64812
G1 X96.058 Y95.107 E0.70648
G1 X96.639 Y96.088 E0.75803
G1 X95.335 Y96.737 E0.82394
G1 X94.165 Y95.102 E0.91491
G1 X92.479 Y94.000 E1.00604
G1 X90.434 Y93.635 E1.10006
G1 X88.810 Y93.832 E1.17409
G1 X87.420 Y94.425 E1.24246
G1 X86.273 Y95.414 E1.31103
G1 X85.421 Y96.722 E1.38165
G1 X84.913 Y98.274 E1.45553
G1 X84.746 Y100.064 E1.53685
G1 X84.907 Y101.863 E1.61858
G1 X85.394 Y103.401 E1.69159
G1 X86.214 Y104.672 E1.76003
G1 X87.334 Y105.620 E1.82643
G1 X88.714 Y106.187 E1.89396
G1 X90.336 Y106.374 E1.96784
G1 X91.408 Y106.293 E2.01646
G1 X92.380 Y106.050 E2.06182
G1 X93.256 Y105.642 E2.10554
G1 X94.009 Y105.077 E2.14815
G1 X94.612 Y104.364 E2.19041
G1 X94.962 Y103.697 E2.22446
G1 X96.490 Y104.202 E2.29727
G1 X96.017 Y105.088 E2.34272
G1 X95.246 Y105.989 E2.39638
G1 X94.290 Y106.694 E2.45016
G1 X93.149 Y107.204 E2.50669
G1 X91.826 Y107.511 E2.56814
G1 X90.324 Y107.614 E2.63628
G1 X88.210 Y107.390 E2.73248
G1 X86.443 Y106.723 E2.81790
G1 X85.010 Y105.616 E2.89985
G1 X83.949 Y104.118 E2.98291
G1 X83.310 Y102.270 E3.07139
G1 X83.094 Y100.061 E3.17183
G1 X83.191 Y98.546 E3.24052
G1 X83.431 Y97.402 E3.29341
G1 X84.980 Y102.936 F7800.000
G1 X83.462 Y101.418 E3.39059 F540.000
G1 X83.403 Y100.813 E3.41809
G1 X84.727 Y102.137 E3.50283
G1 X84.640 Y101.505 E3.53171
G1 X83.344 Y100.209 E3.61469
G1 X83.341 Y99.660 E3.63952
G1 X84.587 Y100.906 E3.71925
G1 X84.533 Y100.306 E3.74648
G1 X83.374 Y99.147 E3.82070
G1 X83.406 Y98.634 E3.84397
G1 X84.553 Y99.780 E3.91735
G1 X84.599 Y99.282 E3.94003
G1 X83.485 Y98.168 E4.01134
G1 X83.580 Y97.717 E4.03220
G1 X84.646 Y98.783 E4.10044
G1 X84.695 Y98.286 E4.12305
G1 X83.675 Y97.266 E4.18833
G1 X83.817 Y96.863 E4.20768
G1 X84.829 Y97.875 E4.27245
G1 X84.964 Y97.463 E4.29203
G1 X83.971 Y96.471 E4.35560
G1 X84.124 Y96.078 E4.37466
G1 X85.098 Y97.052 E4.43703
G1 X85.238 Y96.647 E4.45644
G1 X84.323 Y95.732 E4.51502
G1 X84.532 Y95.395 E4.53296
G1 X85.453 Y96.316 E4.59193
G1 X85.668 Y95.986 E4.60978
G1 X84.741 Y95.059 E4.66915
G1 X84.996 Y94.768 E4.68665
G1 X85.883 Y95.656 E4.74344
G1 X86.099 Y95.325 E4.76129
G1 X85.265 Y94.492 E4.81463
G1 X85.538 Y94.219 E4.83209
G1 X86.384 Y95.065 E4.88622
G1 X86.677 Y94.812 E4.90373
G1 X85.838 Y93.973 E4.95742
G1 X86.158 Y93.748 E4.97515
G1 X86.970 Y94.560 E5.02710
G1 X87.263 Y94.307 E5.04461
G1 X86.479 Y93.523 E5.09482
G1 X86.851 Y93.349 E5.11340
G1 X87.622 Y94.121 E5.16281
G1 X88.005 Y93.958 E5.18162
G1 X87.228 Y93.181 E5.23133
G1 X87.606 Y93.013 E5.25004
G1 X88.387 Y93.794 E5.30004
G1 X88.769 Y93.631 E5.31886
G1 X88.045 Y92.907 E5.36522
G1 X88.485 Y92.802 E5.38572
G1 X89.244 Y93.561 E5.43430
G1 X89.731 Y93.502 E5.45649
G1 X88.936 Y92.707 E5.50735
G1 X89.445 Y92.670 E5.53045
G1 X90.217 Y93.443 E5.57988
G1 X90.770 Y93.449 E5.60488
G1 X89.954 Y92.634 E5.65708
G1 X90.498 Y92.632 E5.68172
G1 X91.434 Y93.568 E5.74160
G1 X92.098 Y93.686 E5.77215
G1 X91.091 Y92.679 E5.83663
G1 X91.702 Y92.745 E5.86445
G1 X92.879 Y93.922 E5.93980
G1 X93.314 Y93.266 F7800.000
G1 X96.155 Y96.107 E6.12171 F540.000
G1 X95.791 Y96.288 E6.14013
G1 X94.308 Y94.805 E6.23511
G1 X94.455 Y94.952 F7800.000
G1 X92.438 Y92.935 E6.36424 F540.000
G1 X94.798 Y94.204 F7800.000
G1 X95.298 Y94.704 E6.39622 F540.000
G92 E0
G1 X95.343 Y104.639 F7800.000
G1 X95.343 Y104.639 F7800.000
G1 X95.445 Y104.126 F7800.000
G1 X96.007 Y104.688 E0.03597 F540.000
G1 X95.809 Y105.035 E0.05407
G1 X94.939 Y104.166 E0.10974
G1 X94.739 Y104.511 E0.12782
G1 X95.557 Y105.329 E0.18018
G1 X95.306 Y105.623 E0.19769
G1 X94.489 Y104.807 E0.24995
G1 X94.239 Y105.103 E0.26748
G1 X95.035 Y105.898 E0.31839
G1 X94.725 Y106.133 E0.33601
G1 X93.952 Y105.361 E0.38546
G1 X93.641 Y105.595 E0.40310
G1 X94.411 Y106.365 E0.45239
G1 X94.073 Y106.573 E0.47035
G1 X93.328 Y105.828 E0.51801
G1 X92.956 Y106.001 E0.53660
G1 X93.695 Y106.741 E0.58395
G1 X93.318 Y106.909 E0.60265
G1 X92.584 Y106.175 E0.64967
G1 X92.179 Y106.315 E0.66908
G1 X92.908 Y107.044 E0.71576
G1 X92.465 Y107.147 E0.73634
G1 X91.742 Y106.424 E0.78262
G1 X91.294 Y106.522 E0.80337
G1 X92.023 Y107.250 E0.84997
G1 X91.537 Y107.310 E0.87214
G1 X90.787 Y106.561 E0.92011
G1 X90.280 Y106.599 E0.94314
G1 X91.026 Y107.345 E0.99091
G1 X90.515 Y107.380 E1.01407
G1 X89.670 Y106.535 E1.06819
G1 X89.054 Y106.464 E1.09628
G1 X89.925 Y107.335 E1.15209
G1 X89.315 Y107.271 E1.17988
G1 X88.378 Y106.334 E1.23987
G1 X87.451 Y105.953 F7800.000
G1 X88.705 Y107.206 E1.32009 F540.000
G1 X87.977 Y107.024 E1.35404
G1 X83.772 Y102.819 E1.62326
G1 X83.521 Y102.022 E1.66106
G1 X85.343 Y103.845 E1.77775
G1 X84.061 Y103.653 F7800.000
G1 X87.101 Y106.693 E1.97236 F540.000
G1 X85.441 Y105.580 F7800.000
G1 X85.083 Y105.222 E1.99528 F540.000
G92 E0
G1 X93.221 Y107.418 F7800.000
G1 X96.613 Y107.798 F7800.000
G1 X98.977 Y106.696 F7800.000
G1 X101.732 Y107.648 F7800.000
G1 X103.924 Y107.648 F7800.000
G1 X104.149 Y101.348 F7800.000
G1 X104.149 Y92.577 E0.39686 F378.000
G1 X105.770 Y92.577 E0.47021
G1 X105.770 Y98.940 E0.75813
G1 X110.894 Y98.940 E0.98997 F378.000
G1 X114.870 Y92.577 E1.32948
G1 X116.714 Y92.577 E1.41291
G1 X112.428 Y99.088 E1.76562
G1 X113.785 Y99.461 E1.82928
G1 X114.652 Y99.924 E1.87378
G1 X115.357 Y100.565 E1.91688
G1 X115.878 Y101.351 E1.95957
G1 X116.192 Y102.254 E2.00280
G1 X116.297 Y103.277 E2.04934
G1 X116.148 Y104.492 E2.10472
G1 X115.706 Y105.500 E2.15451
G1 X114.972 Y106.318 E2.20427
G1 X113.957 Y106.927 E2.25780
G1 X112.677 Y107.297 E2.31811
G1 X111.116 Y107.423 E2.38896
G1 X104.149 Y107.423 E2.70421
G1 X104.149 Y101.579 E2.96867
G1 X105.770 Y101.579 F7800.000
G1 X105.770 Y100.127 E3.03435 F378.000
G1 X111.016 Y100.127 E3.27170 F378.000
G1 X112.060 Y100.215 E3.31912
G1 X112.957 Y100.485 E3.36152
G1 X113.692 Y100.943 E3.40072
G1 X114.236 Y101.573 E3.43840
G1 X114.562 Y102.349 E3.47647
G1 X114.668 Y103.258 E3.51784
G1 X114.560 Y104.137 E3.55792
G1 X114.228 Y104.880 E3.59475
G1 X113.674 Y105.469 E3.63136
G1 X112.902 Y105.901 E3.67136
G1 X112.005 Y106.134 E3.71329
G1 X110.928 Y106.214 E3.76219
G1 X105.770 Y106.214 E3.99556
G1 X105.770 Y101.810 E4.19486
G1 X105.544 Y98.824 F7800.000
G1 X104.375 Y97.655 E4.27022 F540.000
G1 X104.375 Y97.105 E4.29526
G1 X105.544 Y98.274 E4.37062
G1 X105.544 Y97.725 E4.39566
G1 X104.375 Y96.556 E4.47102
G1 X104.375 Y96.007 E4.49606
G1 X105.544 Y97.176 E4.57142
G1 X105.544 Y96.626 E4.59646
G1 X104.375 Y95.457 E4.67182
G1 X104.375 Y94.908 E4.69686
G1 X105.544 Y96.077 E4.77222
G1 X105.544 Y95.528 E4.79726
G1 X104.375 Y94.359 E4.87262
G1 X104.375 Y93.809 E4.89766
G1 X105.544 Y94.978 E4.97302
G1 X105.544 Y94.429 E4.99806
G1 X104.375 Y93.260 E5.07342
G1 X104.468 Y92.803 E5.09467
G1 X105.544 Y93.880 E5.16407
G1 X105.544 Y93.330 E5.18911
G1 X105.017 Y92.803 E5.22310
G92 E0
G1 X104.995 Y93.352 F7800.000
G1 X104.995 Y93.352 F7800.000
G1 X112.996 Y100.232 F7800.000
G1 X111.991 Y99.227 E0.06477 F540.000
G1 X112.277 Y98.964 E0.08249
G1 X111.558 Y98.245 E0.12882
G1 X111.769 Y97.907 E0.14699
G1 X112.495 Y98.633 E0.19376
G1 X112.713 Y98.302 E0.21184
G1 X111.981 Y97.569 E0.25905
G1 X112.192 Y97.231 E0.27722
G1 X112.931 Y97.970 E0.32487
G1 X113.149 Y97.639 E0.34294
G1 X112.403 Y96.893 E0.39103
G1 X112.614 Y96.555 E0.40920
G1 X113.367 Y97.308 E0.45773
G1 X113.585 Y96.976 E0.47580
G1 X112.826 Y96.217 E0.52477
G1 X113.037 Y95.879 E0.54294
G1 X113.803 Y96.645 E0.59234
G1 X114.021 Y96.314 E0.61042
G1 X113.248 Y95.541 E0.66026
G1 X113.459 Y95.203 E0.67843
G1 X114.239 Y95.983 E0.72871
G1 X114.458 Y95.651 E0.74679
G1 X113.671 Y94.864 E0.79750
G1 X113.882 Y94.526 E0.81568
G1 X114.676 Y95.320 E0.86683
G1 X114.894 Y94.989 E0.88491
G1 X114.093 Y94.188 E0.93651
G1 X114.304 Y93.850 E0.95468
G1 X115.112 Y94.657 E1.00671
G1 X115.330 Y94.326 E1.02479
G1 X114.516 Y93.512 E1.07726
G1 X114.727 Y93.174 E1.09543
G1 X115.548 Y93.995 E1.14834
G1 X115.766 Y93.664 E1.16642
G1 X114.938 Y92.836 E1.21977
G1 X115.455 Y92.803 E1.24335
G1 X115.984 Y93.332 E1.27747
G1 X116.004 Y92.803 E1.30162
G1 X116.202 Y93.001 E1.31438
G92 E0
G1 X115.043 Y101.494 F7800.000
G1 X115.043 Y101.494 F7800.000
G1 X113.507 Y99.644 F7800.000
G1 X115.815 Y101.953 E0.14880 F540.000
G1 X116.000 Y102.688 E0.18334
G1 X112.749 Y99.436 E0.39295
G1 X112.059 Y99.295 E0.42504
G1 X111.347 Y98.583 E0.47093
G1 X111.136 Y98.921 E0.48911
G1 X112.210 Y99.995 E0.55833
G1 X111.608 Y99.943 E0.58588
G1 X110.831 Y99.166 E0.63595
G1 X110.281 Y99.166 E0.66099
G1 X111.016 Y99.901 E0.70838
G1 X110.467 Y99.901 E0.73342
G1 X109.732 Y99.166 E0.78080
G1 X109.183 Y99.166 E0.80584
G1 X109.918 Y99.901 E0.85322
G1 X109.368 Y99.901 E0.87826
G1 X108.633 Y99.166 E0.92565
G1 X108.084 Y99.166 E0.95069
G1 X108.819 Y99.901 E0.99807
G1 X108.270 Y99.901 E1.02311
G1 X107.535 Y99.166 E1.07050
G1 X106.985 Y99.166 E1.09554
G1 X107.720 Y99.901 E1.14292
G1 X107.171 Y99.901 E1.16796
G1 X106.436 Y99.166 E1.21535
G1 X105.887 Y99.166 E1.24039
G1 X106.622 Y99.901 E1.28777
G1 X106.072 Y99.901 E1.31281
G1 X104.375 Y98.204 E1.42220
G1 X104.375 Y98.753 E1.44724
G1 X105.544 Y99.922 E1.52260
G1 X105.544 Y100.472 E1.54764
G1 X104.375 Y99.303 E1.62301
G1 X104.375 Y99.852 E1.64804
G1 X105.544 Y101.021 E1.72341
G1 X105.544 Y101.570 E1.74844
G1 X104.375 Y100.401 E1.82381
G1 X104.375 Y100.951 E1.84884
G1 X105.544 Y102.120 E1.92421
G1 X105.544 Y102.669 E1.94925
G1 X104.375 Y101.500 E2.02461
G1 X104.375 Y102.049 E2.04965
G1 X105.544 Y103.218 E2.12501
G1 X105.544 Y103.768 E2.15005
G1 X104.375 Y102.599 E2.22541
G1 X104.375 Y103.148 E2.25045
G1 X105.544 Y104.317 E2.32581
G1 X105.544 Y104.866 E2.35085
G1 X104.375 Y103.697 E2.42621
G1 X104.375 Y104.247 E2.45125
G1 X105.544 Y105.416 E2.52661
G1 X105.544 Y105.965 E2.55165
G1 X104.375 Y104.796 E2.62701
G1 X104.375 Y105.345 E2.65205
G1 X106.227 Y107.197 E2.77140
G1 X106.776 Y107.197 E2.79644
G1 X106.019 Y106.440 E2.84524
G1 X106.569 Y106.440 E2.87028
G1 X107.326 Y107.197 E2.91909
G1 X107.875 Y107.197 E2.94413
G1 X107.118 Y106.440 E2.99293
G1 X107.667 Y106.440 E3.01797
G1 X108.424 Y107.197 E3.06677
G1 X108.974 Y107.197 E3.09181
G1 X108.217 Y106.440 E3.14061
G1 X108.766 Y106.440 E3.16565
G1 X109.523 Y107.197 E3.21446
G1 X110.072 Y107.197 E3.23950
G1 X109.315 Y106.440 E3.28830
G1 X109.865 Y106.440 E3.31334
G1 X110.622 Y107.197 E3.36214
G1 X111.171 Y107.197 E3.38718
G1 X110.414 Y106.440 E3.43598
G1 X110.956 Y106.433 E3.46069
G1 X111.680 Y107.157 E3.50740
G1 X112.189 Y107.116 E3.53064
G1 X111.467 Y106.395 E3.57715
G1 X111.978 Y106.356 E3.60050
G1 X112.697 Y107.075 E3.64685
G1 X113.124 Y106.953 E3.66710
G1 X112.414 Y106.243 E3.71286
G1 X112.850 Y106.130 E3.73340
G1 X113.550 Y106.830 E3.77852
G1 X113.964 Y106.694 E3.79838
G1 X113.219 Y105.949 E3.84643
G1 X113.571 Y105.752 E3.86483
G1 X114.308 Y106.488 E3.91230
G1 X114.651 Y106.282 E3.93055
G1 X113.889 Y105.520 E3.97964
G1 X114.155 Y105.237 E3.99735
G1 X114.952 Y106.034 E4.04871
G1 X115.220 Y105.753 E4.06642
G1 X114.416 Y104.948 E4.11828
G1 X114.585 Y104.569 E4.13723
G1 X115.480 Y105.464 E4.19492
G1 X115.664 Y105.098 E4.21357
G1 X114.755 Y104.189 E4.27216
G1 X114.830 Y103.714 E4.29405
G1 X115.831 Y104.716 E4.35860
G1 X115.954 Y104.290 E4.37882
G1 X114.890 Y103.225 E4.44742
G1 X114.830 Y102.616 E4.47531
G1 X116.014 Y103.800 E4.55163
G1 X116.063 Y103.300 E4.57455
G1 X114.656 Y101.893 E4.66524
G92 E0
G1 X104.995 Y106.648 F7800.000
G1 X104.995 Y106.648 F7800.000
G1 X104.960 Y106.612 F7800.000
G1 X104.924 Y106.648 F7800.000
G1 X104.375 Y105.895 F7800.000
G1 X105.678 Y107.197 E0.08395 F540.000
G1 X105.128 Y107.197 E0.10898
G1 X104.375 Y106.444 E0.15752
G1 X104.375 Y106.993 E0.18256
G1 X104.579 Y107.197 E0.19568
M106 S255
G92 E0
G1 Z0.600 F7800.000
G1 X95.940 Y103.783 F7800.000
G1 X95.183 Y104.879 E0.39909 F600.000
G1 X94.720 Y105.424 E0.61327
G1 X94.596 Y105.540 E0.66423
G1 X93.919 Y106.059 E0.91980
G1 X93.526 Y106.278 E1.05466
G1 X92.930 Y106.551 E1.25121
G1 X92.517 Y106.685 E1.38131
G1 X91.731 Y106.874 E1.62348
G1 X91.435 Y106.915 E1.71288
G1 X90.335 Y106.992 E2.04329
G1 X88.674 Y106.811 E2.54418
G1 X88.362 Y106.749 E2.63946
G1 X87.111 Y106.256 E3.04241
G1 X86.794 Y106.095 E3.14884
G1 X85.761 Y105.260 E3.54707
G1 X85.568 Y105.081 E3.62574
G1 X84.741 Y103.857 E4.06830
G1 X84.671 Y103.747 E4.10737
G1 X84.622 Y103.614 E4.14996
G1 X84.118 Y102.094 E4.62983
G1 X83.922 Y100.047 E5.24586
G1 X84.029 Y98.660 E5.66270
G1 X84.143 Y97.996 E5.86469
G1 X84.297 Y97.420 E6.04323
G1 X84.698 Y96.325 E6.39259
G1 X85.279 Y95.408 E6.71790
G1 X85.592 Y95.010 E6.86979
G1 X85.966 Y94.624 E7.03066
G1 X86.809 Y93.966 E7.35121
G1 X87.175 Y93.761 E7.47683
G1 X87.825 Y93.477 E7.68948
G1 X88.525 Y93.246 E7.91034
G1 X88.993 Y93.144 E8.05389
G1 X90.328 Y93.015 E8.45567
G1 X90.576 Y93.029 E8.53032
G1 X91.627 Y93.164 E8.84758
G1 X92.546 Y93.364 E9.12967
G1 X92.799 Y93.440 E9.20884
G1 X93.807 Y94.003 E9.55475
G1 X94.511 Y94.496 E9.81218
G1 X94.720 Y94.666 E9.89305
G1 X95.436 Y95.561 E10.23635
G1 X96.114 Y96.600 E10.60817
G92 E0
G1 X96.956 Y96.181 F7800.000
G1 X100.100 Y93.985 F7800.000
G1 X101.732 Y92.352 F7800.000
G1 X103.924 Y92.352 F7800.000
G1 X104.960 Y92.352 F7800.000
G1 X104.960 Y98.715 E1.90665 F600.000
G1 X105.811 Y103.021 E3.22178
G92 E0
G1 X104.995 Y106.648 F7800.000
G1 X104.995 Y106.648 F7800.000
G1 X110.791 Y98.681 F7800.000
G1 X112.093 Y99.535 E0.46681 F600.000
G1 X112.263 Y99.623 E0.52397
G1 X112.568 Y99.745 E0.62257
G1 X113.311 Y99.974 E0.85547
G1 X113.540 Y100.075 E0.93039
G1 X114.021 Y100.352 E1.09669
G1 X114.244 Y100.504 E1.17751
G1 X114.783 Y101.057 E1.40910
G1 X114.947 Y101.314 E1.50048
G1 X115.158 Y101.708 E1.63419
G1 X115.276 Y102.016 E1.73299
G1 X115.391 Y102.431 E1.86219
G1 X115.479 Y103.269 E2.11449
G1 X115.357 Y104.275 E2.41825
G1 X115.024 Y105.060 E2.67378
G1 X114.957 Y105.164 E2.71088
G1 X114.754 Y105.426 E2.81035
G1 X114.481 Y105.723 E2.93107
G1 X113.984 Y106.096 E3.11711
G1 X113.674 Y106.276 E3.22483
G1 X113.064 Y106.516 E3.42117
G1 X112.560 Y106.657 E3.57799
G1 X112.185 Y106.721 E3.69193
G1 X110.919 Y106.818 E4.07231
G1 X105.995 Y106.818 E5.54777
G1 X105.033 Y106.539 E5.84802
G1 X104.960 Y105.989 E6.01439
G1 X104.960 Y100.352 E7.70349
G1 X105.122 Y99.533 E7.95349
G1 X110.769 Y99.533 E9.64582
G1 X111.077 Y99.506 E9.73848
G1 X111.724 Y99.293 E9.94246
G1 X112.019 Y98.448 E10.21060
G1 X115.929 Y92.352 E12.38072
G92 E0
G1 Z0.900 F7800.000
G1 X95.940 Y103.783 F7800.000
G1 X95.183 Y104.879 E0.39909 F600.000
G1 X94.720 Y105.424 E0.61327
G1 X94.596 Y105.540 E0.66423
G1 X93.919 Y106.059 E0.91980
G1 X93.526 Y106.278 E1.05466
G1 X92.930 Y106.551 E1.25121
G1 X92.517 Y106.685 E1.38131
G1 X91.731 Y106.874 E1.62348
G1 X91.435 Y106.915 E1.71288
G1 X90.335 Y106.992 E2.04329
G1 X88.674 Y106.811 E2.54418
G1 X88.362 Y106.749 E2.63946
G1 X87.111 Y106.256 E3.04241
G1 X86.794 Y106.095 E3.14884
G1 X85.761 Y105.260 E3.54707
G1 X85.568 Y105.081 E3.62574
G1 X84.741 Y103.857 E4.06830
G1 X84.671 Y103.747 E4.10737
G1 X84.622 Y103.614 E4.14996
G1 X84.118 Y102.094 E4.62983
G1 X83.922 Y100.047 E5.24586
G1 X84.029 Y98.660 E5.66270
G1 X84.143 Y97.996 E5.86469
G1 X84.297 Y97.420 E6.04323
G1 X84.698 Y96.325 E6.39259
G1 X85.279 Y95.408 E6.71790
G1 X85.592 Y95.010 E6.86979
G1 X85.966 Y94.624 E7.03066
G1 X86.809 Y93.966 E7.35122
G1 X87.175 Y93.761 E7.47683
G1 X87.825 Y93.477 E7.68948
G1 X88.525 Y93.246 E7.91034
G1 X88.993 Y93.144 E8.05389
