; generated by Slic3r 1.2.9 on 2016-03-11 at 01:23:16

; external perimeters extrusion width = 1.54mm
; perimeters extrusion width = 2.62mm
; infill extrusion width = 6.27mm
; solid infill extrusion width = 2.62mm
; top infill extrusion width = 2.62mm

M107
M104 S30 ; set temperature
G28 ; home all axes
G1 Z5 F5000 ; lift nozzle
M302
M92 E10000
M500
M501
G1 E100
M109 S30 ; wait for temperature to be reached
G21 ; set units to millimeters
G90 ; use absolute coordinates
M82 ; use absolute distances for extrusion
G92 E0
G1 Z0.300 F7800.000
G1 X105.380 Y101.628 F7800.000
G1 X105.718 Y101.265 E0.02244 F378.000
G1 X106.100 Y100.966 E0.04438
G1 X106.571 Y100.681 E0.06928
G1 X107.132 Y100.413 E0.09740
G1 X107.835 Y100.153 E0.13136
G1 X108.736 Y99.890 E0.17384
G1 X111.735 Y99.180 E0.31328
G1 X112.290 Y99.030 E0.33928
G1 X112.796 Y98.855 E0.36349
G1 X113.253 Y98.655 E0.38606
G1 X113.659 Y98.420 E0.40730
G1 X114.007 Y98.141 E0.42747
G1 X114.294 Y97.817 E0.44708
G1 X114.508 Y97.431 E0.46704
G1 X114.634 Y96.981 E0.48819
G1 X114.676 Y96.468 E0.51151
G1 X114.546 Y95.589 E0.55170
G1 X114.145 Y94.847 E0.58984
G1 X113.487 Y94.270 E0.62947
G1 X112.610 Y93.866 E0.67317
G1 X111.540 Y93.629 E0.72275
G1 X110.276 Y93.551 E0.78004
G1 X109.046 Y93.624 E0.83581
G1 X107.988 Y93.847 E0.88473
G1 X107.101 Y94.225 E0.92835
G1 X106.390 Y94.774 E0.96899
G1 X105.863 Y95.498 E1.00953
G1 X105.603 Y96.185 E1.04275
G1 X104.076 Y95.880 E1.11323
G1 X105.022 Y94.045 E1.20663
G1 X107.081 Y92.808 E1.31533
G1 X110.207 Y92.386 E1.45808
G1 X111.894 Y92.503 E1.53461
G1 X112.014 Y92.512 E1.54001 F378.000
G1 X113.518 Y92.886 E1.61019
G1 X114.716 Y93.502 E1.67112
G1 X115.582 Y94.330 E1.72532
G1 X116.098 Y95.351 E1.77709
G1 X116.273 Y96.593 E1.83386
G1 X116.249 Y97.090 E1.85637
G1 X116.176 Y97.546 E1.87726
G1 X116.054 Y97.953 E1.89647
G1 X115.891 Y98.320 E1.91466
G1 X115.692 Y98.653 E1.93221
G1 X115.455 Y98.952 E1.94946
G1 X115.183 Y99.220 E1.96676
G1 X114.879 Y99.461 E1.98430
G1 X114.541 Y99.675 E2.00240
G1 X114.177 Y99.867 E2.02102
G1 X113.380 Y100.205 E2.06018
G1 X112.521 Y100.480 E2.10102
G1 X109.421 Y101.222 E2.24525
G1 X108.474 Y101.487 E2.28974
G1 X107.827 Y101.724 E2.32092
G1 X107.368 Y101.967 E2.34443
G1 X106.981 Y102.246 E2.36602
G1 X106.665 Y102.568 E2.38643
G1 X106.430 Y102.947 E2.40659
G1 X106.290 Y103.384 E2.42737
G1 X106.243 Y103.877 E2.44978
G1 X106.360 Y104.675 E2.48628
G1 X106.718 Y105.346 E2.52072
G1 X107.308 Y105.864 E2.55624
G1 X108.098 Y106.224 E2.59551
G1 X109.069 Y106.434 E2.64044
G1 X110.222 Y106.503 E2.69271
G1 X111.281 Y106.441 E2.74074
G1 X112.188 Y106.250 E2.78266
G1 X112.943 Y105.925 E2.81984
G1 X113.551 Y105.449 E2.85479
G1 X114.011 Y104.813 E2.89032
G1 X114.245 Y104.221 E2.91909
G1 X115.830 Y104.500 E2.99191
G1 X115.482 Y105.373 E3.03443
G1 X114.874 Y106.231 E3.08201
G1 X114.098 Y106.848 E3.12687
G1 X113.096 Y107.270 E3.17609
G1 X111.810 Y107.528 E3.23542
G1 X110.244 Y107.615 E3.30637
G1 X108.560 Y107.499 E3.38275
G1 X107.174 Y107.157 E3.44734
G1 X106.084 Y106.595 E3.50283
G1 X105.303 Y105.839 E3.55201
G1 X104.837 Y104.901 E3.59941
G1 X104.679 Y103.754 E3.65181
G1 X104.708 Y103.243 E3.67499
G1 X104.798 Y102.768 E3.69683
G1 X104.946 Y102.338 E3.71742
G1 X105.150 Y101.947 E3.73740
G1 X105.245 Y101.815 E3.74473
G1 X107.143 Y100.628 F7800.000
G1 X107.971 Y101.455 E3.79801 F540.000
G1 X107.592 Y101.625 E3.81693
G1 X106.772 Y100.805 E3.86974
G1 X106.419 Y101.001 E3.88812
G1 X107.239 Y101.821 E3.94093
G1 X106.920 Y102.051 E3.95884
G1 X106.088 Y101.220 E4.01241
G1 X105.789 Y101.469 E4.03016
G1 X106.640 Y102.320 E4.08495
G1 X106.398 Y102.627 E4.10276
G1 X105.526 Y101.755 E4.15892
G1 X105.303 Y102.081 E4.17690
G1 X106.204 Y102.981 E4.23490
G1 X106.070 Y103.397 E4.25478
G1 X105.123 Y102.450 E4.31578
G1 X104.995 Y102.870 E4.33580
G1 X106.022 Y103.897 E4.40195
G1 X106.096 Y104.521 E4.43053
G1 X104.924 Y103.349 E4.50602
G1 X104.941 Y103.915 E4.53181
G1 X106.447 Y105.420 E4.62880
G1 X107.080 Y106.054 F7800.000
G1 X108.175 Y107.149 E4.69931 F540.000
G1 X108.037 Y106.461 E4.73123
G1 X108.863 Y107.288 E4.78444
G1 X109.452 Y107.328 E4.81134
G1 X108.738 Y106.613 E4.85736
G1 X109.356 Y106.683 E4.88570
G1 X110.042 Y107.368 E4.92985
G1 X110.595 Y107.373 E4.95507
G1 X109.940 Y106.718 E4.99727
G1 X110.481 Y106.710 E5.02190
G1 X111.115 Y107.344 E5.06277
G1 X111.635 Y107.315 E5.08649
G1 X110.999 Y106.679 E5.12748
G1 X111.483 Y106.614 E5.14970
G1 X112.119 Y107.250 E5.19067
G1 X112.576 Y107.158 E5.21191
G1 X111.936 Y106.518 E5.25312
G1 X112.360 Y106.394 E5.27325
G1 X113.033 Y107.066 E5.31658
G1 X113.428 Y106.912 E5.33588
G1 X112.744 Y106.229 E5.37990
G1 X113.106 Y106.042 E5.39846
G1 X113.814 Y106.750 E5.44403
G1 X114.163 Y106.550 E5.46235
G1 X113.414 Y105.801 E5.51059
G1 X113.714 Y105.552 E5.52834
G1 X114.469 Y106.307 E5.57693
G1 X114.756 Y106.045 E5.59462
G1 X113.945 Y105.234 E5.64684
G1 X114.176 Y104.916 E5.66474
G1 X114.991 Y105.731 E5.71725
G1 X115.219 Y105.410 E5.73518
G1 X114.339 Y104.531 E5.79182
G1 X114.948 Y104.590 E5.81965
G1 X115.398 Y105.040 E5.84865
G92 E0
G1 X114.235 Y98.952 F7800.000
G1 X114.235 Y98.952 F7800.000
G1 X113.561 Y99.910 F7800.000
G1 X112.740 Y99.089 E0.05287 F540.000
G1 X113.128 Y98.928 E0.07198
G1 X113.947 Y99.747 E0.12472
G1 X114.318 Y99.569 E0.14347
G1 X113.492 Y98.743 E0.19669
G1 X113.829 Y98.531 E0.21482
G1 X114.664 Y99.367 E0.26863
G1 X114.981 Y99.135 E0.28652
G1 X114.133 Y98.287 E0.34111
G1 X114.392 Y97.996 E0.35882
G1 X115.265 Y98.869 E0.41506
G1 X115.513 Y98.568 E0.43282
G1 X114.605 Y97.661 E0.49127
G1 X114.767 Y97.274 E0.51038
G1 X115.716 Y98.223 E0.57150
G1 X115.875 Y97.833 E0.59067
G1 X114.867 Y96.825 E0.65558
G1 X114.893 Y96.302 E0.67943
G1 X115.984 Y97.393 E0.74966
G1 X116.036 Y96.896 E0.77239
G1 X114.798 Y95.658 E0.85216
G1 X114.366 Y94.677 F7800.000
G1 X115.992 Y96.303 E0.95687 F540.000
G1 X115.901 Y95.664 E0.98626
G1 X113.337 Y93.099 E1.15144
G1 X114.601 Y93.815 F7800.000
G1 X115.442 Y94.655 E1.20557 F540.000
G1 X114.077 Y94.389 F7800.000
G1 X112.603 Y92.914 E1.30055 F540.000
G1 X111.874 Y92.734 E1.33472
G1 X112.798 Y93.658 E1.39422
G1 X112.090 Y93.499 E1.42725
G1 X111.284 Y92.693 E1.47915
G1 X110.694 Y92.652 E1.50608
G1 X111.433 Y93.390 E1.55362
G1 X110.847 Y93.354 E1.58032
G1 X110.110 Y92.617 E1.62781
G1 X109.626 Y92.682 E1.65004
G1 X110.273 Y93.329 E1.69171
G1 X109.755 Y93.360 E1.71534
G1 X109.143 Y92.747 E1.75479
G1 X108.659 Y92.813 E1.77702
G1 X109.238 Y93.391 E1.81426
G1 X108.765 Y93.468 E1.83605
G1 X108.176 Y92.878 E1.87403
G1 X107.692 Y92.943 E1.89626
G1 X108.312 Y93.563 E1.93619
G1 X107.877 Y93.677 E1.95668
G1 X107.208 Y93.009 E1.99971
G1 X106.835 Y93.184 E2.01851
G1 X107.492 Y93.841 E2.06081
G1 X107.107 Y94.005 E2.07986
G1 X106.492 Y93.390 E2.11947
G1 X106.149 Y93.596 E2.13769
G1 X106.781 Y94.228 E2.17841
G1 X106.472 Y94.467 E2.19624
G1 X105.806 Y93.802 E2.23909
G1 X105.463 Y94.008 E2.25730
G1 X106.184 Y94.728 E2.30370
G1 X105.953 Y95.046 E2.32160
G1 X105.146 Y94.239 E2.37358
G1 X104.958 Y94.600 E2.39211
G1 X105.722 Y95.364 E2.44131
G1 X105.554 Y95.745 E2.46027
G1 X104.771 Y94.962 E2.51067
G1 X104.584 Y95.324 E2.52922
G1 X105.095 Y95.835 E2.56212
G92 E0
G1 X106.573 Y101.585 F7800.000
G1 X106.573 Y101.585 F7800.000
G1 X107.542 Y100.478 F7800.000
G1 X108.372 Y101.308 E0.05349 F540.000
G1 X108.795 Y101.182 E0.07358
G1 X107.948 Y100.335 E0.12815
G1 X108.373 Y100.211 E0.14830
G1 X109.224 Y101.062 E0.20313
G1 X109.661 Y100.950 E0.22365
G1 X108.801 Y100.090 E0.27904
G1 X109.245 Y99.985 E0.29981
G1 X110.104 Y100.844 E0.35513
G1 X110.546 Y100.738 E0.37588
G1 X109.688 Y99.880 E0.43114
G1 X110.132 Y99.775 E0.45191
G1 X110.989 Y100.632 E0.50712
G1 X111.432 Y100.526 E0.52786
G1 X110.576 Y99.670 E0.58301
G1 X111.020 Y99.564 E0.60378
G1 X111.875 Y100.420 E0.65887
G1 X112.318 Y100.314 E0.67962
G1 X111.464 Y99.459 E0.73465
G1 X111.903 Y99.349 E0.75526
G1 X112.746 Y100.193 E0.80959
G1 X113.162 Y100.060 E0.82946
G1 X112.332 Y99.230 E0.88289
G1 X106.573 Y101.585 F7800.000
G1 X105.549 Y102.967 F7800.000
G1 X105.029 Y104.551 F7800.000
G1 X107.446 Y106.969 E1.03857 F540.000
G1 X106.359 Y106.430 F7800.000
G1 X105.446 Y105.517 E1.09738 F540.000
G92 E0
G1 X104.580 Y102.711 F7800.000
G1 X100.626 Y94.437 F7800.000
G1 X99.038 Y93.054 F7800.000
G1 X97.256 Y92.279 F7800.000
G1 X95.939 Y91.841 F7800.000
G1 X94.932 Y93.187 F7800.000
G1 X85.824 Y94.280 F7800.000
G1 X86.072 Y94.017 E0.01633 F378.000
G1 X87.072 Y93.314 E0.07165
G1 X88.228 Y92.799 E0.12892
G1 X89.524 Y92.489 E0.18924
G1 X90.962 Y92.386 E0.25447
G1 X92.282 Y92.490 E0.31437
G1 X92.371 Y92.497 E0.31840 F378.000
G1 X93.654 Y92.829 E0.37838
G1 X94.815 Y93.381 E0.43656
G1 X95.835 Y94.143 E0.49414
G1 X96.690 Y95.107 E0.55249
G1 X97.271 Y96.088 E0.60405
G1 X95.968 Y96.737 E0.66996
G1 X94.798 Y95.102 E0.76092
G1 X93.112 Y94.000 E0.85206
G1 X91.067 Y93.635 E0.94608
G1 X89.443 Y93.832 E1.02010
G1 X88.053 Y94.425 E1.08848
G1 X86.905 Y95.414 E1.15705
G1 X86.054 Y96.722 E1.22766
G1 X85.546 Y98.274 E1.30155
G1 X85.378 Y100.064 E1.38286
G1 X85.539 Y101.863 E1.46459
G1 X86.027 Y103.401 E1.53760
G1 X86.846 Y104.672 E1.60605
G1 X87.966 Y105.620 E1.67245
G1 X89.347 Y106.187 E1.73997
G1 X90.969 Y106.374 E1.81386
G1 X92.040 Y106.293 E1.86248
G1 X93.013 Y106.050 E1.90783
G1 X93.888 Y105.642 E1.95155
G1 X94.642 Y105.077 E1.99417
G1 X95.245 Y104.364 E2.03642
G1 X95.595 Y103.697 E2.07048
G1 X97.123 Y104.202 E2.14329
G1 X96.650 Y105.088 E2.18873
G1 X95.879 Y105.989 E2.24240
G1 X94.922 Y106.694 E2.29618
G1 X93.781 Y107.204 E2.35270
G1 X92.459 Y107.511 E2.41415
G1 X90.956 Y107.614 E2.48229
G1 X88.842 Y107.390 E2.57850
G1 X87.076 Y106.723 E2.66392
G1 X85.642 Y105.616 E2.74587
G1 X84.582 Y104.118 E2.82893
G1 X83.942 Y102.270 E2.91740
G1 X83.727 Y100.061 E3.01784
G1 X83.823 Y98.546 E3.08654
G1 X84.111 Y97.176 E3.14988
G1 X84.588 Y95.954 E3.20925
G1 X85.245 Y94.896 E3.26559
G1 X85.666 Y94.448 E3.29341
G1 X93.070 Y92.935 F7800.000
G1 X95.088 Y94.952 E3.42255 F540.000
G1 X94.940 Y94.805 F7800.000
G1 X96.424 Y96.288 E3.51753 F540.000
G1 X96.788 Y96.107 E3.53594
G1 X93.947 Y93.266 E3.71785
G1 X93.511 Y93.922 F7800.000
G1 X92.334 Y92.745 E3.79320 F540.000
G1 X91.723 Y92.679 E3.82102
G1 X92.730 Y93.686 E3.88551
G1 X92.066 Y93.568 E3.91605
G1 X91.131 Y92.632 E3.97593
G1 X90.587 Y92.634 E4.00057
G1 X91.402 Y93.449 E4.05277
G1 X90.850 Y93.443 E4.07777
G1 X90.078 Y92.670 E4.12720
G1 X89.569 Y92.707 E4.15030
G1 X90.363 Y93.502 E4.20116
G1 X89.877 Y93.561 E4.22335
G1 X89.118 Y92.802 E4.27194
G1 X88.678 Y92.907 E4.29243
G1 X89.402 Y93.631 E4.33879
G1 X89.019 Y93.794 E4.35761
G1 X88.238 Y93.013 E4.40761
G1 X87.861 Y93.181 E4.42632
G1 X88.637 Y93.958 E4.47603
G1 X88.255 Y94.121 E4.49484
G1 X87.483 Y93.349 E4.54425
G1 X87.111 Y93.523 E4.56284
G1 X87.895 Y94.307 E4.61304
G1 X87.602 Y94.560 E4.63056
G1 X86.791 Y93.748 E4.68250
G1 X86.471 Y93.973 E4.70023
G1 X87.309 Y94.812 E4.75392
G1 X87.016 Y95.065 E4.77144
G1 X86.171 Y94.219 E4.82556
G1 X85.898 Y94.492 E4.84303
G1 X86.731 Y95.325 E4.89636
G1 X86.516 Y95.656 E4.91421
G1 X85.629 Y94.768 E4.97101
G1 X85.374 Y95.059 E4.98851
G1 X86.301 Y95.986 E5.04787
G1 X86.086 Y96.316 E5.06572
G1 X85.165 Y95.395 E5.12470
G1 X84.956 Y95.732 E5.14263
G1 X85.871 Y96.647 E5.20121
G1 X85.730 Y97.052 E5.22063
G1 X84.756 Y96.078 E5.28299
G1 X84.603 Y96.471 E5.30206
G1 X85.596 Y97.463 E5.36562
G1 X85.462 Y97.875 E5.38520
G1 X84.450 Y96.863 E5.44997
G1 X84.307 Y97.266 E5.46932
G1 X85.327 Y98.286 E5.53460
G1 X85.279 Y98.783 E5.55721
G1 X84.213 Y97.717 E5.62545
G1 X84.118 Y98.168 E5.64631
G1 X85.232 Y99.282 E5.71762
G1 X85.185 Y99.780 E5.74030
G1 X84.039 Y98.634 E5.81369
G1 X84.006 Y99.147 E5.83696
G1 X85.165 Y100.306 E5.91117
G1 X85.219 Y100.906 E5.93840
G1 X83.974 Y99.660 E6.01813
G1 X83.977 Y100.209 E6.04296
G1 X85.273 Y101.505 E6.12594
G1 X85.359 Y102.137 E6.15482
G1 X84.036 Y100.813 E6.23956
G1 X84.094 Y101.418 E6.26706
G1 X85.612 Y102.936 E6.36424
G1 X85.976 Y103.845 F7800.000
G1 X84.153 Y102.022 E6.48092 F540.000
G1 X84.404 Y102.819 E6.51872
G1 X88.609 Y107.024 E6.78794
G1 X89.337 Y107.206 E6.82189
G1 X88.084 Y105.953 E6.90211
G1 X87.733 Y106.693 F7800.000
G1 X84.693 Y103.653 E7.09672 F540.000
G1 X85.716 Y105.222 F7800.000
G1 X86.074 Y105.580 E7.11964 F540.000
G1 X89.010 Y106.334 F7800.000
G1 X89.947 Y107.271 E7.17964 F540.000
G1 X90.558 Y107.335 E7.20742
G1 X89.686 Y106.464 E7.26323
G1 X90.303 Y106.535 E7.29133
G1 X91.148 Y107.380 E7.34544
G1 X91.658 Y107.345 E7.36861
G1 X90.912 Y106.599 E7.41637
G1 X91.420 Y106.561 E7.43940
G1 X92.169 Y107.310 E7.48738
G1 X92.655 Y107.250 E7.50954
G1 X91.927 Y106.522 E7.55615
G1 X92.375 Y106.424 E7.57690
G1 X93.098 Y107.147 E7.62318
G1 X93.540 Y107.044 E7.64375
G1 X92.811 Y106.315 E7.69043
G1 X93.216 Y106.175 E7.70984
G1 X93.951 Y106.909 E7.75687
G1 X94.328 Y106.741 E7.77557
G1 X93.588 Y106.001 E7.82291
G1 X93.961 Y105.828 E7.84150
G1 X94.705 Y106.573 E7.88917
G1 X95.043 Y106.365 E7.90712
G1 X94.273 Y105.595 E7.95642
G1 X94.585 Y105.361 E7.97406
G1 X95.357 Y106.133 E8.02350
G1 X95.667 Y105.898 E8.04113
G1 X94.872 Y105.103 E8.09204
G1 X95.122 Y104.807 E8.10956
G1 X95.938 Y105.623 E8.16182
G1 X96.190 Y105.329 E8.17934
G1 X95.372 Y104.511 E8.23170
G1 X95.572 Y104.166 E8.24977
G1 X96.441 Y105.035 E8.30545
G1 X96.640 Y104.688 E8.32355
G1 X96.078 Y104.126 E8.35952
G92 E0
G1 X95.975 Y104.639 F7800.000
G1 X95.975 Y104.639 F7800.000
G1 X95.930 Y94.704 F7800.000
G1 X95.431 Y94.204 E0.03198 F540.000
M106 S255
G92 E0
G1 Z0.600 F7800.000
G1 X96.573 Y103.783 F7800.000
G1 X95.816 Y104.879 E0.39909 F600.000
G1 X95.353 Y105.424 E0.61327
G1 X95.229 Y105.540 E0.66423
G1 X94.552 Y106.059 E0.91980
G1 X94.159 Y106.278 E1.05466
G1 X93.562 Y106.551 E1.25121
G1 X93.149 Y106.685 E1.38131
G1 X92.363 Y106.874 E1.62348
G1 X92.068 Y106.915 E1.71288
G1 X90.968 Y106.992 E2.04329
G1 X89.306 Y106.811 E2.54418
G1 X88.994 Y106.749 E2.63946
G1 X87.743 Y106.256 E3.04241
G1 X87.427 Y106.095 E3.14884
G1 X86.393 Y105.260 E3.54707
G1 X86.200 Y105.081 E3.62574
G1 X85.373 Y103.857 E4.06830
G1 X85.304 Y103.747 E4.10737
G1 X85.255 Y103.614 E4.14996
G1 X84.751 Y102.094 E4.62983
G1 X84.554 Y100.047 E5.24586
G1 X84.662 Y98.660 E5.66270
G1 X84.775 Y97.996 E5.86469
G1 X84.930 Y97.420 E6.04323
G1 X85.331 Y96.325 E6.39259
G1 X85.911 Y95.408 E6.71790
G1 X86.224 Y95.010 E6.86979
G1 X86.598 Y94.624 E7.03066
G1 X87.442 Y93.966 E7.35121
G1 X87.807 Y93.761 E7.47683
G1 X88.458 Y93.477 E7.68948
G1 X89.158 Y93.246 E7.91034
G1 X89.626 Y93.144 E8.05389
G1 X90.960 Y93.015 E8.45567
G1 X91.209 Y93.029 E8.53032
G1 X92.259 Y93.164 E8.84758
G1 X93.179 Y93.364 E9.12967
G1 X93.432 Y93.440 E9.20884
G1 X94.440 Y94.003 E9.55475
G1 X95.144 Y94.496 E9.81218
G1 X95.353 Y94.666 E9.89305
G1 X96.068 Y95.561 E10.23635
G1 X96.746 Y96.600 E10.60817
G92 E0
G1 X97.588 Y96.181 F7800.000
G1 X110.065 Y91.165 F7800.000
G1 X114.207 Y91.491 F7800.000
G1 X117.345 Y94.762 F7800.000
G1 X115.923 Y101.877 F7800.000
G1 X113.104 Y102.443 F7800.000
G1 X111.746 Y103.380 F7800.000
G1 X111.559 Y103.531 F7800.000
G1 X111.530 Y103.545 F7800.000
G1 X112.827 Y105.730 F7800.000
G1 X115.392 Y104.194 F7800.000
G1 X114.313 Y105.700 E0.55490 F600.000
G1 X113.969 Y106.033 E0.69863
G1 X113.728 Y106.223 E0.79048
G1 X113.376 Y106.430 E0.91291
G1 X112.904 Y106.647 E1.06844
G1 X112.287 Y106.831 E1.26132
G1 X111.736 Y106.944 E1.43011
G1 X111.298 Y106.998 E1.56233
G1 X110.248 Y107.058 E1.87735
G1 X109.053 Y106.983 E2.23605
G1 X108.649 Y106.930 E2.35813
G1 X108.002 Y106.780 E2.55715
G1 X107.392 Y106.577 E2.74989
G1 X106.876 Y106.307 E2.92447
G1 X106.483 Y106.040 E3.06682
G1 X106.307 Y105.878 E3.13854
G1 X106.089 Y105.636 E3.23608
G1 X105.908 Y105.397 E3.32584
G1 X105.732 Y105.055 E3.44119
G1 X105.582 Y104.671 E3.56453
G1 X105.489 Y104.014 E3.76347
G1 X105.468 Y103.723 E3.85102
G1 X105.498 Y103.334 E3.96781
G1 X105.577 Y102.975 E4.07802
G1 X105.684 Y102.656 E4.17891
G1 X105.764 Y102.501 E4.23119
G1 X106.022 Y102.100 E4.37396
G1 X106.253 Y101.855 E4.47475
G1 X106.542 Y101.606 E4.58916
G1 X106.930 Y101.349 E4.72877
G1 X107.468 Y101.077 E4.90935
G1 X108.286 Y100.782 E5.16989
G1 X109.221 Y100.523 E5.46060
G1 X112.324 Y99.777 E6.41695
