; generated by Slic3r 1.2.9 on 2016-03-11 at 01:23:17

; external perimeters extrusion width = 1.54mm
; perimeters extrusion width = 2.62mm
; infill extrusion width = 6.27mm
; solid infill extrusion width = 2.62mm
; top infill extrusion width = 2.62mm

M107
M104 S30 ; set temperature
G28 ; home all axes
G1 Z5 F5000 ; lift nozzle
M302
M92 E10000
M500
M501
G1 E100
M109 S30 ; wait for temperature to be reached
G21 ; set units to millimeters
G90 ; use absolute coordinates
M82 ; use absolute distances for extrusion
G92 E0
G1 Z0.300 F7800.000
G1 X84.393 Y97.522 F7800.000
G1 X84.465 Y97.176 E0.01600 F378.000
G1 X84.943 Y95.954 E0.07536
G1 X85.599 Y94.896 E0.13171
G1 X86.426 Y94.017 E0.18631
G1 X87.426 Y93.314 E0.24164
G1 X88.583 Y92.799 E0.29890
G1 X89.879 Y92.489 E0.35922
G1 X91.317 Y92.386 E0.42445
G1 X92.637 Y92.490 E0.48435
G1 X92.725 Y92.497 E0.48838 F378.000
G1 X94.009 Y92.829 E0.54836
G1 X95.170 Y93.381 E0.60654
G1 X96.189 Y94.143 E0.66412
G1 X97.045 Y95.107 E0.72247
G1 X97.626 Y96.088 E0.77403
G1 X96.322 Y96.737 E0.83994
G1 X95.152 Y95.102 E0.93091
G1 X93.466 Y94.000 E1.02204
G1 X91.421 Y93.635 E1.11606
G1 X89.797 Y93.832 E1.19008
G1 X88.407 Y94.425 E1.25846
G1 X87.260 Y95.414 E1.32703
G1 X86.408 Y96.722 E1.39764
G1 X85.900 Y98.274 E1.47153
G1 X85.733 Y100.064 E1.55284
G1 X85.894 Y101.863 E1.63457
G1 X86.381 Y103.401 E1.70758
G1 X87.201 Y104.672 E1.77603
G1 X88.321 Y105.620 E1.84243
G1 X89.701 Y106.187 E1.90995
G1 X91.323 Y106.374 E1.98384
G1 X92.395 Y106.293 E2.03246
G1 X93.367 Y106.050 E2.07781
G1 X94.243 Y105.642 E2.12153
G1 X94.996 Y105.077 E2.16415
G1 X95.599 Y104.364 E2.20640
G1 X95.949 Y103.697 E2.24046
G1 X97.477 Y104.202 E2.31327
G1 X97.004 Y105.088 E2.35871
G1 X96.233 Y105.989 E2.41238
G1 X95.277 Y106.694 E2.46616
G1 X94.136 Y107.204 E2.52268
G1 X92.813 Y107.511 E2.58413
G1 X91.311 Y107.614 E2.65227
G1 X89.197 Y107.390 E2.74848
G1 X87.430 Y106.723 E2.83390
G1 X85.997 Y105.616 E2.91585
G1 X84.936 Y104.118 E2.99891
G1 X84.297 Y102.270 E3.08738
G1 X84.081 Y100.061 E3.18783
G1 X84.178 Y98.546 E3.25652
G1 X84.345 Y97.748 E3.29341
G1 X85.967 Y102.936 F7800.000
G1 X84.449 Y101.418 E3.39059 F540.000
G1 X84.390 Y100.813 E3.41809
G1 X85.714 Y102.137 E3.50283
G1 X85.627 Y101.505 E3.53171
G1 X84.331 Y100.209 E3.61469
G1 X84.328 Y99.660 E3.63952
G1 X85.574 Y100.906 E3.71925
G1 X85.520 Y100.306 E3.74648
G1 X84.361 Y99.147 E3.82070
G1 X84.393 Y98.634 E3.84397
G1 X85.540 Y99.780 E3.91735
G1 X85.586 Y99.282 E3.94003
G1 X84.472 Y98.168 E4.01134
G1 X84.567 Y97.717 E4.03220
G1 X85.633 Y98.783 E4.10044
G1 X85.682 Y98.286 E4.12305
G1 X84.662 Y97.266 E4.18833
G1 X84.804 Y96.863 E4.20768
G1 X85.816 Y97.875 E4.27245
G1 X85.951 Y97.463 E4.29203
G1 X84.958 Y96.471 E4.35560
G1 X85.111 Y96.078 E4.37466
G1 X86.085 Y97.052 E4.43703
G1 X86.225 Y96.647 E4.45644
G1 X85.310 Y95.732 E4.51502
G1 X85.519 Y95.395 E4.53296
G1 X86.440 Y96.316 E4.59193
G1 X86.655 Y95.986 E4.60978
G1 X85.728 Y95.059 E4.66915
G1 X85.983 Y94.768 E4.68665
G1 X86.870 Y95.656 E4.74344
G1 X87.086 Y95.325 E4.76129
G1 X86.252 Y94.492 E4.81463
G1 X86.525 Y94.219 E4.83209
G1 X87.371 Y95.065 E4.88622
G1 X87.664 Y94.812 E4.90373
G1 X86.825 Y93.973 E4.95742
G1 X87.145 Y93.748 E4.97515
G1 X87.957 Y94.560 E5.02710
G1 X88.250 Y94.307 E5.04461
G1 X87.466 Y93.523 E5.09482
G1 X87.838 Y93.349 E5.11340
G1 X88.609 Y94.121 E5.16281
G1 X88.992 Y93.958 E5.18162
G1 X88.215 Y93.181 E5.23133
G1 X88.593 Y93.013 E5.25004
G1 X89.374 Y93.794 E5.30004
G1 X89.756 Y93.631 E5.31886
G1 X89.032 Y92.907 E5.36522
G1 X89.472 Y92.802 E5.38572
G1 X90.231 Y93.561 E5.43430
G1 X90.718 Y93.502 E5.45649
G1 X89.923 Y92.707 E5.50735
G1 X90.432 Y92.670 E5.53045
G1 X91.204 Y93.443 E5.57988
G1 X91.757 Y93.449 E5.60488
G1 X90.941 Y92.634 E5.65708
G1 X91.485 Y92.632 E5.68172
G1 X92.421 Y93.568 E5.74160
G1 X93.085 Y93.686 E5.77215
G1 X92.078 Y92.679 E5.83663
G1 X92.689 Y92.745 E5.86445
G1 X93.866 Y93.922 E5.93980
G1 X94.301 Y93.266 F7800.000
G1 X97.142 Y96.107 E6.12171 F540.000
G1 X96.778 Y96.288 E6.14013
G1 X95.295 Y94.805 E6.23511
G1 X95.442 Y94.952 F7800.000
G1 X93.425 Y92.935 E6.36424 F540.000
G1 X95.785 Y94.204 F7800.000
G1 X96.285 Y94.704 E6.39622 F540.000
G92 E0
G1 X96.330 Y104.639 F7800.000
G1 X96.330 Y104.639 F7800.000
G1 X96.432 Y104.126 F7800.000
G1 X96.994 Y104.688 E0.03597 F540.000
G1 X96.796 Y105.035 E0.05407
G1 X95.926 Y104.166 E0.10974
G1 X95.726 Y104.511 E0.12782
G1 X96.544 Y105.329 E0.18018
G1 X96.293 Y105.623 E0.19769
G1 X95.476 Y104.807 E0.24995
G1 X95.226 Y105.103 E0.26748
G1 X96.022 Y105.898 E0.31839
G1 X95.712 Y106.133 E0.33601
G1 X94.939 Y105.361 E0.38546
G1 X94.628 Y105.595 E0.40310
G1 X95.398 Y106.365 E0.45239
G1 X95.060 Y106.573 E0.47035
G1 X94.315 Y105.828 E0.51802
G1 X93.943 Y106.001 E0.53660
G1 X94.682 Y106.741 E0.58395
G1 X94.305 Y106.909 E0.60265
G1 X93.571 Y106.175 E0.64967
G1 X93.166 Y106.315 E0.66908
G1 X93.895 Y107.044 E0.71576
G1 X93.452 Y107.147 E0.73634
G1 X92.729 Y106.424 E0.78262
G1 X92.281 Y106.522 E0.80337
G1 X93.010 Y107.250 E0.84998
G1 X92.524 Y107.310 E0.87214
G1 X91.774 Y106.561 E0.92011
G1 X91.267 Y106.599 E0.94314
G1 X92.013 Y107.345 E0.99091
G1 X91.502 Y107.380 E1.01408
G1 X90.657 Y106.535 E1.06819
G1 X90.041 Y106.464 E1.09628
G1 X90.912 Y107.335 E1.15209
G1 X90.302 Y107.271 E1.17988
G1 X89.365 Y106.334 E1.23988
G1 X88.438 Y105.953 F7800.000
G1 X89.692 Y107.206 E1.32009 F540.000
G1 X88.964 Y107.024 E1.35404
G1 X84.759 Y102.819 E1.62326
G1 X84.508 Y102.022 E1.66106
G1 X86.330 Y103.845 E1.77775
G1 X85.048 Y103.653 F7800.000
G1 X88.088 Y106.693 E1.97236 F540.000
G1 X86.428 Y105.580 F7800.000
G1 X86.070 Y105.222 E1.99528 F540.000
G92 E0
G1 X94.208 Y107.418 F7800.000
G1 X97.600 Y107.798 F7800.000
G1 X99.964 Y106.696 F7800.000
G1 X101.393 Y107.648 F7800.000
G1 X103.585 Y107.648 F7800.000
G1 X113.299 Y107.423 F7800.000
G1 X103.810 Y107.423 E0.42935 F378.000
G1 X103.810 Y106.181 E0.48555
G1 X109.059 Y106.181 E0.72306
G1 X109.059 Y92.577 E1.33863
G1 X110.670 Y92.577 E1.41153
G1 X110.670 Y106.181 E2.02710
G1 X115.919 Y106.181 E2.26461 F378.000
G1 X115.919 Y107.423 E2.32081
G1 X113.530 Y107.423 E2.42894
G1 X115.693 Y107.075 F7800.000
G1 X115.025 Y106.407 E2.47215 F540.000
G1 X114.474 Y106.407 E2.49736
G1 X115.264 Y107.197 E2.54846
G1 X114.713 Y107.197 E2.57367
G1 X113.923 Y106.407 E2.62477
G1 X113.372 Y106.407 E2.64998
G1 X114.162 Y107.197 E2.70109
G1 X113.611 Y107.197 E2.72630
G1 X112.820 Y106.407 E2.77740
G1 X112.269 Y106.407 E2.80261
G1 X113.059 Y107.197 E2.85372
G1 X112.508 Y107.197 E2.87893
G1 X111.718 Y106.407 E2.93003
G1 X111.167 Y106.407 E2.95524
G1 X111.957 Y107.197 E3.00634
G1 X111.406 Y107.197 E3.03155
G1 X110.616 Y106.407 E3.08266
G1 X109.285 Y106.179 F7800.000
G1 X110.303 Y107.197 E3.14850 F540.000
G1 X110.854 Y107.197 E3.17371
G1 X109.285 Y105.628 E3.27521
G1 X109.285 Y105.077 E3.30042
G1 X110.444 Y106.236 E3.37539
G1 X110.444 Y105.685 E3.40060
G1 X109.285 Y104.525 E3.47557
G1 X109.285 Y103.974 E3.50078
G1 X110.444 Y105.133 E3.57575
G1 X110.444 Y104.582 E3.60096
G1 X109.285 Y103.423 E3.67593
G1 X109.285 Y102.872 E3.70114
G1 X110.444 Y104.031 E3.77611
G1 X110.444 Y103.480 E3.80132
G1 X109.285 Y102.321 E3.87629
G1 X109.285 Y101.769 E3.90151
G1 X110.444 Y102.928 E3.97648
G1 X110.444 Y102.377 E4.00169
G1 X109.285 Y101.218 E4.07666
G1 X109.285 Y100.667 E4.10187
G1 X110.444 Y101.826 E4.17684
G1 X110.444 Y101.275 E4.20205
G1 X109.285 Y100.116 E4.27702
G1 X109.285 Y99.564 E4.30223
G1 X110.444 Y100.724 E4.37720
G1 X110.444 Y100.172 E4.40241
G1 X109.285 Y99.013 E4.47738
G1 X109.285 Y98.462 E4.50259
G1 X110.444 Y99.621 E4.57756
G1 X110.444 Y99.070 E4.60277
G1 X109.285 Y97.911 E4.67775
G1 X109.285 Y97.360 E4.70296
G1 X110.444 Y98.519 E4.77793
G1 X110.444 Y97.967 E4.80314
G1 X109.285 Y96.808 E4.87811
G1 X109.285 Y96.257 E4.90332
G1 X110.444 Y97.416 E4.97829
G1 X110.444 Y96.865 E5.00350
G1 X109.285 Y95.706 E5.07847
G1 X109.285 Y95.155 E5.10368
G1 X110.444 Y96.314 E5.17865
G1 X110.444 Y95.763 E5.20386
G1 X109.285 Y94.604 E5.27883
G1 X109.285 Y94.052 E5.30404
G1 X110.444 Y95.211 E5.37901
G1 X110.444 Y94.660 E5.40423
G1 X109.285 Y93.501 E5.47920
G1 X109.285 Y92.950 E5.50441
G1 X110.444 Y94.109 E5.57938
G1 X110.444 Y93.558 E5.60459
G1 X109.690 Y92.803 E5.65341
G1 X110.241 Y92.803 E5.67862
G1 X110.444 Y93.007 E5.69179
G1 X108.962 Y106.407 F7800.000
G1 X109.752 Y107.197 E5.74289 F540.000
G1 X109.201 Y107.197 E5.76810
G1 X108.411 Y106.407 E5.81921
G1 X107.860 Y106.407 E5.84442
G1 X108.650 Y107.197 E5.89552
G1 X108.098 Y107.197 E5.92073
G1 X107.308 Y106.407 E5.97184
G1 X106.757 Y106.407 E5.99705
G1 X107.547 Y107.197 E6.04815
G1 X106.996 Y107.197 E6.07336
G1 X106.206 Y106.407 E6.12446
G1 X105.655 Y106.407 E6.14967
G1 X106.445 Y107.197 E6.20078
G1 X105.894 Y107.197 E6.22599
G1 X105.103 Y106.407 E6.27709
G1 X104.552 Y106.407 E6.30230
G1 X105.342 Y107.197 E6.35341
G1 X104.791 Y107.197 E6.37862
G1 X104.036 Y106.442 E6.42744
G1 X104.036 Y106.993 E6.45265
G1 X104.240 Y107.197 E6.46582
M106 S255
G92 E0
G1 Z0.600 F7800.000
G1 X96.927 Y103.783 F7800.000
G1 X96.170 Y104.879 E0.39909 F600.000
G1 X95.707 Y105.424 E0.61327
G1 X95.583 Y105.540 E0.66423
G1 X94.906 Y106.059 E0.91980
G1 X94.513 Y106.278 E1.05466
G1 X93.917 Y106.551 E1.25121
G1 X93.504 Y106.685 E1.38131
G1 X92.718 Y106.874 E1.62348
G1 X92.422 Y106.915 E1.71288
G1 X91.322 Y106.992 E2.04329
G1 X89.661 Y106.811 E2.54418
G1 X89.349 Y106.749 E2.63946
G1 X88.098 Y106.256 E3.04241
G1 X87.781 Y106.095 E3.14884
G1 X86.748 Y105.260 E3.54707
G1 X86.555 Y105.081 E3.62574
G1 X85.728 Y103.857 E4.06830
G1 X85.658 Y103.747 E4.10737
G1 X85.609 Y103.614 E4.14996
G1 X85.105 Y102.094 E4.62983
G1 X84.909 Y100.047 E5.24586
G1 X85.016 Y98.660 E5.66270
G1 X85.130 Y97.996 E5.86469
G1 X85.284 Y97.420 E6.04323
G1 X85.685 Y96.325 E6.39259
G1 X86.266 Y95.408 E6.71790
G1 X86.579 Y95.010 E6.86979
G1 X86.953 Y94.624 E7.03066
G1 X87.796 Y93.966 E7.35121
G1 X88.162 Y93.761 E7.47683
G1 X88.812 Y93.477 E7.68948
G1 X89.512 Y93.246 E7.91034
G1 X89.980 Y93.144 E8.05389
G1 X91.315 Y93.015 E8.45567
G1 X91.563 Y93.029 E8.53032
G1 X92.614 Y93.164 E8.84758
G1 X93.533 Y93.364 E9.12967
G1 X93.786 Y93.440 E9.20884
G1 X94.794 Y94.003 E9.55475
G1 X95.498 Y94.496 E9.81218
G1 X95.707 Y94.666 E9.89305
G1 X96.423 Y95.561 E10.23635
G1 X97.101 Y96.600 E10.60817
G92 E0
G1 X102.260 Y100.205 F7800.000
G1 X103.585 Y100.707 F7800.000
G1 X108.834 Y105.956 F7800.000
G1 X116.144 Y106.802 F7800.000
G1 X110.895 Y106.802 E1.57284 F600.000
G1 X109.865 Y106.488 E1.89563
G1 X109.865 Y92.352 E6.13148
G92 E0
G1 X109.895 Y93.352 F7800.000
G1 X109.895 Y93.352 F7800.000
G1 X111.612 Y105.956 F7800.000
G1 X108.834 Y106.802 E0.87020 F600.000
G1 X103.585 Y106.802 E2.44304
G92 E0
G1 Z0.900 F7800.000
G1 X96.927 Y103.783 F7800.000
G1 X96.170 Y104.879 E0.39909 F600.000
G1 X95.707 Y105.424 E0.61327
G1 X95.583 Y105.540 E0.66423
G1 X94.906 Y106.059 E0.91980
G1 X94.513 Y106.278 E1.05466
G1 X93.917 Y106.551 E1.25121
G1 X93.504 Y106.685 E1.38131
G1 X92.718 Y106.874 E1.62348
G1 X92.422 Y106.915 E1.71288
G1 X91.322 Y106.992 E2.04329
G1 X89.661 Y106.811 E2.54418
G1 X89.349 Y106.749 E2.63946
G1 X88.098 Y106.256 E3.04241
G1 X87.781 Y106.095 E3.14884
G1 X86.748 Y105.260 E3.54707
G1 X86.555 Y105.081 E3.62574
G1 X85.728 Y103.857 E4.06830
G1 X85.658 Y103.747 E4.10737
G1 X85.609 Y103.614 E4.14996
G1 X85.105 Y102.094 E4.62983
G1 X84.909 Y100.047 E5.24586
G1 X85.016 Y98.660 E5.66270
G1 X85.130 Y97.996 E5.86469
G1 X85.284 Y97.420 E6.04323
G1 X85.685 Y96.325 E6.39259
G1 X86.266 Y95.408 E6.71790
G1 X86.579 Y95.010 E6.86979
G1 X86.953 Y94.624 E7.03066
G1 X87.796 Y93.966 E7.35122
G1 X88.162 Y93.761 E7.47683
G1 X88.812 Y93.477 E7.68948
G1 X89.512 Y93.246 E7.91034
G1 X89.980 Y93.144 E8.05389
G1 X91.315 Y93.015 E8.45568
G1 X91.563 Y93.029 E8.53032
G1 X92.614 Y93.164 E8.84758
G1 X93.533 Y93.364 E9.12967
G1 X93.786 Y93.440 E9.20884
G1 X94.794 Y94.003 E9.55475
G1 X95.498 Y94.496 E9.81218
G1 X95.707 Y94.666 E9.89305
G1 X96.423 Y95.561 E10.23635
G1 X97.101 Y96.600 E10.60817
G92 E0
G1 X102.260 Y100.205 F7800.000
G1 X103.585 Y100.707 F7800.000
G1 X108.834 Y105.956 F7800.000
G1 X116.144 Y106.802 F7800.000
G1 X110.895 Y106.802 E1.57284 F600.000
G1 X109.865 Y106.488 E1.89563
G1 X109.865 Y92.352 E6.13148
G92 E0
G1 X109.895 Y93.352 F7800.000
G1 X109.895 Y93.352 F7800.000
G1 X111.612 Y105.956 F7800.000
G1 X108.834 Y106.802 E0.87020 F600.000
G1 X103.585 Y106.802 E2.44304
G92 E0
G1 Z1.200 F7800.000
G1 X96.927 Y103.783 F7800.000
G1 X96.170 Y104.879 E0.39909 F600.000
G1 X95.707 Y105.424 E0.61327
G1 X95.583 Y105.540 E0.66423
G1 X94.906 Y106.059 E0.91980
G1 X94.513 Y106.278 E1.05466
G1 X93.917 Y106.551 E1.25121
G1 X93.504 Y106.685 E1.38131
G1 X92.718 Y106.874 E1.62348
G1 X92.422 Y106.915 E1.71288
G1 X91.322 Y106.992 E2.04329
G1 X89.661 Y106.811 E2.54418
G1 X89.349 Y106.749 E2.63946
G1 X88.098 Y106.256 E3.04241
G1 X87.781 Y106.095 E3.14884
G1 X86.748 Y105.260 E3.54707
G1 X86.555 Y105.081 E3.62574
G1 X85.728 Y103.857 E4.06831
G1 X85.658 Y103.747 E4.10737
G1 X85.609 Y103.614 E4.14996
G1 X85.105 Y102.094 E4.62983
G1 X84.909 Y100.047 E5.24586
G1 X85.016 Y98.660 E5.66270
G1 X85.130 Y97.996 E5.86469
G1 X85.284 Y97.420 E6.04323
G1 X85.685 Y96.325 E6.39259
G1 X86.266 Y95.408 E6.71790
G1 X86.579 Y95.010 E6.86979
G1 X86.953 Y94.624 E7.03066
G1 X87.796 Y93.966 E7.35122
G1 X88.162 Y93.761 E7.47683
G1 X88.812 Y93.477 E7.68948
G1 X89.512 Y93.246 E7.91034
G1 X89.980 Y93.144 E8.05389
G1 X91.315 Y93.015 E8.45568
G1 X91.563 Y93.029 E8.53032
G1 X92.614 Y93.164 E8.84758
G1 X93.533 Y93.364 E9.12967
G1 X93.786 Y93.440 E9.20884
G1 X94.794 Y94.003 E9.55476
G1 X95.498 Y94.496 E9.81218
G1 X95.707 Y94.666 E9.89305
G1 X96.423 Y95.561 E10.23635
G1 X97.101 Y96.600 E10.60817
G92 E0
G1 X102.260 Y100.205 F7800.000
G1 X103.585 Y100.707 F7800.000
G1 X108.834 Y105.956 F7800.000
G1 X116.144 Y106.802 F7800.000
G1 X110.895 Y106.802 E1.57284 F600.000
G1 X109.865 Y106.488 E1.89563
G1 X109.865 Y92.352 E6.13148
G92 E0
G1 X109.895 Y93.352 F7800.000
G1 X109.895 Y93.352 F7800.000
G1 X111.612 Y105.956 F7800.000
G1 X108.834 Y106.802 E0.87020 F600.000
G1 X103.585 Y106.802 E2.44304
G92 E0
G1 Z1.500 F7800.000
G1 X96.927 Y103.783 F7800.000
G1 X96.170 Y104.879 E0.39909 F600.000
G1 X95.707 Y105.424 E0.61327
G1 X95.583 Y105.540 E0.66423
G1 X94.906 Y106.059 E0.91980
G1 X94.513 Y106.278 E1.05466
G1 X93.917 Y106.551 E1.25121
G1 X93.504 Y106.685 E1.38131
G1 X92.718 Y106.874 E1.62348
G1 X92.422 Y106.915 E1.71288
G1 X91.322 Y106.992 E2.04329
G1 X89.661 Y106.811 E2.54418
G1 X89.349 Y106.749 E2.63946
G1 X88.098 Y106.256 E3.04241
G1 X87.781 Y106.095 E3.14884
G1 X86.748 Y105.260 E3.54707
G1 X86.555 Y105.081 E3.62574
G1 X85.728 Y103.857 E4.06830
G1 X85.658 Y103.747 E4.10737
G1 X85.609 Y103.614 E4.14996
G1 X85.105 Y102.094 E4.62983
G1 X84.909 Y100.047 E5.24586
G1 X85.016 Y98.660 E5.66270
G1 X85.130 Y97.996 E5.86469
G1 X85.284 Y97.420 E6.04323
G1 X85.685 Y96.325 E6.39259
G1 X86.266 Y95.408 E6.71789
G1 X86.579 Y95.010 E6.86979
G1 X86.953 Y94.624 E7.03066
G1 X87.796 Y93.966 E7.35121
G1 X88.162 Y93.761 E7.47683
G1 X88.812 Y93.477 E7.68948
G1 X89.512 Y93.246 E7.91034
G1 X89.980 Y93.144 E8.05389
G1 X91.315 Y93.015 E8.45567
G1 X91.563 Y93.029 E8.53032
G1 X92.614 Y93.164 E8.84757
G1 X93.533 Y93.364 E9.12966
G1 X93.786 Y93.440 E9.20884
G1 X94.794 Y94.003 E9.55475
G1 X95.498 Y94.496 E9.81218
G1 X95.707 Y94.666 E9.89305
G1 X96.423 Y95.561 E10.23635
G1 X97.101 Y96.600 E10.60817
G92 E0
G1 X102.260 Y100.205 F7800.000
G1 X103.585 Y100.707 F7800.000
G1 X108.834 Y105.956 F7800.000
G1 X116.144 Y106.802 F7800.000
G1 X110.895 Y106.802 E1.57284 F600.000
G1 X109.865 Y106.488 E1.89563
G1 X109.865 Y92.352 E6.13148
G92 E0
G1 X109.895 Y93.352 F7800.000
G1 X109.895 Y93.352 F7800.000
G1 X111.612 Y105.956 F7800.000
G1 X108.834 Y106.802 E0.87020 F600.000
G1 X103.585 Y106.802 E2.44304
G92 E0
G1 Z1.800 F7800.000
G1 X96.927 Y103.783 F7800.000
G1 X96.170 Y104.879 E0.39909 F600.000
G1 X95.707 Y105.424 E0.61327
G1 X95.583 Y105.540 E0.66423
G1 X94.906 Y106.059 E0.91980
G1 X94.513 Y106.278 E1.05466
G1 X93.917 Y106.551 E1.25121
G1 X93.504 Y106.685 E1.38131
G1 X92.718 Y106.874 E1.62348
G1 X92.422 Y106.915 E1.71288
G1 X91.322 Y106.992 E2.04329
