; generated by Slic3r 1.2.9 on 2016-03-11 at 01:23:18

; external perimeters extrusion width = 1.54mm
; perimeters extrusion width = 2.62mm
; infill extrusion width = 6.27mm
; solid infill extrusion width = 2.62mm
; top infill extrusion width = 2.62mm

M107
M104 S30 ; set temperature
G28 ; home all axes
G1 Z5 F5000 ; lift nozzle
M302
M92 E10000
M500
M501
G1 E100
M109 S30 ; wait for temperature to be reached
G21 ; set units to millimeters
G90 ; use absolute coordinates
M82 ; use absolute distances for extrusion
G92 E0
G1 Z0.300 F7800.000
G1 X84.157 Y96.315 F7800.000
G1 X84.298 Y95.954 E0.01753 F378.000
G1 X84.954 Y94.896 E0.07387
G1 X85.781 Y94.017 E0.12848
G1 X86.781 Y93.314 E0.18380
G1 X87.938 Y92.799 E0.24107
G1 X89.234 Y92.489 E0.30138
G1 X90.672 Y92.386 E0.36662
G1 X91.992 Y92.490 E0.42652
G1 X92.080 Y92.497 E0.43055 F378.000
G1 X93.364 Y92.829 E0.49052
G1 X94.525 Y93.381 E0.54870
G1 X95.544 Y94.143 E0.60628
G1 X96.400 Y95.107 E0.66464
G1 X96.981 Y96.088 E0.71620
G1 X95.677 Y96.737 E0.78210
G1 X94.507 Y95.102 E0.87307
G1 X92.821 Y94.000 E0.96421
G1 X90.776 Y93.635 E1.05823
G1 X89.152 Y93.832 E1.13225
G1 X87.762 Y94.425 E1.20062
G1 X86.615 Y95.414 E1.26919
G1 X85.763 Y96.722 E1.33981
G1 X85.255 Y98.274 E1.41370
G1 X85.088 Y100.064 E1.49501
G1 X85.249 Y101.863 E1.57674
G1 X85.736 Y103.401 E1.64975
G1 X86.556 Y104.672 E1.71820
G1 X87.676 Y105.620 E1.78459
G1 X89.056 Y106.187 E1.85212
G1 X90.678 Y106.374 E1.92600
G1 X91.750 Y106.293 E1.97462
G1 X92.722 Y106.050 E2.01998
G1 X93.598 Y105.642 E2.06370
G1 X94.351 Y105.077 E2.10632
G1 X94.954 Y104.364 E2.14857
G1 X95.304 Y103.697 E2.18262
G1 X96.832 Y104.202 E2.25544
G1 X96.359 Y105.088 E2.30088
G1 X95.588 Y105.989 E2.35454
G1 X94.632 Y106.694 E2.40832
G1 X93.491 Y107.204 E2.46485
G1 X92.168 Y107.511 E2.52630
G1 X90.666 Y107.614 E2.59444
G1 X88.552 Y107.390 E2.69065
G1 X86.785 Y106.723 E2.77607
G1 X85.352 Y105.616 E2.85801
G1 X84.291 Y104.118 E2.94108
G1 X83.652 Y102.270 E3.02955
G1 X83.436 Y100.061 E3.12999
G1 X83.533 Y98.546 E3.19869
G1 X83.820 Y97.176 E3.26203
G1 X84.073 Y96.530 E3.29341
G1 X85.322 Y102.936 F7800.000
G1 X83.804 Y101.418 E3.39059 F540.000
G1 X83.745 Y100.813 E3.41809
G1 X85.069 Y102.137 E3.50283
G1 X84.982 Y101.505 E3.53171
G1 X83.686 Y100.209 E3.61469
G1 X83.683 Y99.660 E3.63952
G1 X84.929 Y100.906 E3.71925
G1 X84.875 Y100.306 E3.74648
G1 X83.716 Y99.147 E3.82070
G1 X83.748 Y98.634 E3.84397
G1 X84.895 Y99.780 E3.91735
G1 X84.941 Y99.282 E3.94003
G1 X83.827 Y98.168 E4.01134
G1 X83.922 Y97.717 E4.03220
G1 X84.988 Y98.783 E4.10044
G1 X85.037 Y98.286 E4.12305
G1 X84.017 Y97.266 E4.18833
G1 X84.159 Y96.863 E4.20768
G1 X85.171 Y97.875 E4.27245
G1 X85.306 Y97.463 E4.29203
G1 X84.313 Y96.471 E4.35560
G1 X84.466 Y96.078 E4.37466
G1 X85.440 Y97.052 E4.43703
G1 X85.580 Y96.647 E4.45644
G1 X84.665 Y95.732 E4.51502
G1 X84.874 Y95.395 E4.53296
G1 X85.795 Y96.316 E4.59193
G1 X86.010 Y95.986 E4.60978
G1 X85.083 Y95.059 E4.66915
G1 X85.338 Y94.768 E4.68665
G1 X86.225 Y95.656 E4.74344
G1 X86.441 Y95.325 E4.76129
G1 X85.607 Y94.492 E4.81463
G1 X85.880 Y94.219 E4.83209
G1 X86.726 Y95.065 E4.88622
G1 X87.019 Y94.812 E4.90373
G1 X86.180 Y93.973 E4.95742
G1 X86.500 Y93.748 E4.97515
G1 X87.312 Y94.560 E5.02710
G1 X87.605 Y94.307 E5.04461
G1 X86.821 Y93.523 E5.09482
G1 X87.193 Y93.349 E5.11340
G1 X87.964 Y94.121 E5.16281
G1 X88.347 Y93.958 E5.18162
G1 X87.570 Y93.181 E5.23133
G1 X87.948 Y93.013 E5.25004
G1 X88.729 Y93.794 E5.30004
G1 X89.111 Y93.631 E5.31886
G1 X88.387 Y92.907 E5.36522
G1 X88.827 Y92.802 E5.38571
G1 X89.586 Y93.561 E5.43430
G1 X90.073 Y93.502 E5.45649
G1 X89.278 Y92.707 E5.50735
G1 X89.787 Y92.670 E5.53045
G1 X90.559 Y93.443 E5.57988
G1 X91.112 Y93.449 E5.60488
G1 X90.296 Y92.634 E5.65708
G1 X90.840 Y92.632 E5.68172
G1 X91.776 Y93.568 E5.74160
G1 X92.440 Y93.686 E5.77215
G1 X91.433 Y92.679 E5.83663
G1 X92.044 Y92.745 E5.86445
G1 X93.221 Y93.922 E5.93980
G1 X93.656 Y93.266 F7800.000
G1 X96.497 Y96.107 E6.12171 F540.000
G1 X96.133 Y96.288 E6.14013
G1 X94.650 Y94.805 E6.23511
G1 X94.797 Y94.952 F7800.000
G1 X92.780 Y92.935 E6.36424 F540.000
G1 X95.140 Y94.204 F7800.000
G1 X95.640 Y94.704 E6.39622 F540.000
G92 E0
G1 X95.685 Y104.639 F7800.000
G1 X95.685 Y104.639 F7800.000
G1 X95.787 Y104.126 F7800.000
G1 X96.349 Y104.688 E0.03597 F540.000
G1 X96.151 Y105.035 E0.05407
G1 X95.281 Y104.166 E0.10974
G1 X95.081 Y104.511 E0.12782
G1 X95.899 Y105.329 E0.18018
G1 X95.648 Y105.623 E0.19769
G1 X94.831 Y104.807 E0.24995
G1 X94.581 Y105.103 E0.26748
G1 X95.377 Y105.898 E0.31839
G1 X95.067 Y106.133 E0.33601
G1 X94.294 Y105.361 E0.38546
G1 X93.983 Y105.595 E0.40310
G1 X94.753 Y106.365 E0.45239
G1 X94.415 Y106.573 E0.47035
G1 X93.670 Y105.828 E0.51801
G1 X93.298 Y106.001 E0.53660
G1 X94.037 Y106.741 E0.58395
G1 X93.660 Y106.909 E0.60265
G1 X92.926 Y106.175 E0.64967
G1 X92.521 Y106.315 E0.66908
G1 X93.250 Y107.044 E0.71576
G1 X92.807 Y107.147 E0.73634
G1 X92.084 Y106.424 E0.78262
G1 X91.636 Y106.522 E0.80337
G1 X92.365 Y107.250 E0.84997
G1 X91.879 Y107.310 E0.87214
G1 X91.129 Y106.561 E0.92011
G1 X90.622 Y106.599 E0.94314
G1 X91.368 Y107.345 E0.99091
G1 X90.857 Y107.380 E1.01407
G1 X90.012 Y106.535 E1.06819
G1 X89.396 Y106.464 E1.09628
G1 X90.267 Y107.335 E1.15209
G1 X89.657 Y107.271 E1.17988
G1 X88.720 Y106.334 E1.23987
G1 X87.793 Y105.953 F7800.000
G1 X89.047 Y107.206 E1.32009 F540.000
G1 X88.319 Y107.024 E1.35404
G1 X84.114 Y102.819 E1.62326
G1 X83.863 Y102.022 E1.66106
G1 X85.685 Y103.845 E1.77775
G1 X84.403 Y103.653 F7800.000
G1 X87.443 Y106.693 E1.97236 F540.000
G1 X85.783 Y105.580 F7800.000
G1 X85.425 Y105.222 E1.99528 F540.000
G92 E0
G1 X93.563 Y107.418 F7800.000
G1 X99.319 Y106.696 F7800.000
G1 X106.228 Y108.744 F7800.000
G1 X110.478 Y105.590 F7800.000
G1 X110.478 Y98.445 F7800.000
G1 X114.728 Y98.241 F7800.000
G1 X116.564 Y98.146 F7800.000
G1 X116.564 Y107.423 E0.41980 F378.000
G1 X114.953 Y107.423 E0.49270
G1 X114.953 Y98.230 E0.90866
G1 X114.822 Y96.869 E0.97052
G1 X114.420 Y95.719 E1.02569
G1 X113.741 Y94.800 E1.07736
G1 X112.820 Y94.138 E1.12871
G1 X111.693 Y93.744 E1.18272
G1 X110.369 Y93.615 E1.24290
G1 X109.085 Y93.740 E1.30130
G1 X108.002 Y94.122 E1.35326
G1 X107.131 Y94.765 E1.40228
G1 X106.499 Y95.657 E1.45170
G1 X106.125 Y96.771 E1.50490
G1 X106.003 Y98.090 E1.56481
G1 X106.003 Y107.423 E1.98714
G1 X104.382 Y107.423 E2.06049
G1 X104.382 Y97.934 E2.48984
G1 X104.466 Y96.818 E2.54051
G1 X104.713 Y95.824 E2.58685
G1 X105.123 Y94.941 E2.63090
G1 X105.681 Y94.179 E2.67362
G1 X106.372 Y93.548 E2.71597
G1 X107.200 Y93.046 E2.75979
G1 X108.152 Y92.680 E2.80593
G1 X109.212 Y92.459 E2.85493
G1 X110.381 Y92.385 E2.90795
G1 X111.473 Y92.455 E2.95745
G1 X111.597 Y92.462 E2.96307 F378.000
G1 X112.695 Y92.692 E3.01381
G1 X113.675 Y93.072 E3.06140
G1 X114.526 Y93.594 E3.10656
G1 X115.235 Y94.249 E3.15023
G1 X115.806 Y95.038 E3.19431
G1 X116.226 Y95.951 E3.23979
G1 X116.479 Y96.978 E3.28763
G1 X116.548 Y97.915 E3.33016
G1 X114.740 Y95.855 F7800.000
G1 X116.277 Y97.391 E3.42849 F540.000
G1 X116.320 Y97.980 E3.45522
G1 X115.034 Y96.694 E3.53757
G1 X115.100 Y97.305 E3.56538
G1 X116.338 Y98.544 E3.64467
G1 X116.338 Y99.089 E3.66935
G1 X115.158 Y97.908 E3.74492
G1 X115.179 Y98.475 E3.77060
G1 X116.338 Y99.635 E3.84478
G1 X116.338 Y100.180 E3.86946
G1 X115.179 Y99.021 E3.94364
G1 X115.179 Y99.566 E3.96832
G1 X116.338 Y100.725 E4.04250
G1 X116.338 Y101.271 E4.06718
G1 X115.179 Y100.112 E4.14136
G1 X115.179 Y100.657 E4.16604
G1 X116.338 Y101.816 E4.24022
G1 X116.338 Y102.362 E4.26490
G1 X115.179 Y101.202 E4.33908
G1 X115.179 Y101.748 E4.36376
G1 X116.338 Y102.907 E4.43794
G1 X116.338 Y103.452 E4.46262
G1 X115.179 Y102.293 E4.53680
G1 X115.179 Y102.839 E4.56148
G1 X116.338 Y103.998 E4.63566
G1 X116.338 Y104.543 E4.66035
G1 X115.179 Y103.384 E4.73452
G1 X115.179 Y103.929 E4.75921
G1 X116.338 Y105.089 E4.83339
G1 X116.338 Y105.634 E4.85807
G1 X115.179 Y104.475 E4.93225
G1 X115.179 Y105.020 E4.95693
G1 X116.338 Y106.179 E5.03111
G1 X116.338 Y106.725 E5.05579
G1 X115.179 Y105.566 E5.12997
G1 X115.179 Y106.111 E5.15465
G1 X116.265 Y107.197 E5.22415
G1 X115.720 Y107.197 E5.24883
G1 X115.179 Y106.656 E5.28342
G92 E0
G1 X105.228 Y106.648 F7800.000
G1 X105.228 Y106.648 F7800.000
G1 X105.193 Y106.612 F7800.000
G1 X105.157 Y106.648 F7800.000
G1 X104.608 Y106.993 F7800.000
G1 X104.812 Y107.197 E0.01303 F540.000
G1 X105.357 Y107.197 E0.03771
G1 X104.608 Y106.448 E0.08564
G1 X104.608 Y105.903 E0.11032
G1 X105.777 Y107.072 E0.18514
G1 X105.777 Y106.526 E0.20982
G1 X104.608 Y105.357 E0.28464
G1 X104.608 Y104.812 E0.30933
G1 X105.777 Y105.981 E0.38415
G1 X105.777 Y105.436 E0.40883
G1 X104.608 Y104.266 E0.48365
G1 X104.608 Y103.721 E0.50833
G1 X105.777 Y104.890 E0.58315
G1 X105.777 Y104.345 E0.60783
G1 X104.608 Y103.176 E0.68265
G1 X104.608 Y102.630 E0.70733
G1 X105.777 Y103.799 E0.78215
G1 X105.777 Y103.254 E0.80683
G1 X104.608 Y102.085 E0.88165
G1 X104.608 Y101.539 E0.90633
G1 X105.777 Y102.709 E0.98115
G1 X105.777 Y102.163 E1.00583
G1 X104.608 Y100.994 E1.08065
G1 X104.608 Y100.449 E1.10533
G1 X105.777 Y101.618 E1.18015
G1 X105.777 Y101.072 E1.20483
G1 X104.608 Y99.903 E1.27965
G1 X104.608 Y99.358 E1.30434
G1 X105.777 Y100.527 E1.37916
G1 X105.777 Y99.982 E1.40384
G1 X104.608 Y98.812 E1.47866
G1 X104.608 Y98.267 E1.50334
G1 X105.777 Y99.436 E1.57816
G1 X105.777 Y98.891 E1.60284
G1 X104.618 Y97.732 E1.67702
G1 X104.656 Y97.224 E1.70005
G1 X105.777 Y98.345 E1.77180
G1 X105.808 Y97.830 E1.79515
G1 X104.704 Y96.726 E1.86580
G1 X104.812 Y96.290 E1.88617
G1 X105.854 Y97.331 E1.95281
G1 X105.900 Y96.832 E1.97550
G1 X104.921 Y95.853 E2.03815
G1 X105.093 Y95.479 E2.05675
G1 X106.029 Y96.415 E2.11668
G1 X106.166 Y96.007 E2.13617
G1 X105.266 Y95.107 E2.19379
G1 X105.482 Y94.778 E2.21161
G1 X106.303 Y95.599 E2.26415
G1 X106.529 Y95.279 E2.28186
G1 X105.713 Y94.463 E2.33410
G1 X105.978 Y94.183 E2.35156
G1 X106.755 Y94.960 E2.40130
G1 X106.982 Y94.641 E2.41900
G1 X106.255 Y93.915 E2.46548
G1 X106.553 Y93.667 E2.48301
G1 X107.292 Y94.406 E2.53031
G1 X107.606 Y94.174 E2.54796
G1 X106.892 Y93.461 E2.59361
G1 X107.232 Y93.255 E2.61158
G1 X107.919 Y93.942 E2.65558
G1 X108.317 Y93.795 E2.67478
G1 X107.622 Y93.100 E2.71926
G1 X108.016 Y92.949 E2.73836
G1 X108.720 Y93.653 E2.78343
G1 X109.129 Y93.516 E2.80294
G1 X108.447 Y92.834 E2.84660
G1 X108.899 Y92.740 E2.86747
G1 X109.626 Y93.468 E2.91404
G1 X110.123 Y93.419 E2.93664
G1 X109.374 Y92.671 E2.98457
G1 X109.887 Y92.638 E3.00783
G1 X110.657 Y93.408 E3.05707
G1 X111.261 Y93.467 E3.08455
G1 X110.414 Y92.619 E3.13878
G1 X110.996 Y92.656 E3.16519
G1 X111.875 Y93.535 E3.22143
G1 X112.713 Y93.827 F7800.000
G1 X111.598 Y92.712 E3.29279 F540.000
G1 X112.287 Y92.857 E3.32468
G1 X116.163 Y96.732 E3.57271
G1 X115.935 Y95.958 E3.60922
G1 X113.109 Y93.133 E3.79005
G1 X114.555 Y94.033 F7800.000
G1 X115.160 Y94.638 E3.82877 F540.000
M106 S255
G92 E0
G1 Z0.600 F7800.000
G1 X96.282 Y103.783 F7800.000
G1 X95.525 Y104.879 E0.39909 F600.000
G1 X95.062 Y105.424 E0.61327
G1 X94.938 Y105.540 E0.66423
G1 X94.261 Y106.059 E0.91980
G1 X93.868 Y106.278 E1.05466
G1 X93.272 Y106.551 E1.25121
G1 X92.859 Y106.685 E1.38131
G1 X92.073 Y106.874 E1.62348
G1 X91.777 Y106.915 E1.71288
G1 X90.677 Y106.992 E2.04329
G1 X89.016 Y106.811 E2.54418
G1 X88.704 Y106.749 E2.63946
G1 X87.453 Y106.256 E3.04241
G1 X87.136 Y106.095 E3.14884
G1 X86.103 Y105.260 E3.54707
G1 X85.910 Y105.081 E3.62574
G1 X85.083 Y103.857 E4.06830
G1 X85.013 Y103.747 E4.10737
G1 X84.964 Y103.614 E4.14996
G1 X84.460 Y102.094 E4.62983
G1 X84.264 Y100.047 E5.24586
G1 X84.371 Y98.660 E5.66270
G1 X84.485 Y97.996 E5.86469
G1 X84.639 Y97.420 E6.04323
G1 X85.040 Y96.325 E6.39259
G1 X85.621 Y95.408 E6.71790
G1 X85.934 Y95.010 E6.86979
G1 X86.308 Y94.624 E7.03066
G1 X87.151 Y93.966 E7.35121
G1 X87.517 Y93.761 E7.47683
G1 X88.167 Y93.477 E7.68948
G1 X88.867 Y93.246 E7.91034
G1 X89.335 Y93.144 E8.05389
G1 X90.670 Y93.015 E8.45567
G1 X90.918 Y93.029 E8.53032
G1 X91.969 Y93.164 E8.84758
G1 X92.888 Y93.364 E9.12967
G1 X93.141 Y93.440 E9.20884
G1 X94.149 Y94.003 E9.55475
G1 X94.853 Y94.496 E9.81218
G1 X95.062 Y94.666 E9.89305
G1 X95.778 Y95.561 E10.23635
G1 X96.456 Y96.600 E10.60817
G92 E0
G1 X101.965 Y107.648 F7800.000
G1 X108.420 Y107.648 F7800.000
G1 X110.478 Y98.445 F7800.000
G1 X114.728 Y98.241 F7800.000
G1 X115.759 Y107.648 F7800.000
G1 X115.757 Y98.159 E2.84327 F600.000
G1 X115.668 Y97.107 E3.15975
G1 X115.563 Y96.581 E3.32027
G1 X115.456 Y96.220 E3.43318
G1 X115.135 Y95.430 E3.68879
G1 X114.661 Y94.758 E3.93515
G1 X114.341 Y94.401 E4.07883
G1 X114.129 Y94.200 E4.16632
G1 X113.370 Y93.689 E4.44068
G1 X113.004 Y93.511 E4.56244
G1 X112.506 Y93.328 E4.72145
G1 X111.923 Y93.166 E4.90265
G1 X111.513 Y93.091 E5.02757
G1 X110.381 Y93.001 E5.36785
G1 X109.297 Y93.086 E5.69390
G1 X108.854 Y93.166 E5.82878
G1 X108.337 Y93.310 E5.98948
G1 X107.819 Y93.501 E6.15493
G1 X107.498 Y93.654 E6.26145
G1 X106.738 Y94.174 E6.53726
G1 X106.524 Y94.380 E6.62628
G1 X106.250 Y94.690 E6.75029
G1 X105.794 Y95.337 E6.98748
G1 X105.488 Y96.097 E7.23305
G1 X105.373 Y96.491 E7.35604
G1 X105.282 Y96.949 E7.49584
G1 X105.195 Y98.005 E7.81326
G1 X105.193 Y107.648 E10.70287
G92 E0
G1 Z0.900 F7800.000
G1 X96.282 Y103.783 F7800.000
G1 X95.525 Y104.879 E0.39909 F600.000
G1 X95.062 Y105.424 E0.61327
G1 X94.938 Y105.540 E0.66423
G1 X94.261 Y106.059 E0.91980
G1 X93.868 Y106.278 E1.05466
G1 X93.272 Y106.551 E1.25121
G1 X92.859 Y106.685 E1.38131
G1 X92.073 Y106.874 E1.62348
G1 X91.777 Y106.915 E1.71288
G1 X90.677 Y106.992 E2.04329
G1 X89.016 Y106.811 E2.54418
G1 X88.704 Y106.749 E2.63946
G1 X87.453 Y106.256 E3.04241
G1 X87.136 Y106.095 E3.14884
G1 X86.103 Y105.260 E3.54707
G1 X85.910 Y105.081 E3.62574
G1 X85.083 Y103.857 E4.06830
G1 X85.013 Y103.747 E4.10737
G1 X84.964 Y103.614 E4.14996
G1 X84.460 Y102.094 E4.62983
G1 X84.264 Y100.047 E5.24586
G1 X84.371 Y98.660 E5.66270
G1 X84.485 Y97.996 E5.86469
G1 X84.639 Y97.420 E6.04323
G1 X85.040 Y96.325 E6.39259
G1 X85.621 Y95.408 E6.71790
G1 X85.934 Y95.010 E6.86979
G1 X86.308 Y94.624 E7.03066
G1 X87.151 Y93.966 E7.35122
G1 X87.517 Y93.761 E7.47683
G1 X88.167 Y93.477 E7.68948
G1 X88.867 Y93.246 E7.91034
G1 X89.335 Y93.144 E8.05389
G1 X90.670 Y93.015 E8.45568
G1 X90.918 Y93.029 E8.53032
G1 X91.969 Y93.164 E8.84758
G1 X92.888 Y93.364 E9.12967
G1 X93.141 Y93.440 E9.20884
G1 X94.149 Y94.003 E9.55475
G1 X94.853 Y94.496 E9.81218
G1 X95.062 Y94.666 E9.89305
G1 X95.778 Y95.561 E10.23635
G1 X96.456 Y96.600 E10.60817
G92 E0
G1 X101.965 Y107.648 F7800.000
G1 X108.420 Y107.648 F7800.000
G1 X110.478 Y98.445 F7800.000
G1 X114.728 Y98.241 F7800.000
G1 X115.759 Y107.648 F7800.000
G1 X115.757 Y98.159 E2.84327 F600.000
G1 X115.668 Y97.107 E3.15975
G1 X115.563 Y96.581 E3.32027
G1 X115.456 Y96.220 E3.43318
G1 X115.135 Y95.430 E3.68880
G1 X114.661 Y94.758 E3.93515
G1 X114.341 Y94.401 E4.07883
G1 X114.129 Y94.200 E4.16632
G1 X113.370 Y93.689 E4.44068
G1 X113.004 Y93.511 E4.56244
G1 X112.506 Y93.328 E4.72145
G1 X111.923 Y93.166 E4.90265
G1 X111.512 Y93.091 E5.02802
G1 X110.381 Y93.001 E5.36784
G1 X109.297 Y93.086 E5.69389
G1 X108.854 Y93.166 E5.82878
G1 X108.337 Y93.310 E5.98947
G1 X107.819 Y93.501 E6.15493
G1 X107.498 Y93.654 E6.26144
G1 X106.738 Y94.174 E6.53726
G1 X106.524 Y94.380 E6.62627
G1 X106.250 Y94.690 E6.75029
G1 X105.794 Y95.337 E6.98748
G1 X105.488 Y96.097 E7.23305
G1 X105.373 Y96.491 E7.35604
G1 X105.282 Y96.949 E7.49584
G1 X105.195 Y98.005 E7.81325
G1 X105.193 Y107.648 E10.70287
G92 E0
G1 Z1.200 F7800.000
G1 X96.282 Y103.783 F7800.000
G1 X95.525 Y104.879 E0.39909 F600.000
G1 X95.062 Y105.424 E0.61327
G1 X94.938 Y105.540 E0.66423
G1 X94.261 Y106.059 E0.91980
G1 X93.868 Y106.278 E1.05466
G1 X93.272 Y106.551 E1.25121
G1 X92.859 Y106.685 E1.38131
G1 X92.073 Y106.874 E1.62348
G1 X91.777 Y106.915 E1.71288
G1 X90.677 Y106.992 E2.04329
G1 X89.016 Y106.811 E2.54418
G1 X88.704 Y106.749 E2.63946
G1 X87.453 Y106.256 E3.04241
G1 X87.136 Y106.095 E3.14884
G1 X86.103 Y105.260 E3.54707
G1 X85.910 Y105.081 E3.62574
G1 X85.083 Y103.857 E4.06831
G1 X85.013 Y103.747 E4.10737
G1 X84.964 Y103.614 E4.14996
G1 X84.460 Y102.094 E4.62983
