; generated by Slic3r 1.2.9 on 2016-03-11 at 01:23:19

; external perimeters extrusion width = 1.54mm
; perimeters extrusion width = 2.62mm
; infill extrusion width = 6.27mm
; solid infill extrusion width = 2.62mm
; top infill extrusion width = 2.62mm

M107
M104 S30 ; set temperature
G28 ; home all axes
G1 Z5 F5000 ; lift nozzle
M302
M92 E10000
M500
M501
G1 E100
M109 S30 ; wait for temperature to be reached
G21 ; set units to millimeters
G90 ; use absolute coordinates
M82 ; use absolute distances for extrusion
G92 E0
G1 Z0.300 F7800.000
G1 X86.420 Y93.448 F7800.000
G1 X86.612 Y93.314 E0.01059 F378.000
G1 X87.768 Y92.799 E0.06786
G1 X89.064 Y92.489 E0.12817
G1 X90.502 Y92.386 E0.19341
G1 X91.822 Y92.490 E0.25331
G1 X91.911 Y92.497 E0.25733 F378.000
G1 X93.194 Y92.829 E0.31731
G1 X94.355 Y93.381 E0.37549
G1 X95.375 Y94.143 E0.43307
G1 X96.230 Y95.107 E0.49143
G1 X96.811 Y96.088 E0.54298
G1 X95.508 Y96.737 E0.60889
G1 X94.338 Y95.102 E0.69986
G1 X92.652 Y94.000 E0.79099
G1 X90.607 Y93.635 E0.88501
G1 X88.983 Y93.832 E0.95904
G1 X87.593 Y94.425 E1.02741
G1 X86.445 Y95.414 E1.09598
G1 X85.594 Y96.722 E1.16660
G1 X85.086 Y98.274 E1.24048
G1 X84.918 Y100.064 E1.32180
G1 X85.079 Y101.863 E1.40353
G1 X85.567 Y103.401 E1.47654
G1 X86.386 Y104.672 E1.54498
G1 X87.506 Y105.620 E1.61138
G1 X88.887 Y106.187 E1.67891
G1 X90.509 Y106.374 E1.75279
G1 X91.580 Y106.293 E1.80141
G1 X92.553 Y106.050 E1.84677
G1 X93.428 Y105.642 E1.89048
G1 X94.182 Y105.077 E1.93310
G1 X94.785 Y104.364 E1.97536
G1 X95.135 Y103.697 E2.00941
G1 X96.663 Y104.202 E2.08222
G1 X96.190 Y105.088 E2.12766
G1 X95.419 Y105.989 E2.18133
G1 X94.462 Y106.694 E2.23511
G1 X93.321 Y107.204 E2.29164
G1 X91.999 Y107.511 E2.35308
G1 X90.496 Y107.614 E2.42123
G1 X88.382 Y107.390 E2.51743
G1 X86.616 Y106.723 E2.60285
G1 X85.182 Y105.616 E2.68480
G1 X84.122 Y104.118 E2.76786
G1 X83.482 Y102.270 E2.85633
G1 X83.267 Y100.061 E2.95678
G1 X83.363 Y98.546 E3.02547
G1 X83.651 Y97.176 E3.08881
G1 X84.128 Y95.954 E3.14818
G1 X84.785 Y94.896 E3.20452
G1 X85.612 Y94.017 E3.25913
G1 X86.231 Y93.581 E3.29341
G1 X92.610 Y92.935 F7800.000
G1 X94.628 Y94.952 E3.42255 F540.000
G1 X94.480 Y94.805 F7800.000
G1 X95.964 Y96.288 E3.51753 F540.000
G1 X96.328 Y96.107 E3.53594
G1 X93.487 Y93.266 E3.71785
G1 X93.051 Y93.922 F7800.000
G1 X91.874 Y92.745 E3.79320 F540.000
G1 X91.263 Y92.679 E3.82102
G1 X92.270 Y93.686 E3.88551
G1 X91.606 Y93.568 E3.91605
G1 X90.671 Y92.632 E3.97593
G1 X90.127 Y92.634 E4.00057
G1 X90.942 Y93.449 E4.05277
G1 X90.390 Y93.443 E4.07777
G1 X89.618 Y92.670 E4.12720
G1 X89.109 Y92.707 E4.15030
G1 X89.903 Y93.502 E4.20116
G1 X89.417 Y93.561 E4.22335
G1 X88.658 Y92.802 E4.27194
G1 X88.218 Y92.907 E4.29243
G1 X88.942 Y93.631 E4.33879
G1 X88.559 Y93.794 E4.35761
G1 X87.778 Y93.013 E4.40761
G1 X87.401 Y93.181 E4.42632
G1 X88.177 Y93.958 E4.47603
G1 X87.795 Y94.121 E4.49484
G1 X87.023 Y93.349 E4.54425
G1 X86.651 Y93.523 E4.56284
G1 X87.435 Y94.307 E4.61304
G1 X87.142 Y94.560 E4.63056
G1 X86.331 Y93.748 E4.68251
G1 X86.011 Y93.973 E4.70023
G1 X86.849 Y94.812 E4.75392
G1 X86.556 Y95.065 E4.77144
G1 X85.711 Y94.219 E4.82556
G1 X85.438 Y94.492 E4.84303
G1 X86.271 Y95.325 E4.89636
G1 X86.056 Y95.656 E4.91421
G1 X85.169 Y94.768 E4.97101
G1 X84.914 Y95.059 E4.98851
G1 X85.841 Y95.986 E5.04787
G1 X85.626 Y96.316 E5.06572
G1 X84.705 Y95.395 E5.12470
G1 X84.496 Y95.732 E5.14263
G1 X85.411 Y96.647 E5.20121
G1 X85.270 Y97.052 E5.22063
G1 X84.296 Y96.078 E5.28299
G1 X84.143 Y96.471 E5.30206
G1 X85.136 Y97.463 E5.36562
G1 X85.002 Y97.875 E5.38520
G1 X83.990 Y96.863 E5.44997
G1 X83.847 Y97.266 E5.46932
G1 X84.867 Y98.286 E5.53460
G1 X84.819 Y98.783 E5.55721
G1 X83.753 Y97.717 E5.62545
G1 X83.658 Y98.168 E5.64631
G1 X84.772 Y99.282 E5.71762
G1 X84.725 Y99.780 E5.74030
G1 X83.579 Y98.634 E5.81369
G1 X83.546 Y99.147 E5.83696
G1 X84.705 Y100.306 E5.91117
G1 X84.759 Y100.906 E5.93840
G1 X83.514 Y99.660 E6.01813
G1 X83.517 Y100.209 E6.04296
G1 X84.813 Y101.505 E6.12594
G1 X84.899 Y102.137 E6.15482
G1 X83.576 Y100.813 E6.23956
G1 X83.634 Y101.418 E6.26706
G1 X85.152 Y102.936 E6.36424
G1 X85.516 Y103.845 F7800.000
G1 X83.693 Y102.022 E6.48092 F540.000
G1 X83.944 Y102.819 E6.51872
G1 X88.149 Y107.024 E6.78794
G1 X88.877 Y107.206 E6.82189
G1 X87.624 Y105.953 E6.90211
G1 X87.273 Y106.693 F7800.000
G1 X84.233 Y103.653 E7.09672 F540.000
G1 X85.256 Y105.222 F7800.000
G1 X85.614 Y105.580 E7.11964 F540.000
G1 X88.550 Y106.334 F7800.000
G1 X89.487 Y107.271 E7.17964 F540.000
G1 X90.098 Y107.335 E7.20742
G1 X89.226 Y106.464 E7.26323
G1 X89.843 Y106.535 E7.29133
G1 X90.688 Y107.380 E7.34544
G1 X91.198 Y107.345 E7.36861
G1 X90.452 Y106.599 E7.41637
G1 X90.960 Y106.561 E7.43940
G1 X91.709 Y107.310 E7.48738
G1 X92.195 Y107.250 E7.50954
G1 X91.467 Y106.522 E7.55615
G1 X91.915 Y106.424 E7.57690
G1 X92.638 Y107.147 E7.62318
G1 X93.080 Y107.044 E7.64375
G1 X92.351 Y106.315 E7.69044
G1 X92.756 Y106.175 E7.70984
G1 X93.491 Y106.909 E7.75687
G1 X93.868 Y106.741 E7.77557
G1 X93.128 Y106.001 E7.82291
G1 X93.501 Y105.828 E7.84150
G1 X94.245 Y106.573 E7.88917
G1 X94.583 Y106.365 E7.90713
G1 X93.813 Y105.595 E7.95642
G1 X94.125 Y105.361 E7.97406
G1 X94.897 Y106.133 E8.02351
G1 X95.207 Y105.898 E8.04113
G1 X94.412 Y105.103 E8.09204
G1 X94.662 Y104.807 E8.10957
G1 X95.478 Y105.623 E8.16182
G1 X95.730 Y105.329 E8.17934
G1 X94.912 Y104.511 E8.23170
G1 X95.112 Y104.166 E8.24978
G1 X95.981 Y105.035 E8.30545
G1 X96.180 Y104.688 E8.32355
G1 X95.618 Y104.126 E8.35952
G92 E0
G1 X95.515 Y104.639 F7800.000
G1 X95.515 Y104.639 F7800.000
G1 X95.470 Y94.704 F7800.000
G1 X94.971 Y94.204 E0.03198 F540.000
G92 E0
G1 X97.128 Y96.181 F7800.000
G1 X100.559 Y94.148 F7800.000
G1 X107.116 Y91.752 F7800.000
G1 X108.591 Y92.352 F7800.000
G1 X111.616 Y95.108 F7800.000
G1 X116.284 Y106.586 E0.56068 F378.000
G1 X116.624 Y107.423 E0.60159 F378.000
G1 X114.933 Y107.423 E0.67814
G1 X110.794 Y96.800 E1.19399
G1 X109.872 Y94.056 E1.32500
G1 X109.477 Y94.056 E1.34289
G1 X108.554 Y96.800 E1.47390
G1 X104.394 Y107.423 E1.99012
G1 X102.703 Y107.423 E2.06664
G1 X108.742 Y92.577 E2.79186
G1 X110.586 Y92.577 E2.87531
G1 X111.529 Y94.894 E2.98848
G1 X111.235 Y94.870 F7800.000
G1 X109.168 Y92.803 E3.12134 F540.000
G1 X108.796 Y92.978 E3.14006
G1 X109.647 Y93.830 E3.19478
G1 X109.278 Y94.008 F7800.000
G1 X108.638 Y93.368 E3.23594 F540.000
G1 X108.479 Y93.757 E3.25505
G1 X109.140 Y94.418 E3.29752
G1 X109.002 Y94.828 E3.31718
G1 X108.321 Y94.147 E3.36098
G1 X108.162 Y94.536 E3.38009
G1 X108.864 Y95.238 E3.42521
G1 X108.726 Y95.648 E3.44487
G1 X108.004 Y94.926 E3.49130
G1 X107.846 Y95.315 E3.51042
G1 X108.589 Y96.058 E3.55817
G1 X108.451 Y96.468 E3.57783
G1 X107.687 Y95.704 E3.62691
G1 X107.529 Y96.094 E3.64602
G1 X108.309 Y96.874 E3.69616
G1 X108.155 Y97.268 E3.71538
G1 X107.370 Y96.483 E3.76579
G1 X107.212 Y96.873 E3.78490
G1 X108.000 Y97.661 E3.83559
G1 X107.846 Y98.055 E3.85481
G1 X107.054 Y97.262 E3.90576
G1 X106.895 Y97.652 E3.92487
G1 X107.692 Y98.449 E3.97611
G1 X107.538 Y98.842 E3.99532
G1 X106.737 Y98.041 E4.04683
G1 X106.578 Y98.431 E4.06594
G1 X107.384 Y99.236 E4.11771
G1 X107.230 Y99.630 E4.13693
G1 X106.420 Y98.820 E4.18898
G1 X106.262 Y99.209 E4.20809
G1 X107.075 Y100.023 E4.26041
G1 X106.921 Y100.417 E4.27963
G1 X106.103 Y99.599 E4.33223
G1 X105.945 Y99.988 E4.35134
G1 X106.767 Y100.811 E4.40421
G1 X106.613 Y101.204 E4.42342
G1 X105.786 Y100.378 E4.47657
G1 X105.628 Y100.767 E4.49568
G1 X106.459 Y101.598 E4.54909
G1 X106.305 Y101.992 E4.56831
G1 X105.469 Y101.157 E4.62199
G1 X105.311 Y101.546 E4.64110
G1 X106.150 Y102.385 E4.69506
G1 X105.996 Y102.779 E4.71428
G1 X105.153 Y101.935 E4.76851
G1 X104.994 Y102.325 E4.78762
G1 X105.842 Y103.173 E4.84213
G1 X105.688 Y103.566 E4.86135
G1 X104.836 Y102.714 E4.91613
G1 X104.677 Y103.104 E4.93524
G1 X105.534 Y103.960 E4.99029
G1 X105.380 Y104.354 E5.00951
G1 X104.519 Y103.493 E5.06483
G1 X104.361 Y103.883 E5.08394
G1 X105.225 Y104.747 E5.13954
G1 X105.071 Y105.141 E5.15875
G1 X104.202 Y104.272 E5.21462
G1 X104.044 Y104.661 E5.23373
G1 X104.917 Y105.535 E5.28988
G1 X104.763 Y105.928 E5.30909
G1 X103.885 Y105.051 E5.36551
G1 X103.727 Y105.440 E5.38462
G1 X104.609 Y106.322 E5.44131
G1 X104.455 Y106.716 E5.46052
G1 X103.569 Y105.830 E5.51748
G1 X103.410 Y106.219 E5.53660
G1 X104.300 Y107.110 E5.59383
G1 X103.840 Y107.197 E5.61513
G1 X103.252 Y106.609 E5.65295
G1 X103.093 Y106.998 E5.67206
G1 X103.292 Y107.197 E5.68485
G92 E0
G1 X104.133 Y105.966 F7800.000
G1 X104.133 Y105.966 F7800.000
G1 X113.586 Y103.247 F7800.000
G1 X115.366 Y105.027 E0.11444 F540.000
G1 X115.742 Y105.951 F7800.000
G1 X113.936 Y104.145 E0.23054 F540.000
G1 X114.285 Y105.042 F7800.000
G1 X116.117 Y106.874 E0.34831 F540.000
G1 X115.893 Y107.197 E0.36620
G1 X114.635 Y105.939 E0.44704
G1 X114.985 Y106.837 F7800.000
G1 X115.345 Y107.197 E0.47019 F540.000
G1 X114.991 Y104.104 F7800.000
G1 X113.237 Y102.350 E0.58296 F540.000
G1 X112.887 Y101.452 F7800.000
G1 X114.615 Y103.180 E0.69406 F540.000
G1 X114.240 Y102.257 F7800.000
G1 X112.537 Y100.555 E0.80350 F540.000
G1 X113.489 Y100.410 F7800.000
G1 X111.838 Y98.760 E0.90960 F540.000
G1 X112.737 Y98.563 F7800.000
G1 X111.139 Y96.965 E1.01236 F540.000
G1 X111.986 Y96.717 F7800.000
G1 X110.556 Y95.286 E1.10430 F540.000
G1 X110.833 Y96.111 F7800.000
G1 X112.362 Y97.640 E1.20256 F540.000
G1 X111.488 Y97.862 F7800.000
G1 X113.113 Y99.487 E1.30699 F540.000
G1 X112.188 Y99.657 F7800.000
G1 X113.864 Y101.334 E1.41476 F540.000
G1 X111.611 Y95.793 F7800.000
G1 X110.279 Y94.461 E1.50037 F540.000
G1 X110.860 Y93.946 F7800.000
G1 X109.716 Y92.803 E1.57387 F540.000
G1 X110.264 Y92.803 E1.59877
G1 X110.484 Y93.023 E1.61292
M106 S255
G92 E0
G1 Z0.600 F7800.000
G1 X96.113 Y103.783 F7800.000
G1 X95.356 Y104.879 E0.39909 F600.000
G1 X94.893 Y105.424 E0.61327
G1 X94.769 Y105.540 E0.66423
G1 X94.092 Y106.059 E0.91980
G1 X93.699 Y106.278 E1.05466
G1 X93.102 Y106.551 E1.25121
G1 X92.689 Y106.685 E1.38131
G1 X91.903 Y106.874 E1.62348
G1 X91.608 Y106.915 E1.71288
G1 X90.508 Y106.992 E2.04329
G1 X88.846 Y106.811 E2.54418
G1 X88.534 Y106.749 E2.63946
G1 X87.283 Y106.256 E3.04241
G1 X86.967 Y106.095 E3.14884
G1 X85.933 Y105.260 E3.54707
G1 X85.740 Y105.081 E3.62574
G1 X84.913 Y103.857 E4.06830
G1 X84.844 Y103.747 E4.10737
G1 X84.795 Y103.614 E4.14996
G1 X84.291 Y102.094 E4.62983
G1 X84.094 Y100.047 E5.24586
G1 X84.202 Y98.660 E5.66270
G1 X84.315 Y97.996 E5.86469
G1 X84.470 Y97.420 E6.04323
G1 X84.871 Y96.325 E6.39259
G1 X85.451 Y95.408 E6.71790
G1 X85.764 Y95.010 E6.86979
G1 X86.138 Y94.624 E7.03066
G1 X86.982 Y93.966 E7.35121
G1 X87.347 Y93.761 E7.47683
G1 X87.998 Y93.477 E7.68948
G1 X88.698 Y93.246 E7.91034
G1 X89.166 Y93.144 E8.05389
G1 X90.500 Y93.015 E8.45567
G1 X90.749 Y93.029 E8.53032
G1 X91.799 Y93.164 E8.84758
G1 X92.719 Y93.364 E9.12967
G1 X92.972 Y93.440 E9.20884
G1 X93.980 Y94.003 E9.55475
G1 X94.684 Y94.496 E9.81218
G1 X94.893 Y94.666 E9.89305
G1 X95.608 Y95.561 E10.23635
G1 X96.286 Y96.600 E10.60817
G92 E0
G1 X99.305 Y106.603 F7800.000
G1 X104.548 Y108.744 F7800.000
G1 X109.674 Y97.233 F7800.000
G1 X109.674 Y97.231 F7800.000
G1 X110.583 Y96.877 F7800.000
G1 X115.866 Y107.648 F7800.000
G1 X111.452 Y96.562 E3.57549 F600.000
G1 X110.507 Y94.013 E4.39000
G1 X110.067 Y93.349 E4.62869
G1 X109.639 Y93.316 E4.75724
G1 X109.264 Y93.353 E4.87012
G1 X108.834 Y94.010 E5.10552
G1 X107.888 Y96.558 E5.91986
G1 X103.461 Y107.648 E9.49798
G92 E0
G1 Z0.900 F7800.000
G1 X96.113 Y103.783 F7800.000
G1 X95.356 Y104.879 E0.39909 F600.000
G1 X94.893 Y105.424 E0.61327
G1 X94.769 Y105.540 E0.66423
G1 X94.092 Y106.059 E0.91980
G1 X93.699 Y106.278 E1.05466
G1 X93.102 Y106.551 E1.25121
G1 X92.689 Y106.685 E1.38131
G1 X91.903 Y106.874 E1.62348
G1 X91.608 Y106.915 E1.71288
G1 X90.508 Y106.992 E2.04329
G1 X88.846 Y106.811 E2.54418
G1 X88.534 Y106.749 E2.63946
G1 X87.283 Y106.256 E3.04241
G1 X86.967 Y106.095 E3.14884
G1 X85.933 Y105.260 E3.54707
G1 X85.740 Y105.081 E3.62574
G1 X84.913 Y103.857 E4.06830
G1 X84.844 Y103.747 E4.10737
G1 X84.795 Y103.614 E4.14996
G1 X84.291 Y102.094 E4.62983
G1 X84.094 Y100.047 E5.24586
G1 X84.202 Y98.660 E5.66270
G1 X84.315 Y97.996 E5.86469
G1 X84.470 Y97.420 E6.04323
G1 X84.871 Y96.325 E6.39259
G1 X85.451 Y95.408 E6.71790
G1 X85.764 Y95.010 E6.86979
G1 X86.138 Y94.624 E7.03066
G1 X86.982 Y93.966 E7.35122
G1 X87.347 Y93.761 E7.47683
G1 X87.998 Y93.477 E7.68948
G1 X88.698 Y93.246 E7.91034
G1 X89.166 Y93.144 E8.05389
G1 X90.500 Y93.015 E8.45568
G1 X90.749 Y93.029 E8.53032
G1 X91.799 Y93.164 E8.84758
G1 X92.719 Y93.364 E9.12967
G1 X92.972 Y93.440 E9.20884
G1 X93.980 Y94.003 E9.55475
G1 X94.684 Y94.496 E9.81218
G1 X94.893 Y94.666 E9.89305
G1 X95.608 Y95.561 E10.23635
G1 X96.286 Y96.600 E10.60817
G92 E0
G1 X99.305 Y106.603 F7800.000
G1 X104.548 Y108.744 F7800.000
G1 X109.674 Y97.233 F7800.000
G1 X109.674 Y97.231 F7800.000
G1 X110.583 Y96.877 F7800.000
G1 X115.866 Y107.648 F7800.000
G1 X111.452 Y96.562 E3.57549 F600.000
G1 X110.507 Y94.013 E4.39000
G1 X110.067 Y93.349 E4.62869
G1 X109.639 Y93.316 E4.75724
G1 X109.264 Y93.353 E4.87012
G1 X108.834 Y94.010 E5.10552
G1 X107.888 Y96.558 E5.91986
G1 X103.461 Y107.648 E9.49798
G92 E0
G1 Z1.200 F7800.000
G1 X96.113 Y103.783 F7800.000
G1 X95.356 Y104.879 E0.39909 F600.000
G1 X94.893 Y105.424 E0.61327
G1 X94.769 Y105.540 E0.66423
G1 X94.092 Y106.059 E0.91980
G1 X93.699 Y106.278 E1.05466
G1 X93.102 Y106.551 E1.25121
G1 X92.689 Y106.685 E1.38131
G1 X91.903 Y106.874 E1.62348
G1 X91.608 Y106.915 E1.71288
G1 X90.508 Y106.992 E2.04329
G1 X88.846 Y106.811 E2.54418
G1 X88.534 Y106.749 E2.63946
G1 X87.283 Y106.256 E3.04241
G1 X86.967 Y106.095 E3.14884
G1 X85.933 Y105.260 E3.54707
G1 X85.740 Y105.081 E3.62574
G1 X84.913 Y103.857 E4.06831
G1 X84.844 Y103.747 E4.10737
G1 X84.795 Y103.614 E4.14996
G1 X84.291 Y102.094 E4.62983
G1 X84.094 Y100.047 E5.24586
G1 X84.202 Y98.660 E5.66270
G1 X84.315 Y97.996 E5.86469
G1 X84.470 Y97.420 E6.04323
G1 X84.871 Y96.325 E6.39259
G1 X85.451 Y95.408 E6.71790
G1 X85.764 Y95.010 E6.86979
G1 X86.138 Y94.624 E7.03066
G1 X86.982 Y93.966 E7.35122
G1 X87.347 Y93.761 E7.47683
G1 X87.998 Y93.477 E7.68948
G1 X88.698 Y93.246 E7.91034
G1 X89.166 Y93.144 E8.05389
G1 X90.500 Y93.015 E8.45568
G1 X90.749 Y93.029 E8.53032
G1 X91.799 Y93.164 E8.84758
G1 X92.719 Y93.364 E9.12967
G1 X92.972 Y93.440 E9.20884
G1 X93.980 Y94.003 E9.55476
G1 X94.684 Y94.496 E9.81218
G1 X94.893 Y94.666 E9.89305
G1 X95.608 Y95.561 E10.23635
G1 X96.286 Y96.600 E10.60817
G92 E0
G1 X99.305 Y106.603 F7800.000
G1 X104.548 Y108.744 F7800.000
G1 X109.674 Y97.233 F7800.000
G1 X109.674 Y97.231 F7800.000
G1 X110.583 Y96.877 F7800.000
G1 X115.866 Y107.648 F7800.000
G1 X111.452 Y96.562 E3.57549 F600.000
G1 X110.507 Y94.013 E4.39000
G1 X110.067 Y93.349 E4.62869
G1 X109.639 Y93.316 E4.75724
G1 X109.264 Y93.353 E4.87012
G1 X108.834 Y94.010 E5.10552
G1 X107.888 Y96.558 E5.91986
G1 X103.461 Y107.648 E9.49798
G92 E0
G1 Z1.500 F7800.000
G1 X96.113 Y103.783 F7800.000
G1 X95.356 Y104.879 E0.39909 F600.000
G1 X94.893 Y105.424 E0.61327
G1 X94.769 Y105.540 E0.66423
G1 X94.092 Y106.059 E0.91980
G1 X93.699 Y106.278 E1.05466
G1 X93.102 Y106.551 E1.25121
G1 X92.689 Y106.685 E1.38131
G1 X91.903 Y106.874 E1.62348
G1 X91.608 Y106.915 E1.71288
G1 X90.508 Y106.992 E2.04329
G1 X88.846 Y106.811 E2.54418
G1 X88.534 Y106.749 E2.63946
G1 X87.283 Y106.256 E3.04241
G1 X86.967 Y106.095 E3.14884
G1 X85.933 Y105.260 E3.54707
G1 X85.740 Y105.081 E3.62574
G1 X84.913 Y103.857 E4.06830
G1 X84.844 Y103.747 E4.10737
G1 X84.795 Y103.614 E4.14996
G1 X84.291 Y102.094 E4.62983
G1 X84.094 Y100.047 E5.24586
G1 X84.202 Y98.660 E5.66270
G1 X84.315 Y97.996 E5.86469
G1 X84.470 Y97.420 E6.04323
G1 X84.871 Y96.325 E6.39259
G1 X85.451 Y95.408 E6.71789
G1 X85.764 Y95.010 E6.86979
G1 X86.138 Y94.624 E7.03066
G1 X86.982 Y93.966 E7.35121
G1 X87.347 Y93.761 E7.47683
G1 X87.998 Y93.477 E7.68948
G1 X88.698 Y93.246 E7.91034
G1 X89.166 Y93.144 E8.05389
G1 X90.500 Y93.015 E8.45567
G1 X90.749 Y93.029 E8.53032
G1 X91.799 Y93.164 E8.84757
G1 X92.719 Y93.364 E9.12966
G1 X92.972 Y93.440 E9.20884
G1 X93.980 Y94.003 E9.55475
G1 X94.684 Y94.496 E9.81218
