; generated by Slic3r 1.2.9 on 2016-03-11 at 01:23:24

; external perimeters extrusion width = 1.54mm
; perimeters extrusion width = 2.62mm
; infill extrusion width = 6.27mm
; solid infill extrusion width = 2.62mm
; top infill extrusion width = 2.62mm

M107
M104 S30 ; set temperature
G28 ; home all axes
G1 Z5 F5000 ; lift nozzle
M302
M92 E10000
M500
M501
G1 E100
M109 S30 ; wait for temperature to be reached
G21 ; set units to millimeters
G90 ; use absolute coordinates
M82 ; use absolute distances for extrusion
G92 E0
G1 Z0.300 F7800.000
G1 X105.031 Y99.352 F7800.000
G1 X102.275 Y92.577 E0.33094 F378.000
G1 X103.934 Y92.577 E0.40602
G1 X105.499 Y96.563 E0.59979
G1 X105.686 Y97.041 E0.62301 F378.000
G1 X112.936 Y97.041 E0.95107
G1 X114.677 Y92.577 E1.16788
G1 X116.306 Y92.577 E1.24159
G1 X110.363 Y107.423 E1.96518
G1 X108.314 Y107.423 E2.05791
G1 X105.118 Y99.566 E2.44174
G1 X106.462 Y99.045 F7800.000
G1 X106.138 Y98.207 E2.48242 F378.000
G1 X112.495 Y98.207 E2.77005 F378.000
G1 X110.219 Y104.086 E3.05532
G1 X109.510 Y106.198 E3.15613
G1 X109.111 Y106.197 E3.17418
G1 X108.792 Y105.195 E3.22176
G1 X108.202 Y103.544 E3.30107
G1 X106.546 Y99.261 E3.50889
G1 X106.303 Y99.357 F7800.000
G1 X104.640 Y97.694 E3.61637 F540.000
G1 X104.262 Y96.765 F7800.000
G1 X105.956 Y98.459 E3.72580 F540.000
G1 X105.017 Y98.622 F7800.000
G1 X106.650 Y100.255 E3.83132 F540.000
G1 X105.773 Y100.479 F7800.000
G1 X107.345 Y102.051 E3.93293 F540.000
G1 X106.528 Y102.335 F7800.000
G1 X108.034 Y103.842 E4.03029 F540.000
G1 X107.283 Y104.192 F7800.000
G1 X108.636 Y105.545 E4.11769 F540.000
G1 X108.038 Y106.049 F7800.000
G1 X109.187 Y107.197 E4.19189 F540.000
G1 X109.737 Y107.197 E4.21706
G1 X108.963 Y106.423 E4.26708
G1 X109.515 Y106.424 E4.29231
G1 X110.246 Y107.154 E4.33950
G1 X110.409 Y106.767 E4.35871
G1 X109.754 Y106.112 E4.40103
G1 X109.892 Y105.700 E4.42090
G1 X110.566 Y106.374 E4.46444
G1 X110.724 Y105.980 E4.48380
G1 X110.031 Y105.288 E4.52856
G1 X110.169 Y104.875 E4.54843
G1 X110.881 Y105.587 E4.59442
G1 X111.038 Y105.194 E4.61378
G1 X110.308 Y104.463 E4.66100
G1 X110.448 Y104.053 E4.68081
G1 X111.196 Y104.800 E4.72911
G1 X111.353 Y104.407 E4.74847
G1 X110.602 Y103.656 E4.79701
G1 X110.756 Y103.259 E4.81647
G1 X111.511 Y104.014 E4.86526
G1 X111.668 Y103.621 E4.88461
G1 X110.909 Y102.862 E4.93364
G1 X111.063 Y102.465 E4.95310
G1 X111.826 Y103.227 E5.00237
G1 X111.983 Y102.834 E5.02173
G1 X111.217 Y102.068 E5.07124
G1 X111.371 Y101.671 E5.09070
G1 X112.140 Y102.441 E5.14046
G1 X112.298 Y102.047 E5.15981
G1 X111.524 Y101.274 E5.20981
G1 X111.678 Y100.877 E5.22927
G1 X112.455 Y101.654 E5.27951
G1 X112.613 Y101.261 E5.29887
G1 X111.832 Y100.480 E5.34935
G1 X111.985 Y100.083 E5.36881
G1 X112.770 Y100.868 E5.41953
G1 X112.928 Y100.474 E5.43889
G1 X112.139 Y99.686 E5.48986
G1 X112.293 Y99.289 E5.50932
G1 X113.085 Y100.081 E5.56053
G1 X113.243 Y99.688 E5.57988
G1 X112.446 Y98.892 E5.63134
G1 X112.600 Y98.495 E5.65079
G1 X113.400 Y99.294 E5.70249
G1 X113.557 Y98.901 E5.72185
G1 X111.923 Y97.267 E5.82746
G1 X112.474 Y97.267 E5.85262
G1 X113.715 Y98.508 E5.93282
G1 X113.872 Y98.115 E5.95217
G1 X113.025 Y97.267 E6.00696
G1 X113.208 Y96.900 E6.02572
G1 X114.030 Y97.721 E6.07882
G1 X114.187 Y97.328 E6.09818
G1 X113.362 Y96.503 E6.15147
G1 X113.517 Y96.107 E6.17091
G1 X114.345 Y96.935 E6.22439
G1 X114.502 Y96.542 E6.24375
G1 X113.671 Y95.711 E6.29742
G1 X113.826 Y95.315 E6.31685
G1 X114.659 Y96.148 E6.37071
G1 X114.817 Y95.755 E6.39006
G1 X113.980 Y94.919 E6.44411
G1 X114.135 Y94.522 E6.46354
G1 X114.974 Y95.362 E6.51778
G1 X115.132 Y94.968 E6.53714
G1 X114.290 Y94.126 E6.59156
G1 X114.444 Y93.730 E6.61099
G1 X115.289 Y94.575 E6.66560
G1 X115.447 Y94.182 E6.68496
G1 X114.599 Y93.334 E6.73976
G1 X114.753 Y92.938 E6.75919
G1 X115.604 Y93.789 E6.81418
G1 X115.761 Y93.395 E6.83354
G1 X115.169 Y92.803 E6.87181
G1 X115.720 Y92.803 E6.89697
G1 X115.919 Y93.002 E6.90983
G92 E0
G1 X111.372 Y97.267 F7800.000
G1 X112.087 Y97.981 E0.04615 F540.000
G1 X111.536 Y97.981 E0.07131
G1 X110.822 Y97.267 E0.11746
G1 X110.271 Y97.267 E0.14262
G1 X110.985 Y97.981 E0.18877
G1 X110.434 Y97.981 E0.21393
G1 X109.720 Y97.267 E0.26008
G1 X109.170 Y97.267 E0.28525
G1 X109.884 Y97.981 E0.33139
G1 X109.333 Y97.981 E0.35656
G1 X108.619 Y97.267 E0.40270
G1 X108.068 Y97.267 E0.42787
G1 X108.782 Y97.981 E0.47402
G1 X108.231 Y97.981 E0.49918
G1 X107.517 Y97.267 E0.54533
G1 X106.967 Y97.267 E0.57049
G1 X107.681 Y97.981 E0.61664
G1 X107.130 Y97.981 E0.64180
G1 X106.416 Y97.267 E0.68795
G1 X105.865 Y97.267 E0.71312
G1 X106.579 Y97.981 E0.75926
G1 X106.029 Y97.981 E0.78443
G1 X103.885 Y95.837 E0.92298
G1 X103.507 Y94.909 F7800.000
G1 X105.254 Y96.655 E1.03586 F540.000
G1 X104.898 Y95.749 F7800.000
G1 X103.129 Y93.980 E1.15015 F540.000
G1 X102.752 Y93.052 F7800.000
G1 X104.542 Y94.842 E1.26585 F540.000
G1 X104.186 Y93.936 F7800.000
G1 X103.053 Y92.803 E1.33907 F540.000
G1 X103.604 Y92.803 E1.36423
G1 X103.831 Y93.029 E1.37887
G1 X105.395 Y99.550 F7800.000
G1 X106.998 Y101.153 E1.48243 F540.000
G1 X106.150 Y101.407 F7800.000
G1 X107.692 Y102.949 E1.58209 F540.000
G1 X106.906 Y103.264 F7800.000
G1 X108.340 Y104.698 E1.67479 F540.000
G1 X107.661 Y105.120 F7800.000
G1 X108.893 Y106.352 E1.75441 F540.000
G1 X108.416 Y106.977 F7800.000
G1 X108.636 Y107.197 E1.76862 F540.000
G92 E0
G1 X108.162 Y107.648 F7800.000
G1 X106.817 Y108.195 F7800.000
G1 X99.339 Y105.644 F7800.000
G1 X95.598 Y104.217 F7800.000
G1 X94.097 Y105.648 F7800.000
G1 X92.719 Y106.578 E0.07523 F378.000
G1 X90.772 Y107.210 E0.16783
G1 X88.412 Y107.423 E0.27505
G1 X83.587 Y107.423 E0.49341
G1 X83.587 Y92.577 E1.16518
G1 X89.077 Y92.577 E1.41363
G1 X90.382 Y92.673 E1.47282
G1 X90.470 Y92.680 E1.47682 F378.000
G1 X91.736 Y92.986 E1.53575
G1 X92.885 Y93.493 E1.59260
G1 X93.893 Y94.190 E1.64807
G1 X94.735 Y95.065 E1.70299
G1 X95.413 Y96.120 E1.75976
G1 X95.911 Y97.333 E1.81905
G1 X96.211 Y98.678 E1.88140
G1 X96.311 Y100.153 E1.94831
G1 X96.081 Y102.317 E2.04680
G1 X95.400 Y104.105 E2.13337
G1 X94.284 Y105.513 E2.21468
G1 X93.090 Y104.611 F7800.000
G1 X93.052 Y104.660 E2.21751 F378.000
G1 X91.801 Y105.529 E2.28643
G1 X90.240 Y106.045 E2.36082
G1 X88.389 Y106.214 E2.44494
G1 X85.208 Y106.214 E2.58889
G1 X85.208 Y93.786 E3.15125
G1 X88.854 Y93.786 E3.31625 F378.000
G1 X89.960 Y93.870 E3.36642
G1 X90.986 Y94.126 E3.41426
G1 X91.921 Y94.553 E3.46081
G1 X92.743 Y95.145 E3.50662
G1 X93.428 Y95.887 E3.55232
G1 X93.972 Y96.778 E3.59955
G1 X94.367 Y97.796 E3.64896
G1 X94.602 Y98.923 E3.70105
G1 X94.680 Y100.161 E3.75719
G1 X94.503 Y101.954 E3.83872
G1 X93.961 Y103.459 E3.91107
G1 X93.229 Y104.426 E3.96597
G1 X95.458 Y100.175 F7800.000
G1 X95.494 Y100.137 F7800.000
G1 X95.407 Y98.811 F7800.000
G1 X95.405 Y98.794 F7800.000
G1 X95.441 Y98.789 F7800.000
G1 X95.711 Y97.566 F7800.000
G1 X91.273 Y93.128 E4.25074 F540.000
G1 X90.552 Y92.954 E4.28438
G1 X91.804 Y94.206 E4.36469
G1 X92.152 Y93.460 F7800.000
G1 X95.349 Y96.658 E4.56987 F540.000
G1 X94.174 Y96.576 F7800.000
G1 X95.868 Y98.270 E4.67859 F540.000
G1 X95.997 Y98.945 E4.70978
G1 X94.520 Y97.468 E4.80456
G1 X94.700 Y98.195 E4.83854
G1 X96.036 Y99.532 E4.92431
G1 X96.076 Y100.119 E4.95099
G1 X94.831 Y98.873 E5.03091
G1 X94.868 Y99.457 E5.05745
G1 X96.041 Y100.630 E5.13275
G1 X95.989 Y101.125 E5.15531
G1 X94.904 Y100.040 E5.22488
G1 X94.862 Y100.544 E5.24783
G1 X95.936 Y101.619 E5.31678
G1 X95.884 Y102.113 E5.33934
G1 X94.812 Y101.042 E5.40809
G1 X94.763 Y101.539 E5.43077
G1 X95.775 Y102.552 E5.49573
G1 X95.624 Y102.948 E5.51495
G1 X94.695 Y102.018 E5.57458
G1 X94.551 Y102.421 E5.59397
G1 X95.474 Y103.344 E5.65320
G1 X95.323 Y103.739 E5.67242
G1 X94.406 Y102.823 E5.73124
G1 X94.261 Y103.225 E5.75063
G1 X95.148 Y104.112 E5.80753
G1 X94.906 Y104.417 E5.82519
G1 X94.094 Y103.604 E5.87734
G1 X93.858 Y103.915 E5.89505
G1 X94.665 Y104.722 E5.94680
G1 X94.423 Y105.027 E5.96446
G1 X93.623 Y104.227 E6.01581
G1 X93.387 Y104.538 E6.03352
G1 X94.172 Y105.323 E6.08391
G1 X93.869 Y105.567 E6.10155
G1 X93.139 Y104.836 E6.14844
G1 X92.816 Y105.061 E6.16626
G1 X93.543 Y105.787 E6.21290
G1 X93.216 Y106.008 E6.23078
G1 X92.493 Y105.285 E6.27718
G1 X92.170 Y105.509 E6.29500
G1 X92.890 Y106.228 E6.34116
G1 X92.537 Y106.422 E6.35944
G1 X91.845 Y105.730 E6.40383
G1 X91.434 Y105.866 E6.42346
G1 X92.124 Y106.556 E6.46774
G1 X91.711 Y106.690 E6.48743
G1 X91.023 Y106.001 E6.53159
G1 X90.612 Y106.137 E6.55122
G1 X91.298 Y106.824 E6.59526
G1 X90.885 Y106.958 E6.61495
G1 X90.196 Y106.269 E6.65917
G1 X89.695 Y106.314 E6.68200
G1 X90.404 Y107.023 E6.72747
G1 X89.903 Y107.068 E6.75031
G1 X89.194 Y106.360 E6.79576
G1 X88.693 Y106.406 E6.81859
G1 X89.401 Y107.114 E6.86400
G1 X88.900 Y107.159 E6.88685
G1 X88.180 Y106.440 E6.93300
G1 X87.634 Y106.440 E6.95780
G1 X88.391 Y107.197 E7.00638
G1 X87.844 Y107.197 E7.03119
G1 X87.087 Y106.440 E7.07977
G1 X86.540 Y106.440 E7.10458
G1 X87.297 Y107.197 E7.15316
G1 X86.750 Y107.197 E7.17797
G1 X85.993 Y106.440 E7.22655
G1 X84.016 Y107.197 F7800.000
G1 X83.813 Y106.993 E7.23961 F540.000
G1 X83.813 Y106.447 E7.26442
G1 X84.563 Y107.197 E7.31257
G1 X85.110 Y107.197 E7.33738
G1 X83.813 Y105.900 E7.42061
G1 X83.813 Y105.353 E7.44542
G1 X84.982 Y106.522 E7.52043
G1 X85.446 Y106.440 E7.54184
G1 X86.203 Y107.197 E7.59042
G1 X85.657 Y107.197 E7.61523
G1 X84.900 Y106.440 E7.66381
G1 X84.982 Y105.975 E7.68522
G1 X83.813 Y104.806 E7.76023
G1 X83.813 Y104.259 E7.78504
G1 X84.982 Y105.428 E7.86006
G1 X84.982 Y104.882 E7.88487
G1 X83.813 Y103.713 E7.95988
G1 X83.813 Y103.166 E7.98469
G1 X84.982 Y104.335 E8.05970
G1 X84.982 Y103.788 E8.08451
G1 X83.813 Y102.619 E8.15953
G1 X83.813 Y102.072 E8.18434
G1 X84.982 Y103.241 E8.25935
G1 X84.982 Y102.694 E8.28416
G1 X83.813 Y101.525 E8.35917
G1 X83.813 Y100.978 E8.38398
G1 X84.982 Y102.148 E8.45900
G1 X84.982 Y101.601 E8.48381
G1 X83.813 Y100.432 E8.55882
G1 X83.813 Y99.885 E8.58363
G1 X84.982 Y101.054 E8.65864
G1 X84.982 Y100.507 E8.68345
G1 X83.813 Y99.338 E8.75847
G1 X83.813 Y98.791 E8.78328
G1 X84.982 Y99.960 E8.85829
G1 X84.982 Y99.414 E8.88310
G1 X83.813 Y98.244 E8.95811
G1 X83.813 Y97.698 E8.98292
G1 X84.982 Y98.867 E9.05794
G1 X84.982 Y98.320 E9.08275
G1 X83.813 Y97.151 E9.15776
G1 X83.813 Y96.604 E9.18257
G1 X84.982 Y97.773 E9.25758
G1 X84.982 Y97.226 E9.28239
G1 X83.813 Y96.057 E9.35741
G1 X83.813 Y95.510 E9.38222
G1 X84.982 Y96.679 E9.45723
G1 X84.982 Y96.133 E9.48204
G1 X83.813 Y94.964 E9.55706
G1 X83.813 Y94.417 E9.58186
G1 X84.982 Y95.586 E9.65688
G1 X84.982 Y95.039 E9.68169
G1 X83.813 Y93.870 E9.75670
G1 X83.813 Y93.323 E9.78151
G1 X84.982 Y94.492 E9.85653
G1 X84.982 Y93.945 E9.88134
G1 X83.846 Y92.810 E9.95421
G1 X84.386 Y92.803 E9.97872
G1 X85.143 Y93.560 E10.02730
G1 X85.690 Y93.560 E10.05211
G1 X84.933 Y92.803 E10.10068
G1 X85.480 Y92.803 E10.12549
G1 X86.237 Y93.560 E10.17407
G1 X86.784 Y93.560 E10.19888
G1 X86.027 Y92.803 E10.24746
G1 X86.573 Y92.803 E10.27227
G1 X87.330 Y93.560 E10.32085
G1 X87.877 Y93.560 E10.34566
G1 X87.120 Y92.803 E10.39424
G1 X87.667 Y92.803 E10.41905
G1 X88.424 Y93.560 E10.46762
G1 X88.973 Y93.562 E10.49252
G1 X88.214 Y92.803 E10.54122
G1 X88.761 Y92.803 E10.56603
G1 X89.565 Y93.607 E10.61762
G1 X90.172 Y93.667 E10.64530
G1 X89.333 Y92.829 E10.69909
G1 X89.924 Y92.872 E10.72595
G1 X90.900 Y93.849 E10.78860
G1 X93.519 Y94.281 F7800.000
G1 X94.503 Y95.264 E10.85169 F540.000
M106 S255
G92 E0
G1 Z0.600 F7800.000
G1 X107.318 Y100.633 F7800.000
G1 X104.941 Y97.168 E1.25890 F600.000
G1 X103.016 Y92.352 E2.81311
G92 E0
G1 X113.702 Y94.457 F7800.000
G1 X113.049 Y98.774 E1.30814 F600.000
G1 X110.865 Y104.320 E3.09418
G1 X110.157 Y106.245 E3.70872
G1 X109.889 Y106.723 E3.87305
G1 X109.346 Y106.810 E4.03793
G1 X108.776 Y106.736 E4.21016
G1 X108.482 Y106.225 E4.38678
G1 X107.566 Y103.781 E5.16886
G1 X105.580 Y98.775 E6.78268
G1 X105.443 Y97.900 E7.04819
G1 X105.839 Y97.746 E7.17570
G1 X106.466 Y97.624 E7.36708
G1 X112.166 Y97.624 E9.07506
G1 X112.782 Y97.741 E9.26297
G1 X113.182 Y97.894 E9.39110
G1 X113.677 Y97.165 E9.65512
G1 X115.579 Y92.352 E11.20582
G92 E0
G1 X105.451 Y91.817 F7800.000
G1 X104.087 Y91.352 F7800.000
G1 X101.940 Y91.352 F7800.000
G1 X98.668 Y94.007 F7800.000
G1 X98.686 Y94.042 F7800.000
G1 X95.614 Y96.016 F7800.000
G1 X84.470 Y93.461 F7800.000
G1 X85.433 Y93.181 E0.30026 F600.000
G1 X88.909 Y93.183 E1.34183
G1 X89.987 Y93.258 E1.66578
G1 X90.371 Y93.314 E1.78194
G1 X91.121 Y93.498 E2.01328
G1 X91.519 Y93.627 E2.13873
G1 X92.184 Y93.926 E2.35724
G1 X92.535 Y94.118 E2.47721
G1 X93.145 Y94.547 E2.70057
G1 X93.407 Y94.762 E2.80222
G1 X94.126 Y95.547 E3.12097
G1 X94.708 Y96.488 E3.45263
G1 X95.140 Y97.575 E3.80315
G1 X95.404 Y98.794 E4.17696
G1 X95.494 Y100.137 E4.58030
G1 X95.289 Y102.128 E5.17988
G1 X94.707 Y103.711 E5.68535
G1 X94.550 Y103.947 E5.77030
G1 X93.754 Y104.976 E6.16011
G1 X93.423 Y105.257 E6.29026
G1 X92.412 Y105.948 E6.65726
G1 X92.204 Y106.052 E6.72691
G1 X91.971 Y106.147 E6.80219
G1 X90.644 Y106.582 E7.22074
G1 X90.270 Y106.649 E7.33464
G1 X88.385 Y106.818 E7.90158
G1 X85.433 Y106.818 E8.78630
G1 X84.470 Y106.539 E9.08656
G1 X84.397 Y105.989 E9.25292
G1 X84.397 Y94.011 E12.84209
G1 X84.470 Y93.461 E13.00845
G92 E0
G1 Z0.900 F7800.000
G1 X107.318 Y100.633 F7800.000
G1 X104.941 Y97.168 E1.25890 F600.000
G1 X103.016 Y92.352 E2.81311
G92 E0
G1 X113.702 Y94.457 F7800.000
G1 X113.049 Y98.774 E1.30814 F600.000
G1 X110.865 Y104.320 E3.09418
G1 X110.157 Y106.245 E3.70872
G1 X109.889 Y106.723 E3.87305
G1 X109.346 Y106.810 E4.03793
G1 X108.776 Y106.736 E4.21016
G1 X108.482 Y106.225 E4.38678
G1 X107.566 Y103.781 E5.16886
G1 X105.580 Y98.775 E6.78268
G1 X105.443 Y97.900 E7.04819
G1 X105.839 Y97.746 E7.17570
G1 X106.466 Y97.624 E7.36708
G1 X112.166 Y97.624 E9.07506
G1 X112.782 Y97.741 E9.26297
G1 X113.182 Y97.894 E9.39110
G1 X113.677 Y97.165 E9.65512
G1 X115.579 Y92.352 E11.20582
G92 E0
G1 X105.451 Y91.817 F7800.000
G1 X104.087 Y91.352 F7800.000
G1 X101.940 Y91.352 F7800.000
G1 X98.668 Y94.007 F7800.000
G1 X98.686 Y94.042 F7800.000
G1 X95.614 Y96.016 F7800.000
G1 X84.470 Y93.461 F7800.000
G1 X85.433 Y93.181 E0.30026 F600.000
G1 X88.909 Y93.183 E1.34183
G1 X89.987 Y93.258 E1.66578
G1 X90.371 Y93.314 E1.78194
G1 X91.121 Y93.498 E2.01328
G1 X91.519 Y93.627 E2.13872
G1 X92.184 Y93.926 E2.35724
G1 X92.535 Y94.118 E2.47721
G1 X93.145 Y94.547 E2.70057
G1 X93.407 Y94.762 E2.80222
G1 X94.126 Y95.547 E3.12097
G1 X94.708 Y96.488 E3.45263
G1 X95.140 Y97.575 E3.80315
G1 X95.404 Y98.794 E4.17696
G1 X95.494 Y100.137 E4.58030
G1 X95.289 Y102.128 E5.17988
G1 X94.707 Y103.711 E5.68535
G1 X94.550 Y103.947 E5.77030
G1 X93.754 Y104.976 E6.16011
G1 X93.423 Y105.257 E6.29026
G1 X92.412 Y105.948 E6.65726
G1 X92.204 Y106.052 E6.72691
G1 X91.971 Y106.147 E6.80219
G1 X90.644 Y106.582 E7.22074
G1 X90.270 Y106.649 E7.33464
G1 X88.385 Y106.818 E7.90158
G1 X85.433 Y106.818 E8.78630
G1 X84.470 Y106.539 E9.08656
G1 X84.397 Y105.989 E9.25292
G1 X84.397 Y94.011 E12.84209
G1 X84.470 Y93.461 E13.00845
G92 E0
G1 Z1.200 F7800.000
G1 X107.318 Y100.633 F7800.000
G1 X104.941 Y97.168 E1.25890 F600.000
G1 X103.016 Y92.352 E2.81311
G92 E0
G1 X113.702 Y94.457 F7800.000
G1 X113.049 Y98.774 E1.30814 F600.000
G1 X110.865 Y104.320 E3.09418
G1 X110.157 Y106.245 E3.70872
G1 X109.889 Y106.723 E3.87305
G1 X109.346 Y106.810 E4.03793
G1 X108.776 Y106.736 E4.21016
G1 X108.482 Y106.225 E4.38678
G1 X107.566 Y103.781 E5.16886
G1 X105.580 Y98.775 E6.78268
G1 X105.443 Y97.900 E7.04819
G1 X105.839 Y97.746 E7.17570
G1 X106.466 Y97.624 E7.36708
G1 X112.166 Y97.624 E9.07506
G1 X112.782 Y97.741 E9.26297
G1 X113.182 Y97.894 E9.39110
G1 X113.677 Y97.165 E9.65512
G1 X115.579 Y92.352 E11.20582
G92 E0
G1 X112.782 Y96.816 F7800.000
G1 X112.782 Y96.816 F7800.000
G1 X110.574 Y93.584 F7800.000
G1 X108.043 Y93.584 F7800.000
G1 X107.729 Y93.370 F7800.000
G1 X107.729 Y93.370 F7800.000
G1 X105.451 Y91.817 F7800.000
G1 X104.087 Y91.352 F7800.000
G1 X101.940 Y91.352 F7800.000
G1 X98.968 Y93.561 F7800.000
G1 X98.668 Y94.007 F7800.000
G1 X98.686 Y94.042 F7800.000
G1 X95.614 Y96.016 F7800.000
G1 X84.470 Y93.461 F7800.000
G1 X85.433 Y93.181 E0.30026 F600.000
G1 X88.909 Y93.183 E1.34183
