; generated by Slic3r 1.2.9 on 2016-03-11 at 01:23:26

; external perimeters extrusion width = 1.54mm
; perimeters extrusion width = 2.62mm
; infill extrusion width = 6.27mm
; solid infill extrusion width = 2.62mm
; top infill extrusion width = 2.62mm

M107
M104 S30 ; set temperature
G28 ; home all axes
G1 Z5 F5000 ; lift nozzle
M302
M92 E10000
M500
M501
G1 E100
M109 S30 ; wait for temperature to be reached
G21 ; set units to millimeters
G90 ; use absolute coordinates
M82 ; use absolute distances for extrusion
G92 E0
G1 Z0.300 F7800.000
G1 X108.130 Y107.390 F7800.000
G1 X106.364 Y106.723 E0.08542 F378.000
G1 X104.931 Y105.616 E0.16737
G1 X103.870 Y104.118 E0.25044
G1 X103.230 Y102.270 E0.33891
G1 X103.015 Y100.061 E0.43935
G1 X103.111 Y98.546 E0.50804
G1 X103.399 Y97.176 E0.57139
G1 X103.876 Y95.954 E0.63075
G1 X104.533 Y94.896 E0.68710
G1 X105.360 Y94.017 E0.74170
G1 X106.360 Y93.314 E0.79702
G1 X107.516 Y92.799 E0.85429
G1 X108.813 Y92.489 E0.91460
G1 X110.251 Y92.386 E0.97984
G1 X111.570 Y92.490 E1.03974
G1 X111.659 Y92.497 E1.04377 F378.000
G1 X112.942 Y92.829 E1.10374
G1 X114.104 Y93.381 E1.16192
G1 X115.123 Y94.143 E1.21951
G1 X115.979 Y95.107 E1.27786
G1 X116.559 Y96.088 E1.32942
G1 X115.256 Y96.737 E1.39533
G1 X114.086 Y95.102 E1.48629
G1 X112.400 Y94.000 E1.57743
G1 X110.355 Y93.635 E1.67145
G1 X108.731 Y93.832 E1.74547
G1 X107.341 Y94.425 E1.81384
G1 X106.193 Y95.414 E1.88241
G1 X105.342 Y96.722 E1.95303
G1 X104.834 Y98.274 E2.02691
G1 X104.666 Y100.064 E2.10823
G1 X104.827 Y101.863 E2.18996
G1 X105.315 Y103.401 E2.26297
G1 X106.134 Y104.672 E2.33142
G1 X107.255 Y105.620 E2.39782
G1 X108.635 Y106.187 E2.46534
G1 X110.257 Y106.374 E2.53922
G1 X111.328 Y106.293 E2.58784
G1 X112.301 Y106.050 E2.63320
G1 X113.177 Y105.642 E2.67691
G1 X113.930 Y105.077 E2.71954
G1 X114.533 Y104.364 E2.76179
G1 X114.883 Y103.697 E2.79584
G1 X116.411 Y104.202 E2.86866
G1 X115.938 Y105.088 E2.91409
G1 X115.167 Y105.989 E2.96776
G1 X114.210 Y106.694 E3.02154
G1 X113.070 Y107.204 E3.07806
G1 X111.747 Y107.511 E3.13952
G1 X110.245 Y107.614 E3.20766
G1 X108.360 Y107.414 E3.29341
G1 X108.298 Y106.334 F7800.000
G1 X109.236 Y107.271 E3.35341 F540.000
G1 X109.846 Y107.335 E3.38119
G1 X108.974 Y106.464 E3.43701
G1 X109.591 Y106.535 E3.46510
G1 X110.436 Y107.380 E3.51922
G1 X110.947 Y107.345 E3.54238
G1 X110.201 Y106.599 E3.59015
G1 X110.708 Y106.561 E3.61318
G1 X111.457 Y107.310 E3.66115
G1 X111.943 Y107.250 E3.68332
G1 X111.215 Y106.522 E3.72993
G1 X111.663 Y106.424 E3.75067
G1 X112.386 Y107.147 E3.79696
G1 X112.829 Y107.044 E3.81753
G1 X112.099 Y106.315 E3.86421
G1 X112.504 Y106.175 E3.88362
G1 X113.239 Y106.909 E3.93065
G1 X113.616 Y106.741 E3.94935
G1 X112.877 Y106.001 E3.99669
G1 X113.249 Y105.828 E4.01528
G1 X113.993 Y106.573 E4.06295
G1 X114.331 Y106.365 E4.08091
G1 X113.561 Y105.595 E4.13020
G1 X113.873 Y105.361 E4.14784
G1 X114.645 Y106.133 E4.19728
G1 X114.955 Y105.898 E4.21491
G1 X114.160 Y105.103 E4.26582
G1 X114.410 Y104.807 E4.28334
G1 X115.226 Y105.623 E4.33560
G1 X115.478 Y105.329 E4.35312
G1 X114.660 Y104.511 E4.40547
G1 X114.860 Y104.166 E4.42355
G1 X115.730 Y105.035 E4.47923
G1 X115.928 Y104.688 E4.49733
G1 X115.366 Y104.126 E4.53330
G92 E0
G1 X115.203 Y104.754 F7800.000
G1 X115.203 Y104.754 F7800.000
G1 X107.372 Y105.953 F7800.000
G1 X108.625 Y107.206 E0.08022 F540.000
G1 X107.898 Y107.024 E0.11418
G1 X103.692 Y102.819 E0.38339
G1 X103.442 Y102.022 E0.42119
G1 X105.264 Y103.845 E0.53787
G1 X104.901 Y102.936 F7800.000
G1 X103.383 Y101.418 E0.63505 F540.000
G1 X103.324 Y100.813 E0.66254
G1 X104.647 Y102.137 E0.74729
G1 X104.561 Y101.505 E0.77617
G1 X103.265 Y100.209 E0.85914
G1 X103.262 Y99.660 E0.88397
G1 X104.507 Y100.906 E0.96370
G1 X104.454 Y100.306 E0.99094
G1 X103.294 Y99.147 E1.06515
G1 X103.327 Y98.634 E1.08842
G1 X104.473 Y99.780 E1.16180
G1 X104.520 Y99.282 E1.18448
G1 X103.406 Y98.168 E1.25579
G1 X103.501 Y97.717 E1.27665
G1 X104.567 Y98.783 E1.34489
G1 X104.615 Y98.286 E1.36750
G1 X103.596 Y97.266 E1.43278
G1 X103.738 Y96.863 E1.45213
G1 X104.750 Y97.875 E1.51690
G1 X104.884 Y97.464 E1.53648
G1 X103.891 Y96.471 E1.60005
G1 X104.045 Y96.078 E1.61912
G1 X105.019 Y97.052 E1.68149
G1 X105.159 Y96.647 E1.70091
G1 X104.244 Y95.732 E1.75948
G1 X104.453 Y95.395 E1.77742
G1 X105.374 Y96.316 E1.83639
G1 X105.589 Y95.986 E1.85424
G1 X104.662 Y95.059 E1.91361
G1 X104.917 Y94.768 E1.93111
G1 X105.804 Y95.655 E1.98791
G1 X106.019 Y95.325 E2.00576
G1 X105.186 Y94.492 E2.05909
G1 X105.459 Y94.219 E2.07655
G1 X106.304 Y95.065 E2.13067
G1 X106.598 Y94.812 E2.14819
G1 X105.759 Y93.973 E2.20188
G1 X106.079 Y93.748 E2.21960
G1 X106.891 Y94.560 E2.27155
G1 X107.184 Y94.307 E2.28907
G1 X106.399 Y93.523 E2.33928
G1 X106.771 Y93.349 E2.35786
G1 X107.543 Y94.121 E2.40727
G1 X107.925 Y93.958 E2.42609
G1 X107.149 Y93.181 E2.47580
G1 X107.527 Y93.013 E2.49450
G1 X108.308 Y93.794 E2.54451
G1 X108.690 Y93.631 E2.56333
G1 X107.966 Y92.907 E2.60969
G1 X108.406 Y92.802 E2.63018
G1 X109.165 Y93.561 E2.67877
G1 X109.652 Y93.502 E2.70096
G1 X108.857 Y92.707 E2.75182
G1 X109.366 Y92.670 E2.77492
G1 X110.138 Y93.443 E2.82435
G1 X110.690 Y93.449 E2.84935
G1 X109.875 Y92.634 E2.90155
G1 X110.419 Y92.632 E2.92619
G1 X111.355 Y93.568 E2.98607
G1 X112.019 Y93.686 E3.01662
G1 X111.012 Y92.679 E3.08110
G1 X111.623 Y92.745 E3.10893
G1 X112.800 Y93.922 E3.18429
G1 X113.235 Y93.266 F7800.000
G1 X116.076 Y96.107 E3.36619 F540.000
G1 X115.712 Y96.288 E3.38460
G1 X114.228 Y94.805 E3.47960
G1 X114.376 Y94.952 F7800.000
G1 X112.359 Y92.935 E3.60874 F540.000
G1 X114.719 Y94.204 F7800.000
G1 X115.218 Y94.704 E3.64071 F540.000
G92 E0
G1 X104.071 Y98.116 F7800.000
G1 X104.033 Y98.112 F7800.000
G1 X103.841 Y100.047 F7800.000
G1 X103.792 Y100.048 F7800.000
G1 X103.981 Y103.653 F7800.000
G1 X107.021 Y106.693 E0.19461 F540.000
G1 X105.362 Y105.580 F7800.000
G1 X105.004 Y105.222 E0.21753 F540.000
G92 E0
G1 X103.668 Y104.222 F7800.000
G1 X99.668 Y105.607 F7800.000
G1 X99.233 Y105.694 F7800.000
G1 X95.360 Y104.217 F7800.000
G1 X90.987 Y107.063 F7800.000
G1 X90.534 Y107.210 E0.02151 F378.000
G1 X88.174 Y107.423 E0.12873
G1 X83.349 Y107.423 E0.34710
G1 X83.349 Y92.577 E1.01887
G1 X88.839 Y92.577 E1.26732
G1 X90.098 Y92.670 E1.32441
G1 X90.232 Y92.680 E1.33051 F378.000
G1 X91.498 Y92.986 E1.38944
G1 X92.647 Y93.493 E1.44629
G1 X93.655 Y94.190 E1.50175
G1 X94.497 Y95.065 E1.55668
G1 X95.175 Y96.120 E1.61344
G1 X95.673 Y97.333 E1.67274
G1 X95.973 Y98.678 E1.73509
G1 X96.073 Y100.153 E1.80199
G1 X95.843 Y102.317 E1.90049
G1 X95.162 Y104.105 E1.98705
G1 X94.031 Y105.532 E2.06944
G1 X92.481 Y106.578 E2.15405
G1 X91.206 Y106.991 E2.21468
G1 X90.806 Y105.779 F7800.000
G1 X90.002 Y106.045 E2.25296 F378.000
G1 X88.151 Y106.214 E2.33709
G1 X84.970 Y106.214 E2.48104
G1 X84.970 Y93.786 E3.04340
G1 X88.616 Y93.786 E3.20840 F378.000
G1 X89.722 Y93.870 E3.25856
G1 X90.748 Y94.126 E3.30641
G1 X91.683 Y94.553 E3.35296
G1 X92.505 Y95.145 E3.39877
G1 X93.190 Y95.887 E3.44447
G1 X93.734 Y96.778 E3.49170
G1 X94.129 Y97.796 E3.54111
G1 X94.364 Y98.923 E3.59320
G1 X94.442 Y100.161 E3.64934
G1 X94.264 Y101.954 E3.73086
G1 X93.723 Y103.459 E3.80322
G1 X92.814 Y104.660 E3.87140
G1 X91.563 Y105.529 E3.94032
G1 X91.025 Y105.707 E3.96597
G1 X85.755 Y106.440 F7800.000
G1 X86.512 Y107.197 E4.01455 F540.000
G1 X87.059 Y107.197 E4.03936
G1 X86.302 Y106.440 E4.08794
G1 X86.849 Y106.440 E4.11275
G1 X87.606 Y107.197 E4.16133
G1 X88.153 Y107.197 E4.18614
G1 X87.396 Y106.440 E4.23472
G1 X87.942 Y106.440 E4.25952
G1 X88.662 Y107.159 E4.30567
G1 X89.163 Y107.114 E4.32852
G1 X88.455 Y106.406 E4.37393
G1 X88.956 Y106.360 E4.39676
G1 X89.665 Y107.068 E4.44221
G1 X90.166 Y107.023 E4.46505
G1 X89.457 Y106.314 E4.51052
G1 X89.958 Y106.269 E4.53335
G1 X90.647 Y106.958 E4.57757
G1 X91.060 Y106.824 E4.59726
G1 X90.374 Y106.137 E4.64130
G1 X90.785 Y106.001 E4.66093
G1 X91.473 Y106.690 E4.70509
G1 X91.886 Y106.556 E4.72478
G1 X91.196 Y105.866 E4.76905
G1 X91.607 Y105.730 E4.78869
G1 X92.299 Y106.422 E4.83308
G1 X92.652 Y106.228 E4.85136
G1 X91.932 Y105.509 E4.89752
G1 X92.255 Y105.285 E4.91534
G1 X92.978 Y106.008 E4.96174
G1 X93.305 Y105.787 E4.97962
G1 X92.578 Y105.061 E5.02626
G1 X92.901 Y104.836 E5.04408
G1 X93.631 Y105.567 E5.09097
G1 X93.934 Y105.323 E5.10861
G1 X93.149 Y104.538 E5.15900
G1 X93.385 Y104.227 E5.17671
G1 X94.185 Y105.027 E5.22806
G1 X94.427 Y104.722 E5.24572
G1 X93.620 Y103.915 E5.29747
G1 X93.856 Y103.604 E5.31518
G1 X94.668 Y104.417 E5.36733
G1 X94.910 Y104.112 E5.38499
G1 X94.023 Y103.225 E5.44189
G1 X94.168 Y102.823 E5.46128
G1 X95.085 Y103.739 E5.52010
G1 X95.236 Y103.344 E5.53932
G1 X94.313 Y102.421 E5.59854
G1 X94.457 Y102.018 E5.61794
G1 X95.386 Y102.948 E5.67757
G1 X95.537 Y102.552 E5.69679
G1 X94.525 Y101.539 E5.76175
G1 X94.574 Y101.042 E5.78443
G1 X95.646 Y102.113 E5.85318
G1 X95.698 Y101.619 E5.87574
G1 X94.624 Y100.544 E5.94469
G1 X94.666 Y100.040 E5.96764
G1 X95.751 Y101.125 E6.03721
G1 X95.803 Y100.630 E6.05977
G1 X94.630 Y99.457 E6.13507
G1 X94.593 Y98.873 E6.16160
G1 X95.838 Y100.119 E6.24153
G1 X95.798 Y99.532 E6.26821
G1 X94.462 Y98.195 E6.35398
G1 X94.282 Y97.468 E6.38796
G1 X95.759 Y98.945 E6.48274
G1 X95.630 Y98.270 E6.51393
G1 X93.936 Y96.576 E6.62265
G1 X95.111 Y96.658 F7800.000
G1 X91.914 Y93.460 E6.82783 F540.000
G1 X91.566 Y94.206 F7800.000
G1 X90.314 Y92.954 E6.90814 F540.000
G1 X91.035 Y93.128 E6.94178
G1 X95.473 Y97.566 E7.22655
G1 X94.265 Y95.264 F7800.000
G1 X93.281 Y94.281 E7.28964 F540.000
G1 X90.662 Y93.849 F7800.000
G1 X89.686 Y92.872 E7.35229 F540.000
G1 X89.095 Y92.829 E7.37915
G1 X89.934 Y93.667 E7.43294
G1 X89.327 Y93.607 E7.46062
G1 X88.523 Y92.803 E7.51221
G1 X87.976 Y92.803 E7.53702
G1 X88.735 Y93.562 E7.58572
G1 X88.186 Y93.560 E7.61062
G1 X87.429 Y92.803 E7.65919
G1 X86.882 Y92.803 E7.68400
G1 X87.639 Y93.560 E7.73258
G1 X87.092 Y93.560 E7.75739
G1 X86.335 Y92.803 E7.80597
G1 X85.789 Y92.803 E7.83078
G1 X86.546 Y93.560 E7.87936
G1 X85.999 Y93.560 E7.90417
G1 X85.242 Y92.803 E7.95275
G1 X84.695 Y92.803 E7.97756
G1 X85.452 Y93.560 E8.02613
G1 X84.905 Y93.560 E8.05094
G1 X84.148 Y92.803 E8.09952
G1 X83.608 Y92.810 E8.12403
G1 X84.744 Y93.945 E8.19690
G1 X84.744 Y94.492 E8.22171
G1 X83.575 Y93.323 E8.29673
G1 X83.575 Y93.870 E8.32154
G1 X84.744 Y95.039 E8.39655
G1 X84.744 Y95.586 E8.42136
G1 X83.575 Y94.417 E8.49638
G1 X83.575 Y94.964 E8.52119
G1 X84.744 Y96.133 E8.59620
G1 X84.744 Y96.679 E8.62101
G1 X83.575 Y95.510 E8.69602
G1 X83.575 Y96.057 E8.72083
G1 X84.744 Y97.226 E8.79585
G1 X84.744 Y97.773 E8.82066
G1 X83.575 Y96.604 E8.89567
G1 X83.575 Y97.151 E8.92048
G1 X84.744 Y98.320 E8.99549
G1 X84.744 Y98.867 E9.02030
G1 X83.575 Y97.698 E9.09532
G1 X83.575 Y98.244 E9.12013
G1 X84.744 Y99.414 E9.19514
G1 X84.744 Y99.960 E9.21995
G1 X83.575 Y98.791 E9.29496
G1 X83.575 Y99.338 E9.31977
G1 X84.744 Y100.507 E9.39479
G1 X84.744 Y101.054 E9.41960
G1 X83.575 Y99.885 E9.49461
G1 X83.575 Y100.432 E9.51942
G1 X84.744 Y101.601 E9.59443
G1 X84.744 Y102.148 E9.61924
G1 X83.575 Y100.978 E9.69426
G1 X83.575 Y101.525 E9.71907
G1 X84.744 Y102.694 E9.79408
G1 X84.744 Y103.241 E9.81889
G1 X83.575 Y102.072 E9.89390
G1 X83.575 Y102.619 E9.91871
G1 X84.744 Y103.788 E9.99373
G1 X84.744 Y104.335 E10.01854
G1 X83.575 Y103.166 E10.09355
G1 X83.575 Y103.713 E10.11836
G1 X84.744 Y104.882 E10.19337
G1 X84.744 Y105.428 E10.21818
G1 X83.575 Y104.259 E10.29320
G1 X83.575 Y104.806 E10.31801
G1 X84.744 Y105.975 E10.39302
G1 X84.662 Y106.440 E10.41443
G1 X85.419 Y107.197 E10.46301
G1 X85.965 Y107.197 E10.48782
G1 X85.208 Y106.440 E10.53640
G1 X84.744 Y106.522 E10.55781
G1 X83.575 Y105.353 E10.63282
G1 X83.575 Y105.900 E10.65763
G1 X84.872 Y107.197 E10.74086
G1 X84.325 Y107.197 E10.76567
G1 X83.575 Y106.447 E10.81382
G1 X83.575 Y106.993 E10.83863
G1 X83.778 Y107.197 E10.85169
M106 S255
G92 E0
G1 Z0.600 F7800.000
G1 X115.861 Y103.783 F7800.000
G1 X115.104 Y104.879 E0.39907 F600.000
G1 X114.641 Y105.424 E0.61327
G1 X114.517 Y105.540 E0.66419
G1 X113.840 Y106.059 E0.91981
G1 X113.447 Y106.278 E1.05467
G1 X112.850 Y106.550 E1.25120
G1 X112.437 Y106.685 E1.38132
G1 X111.652 Y106.874 E1.62349
G1 X111.356 Y106.915 E1.71289
G1 X110.256 Y106.992 E2.04330
G1 X108.595 Y106.811 E2.54416
G1 X108.283 Y106.749 E2.63944
G1 X107.032 Y106.256 E3.04239
G1 X106.715 Y106.095 E3.14885
G1 X105.681 Y105.260 E3.54706
G1 X105.489 Y105.081 E3.62575
G1 X104.662 Y103.857 E4.06831
G1 X104.592 Y103.747 E4.10737
G1 X104.543 Y103.614 E4.14996
G1 X104.039 Y102.094 E4.62983
G1 X103.843 Y100.047 E5.24586
G1 X103.950 Y98.660 E5.66270
G1 X104.064 Y97.996 E5.86470
G1 X104.218 Y97.420 E6.04324
G1 X104.619 Y96.326 E6.39258
G1 X105.199 Y95.408 E6.71790
G1 X105.513 Y95.010 E6.86976
G1 X105.886 Y94.624 E7.03068
G1 X106.730 Y93.966 E7.35120
G1 X107.095 Y93.761 E7.47684
G1 X107.746 Y93.477 E7.68949
G1 X108.446 Y93.246 E7.91036
G1 X108.914 Y93.144 E8.05388
G1 X110.248 Y93.015 E8.45566
G1 X110.497 Y93.029 E8.53030
G1 X111.547 Y93.164 E8.84756
G1 X112.467 Y93.364 E9.12965
G1 X112.720 Y93.440 E9.20882
G1 X113.728 Y94.003 E9.55475
G1 X114.432 Y94.496 E9.81217
G1 X114.641 Y94.666 E9.89306
G1 X115.357 Y95.561 E10.23633
G1 X116.035 Y96.600 E10.60816
G92 E0
G1 X110.251 Y92.160 F7800.000
G1 X110.251 Y92.160 F7800.000
G1 X110.179 Y91.161 F7800.000
G1 X108.702 Y91.215 F7800.000
G1 X108.530 Y91.228 F7800.000
G1 X107.158 Y91.389 F7800.000
G1 X106.929 Y91.427 F7800.000
G1 X105.620 Y91.705 F7800.000
G1 X105.312 Y91.787 F7800.000
G1 X104.045 Y92.188 F7800.000
G1 X103.619 Y92.347 F7800.000
G1 X102.366 Y92.889 F7800.000
G1 X101.796 Y93.171 F7800.000
G1 X100.507 Y93.887 F7800.000
G1 X99.786 Y94.334 F7800.000
G1 X99.495 Y94.533 F7800.000
G1 X99.302 Y94.404 F7800.000
G1 X98.574 Y93.961 F7800.000
G1 X97.277 Y93.253 F7800.000
G1 X94.675 Y94.925 F7800.000
G1 X84.232 Y93.461 F7800.000
G1 X85.195 Y93.181 E0.30026 F600.000
G1 X88.671 Y93.183 E1.34183
G1 X89.749 Y93.258 E1.66578
G1 X90.133 Y93.314 E1.78194
G1 X90.883 Y93.498 E2.01328
G1 X91.281 Y93.627 E2.13872
G1 X91.946 Y93.926 E2.35724
G1 X92.297 Y94.118 E2.47721
G1 X92.907 Y94.547 E2.70057
G1 X93.169 Y94.762 E2.80222
G1 X93.888 Y95.547 E3.12097
G1 X94.470 Y96.488 E3.45263
G1 X94.902 Y97.575 E3.80315
G1 X95.166 Y98.794 E4.17696
G1 X95.256 Y100.137 E4.58030
G1 X95.051 Y102.128 E5.17988
G1 X94.469 Y103.711 E5.68535
G1 X94.312 Y103.947 E5.77030
G1 X93.516 Y104.976 E6.16011
G1 X93.185 Y105.257 E6.29026
G1 X92.174 Y105.948 E6.65726
G1 X91.966 Y106.052 E6.72691
G1 X91.733 Y106.147 E6.80219
G1 X90.406 Y106.582 E7.22074
G1 X90.032 Y106.649 E7.33464
G1 X88.147 Y106.818 E7.90158
G1 X85.195 Y106.818 E8.78630
G1 X84.232 Y106.539 E9.08656
G1 X84.159 Y105.989 E9.25292
G1 X84.159 Y94.011 E12.84208
G1 X84.232 Y93.461 E13.00845
G92 E0
G1 Z0.900 F7800.000
G1 X115.861 Y103.783 F7800.000
G1 X115.104 Y104.879 E0.39907 F600.000
G1 X114.641 Y105.424 E0.61327
G1 X114.517 Y105.540 E0.66419
G1 X113.840 Y106.059 E0.91981
G1 X113.447 Y106.278 E1.05467
G1 X112.850 Y106.550 E1.25120
G1 X112.437 Y106.685 E1.38132
G1 X111.652 Y106.874 E1.62349
G1 X111.356 Y106.915 E1.71289
G1 X110.256 Y106.992 E2.04330
G1 X108.595 Y106.811 E2.54416
G1 X108.283 Y106.749 E2.63944
G1 X107.032 Y106.256 E3.04239
G1 X106.715 Y106.095 E3.14885
G1 X105.681 Y105.260 E3.54706
G1 X105.489 Y105.081 E3.62575
G1 X104.662 Y103.857 E4.06831
G1 X104.592 Y103.747 E4.10737
G1 X104.543 Y103.614 E4.14996
G1 X104.039 Y102.094 E4.62983
G1 X103.843 Y100.047 E5.24586
G1 X103.950 Y98.660 E5.66270
G1 X104.064 Y97.996 E5.86470
G1 X104.218 Y97.420 E6.04324
G1 X104.619 Y96.326 E6.39258
G1 X105.199 Y95.408 E6.71790
G1 X105.513 Y95.010 E6.86976
G1 X105.886 Y94.624 E7.03068
G1 X106.730 Y93.966 E7.35120
G1 X107.095 Y93.761 E7.47684
G1 X107.746 Y93.477 E7.68949
G1 X108.446 Y93.246 E7.91036
G1 X108.914 Y93.144 E8.05388
G1 X110.248 Y93.015 E8.45566
G1 X110.497 Y93.029 E8.53030
G1 X111.547 Y93.164 E8.84756
G1 X112.467 Y93.364 E9.12965
G1 X112.720 Y93.440 E9.20882
G1 X113.728 Y94.003 E9.55475
G1 X114.432 Y94.496 E9.81217
G1 X114.641 Y94.666 E9.89306
G1 X115.357 Y95.561 E10.23633
G1 X116.035 Y96.600 E10.60816
G92 E0
G1 X110.251 Y92.160 F7800.000
G1 X110.251 Y92.160 F7800.000
