; generated by Slic3r 1.2.9 on 2016-03-11 at 01:23:28

; external perimeters extrusion width = 1.54mm
; perimeters extrusion width = 2.62mm
; infill extrusion width = 6.27mm
; solid infill extrusion width = 2.62mm
; top infill extrusion width = 2.62mm

M107
M104 S30 ; set temperature
G28 ; home all axes
G1 Z5 F5000 ; lift nozzle
M302
M92 E10000
M500
M501
G1 E100
M109 S30 ; wait for temperature to be reached
G21 ; set units to millimeters
G90 ; use absolute coordinates
M82 ; use absolute distances for extrusion
G92 E0
G1 Z0.300 F7800.000
G1 X112.853 Y106.181 F7800.000
G1 X115.515 Y106.181 E0.12046 F378.000
G1 X115.515 Y107.423 E0.17666
G1 X104.395 Y107.423 E0.67983
G1 X104.395 Y92.577 E1.35160
G1 X115.959 Y92.577 E1.87487
G1 X115.959 Y93.819 E1.93107
G1 X106.016 Y93.819 E2.38098 F378.000
G1 X106.016 Y99.611 E2.64306
G1 X114.865 Y99.611 E3.04347
G1 X114.865 Y100.831 E3.09868
G1 X106.016 Y100.831 E3.49909
G1 X106.016 Y106.181 E3.74117
G1 X112.622 Y106.181 E4.04008
G1 X114.947 Y106.407 F7800.000
G1 X115.289 Y106.749 E4.06198 F540.000
G1 X115.191 Y107.197 E4.08274
G1 X114.401 Y106.407 E4.13332
G1 X113.856 Y106.407 E4.15803
G1 X114.646 Y107.197 E4.20861
G1 X114.100 Y107.197 E4.23331
G1 X113.310 Y106.407 E4.28390
G1 X112.764 Y106.407 E4.30860
G1 X113.554 Y107.197 E4.35919
G1 X113.009 Y107.197 E4.38389
G1 X112.219 Y106.407 E4.43448
G1 X111.673 Y106.407 E4.45918
G1 X112.463 Y107.197 E4.50976
G1 X111.918 Y107.197 E4.53447
G1 X111.127 Y106.407 E4.58505
G1 X110.582 Y106.407 E4.60975
G1 X111.372 Y107.197 E4.66034
G1 X110.826 Y107.197 E4.68504
G1 X110.036 Y106.407 E4.73563
G1 X109.491 Y106.407 E4.76033
G1 X110.281 Y107.197 E4.81092
G1 X109.735 Y107.197 E4.83562
G1 X108.945 Y106.407 E4.88620
G1 X108.399 Y106.407 E4.91091
G1 X109.189 Y107.197 E4.96149
G1 X108.644 Y107.197 E4.98619
G1 X107.854 Y106.407 E5.03678
G1 X107.308 Y106.407 E5.06148
G1 X108.098 Y107.197 E5.11207
G1 X107.553 Y107.197 E5.13677
G1 X106.762 Y106.407 E5.18736
G1 X106.217 Y106.407 E5.21206
G1 X107.007 Y107.197 E5.26264
G1 X106.461 Y107.197 E5.28735
G1 X104.621 Y105.357 E5.40518
G1 X104.621 Y104.811 E5.42988
G1 X105.790 Y105.980 E5.50474
G1 X105.790 Y105.434 E5.52944
G1 X104.621 Y104.265 E5.60429
G1 X104.621 Y103.720 E5.62899
G1 X105.790 Y104.889 E5.70384
G1 X105.790 Y104.343 E5.72854
G1 X104.621 Y103.174 E5.80340
G1 X104.621 Y102.628 E5.82810
G1 X105.790 Y103.798 E5.90295
G1 X105.790 Y103.252 E5.92765
G1 X104.621 Y102.083 E6.00250
G1 X104.621 Y101.537 E6.02720
G1 X105.790 Y102.706 E6.10206
G1 X105.790 Y102.161 E6.12676
G1 X104.621 Y100.992 E6.20161
G1 X104.621 Y100.446 E6.22631
G1 X105.790 Y101.615 E6.30116
G1 X105.790 Y101.069 E6.32587
G1 X104.621 Y99.900 E6.40072
G1 X104.621 Y99.355 E6.42542
G1 X105.871 Y100.605 E6.50548
G1 X106.417 Y100.605 E6.53018
G1 X104.621 Y98.809 E6.64517
G1 X104.621 Y98.263 E6.66987
G1 X105.790 Y99.432 E6.74472
G1 X105.790 Y98.887 E6.76942
G1 X104.621 Y97.718 E6.84428
G1 X104.621 Y97.172 E6.86898
G1 X105.790 Y98.341 E6.94383
G1 X105.790 Y97.796 E6.96853
G1 X104.621 Y96.626 E7.04338
G1 X104.621 Y96.081 E7.06809
G1 X105.790 Y97.250 E7.14294
G1 X105.790 Y96.704 E7.16764
G1 X104.621 Y95.535 E7.24249
G1 X104.621 Y94.990 E7.26719
G1 X105.790 Y96.159 E7.34204
G1 X105.790 Y95.613 E7.36675
G1 X104.621 Y94.444 E7.44160
G1 X104.621 Y93.898 E7.46630
G1 X105.790 Y95.067 E7.54115
G1 X105.790 Y94.522 E7.56585
G1 X104.621 Y93.353 E7.64070
G1 X104.639 Y92.825 E7.66461
G1 X105.790 Y93.976 E7.73831
G1 X105.952 Y93.593 F7800.000
G1 X105.162 Y92.803 E7.78890 F540.000
G1 X105.708 Y92.803 E7.81360
G1 X106.498 Y93.593 E7.86418
G1 X107.044 Y93.593 E7.88889
G1 X106.254 Y92.803 E7.93947
G1 X106.799 Y92.803 E7.96417
G1 X107.589 Y93.593 E8.01476
G1 X108.135 Y93.593 E8.03946
G1 X107.345 Y92.803 E8.09005
G1 X107.890 Y92.803 E8.11475
G1 X108.681 Y93.593 E8.16533
G1 X109.226 Y93.593 E8.19003
G1 X108.436 Y92.803 E8.24062
G1 X108.982 Y92.803 E8.26532
G1 X109.772 Y93.593 E8.31591
G1 X110.317 Y93.593 E8.34061
G1 X109.527 Y92.803 E8.39119
G1 X110.073 Y92.803 E8.41590
G1 X110.863 Y93.593 E8.46648
G1 X111.409 Y93.593 E8.49118
G1 X110.619 Y92.803 E8.54177
G1 X111.164 Y92.803 E8.56647
G1 X111.954 Y93.593 E8.61706
G1 X112.500 Y93.593 E8.64176
G1 X111.710 Y92.803 E8.69234
G1 X112.256 Y92.803 E8.71705
G1 X113.046 Y93.593 E8.76763
G1 X113.591 Y93.593 E8.79233
G1 X112.801 Y92.803 E8.84292
G1 X113.347 Y92.803 E8.86762
G1 X114.137 Y93.593 E8.91821
G1 X114.682 Y93.593 E8.94291
G1 X113.892 Y92.803 E8.99349
G1 X114.438 Y92.803 E9.01819
G1 X115.228 Y93.593 E9.06878
G1 X115.733 Y93.552 E9.09171
G1 X114.984 Y92.803 E9.13968
G1 X115.529 Y92.803 E9.16438
G1 X115.733 Y93.007 E9.17742
G92 E0
G1 X105.241 Y93.352 F7800.000
G1 X105.241 Y93.352 F7800.000
G1 X114.639 Y100.097 F7800.000
G1 X114.379 Y99.837 E0.01665 F540.000
G1 X113.833 Y99.837 E0.04135
G1 X114.601 Y100.605 E0.09053
G1 X114.056 Y100.605 F7800.000
G1 X113.288 Y99.837 E0.13971 F540.000
G1 X112.742 Y99.837 E0.16441
G1 X113.510 Y100.605 E0.21359
G1 X112.964 Y100.605 E0.23829
G1 X112.196 Y99.837 E0.28747
G1 X111.651 Y99.837 E0.31217
G1 X112.419 Y100.605 E0.36135
G1 X111.873 Y100.605 E0.38605
G1 X111.105 Y99.837 E0.43522
G1 X110.559 Y99.837 E0.45993
G1 X111.328 Y100.605 E0.50910
G1 X110.782 Y100.605 E0.53381
G1 X110.014 Y99.837 E0.58298
G1 X109.468 Y99.837 E0.60769
G1 X110.236 Y100.605 E0.65686
G1 X109.691 Y100.605 E0.68157
G1 X108.923 Y99.837 E0.73074
G1 X108.377 Y99.837 E0.75544
G1 X109.145 Y100.605 E0.80462
G1 X108.599 Y100.605 E0.82932
G1 X107.831 Y99.837 E0.87850
G1 X107.286 Y99.837 E0.90320
G1 X108.054 Y100.605 E0.95238
G1 X107.508 Y100.605 E0.97708
G1 X106.740 Y99.837 E1.02626
G1 X106.194 Y99.837 E1.05096
G1 X106.962 Y100.605 E1.10014
G92 E0
G1 X105.241 Y106.648 F7800.000
G1 X105.241 Y106.648 F7800.000
G1 X105.205 Y106.612 F7800.000
G1 X105.170 Y106.648 F7800.000
G1 X104.621 Y105.902 F7800.000
G1 X105.916 Y107.197 E0.08290 F540.000
G1 X105.370 Y107.197 E0.10760
G1 X104.621 Y106.448 E0.15557
G1 X104.621 Y106.993 E0.18027
G1 X104.824 Y107.197 E0.19331
G92 E0
G1 X104.170 Y107.648 F7800.000
G1 X100.014 Y105.492 F7800.000
G1 X98.678 Y106.298 F7800.000
G1 X96.788 Y107.212 F7800.000
G1 X94.878 Y105.699 F7800.000
G1 X86.993 Y107.423 F7800.000
G1 X84.041 Y107.423 E0.13357 F378.000
G1 X84.041 Y92.577 E0.80534
G1 X89.532 Y92.577 E1.05379
G1 X90.836 Y92.673 E1.11298
G1 X90.925 Y92.680 E1.11698 F378.000
G1 X92.190 Y92.986 E1.17590
G1 X93.340 Y93.493 E1.23275
G1 X94.348 Y94.190 E1.28822
G1 X95.190 Y95.065 E1.34315
G1 X95.868 Y96.120 E1.39991
G1 X96.366 Y97.333 E1.45921
G1 X96.665 Y98.678 E1.52156
G1 X96.765 Y100.153 E1.58846
G1 X96.536 Y102.317 E1.68695
G1 X95.854 Y104.105 E1.77352
G1 X94.723 Y105.532 E1.85591
G1 X93.173 Y106.578 E1.94052
G1 X91.227 Y107.210 E2.03312
G1 X88.867 Y107.423 E2.14034
G1 X87.224 Y107.423 E2.21468
G1 X87.224 Y106.214 F7800.000
G1 X85.662 Y106.214 E2.28535 F378.000
G1 X85.662 Y93.786 E2.84771
G1 X89.309 Y93.786 E3.01271 F378.000
G1 X90.414 Y93.870 E3.06288
G1 X91.440 Y94.126 E3.11072
G1 X92.376 Y94.553 E3.15727
G1 X93.198 Y95.145 E3.20308
G1 X93.882 Y95.887 E3.24879
G1 X94.427 Y96.778 E3.29602
G1 X94.821 Y97.796 E3.34542
G1 X95.057 Y98.923 E3.39751
G1 X95.135 Y100.161 E3.45365
G1 X94.957 Y101.954 E3.53518
G1 X94.416 Y103.459 E3.60754
G1 X93.507 Y104.660 E3.67572
G1 X92.256 Y105.529 E3.74464
G1 X90.695 Y106.045 E3.81902
G1 X88.843 Y106.214 E3.90315
G1 X87.455 Y106.214 E3.96597
G1 X86.448 Y106.440 F7800.000
G1 X87.205 Y107.197 E4.01455 F540.000
G1 X87.752 Y107.197 E4.03936
G1 X86.994 Y106.440 E4.08794
G1 X87.541 Y106.440 E4.11275
G1 X88.298 Y107.197 E4.16133
G1 X88.845 Y107.197 E4.18614
G1 X88.088 Y106.440 E4.23472
G1 X88.635 Y106.440 E4.25952
G1 X89.354 Y107.159 E4.30567
G1 X89.856 Y107.114 E4.32852
G1 X89.148 Y106.406 E4.37393
G1 X89.649 Y106.360 E4.39676
G1 X90.357 Y107.068 E4.44221
G1 X90.859 Y107.023 E4.46505
G1 X90.150 Y106.314 E4.51052
G1 X90.651 Y106.269 E4.53335
G1 X91.340 Y106.958 E4.57757
G1 X91.753 Y106.824 E4.59726
G1 X91.066 Y106.137 E4.64130
G1 X91.477 Y106.001 E4.66093
G1 X92.165 Y106.690 E4.70509
G1 X92.578 Y106.556 E4.72478
G1 X91.888 Y105.866 E4.76906
G1 X92.299 Y105.730 E4.78869
G1 X92.991 Y106.422 E4.83308
G1 X93.344 Y106.228 E4.85136
G1 X92.625 Y105.509 E4.89752
G1 X92.948 Y105.285 E4.91534
G1 X93.671 Y106.008 E4.96174
G1 X93.997 Y105.787 E4.97962
G1 X93.270 Y105.061 E5.02626
G1 X93.593 Y104.836 E5.04408
G1 X94.324 Y105.567 E5.09097
G1 X94.627 Y105.323 E5.10861
G1 X93.842 Y104.538 E5.15900
G1 X94.077 Y104.227 E5.17671
G1 X94.877 Y105.027 E5.22806
G1 X95.119 Y104.722 E5.24572
G1 X94.313 Y103.915 E5.29747
G1 X94.548 Y103.604 E5.31518
G1 X95.361 Y104.417 E5.36733
G1 X95.603 Y104.112 E5.38499
G1 X94.716 Y103.225 E5.44189
G1 X94.860 Y102.823 E5.46128
G1 X95.777 Y103.739 E5.52010
G1 X95.928 Y103.344 E5.53932
G1 X95.005 Y102.421 E5.59854
G1 X95.150 Y102.018 E5.61794
G1 X96.079 Y102.948 E5.67756
G1 X96.230 Y102.552 E5.69679
G1 X95.217 Y101.539 E5.76175
G1 X95.267 Y101.042 E5.78443
G1 X96.338 Y102.113 E5.85318
G1 X96.391 Y101.619 E5.87574
G1 X95.316 Y100.544 E5.94469
G1 X95.359 Y100.040 E5.96764
G1 X96.443 Y101.125 E6.03721
G1 X96.496 Y100.630 E6.05976
G1 X95.322 Y99.457 E6.13507
G1 X95.285 Y98.873 E6.16160
G1 X96.531 Y100.119 E6.24153
G1 X96.491 Y99.532 E6.26821
G1 X95.154 Y98.195 E6.35398
G1 X94.974 Y97.468 E6.38796
G1 X96.451 Y98.945 E6.48274
G1 X96.323 Y98.270 E6.51393
G1 X94.628 Y96.576 E6.62265
G1 X95.804 Y96.658 F7800.000
G1 X92.606 Y93.460 E6.82783 F540.000
G1 X92.259 Y94.206 F7800.000
G1 X91.007 Y92.954 E6.90814 F540.000
G1 X91.728 Y93.128 E6.94178
G1 X96.166 Y97.566 E7.22655
G1 X94.957 Y95.264 F7800.000
G1 X93.974 Y94.281 E7.28964 F540.000
G1 X91.354 Y93.849 F7800.000
G1 X90.378 Y92.872 E7.35229 F540.000
G1 X89.788 Y92.829 E7.37915
G1 X90.626 Y93.667 E7.43294
G1 X90.019 Y93.607 E7.46062
G1 X89.215 Y92.803 E7.51221
G1 X88.668 Y92.803 E7.53702
G1 X89.427 Y93.562 E7.58572
G1 X88.879 Y93.560 E7.61062
G1 X88.122 Y92.803 E7.65919
G1 X87.575 Y92.803 E7.68400
G1 X88.332 Y93.560 E7.73258
G1 X87.785 Y93.560 E7.75739
G1 X87.028 Y92.803 E7.80597
G1 X86.481 Y92.803 E7.83078
G1 X87.238 Y93.560 E7.87936
G1 X86.691 Y93.560 E7.90417
G1 X85.934 Y92.803 E7.95275
G1 X85.387 Y92.803 E7.97755
G1 X86.145 Y93.560 E8.02613
G1 X85.598 Y93.560 E8.05094
G1 X84.841 Y92.803 E8.09952
G1 X84.300 Y92.810 E8.12403
G1 X85.436 Y93.945 E8.19690
G1 X85.436 Y94.492 E8.22171
G1 X84.267 Y93.323 E8.29673
G1 X84.267 Y93.870 E8.32154
G1 X85.436 Y95.039 E8.39655
G1 X85.436 Y95.586 E8.42136
G1 X84.267 Y94.417 E8.49637
G1 X84.267 Y94.964 E8.52118
G1 X85.436 Y96.133 E8.59620
G1 X85.436 Y96.679 E8.62101
G1 X84.267 Y95.510 E8.69602
G1 X84.267 Y96.057 E8.72083
G1 X85.436 Y97.226 E8.79585
G1 X85.436 Y97.773 E8.82066
G1 X84.267 Y96.604 E8.89567
G1 X84.267 Y97.151 E8.92048
G1 X85.436 Y98.320 E8.99549
G1 X85.436 Y98.867 E9.02030
G1 X84.267 Y97.698 E9.09532
G1 X84.267 Y98.244 E9.12013
G1 X85.436 Y99.414 E9.19514
G1 X85.436 Y99.960 E9.21995
G1 X84.267 Y98.791 E9.29496
G1 X84.267 Y99.338 E9.31977
G1 X85.436 Y100.507 E9.39479
G1 X85.436 Y101.054 E9.41960
G1 X84.267 Y99.885 E9.49461
G1 X84.267 Y100.432 E9.51942
G1 X85.436 Y101.601 E9.59443
G1 X85.436 Y102.148 E9.61924
G1 X84.267 Y100.978 E9.69426
G1 X84.267 Y101.525 E9.71907
G1 X85.436 Y102.694 E9.79408
G1 X85.436 Y103.241 E9.81889
G1 X84.267 Y102.072 E9.89390
G1 X84.267 Y102.619 E9.91871
G1 X85.436 Y103.788 E9.99373
G1 X85.436 Y104.335 E10.01854
G1 X84.267 Y103.166 E10.09355
G1 X84.267 Y103.713 E10.11836
G1 X85.436 Y104.882 E10.19337
G1 X85.436 Y105.428 E10.21818
G1 X84.267 Y104.259 E10.29320
G1 X84.267 Y104.806 E10.31801
G1 X85.436 Y105.975 E10.39302
G1 X85.354 Y106.440 E10.41443
G1 X86.111 Y107.197 E10.46301
G1 X86.658 Y107.197 E10.48782
G1 X85.901 Y106.440 E10.53640
G1 X85.436 Y106.522 E10.55781
G1 X84.267 Y105.353 E10.63282
G1 X84.267 Y105.900 E10.65763
G1 X85.564 Y107.197 E10.74086
G1 X85.017 Y107.197 E10.76567
G1 X84.267 Y106.447 E10.81382
G1 X84.267 Y106.993 E10.83863
G1 X84.471 Y107.197 E10.85169
M106 S255
G92 E0
G1 Z0.600 F7800.000
G1 X116.184 Y93.198 F7800.000
G1 X106.241 Y93.198 E2.97938 F600.000
G1 X105.286 Y93.468 E3.27683
G1 X105.205 Y94.044 E3.45118
G1 X105.205 Y99.386 E5.05189
G1 X106.076 Y103.706 E6.37226
G1 X105.241 Y106.648 F7800.000
G1 X105.241 Y106.648 F7800.000
G1 X115.740 Y106.802 F7800.000
G1 X106.241 Y106.802 E9.21860 F600.000
G1 X105.286 Y106.532 E9.51604
G1 X105.205 Y105.956 E9.69039
G1 X105.205 Y101.056 E11.15866
G1 X105.374 Y100.221 E11.41390
G1 X115.090 Y100.221 E14.32531
G92 E0
G1 X117.184 Y94.044 F7800.000
G1 X117.012 Y91.524 F7800.000
G1 X102.170 Y92.352 F7800.000
G1 X99.865 Y94.457 F7800.000
G1 X96.068 Y96.016 F7800.000
G1 X84.925 Y93.461 F7800.000
G1 X85.887 Y93.181 E0.30026 F600.000
G1 X89.363 Y93.183 E1.34183
G1 X90.442 Y93.258 E1.66578
G1 X90.825 Y93.314 E1.78194
G1 X91.575 Y93.498 E2.01328
G1 X91.973 Y93.627 E2.13873
G1 X92.638 Y93.926 E2.35724
G1 X92.990 Y94.118 E2.47721
G1 X93.599 Y94.547 E2.70057
G1 X93.861 Y94.762 E2.80222
G1 X94.580 Y95.547 E3.12097
G1 X95.163 Y96.488 E3.45263
G1 X95.595 Y97.575 E3.80315
G1 X95.859 Y98.794 E4.17696
G1 X95.948 Y100.137 E4.58030
G1 X95.744 Y102.128 E5.17988
G1 X95.162 Y103.711 E5.68535
G1 X95.005 Y103.947 E5.77030
G1 X94.208 Y104.976 E6.16011
G1 X93.877 Y105.257 E6.29026
G1 X92.866 Y105.948 E6.65726
G1 X92.658 Y106.052 E6.72691
G1 X92.426 Y106.147 E6.80219
G1 X91.098 Y106.582 E7.22074
G1 X90.724 Y106.649 E7.33464
G1 X88.840 Y106.818 E7.90158
G1 X85.887 Y106.818 E8.78630
G1 X84.925 Y106.539 E9.08656
G1 X84.852 Y105.989 E9.25292
G1 X84.852 Y94.011 E12.84209
G1 X84.925 Y93.461 E13.00845
G92 E0
G1 Z0.900 F7800.000
G1 X116.184 Y93.198 F7800.000
G1 X106.241 Y93.198 E2.97938 F600.000
G1 X105.286 Y93.468 E3.27683
G1 X105.205 Y94.044 E3.45118
G1 X105.205 Y99.386 E5.05189
G1 X106.076 Y103.706 E6.37226
G1 X105.241 Y106.648 F7800.000
G1 X105.241 Y106.648 F7800.000
G1 X115.740 Y106.802 F7800.000
G1 X106.241 Y106.802 E9.21860 F600.000
G1 X105.286 Y106.532 E9.51604
G1 X105.205 Y105.956 E9.69039
G1 X105.205 Y101.056 E11.15866
G1 X105.374 Y100.221 E11.41390
G1 X115.090 Y100.221 E14.32531
G92 E0
G1 X117.184 Y94.044 F7800.000
G1 X117.012 Y91.524 F7800.000
G1 X102.170 Y92.352 F7800.000
G1 X99.865 Y94.457 F7800.000
G1 X96.068 Y96.016 F7800.000
G1 X84.925 Y93.461 F7800.000
G1 X85.887 Y93.181 E0.30026 F600.000
G1 X89.363 Y93.183 E1.34183
G1 X90.442 Y93.258 E1.66578
G1 X90.825 Y93.314 E1.78194
G1 X91.575 Y93.498 E2.01328
G1 X91.973 Y93.627 E2.13872
G1 X92.638 Y93.926 E2.35724
G1 X92.990 Y94.118 E2.47721
G1 X93.599 Y94.547 E2.70057
G1 X93.861 Y94.762 E2.80222
G1 X94.580 Y95.547 E3.12097
G1 X95.163 Y96.488 E3.45263
G1 X95.595 Y97.575 E3.80315
G1 X95.859 Y98.794 E4.17696
G1 X95.948 Y100.137 E4.58030
G1 X95.744 Y102.128 E5.17988
G1 X95.162 Y103.711 E5.68535
G1 X95.005 Y103.947 E5.77030
G1 X94.208 Y104.976 E6.16011
G1 X93.877 Y105.257 E6.29026
G1 X92.866 Y105.948 E6.65726
G1 X92.658 Y106.052 E6.72691
G1 X92.426 Y106.147 E6.80219
G1 X91.098 Y106.582 E7.22074
G1 X90.724 Y106.649 E7.33464
G1 X88.840 Y106.818 E7.90158
G1 X85.887 Y106.818 E8.78630
G1 X84.925 Y106.539 E9.08656
G1 X84.852 Y105.989 E9.25292
G1 X84.852 Y94.011 E12.84209
G1 X84.925 Y93.461 E13.00845
G92 E0
G1 Z1.200 F7800.000
G1 X116.184 Y93.198 F7800.000
G1 X106.241 Y93.198 E2.97938 F600.000
G1 X105.286 Y93.468 E3.27683
G1 X105.205 Y94.044 E3.45118
G1 X105.205 Y99.386 E5.05189
G1 X106.076 Y103.706 E6.37226
G1 X105.241 Y106.648 F7800.000
G1 X105.241 Y106.648 F7800.000
G1 X115.740 Y106.802 F7800.000
G1 X106.241 Y106.802 E9.21860 F600.000
G1 X105.286 Y106.532 E9.51604
G1 X105.205 Y105.956 E9.69039
G1 X105.205 Y101.056 E11.15866
G1 X105.374 Y100.221 E11.41390
G1 X115.090 Y100.221 E14.32531
G92 E0
G1 X117.184 Y94.044 F7800.000
G1 X117.012 Y91.524 F7800.000
G1 X102.170 Y92.352 F7800.000
G1 X99.865 Y94.457 F7800.000
G1 X96.068 Y96.016 F7800.000
G1 X84.925 Y93.461 F7800.000
G1 X85.887 Y93.181 E0.30026 F600.000
G1 X89.363 Y93.183 E1.34183
G1 X90.442 Y93.258 E1.66579
G1 X90.825 Y93.314 E1.78194
G1 X91.575 Y93.498 E2.01328
G1 X91.973 Y93.627 E2.13872
G1 X92.638 Y93.926 E2.35724
G1 X92.990 Y94.118 E2.47721
G1 X93.599 Y94.547 E2.70057
G1 X93.861 Y94.762 E2.80221
G1 X94.580 Y95.547 E3.12097
