; generated by Slic3r 1.2.9 on 2016-03-11 at 01:23:30

; external perimeters extrusion width = 1.54mm
; perimeters extrusion width = 2.62mm
; infill extrusion width = 6.27mm
; solid infill extrusion width = 2.62mm
; top infill extrusion width = 2.62mm

M107
M104 S30 ; set temperature
G28 ; home all axes
G1 Z5 F5000 ; lift nozzle
M302
M92 E10000
M500
M501
G1 E100
M109 S30 ; wait for temperature to be reached
G21 ; set units to millimeters
G90 ; use absolute coordinates
M82 ; use absolute distances for extrusion
G92 E0
G1 Z0.300 F7800.000
G1 X104.431 Y105.227 F7800.000
G1 X103.664 Y104.161 E0.05945 F378.000
G1 X103.018 Y102.303 E0.14844
G1 X102.801 Y100.062 E0.25034
G1 X102.900 Y98.552 E0.31880
G1 X103.198 Y97.183 E0.38219
G1 X103.692 Y95.956 E0.44202
G1 X104.371 Y94.893 E0.49911
G1 X105.223 Y94.012 E0.55459
G1 X106.252 Y93.309 E0.61096
G1 X107.444 Y92.797 E0.66967
G1 X108.785 Y92.489 E0.73193
G1 X110.278 Y92.385 E0.79967
G1 X111.457 Y92.452 E0.85310
G1 X111.592 Y92.459 E0.85919 F378.000
G1 X112.839 Y92.680 E0.91649
G1 X114.019 Y93.048 E0.97243
G1 X115.106 Y93.550 E1.02661
G1 X116.071 Y94.172 E1.07856
G1 X116.853 Y94.857 E1.12559
G1 X116.853 Y99.807 E1.34958
G1 X110.827 Y99.807 E1.62225
G1 X110.827 Y98.522 E1.68040
G1 X115.395 Y98.522 E1.88709
G1 X115.395 Y95.430 E2.02702
G1 X114.709 Y94.866 E2.06719
G1 X113.981 Y94.436 E2.10545
G1 X113.145 Y94.084 E2.14650
G1 X112.233 Y93.824 E2.18942
G1 X111.277 Y93.668 E2.23325
G1 X110.270 Y93.615 E2.27887
G1 X108.597 Y93.806 E2.35505
G1 X107.166 Y94.387 E2.42495
G1 X105.996 Y95.358 E2.49375
G1 X105.135 Y96.660 E2.56435
G1 X104.622 Y98.231 E2.63914
G1 X104.453 Y100.064 E2.72246
G1 X104.612 Y101.895 E2.80559
G1 X105.095 Y103.443 E2.87899
G1 X105.908 Y104.705 E2.94691
G1 X107.034 Y105.636 E3.01302
G1 X108.444 Y106.191 E3.08161
G1 X110.119 Y106.374 E3.15786
G1 X111.228 Y106.306 E3.20811
G1 X112.212 Y106.102 E3.25358
G1 X113.077 Y105.758 E3.29569
G1 X113.826 Y105.261 E3.33638
G1 X114.457 Y104.600 E3.37774
G1 X114.868 Y103.944 E3.41275
G1 X116.405 Y104.397 E3.48525
G1 X115.906 Y105.266 E3.53057
G1 X115.126 Y106.137 E3.58351
G1 X114.193 Y106.789 E3.63502
G1 X113.074 Y107.245 E3.68970
G1 X111.736 Y107.522 E3.75151
G1 X110.184 Y107.614 E3.82187
G1 X108.001 Y107.393 E3.92114
G1 X106.189 Y106.736 E4.00834
G1 X104.733 Y105.648 E4.09060
G1 X104.566 Y105.415 E4.10358
G1 X104.800 Y105.246 F7800.000
G1 X105.151 Y105.596 E4.12614 F540.000
G1 X104.962 Y103.760 F7800.000
G1 X103.226 Y102.024 E4.23796 F540.000
G1 X103.469 Y102.816 E4.27569
G1 X107.640 Y106.987 E4.54445
G1 X108.400 Y107.198 E4.58038
G1 X107.174 Y105.972 E4.65933
G1 X106.778 Y106.675 F7800.000
G1 X103.761 Y103.658 E4.85374 F540.000
G1 X104.663 Y102.912 F7800.000
G1 X103.167 Y101.416 E4.95013 F540.000
G1 X103.108 Y100.808 E4.97797
G1 X104.415 Y102.114 E5.06215
G1 X104.343 Y101.494 E5.09062
G1 X103.049 Y100.200 E5.17399
G1 X103.049 Y99.650 E5.19903
G1 X104.291 Y100.892 E5.27905
G1 X104.238 Y100.291 E5.30656
G1 X103.083 Y99.135 E5.38102
G1 X103.117 Y98.620 E5.40454
G1 X104.261 Y99.764 E5.47826
G1 X104.307 Y99.261 E5.50126
G1 X103.202 Y98.156 E5.57251
G1 X103.300 Y97.705 E5.59354
G1 X104.354 Y98.759 E5.66146
G1 X104.400 Y98.256 E5.68447
G1 X103.398 Y97.254 E5.74906
G1 X103.547 Y96.854 E5.76850
G1 X104.534 Y97.841 E5.83209
G1 X104.669 Y97.427 E5.85193
G1 X103.705 Y96.463 E5.91407
G1 X103.863 Y96.071 E5.93330
G1 X104.804 Y97.013 E5.99398
G1 X104.941 Y96.600 E6.01378
G1 X104.069 Y95.728 E6.06999
G1 X104.283 Y95.393 E6.08811
G1 X105.160 Y96.270 E6.14462
G1 X105.378 Y95.939 E6.16267
G1 X104.497 Y95.058 E6.21948
G1 X104.762 Y94.774 E6.23718
G1 X105.597 Y95.609 E6.29099
G1 X105.815 Y95.278 E6.30905
G1 X105.036 Y94.499 E6.35926
G1 X105.311 Y94.224 E6.37695
G1 X106.104 Y95.018 E6.42807
G1 X106.404 Y94.769 E6.44584
G1 X105.615 Y93.979 E6.49672
G1 X105.941 Y93.756 E6.51472
G1 X106.704 Y94.520 E6.56392
G1 X107.005 Y94.271 E6.58169
G1 X106.267 Y93.534 E6.62920
G1 X106.642 Y93.359 E6.64804
G1 X107.370 Y94.087 E6.69494
G1 X107.761 Y93.929 E6.71415
G1 X107.026 Y93.195 E6.76145
G1 X107.411 Y93.030 E6.78050
G1 X108.151 Y93.770 E6.82823
G1 X108.542 Y93.612 E6.84743
G1 X107.849 Y92.919 E6.89205
G1 X108.296 Y92.817 E6.91292
G1 X109.019 Y93.540 E6.95951
G1 X109.512 Y93.483 E6.98211
G1 X108.742 Y92.714 E7.03169
G1 X109.255 Y92.677 E7.05510
G1 X110.004 Y93.427 E7.10340
G1 X110.524 Y93.398 E7.12713
G1 X109.768 Y92.642 E7.17585
G1 X110.293 Y92.617 E7.19978
G1 X111.104 Y93.428 E7.25202
G1 X111.722 Y93.497 F7800.000
G1 X110.875 Y92.650 E7.30659 F540.000
G1 X111.457 Y92.683 E7.33314
G1 X112.378 Y93.604 E7.39251
G1 X113.146 Y93.823 F7800.000
G1 X112.122 Y92.798 E7.45853 F540.000
G1 X112.810 Y92.937 E7.49051
G1 X114.052 Y94.180 E7.57055
G1 X114.567 Y93.597 F7800.000
G1 X116.627 Y95.656 E7.70328 F540.000
G1 X116.627 Y95.107 F7800.000
G1 X116.228 Y94.709 E7.72897 F540.000
G1 X113.608 Y93.186 F7800.000
G1 X116.627 Y96.206 E7.92353 F540.000
G1 X116.627 Y96.755 E7.94854
G1 X115.621 Y95.749 E8.01337
G1 X115.621 Y96.298 E8.03839
G1 X116.627 Y97.304 E8.10322
G1 X116.627 Y97.853 E8.12824
G1 X115.621 Y96.847 E8.19306
G1 X115.621 Y97.396 E8.21808
G1 X116.627 Y98.402 E8.28291
G1 X116.627 Y98.951 E8.30793
G1 X115.621 Y97.945 E8.37276
G1 X115.621 Y98.494 E8.39778
G1 X116.627 Y99.500 E8.46260
G1 X116.158 Y99.581 E8.48426
G1 X115.325 Y98.748 E8.53794
G1 X114.776 Y98.748 E8.56296
G1 X115.609 Y99.581 E8.61664
G1 X115.060 Y99.581 E8.64166
G1 X114.227 Y98.748 E8.69534
G1 X113.678 Y98.748 E8.72036
G1 X114.511 Y99.581 E8.77404
G1 X113.962 Y99.581 E8.79906
G1 X113.129 Y98.748 E8.85274
G1 X112.580 Y98.748 E8.87776
G1 X113.413 Y99.581 E8.93144
G1 X112.864 Y99.581 E8.95646
G1 X112.031 Y98.748 E9.01014
G1 X111.482 Y98.748 E9.03516
G1 X112.315 Y99.581 E9.08884
G1 X111.766 Y99.581 E9.11386
G1 X111.053 Y98.868 E9.15978
G92 E0
G1 X115.213 Y104.854 F7800.000
G1 X115.213 Y104.854 F7800.000
G1 X115.216 Y104.863 F7800.000
G1 X115.230 Y104.859 F7800.000
G1 X115.471 Y104.385 F7800.000
G1 X115.925 Y104.839 E0.02924 F540.000
G1 X115.721 Y105.184 E0.04751
G1 X114.861 Y104.323 E0.10297
G1 X114.649 Y104.661 E0.12112
G1 X115.462 Y105.474 E0.17349
G1 X115.200 Y105.761 E0.19120
G1 X114.389 Y104.950 E0.24347
G1 X114.120 Y105.231 E0.26117
G1 X114.925 Y106.036 E0.31305
G1 X114.605 Y106.265 E0.33098
G1 X113.831 Y105.490 E0.38086
G1 X113.501 Y105.710 E0.39891
G1 X114.282 Y106.490 E0.44921
G1 X113.924 Y106.681 E0.46770
G1 X113.171 Y105.929 E0.51619
G1 X112.785 Y106.091 E0.53530
G1 X113.534 Y106.840 E0.58357
G1 X113.144 Y106.999 E0.60276
G1 X112.392 Y106.248 E0.65121
G1 X111.964 Y106.369 E0.67146
G1 X112.702 Y107.106 E0.71898
G1 X112.246 Y107.201 E0.74015
G1 X111.509 Y106.463 E0.78766
G1 X111.036 Y106.539 E0.80949
G1 X111.791 Y107.295 E0.85816
G1 X111.275 Y107.328 E0.88173
G1 X110.519 Y106.571 E0.93048
G1 X109.995 Y106.597 E0.95435
G1 X110.757 Y107.358 E1.00342
G1 X110.233 Y107.383 E1.02732
G1 X109.379 Y106.530 E1.08233
G1 X108.763 Y106.463 E1.11057
G1 X109.622 Y107.322 E1.16591
G1 X109.011 Y107.260 E1.19390
G1 X108.080 Y106.329 E1.25386
G92 E0
G1 X102.797 Y102.351 F7800.000
G1 X99.332 Y103.693 F7800.000
G1 X99.032 Y105.694 F7800.000
G1 X95.158 Y104.217 F7800.000
G1 X83.147 Y102.614 F7800.000
G1 X83.147 Y92.577 E0.45419 F378.000
G1 X88.638 Y92.577 E0.70264
G1 X89.896 Y92.670 E0.75973
G1 X90.031 Y92.680 E0.76583 F378.000
G1 X91.296 Y92.986 E0.82475
G1 X92.446 Y93.493 E0.88161
G1 X93.454 Y94.190 E0.93707
G1 X94.296 Y95.065 E0.99200
G1 X94.974 Y96.120 E1.04876
G1 X95.472 Y97.333 E1.10806
G1 X95.771 Y98.678 E1.17041
G1 X95.871 Y100.153 E1.23731
G1 X95.642 Y102.317 E1.33581
G1 X94.960 Y104.105 E1.42237
G1 X93.829 Y105.532 E1.50476
G1 X92.279 Y106.578 E1.58937
G1 X90.333 Y107.210 E1.68197
G1 X87.973 Y107.423 E1.78919
G1 X83.147 Y107.423 E2.00755
G1 X83.147 Y102.845 E2.21468
G1 X84.768 Y102.845 F7800.000
G1 X84.768 Y93.786 E2.62462 F378.000
G1 X88.415 Y93.786 E2.78962 F378.000
G1 X89.520 Y93.870 E2.83979
G1 X90.546 Y94.126 E2.88763
G1 X91.482 Y94.553 E2.93418
G1 X92.304 Y95.145 E2.97999
G1 X92.988 Y95.887 E3.02570
G1 X93.533 Y96.778 E3.07292
G1 X93.927 Y97.796 E3.12233
G1 X94.163 Y98.923 E3.17442
G1 X94.241 Y100.161 E3.23056
G1 X94.063 Y101.954 E3.31209
G1 X93.522 Y103.459 E3.38444
G1 X92.613 Y104.660 E3.45262
G1 X91.362 Y105.529 E3.52155
G1 X89.801 Y106.045 E3.59593
G1 X87.949 Y106.214 E3.68005
G1 X84.768 Y106.214 E3.82400
G1 X84.768 Y103.076 E3.96597
G1 X83.993 Y106.648 F7800.000
G1 X83.993 Y106.648 F7800.000
G1 X85.554 Y106.440 F7800.000
G1 X86.311 Y107.197 E4.01455 F540.000
G1 X86.858 Y107.197 E4.03936
G1 X86.100 Y106.440 E4.08794
G1 X86.647 Y106.440 E4.11275
G1 X87.404 Y107.197 E4.16133
G1 X87.951 Y107.197 E4.18614
G1 X87.194 Y106.440 E4.23472
G1 X87.741 Y106.440 E4.25952
G1 X88.460 Y107.159 E4.30567
G1 X88.962 Y107.114 E4.32852
G1 X88.254 Y106.406 E4.37393
G1 X88.755 Y106.360 E4.39676
G1 X89.463 Y107.068 E4.44221
G1 X89.965 Y107.023 E4.46505
G1 X89.256 Y106.314 E4.51052
G1 X89.757 Y106.269 E4.53335
G1 X90.446 Y106.958 E4.57757
G1 X90.859 Y106.824 E4.59726
G1 X90.172 Y106.137 E4.64130
G1 X90.583 Y106.001 E4.66093
G1 X91.271 Y106.690 E4.70509
G1 X91.684 Y106.556 E4.72478
G1 X90.994 Y105.866 E4.76905
G1 X91.405 Y105.730 E4.78869
G1 X92.097 Y106.422 E4.83308
G1 X92.450 Y106.228 E4.85136
G1 X91.731 Y105.509 E4.89752
G1 X92.054 Y105.285 E4.91534
G1 X92.777 Y106.008 E4.96174
G1 X93.103 Y105.787 E4.97962
G1 X92.376 Y105.061 E5.02626
G1 X92.699 Y104.836 E5.04408
G1 X93.430 Y105.567 E5.09097
G1 X93.733 Y105.323 E5.10861
G1 X92.948 Y104.538 E5.15900
G1 X93.183 Y104.227 E5.17671
G1 X93.983 Y105.027 E5.22806
G1 X94.225 Y104.722 E5.24572
G1 X93.419 Y103.915 E5.29747
G1 X93.654 Y103.604 E5.31518
G1 X94.467 Y104.417 E5.36733
G1 X94.709 Y104.112 E5.38499
G1 X93.822 Y103.225 E5.44189
G1 X93.966 Y102.823 E5.46128
G1 X94.883 Y103.739 E5.52010
G1 X95.034 Y103.344 E5.53932
G1 X94.111 Y102.421 E5.59854
G1 X94.256 Y102.018 E5.61794
G1 X95.185 Y102.948 E5.67757
G1 X95.336 Y102.552 E5.69679
G1 X94.323 Y101.539 E5.76175
G1 X94.373 Y101.042 E5.78443
G1 X95.444 Y102.113 E5.85318
G1 X95.497 Y101.619 E5.87574
G1 X94.422 Y100.544 E5.94469
G1 X94.465 Y100.040 E5.96764
G1 X95.549 Y101.125 E6.03721
G1 X95.602 Y100.630 E6.05977
G1 X94.428 Y99.457 E6.13507
G1 X94.391 Y98.873 E6.16160
G1 X95.637 Y100.119 E6.24153
G1 X95.597 Y99.532 E6.26821
G1 X94.260 Y98.195 E6.35398
G1 X94.080 Y97.468 E6.38796
G1 X95.557 Y98.945 E6.48274
G1 X95.429 Y98.270 E6.51393
G1 X93.734 Y96.576 E6.62265
G1 X94.910 Y96.658 F7800.000
G1 X91.712 Y93.460 E6.82783 F540.000
G1 X91.365 Y94.206 F7800.000
G1 X90.113 Y92.954 E6.90814 F540.000
G1 X90.834 Y93.128 E6.94178
G1 X95.272 Y97.566 E7.22655
G1 X94.063 Y95.264 F7800.000
G1 X93.080 Y94.281 E7.28964 F540.000
G1 X90.460 Y93.849 F7800.000
G1 X89.484 Y92.872 E7.35229 F540.000
G1 X88.894 Y92.829 E7.37915
G1 X89.732 Y93.667 E7.43294
G1 X89.125 Y93.607 E7.46062
G1 X88.321 Y92.803 E7.51221
G1 X87.774 Y92.803 E7.53702
G1 X88.533 Y93.562 E7.58572
G1 X87.985 Y93.560 E7.61062
G1 X87.228 Y92.803 E7.65919
G1 X86.681 Y92.803 E7.68400
G1 X87.438 Y93.560 E7.73258
G1 X86.891 Y93.560 E7.75739
G1 X86.134 Y92.803 E7.80597
G1 X85.587 Y92.803 E7.83078
G1 X86.344 Y93.560 E7.87936
G1 X85.797 Y93.560 E7.90417
G1 X85.040 Y92.803 E7.95275
G1 X84.493 Y92.803 E7.97756
G1 X85.251 Y93.560 E8.02613
G1 X84.704 Y93.560 E8.05094
G1 X83.947 Y92.803 E8.09952
G1 X83.406 Y92.810 E8.12403
G1 X84.542 Y93.945 E8.19691
G1 X84.542 Y94.492 E8.22171
G1 X83.373 Y93.323 E8.29673
G1 X83.373 Y93.870 E8.32154
G1 X84.542 Y95.039 E8.39655
G1 X84.542 Y95.586 E8.42136
G1 X83.373 Y94.417 E8.49638
G1 X83.373 Y94.964 E8.52119
G1 X84.542 Y96.133 E8.59620
G1 X84.542 Y96.679 E8.62101
G1 X83.373 Y95.510 E8.69602
G1 X83.373 Y96.057 E8.72083
G1 X84.542 Y97.226 E8.79585
G1 X84.542 Y97.773 E8.82066
G1 X83.373 Y96.604 E8.89567
G1 X83.373 Y97.151 E8.92048
G1 X84.542 Y98.320 E8.99549
G1 X84.542 Y98.867 E9.02030
G1 X83.373 Y97.698 E9.09532
G1 X83.373 Y98.244 E9.12013
G1 X84.542 Y99.414 E9.19514
G1 X84.542 Y99.960 E9.21995
G1 X83.373 Y98.791 E9.29496
G1 X83.373 Y99.338 E9.31977
G1 X84.542 Y100.507 E9.39479
G1 X84.542 Y101.054 E9.41960
G1 X83.373 Y99.885 E9.49461
G1 X83.373 Y100.432 E9.51942
G1 X84.542 Y101.601 E9.59443
G1 X84.542 Y102.148 E9.61924
G1 X83.373 Y100.978 E9.69426
G1 X83.373 Y101.525 E9.71907
G1 X84.542 Y102.694 E9.79408
G1 X84.542 Y103.241 E9.81889
G1 X83.373 Y102.072 E9.89390
G1 X83.373 Y102.619 E9.91871
G1 X84.542 Y103.788 E9.99373
G1 X84.542 Y104.335 E10.01854
G1 X83.373 Y103.166 E10.09355
G1 X83.373 Y103.713 E10.11836
G1 X84.542 Y104.882 E10.19338
G1 X84.542 Y105.428 E10.21818
G1 X83.373 Y104.259 E10.29320
G1 X83.373 Y104.806 E10.31801
G1 X84.542 Y105.975 E10.39302
G1 X84.460 Y106.440 E10.41443
G1 X85.217 Y107.197 E10.46301
G1 X85.764 Y107.197 E10.48782
G1 X85.007 Y106.440 E10.53640
G1 X84.542 Y106.522 E10.55781
G1 X83.373 Y105.353 E10.63282
G1 X83.373 Y105.900 E10.65763
G1 X84.670 Y107.197 E10.74086
G1 X84.123 Y107.197 E10.76567
G1 X83.373 Y106.447 E10.81382
G1 X83.373 Y106.993 E10.83863
G1 X83.577 Y107.197 E10.85169
M106 S255
G92 E0
G1 Z0.600 F7800.000
G1 X115.863 Y104.003 F7800.000
G1 X114.993 Y105.143 E0.42993 F600.000
G1 X114.611 Y105.556 E0.59836
G1 X114.379 Y105.755 E0.68994
G1 X113.838 Y106.138 E0.88840
G1 X113.482 Y106.326 E1.00906
G1 X112.872 Y106.582 E1.20743
G1 X112.324 Y106.740 E1.37822
G1 X111.651 Y106.879 E1.58430
G1 X111.371 Y106.916 E1.66885
G1 X110.196 Y106.991 E2.02148
G1 X110.034 Y106.982 E2.07023
G1 X108.407 Y106.811 E2.56036
G1 X108.183 Y106.772 E2.62851
G1 X106.825 Y106.264 E3.06302
G1 X106.569 Y106.143 E3.14797
G1 X105.471 Y105.289 E3.56478
G1 X105.277 Y105.114 E3.64303
G1 X104.447 Y103.897 E4.08442
G1 X104.379 Y103.789 E4.12262
G1 X104.327 Y103.650 E4.16695
G1 X103.825 Y102.126 E4.64788
G1 X103.636 Y100.156 E5.24098
G1 X103.633 Y99.968 E5.29712
G1 X103.736 Y98.670 E5.68749
G1 X103.859 Y97.955 E5.90469
G1 X104.002 Y97.430 E6.06773
G1 X104.408 Y96.325 E6.42053
G1 X105.006 Y95.395 E6.75200
G1 X105.347 Y94.969 E6.91539
G1 X105.717 Y94.598 E7.07249
G1 X106.596 Y93.936 E7.40216
G1 X106.944 Y93.748 E7.52064
G1 X107.657 Y93.450 E7.75227
G1 X108.557 Y93.182 E8.03358
G1 X108.880 Y93.127 E8.13175
G1 X110.282 Y93.001 E8.55369
G1 X111.388 Y93.063 E8.88546
G1 X112.319 Y93.214 E9.16812
G1 X112.689 Y93.296 E9.28158
G1 X113.303 Y93.480 E9.47384
G1 X113.786 Y93.653 E9.62751
G1 X114.319 Y93.893 E9.80268
G1 X114.784 Y94.136 E9.95988
G1 X115.030 Y94.288 E10.04643
G1 X115.756 Y94.823 E10.31674
G1 X116.094 Y95.201 E10.46870
G1 X116.124 Y95.536 E10.56953
G1 X116.124 Y98.297 E11.39686
G1 X116.008 Y98.962 E11.59915
G1 X111.469 Y99.164 E12.96047
G1 X117.078 Y99.164 E14.64104
G92 E0
G1 X117.215 Y92.426 F7800.000
G1 X108.513 Y91.226 F7800.000
G1 X102.246 Y92.869 F7800.000
G1 X99.300 Y94.538 F7800.000
G1 X99.306 Y95.779 F7800.000
G1 X95.687 Y97.265 F7800.000
G1 X84.031 Y93.461 F7800.000
G1 X84.993 Y93.181 E0.30026 F600.000
G1 X88.469 Y93.183 E1.34183
G1 X89.548 Y93.258 E1.66578
G1 X89.931 Y93.314 E1.78194
G1 X90.681 Y93.498 E2.01328
G1 X91.079 Y93.627 E2.13872
G1 X91.744 Y93.926 E2.35724
G1 X92.096 Y94.118 E2.47721
G1 X92.705 Y94.547 E2.70057
G1 X92.967 Y94.762 E2.80222
G1 X93.686 Y95.547 E3.12097
G1 X94.269 Y96.488 E3.45263
G1 X94.701 Y97.575 E3.80315
G1 X94.965 Y98.794 E4.17696
G1 X95.054 Y100.137 E4.58030
G1 X94.850 Y102.128 E5.17988
G1 X94.268 Y103.711 E5.68535
G1 X94.111 Y103.947 E5.77030
G1 X93.314 Y104.976 E6.16011
G1 X92.983 Y105.257 E6.29026
G1 X91.972 Y105.948 E6.65726
G1 X91.764 Y106.052 E6.72691
G1 X91.532 Y106.147 E6.80219
G1 X90.204 Y106.582 E7.22074
G1 X89.830 Y106.649 E7.33464
G1 X87.946 Y106.818 E7.90158
G1 X84.993 Y106.818 E8.78630
G1 X84.031 Y106.539 E9.08656
G1 X83.958 Y105.989 E9.25292
G1 X83.958 Y94.011 E12.84208
G1 X84.031 Y93.461 E13.00845
G92 E0
G1 Z0.900 F7800.000
G1 X115.863 Y104.003 F7800.000
G1 X114.993 Y105.143 E0.42993 F600.000
G1 X114.611 Y105.556 E0.59836
G1 X114.379 Y105.755 E0.68994
G1 X113.838 Y106.138 E0.88840
G1 X113.482 Y106.326 E1.00906
G1 X112.872 Y106.582 E1.20743
G1 X112.324 Y106.740 E1.37822
G1 X111.651 Y106.879 E1.58430
G1 X111.371 Y106.916 E1.66885
G1 X110.196 Y106.991 E2.02148
G1 X110.034 Y106.982 E2.07023
