; generated by Slic3r 1.2.9 on 2016-03-11 at 01:23:32

; external perimeters extrusion width = 1.54mm
; perimeters extrusion width = 2.62mm
; infill extrusion width = 6.27mm
; solid infill extrusion width = 2.62mm
; top infill extrusion width = 2.62mm

M107
M104 S30 ; set temperature
G28 ; home all axes
G1 Z5 F5000 ; lift nozzle
M302
M92 E10000
M500
M501
G1 E100
M109 S30 ; wait for temperature to be reached
G21 ; set units to millimeters
G90 ; use absolute coordinates
M82 ; use absolute distances for extrusion
G92 E0
G1 Z0.300 F7800.000
G1 X109.477 Y100.449 F7800.000
G1 X109.477 Y92.577 E0.35619 F378.000
G1 X111.099 Y92.577 E0.42958
G1 X111.099 Y107.423 E1.10135
G1 X109.477 Y107.423 E1.17475 F378.000
G1 X109.477 Y100.680 E1.47988
G1 X109.907 Y107.197 F7800.000
G1 X109.703 Y106.993 E1.49329 F540.000
G1 X109.703 Y106.432 E1.51944
G1 X110.468 Y107.197 E1.56983
G1 X110.873 Y107.041 E1.59005
G1 X109.703 Y105.871 E1.66713
G1 X109.703 Y105.309 E1.69327
G1 X110.873 Y106.479 E1.77035
G1 X110.873 Y105.918 E1.79650
G1 X109.703 Y104.748 E1.87358
G1 X109.703 Y104.187 E1.89972
G1 X110.873 Y105.357 E1.97680
G1 X110.873 Y104.795 E2.00295
G1 X109.703 Y103.625 E2.08002
G1 X109.703 Y103.064 E2.10617
G1 X110.873 Y104.234 E2.18325
G1 X110.873 Y103.673 E2.20940
G1 X109.703 Y102.502 E2.28647
G1 X109.703 Y101.941 E2.31262
G1 X110.873 Y103.111 E2.38970
G1 X110.873 Y102.550 E2.41585
G1 X109.703 Y101.380 E2.49292
G1 X109.703 Y100.818 E2.51907
G1 X110.873 Y101.988 E2.59615
G1 X110.873 Y101.427 E2.62229
G1 X109.703 Y100.257 E2.69937
G1 X109.703 Y99.696 E2.72552
G1 X110.873 Y100.866 E2.80260
G1 X110.873 Y100.304 E2.82874
G1 X109.703 Y99.134 E2.90582
G1 X109.703 Y98.573 E2.93197
G1 X110.873 Y99.743 E3.00904
G1 X110.873 Y99.182 E3.03519
G1 X109.703 Y98.012 E3.11227
G1 X109.703 Y97.450 E3.13842
G1 X110.873 Y98.620 E3.21549
G1 X110.873 Y98.059 E3.24164
G1 X109.703 Y96.889 E3.31872
G1 X109.703 Y96.327 E3.34487
G1 X110.873 Y97.498 E3.42194
G1 X110.873 Y96.936 E3.44809
G1 X109.703 Y95.766 E3.52517
G1 X109.703 Y95.205 E3.55131
G1 X110.873 Y96.375 E3.62839
G1 X110.873 Y95.813 E3.65454
G1 X109.703 Y94.643 E3.73162
G1 X109.703 Y94.082 E3.75776
G1 X110.873 Y95.252 E3.83484
G1 X110.873 Y94.691 E3.86099
G1 X109.703 Y93.521 E3.93806
G1 X109.703 Y92.959 E3.96421
G1 X110.873 Y94.129 E4.04129
G1 X110.873 Y93.568 E4.06744
G1 X110.108 Y92.803 E4.11783
G1 X110.670 Y92.803 E4.14398
G1 X110.873 Y93.007 E4.15739
G92 E0
G1 X109.252 Y92.352 F7800.000
G1 X107.252 Y92.352 F7800.000
G1 X105.194 Y95.724 F7800.000
G1 X101.440 Y97.265 F7800.000
G1 X101.612 Y99.965 F7800.000
G1 X101.625 Y100.153 E0.00852 F378.000
G1 X101.395 Y102.317 E0.10702
G1 X100.714 Y104.105 E0.19358
G1 X99.583 Y105.532 E0.27597
G1 X98.033 Y106.578 E0.36058
G1 X96.086 Y107.210 E0.45318
G1 X93.726 Y107.423 E0.56040
G1 X88.901 Y107.423 E0.77876
G1 X88.901 Y92.577 E1.45053
G1 X94.391 Y92.577 E1.69898
G1 X95.696 Y92.673 E1.75818
G1 X95.784 Y92.680 E1.76217 F378.000
G1 X97.050 Y92.986 E1.82110
G1 X98.199 Y93.493 E1.87795
G1 X99.207 Y94.190 E1.93342
G1 X100.049 Y95.065 E1.98835
G1 X100.727 Y96.120 E2.04511
G1 X101.225 Y97.333 E2.10441
G1 X101.525 Y98.678 E2.16675
G1 X101.596 Y99.734 E2.21468
G1 X99.974 Y99.837 F7800.000
G1 X99.994 Y100.161 E2.22938 F378.000
G1 X99.817 Y101.954 E2.31090
G1 X99.275 Y103.459 E2.38326
G1 X98.366 Y104.660 E2.45144
G1 X97.115 Y105.529 E2.52036
G1 X95.554 Y106.045 E2.59475
G1 X93.703 Y106.214 E2.67887
G1 X90.522 Y106.214 E2.82282
G1 X90.522 Y93.786 E3.38518
G1 X94.168 Y93.786 E3.55018 F378.000
G1 X95.274 Y93.870 E3.60035
G1 X96.300 Y94.126 E3.64819
G1 X97.235 Y94.553 E3.69474
G1 X98.057 Y95.145 E3.74055
G1 X98.742 Y95.887 E3.78626
G1 X99.286 Y96.778 E3.83349
G1 X99.681 Y97.796 E3.88289
G1 X99.916 Y98.923 E3.93498
G1 X99.959 Y99.606 E3.96597
G1 X101.025 Y97.566 F7800.000
G1 X96.587 Y93.128 E4.25074 F540.000
G1 X95.866 Y92.954 E4.28438
G1 X97.118 Y94.206 E4.36469
G1 X97.466 Y93.460 F7800.000
G1 X100.663 Y96.658 E4.56987 F540.000
G1 X99.488 Y96.576 F7800.000
G1 X101.182 Y98.270 E4.67859 F540.000
G1 X101.311 Y98.945 E4.70978
G1 X99.834 Y97.468 E4.80456
G1 X100.014 Y98.195 E4.83854
G1 X101.350 Y99.532 E4.92431
G1 X101.390 Y100.119 E4.95099
G1 X100.145 Y98.873 E5.03091
G1 X100.182 Y99.457 E5.05745
G1 X101.355 Y100.630 E5.13275
G1 X101.303 Y101.125 E5.15531
G1 X100.218 Y100.040 E5.22488
G1 X100.176 Y100.544 E5.24783
G1 X101.250 Y101.619 E5.31678
G1 X101.198 Y102.113 E5.33934
G1 X100.126 Y101.042 E5.40809
G1 X100.077 Y101.539 E5.43077
G1 X101.089 Y102.552 E5.49573
G1 X100.938 Y102.948 E5.51495
G1 X100.009 Y102.018 E5.57458
G1 X99.865 Y102.421 E5.59397
G1 X100.788 Y103.344 E5.65320
G1 X100.637 Y103.739 E5.67242
G1 X99.720 Y102.823 E5.73124
G1 X99.575 Y103.225 E5.75063
G1 X100.462 Y104.112 E5.80753
G1 X100.220 Y104.417 E5.82519
G1 X99.408 Y103.604 E5.87734
G1 X99.172 Y103.915 E5.89505
G1 X99.979 Y104.722 E5.94680
G1 X99.737 Y105.027 E5.96446
G1 X98.937 Y104.227 E6.01581
G1 X98.701 Y104.538 E6.03352
G1 X99.486 Y105.323 E6.08391
G1 X99.183 Y105.567 E6.10155
G1 X98.453 Y104.836 E6.14844
G1 X98.130 Y105.061 E6.16626
G1 X98.857 Y105.787 E6.21290
G1 X98.530 Y106.008 E6.23077
G1 X97.807 Y105.285 E6.27717
G1 X97.484 Y105.509 E6.29500
G1 X98.204 Y106.228 E6.34116
G1 X97.851 Y106.422 E6.35944
G1 X97.159 Y105.730 E6.40383
G1 X96.748 Y105.866 E6.42346
G1 X97.438 Y106.556 E6.46774
G1 X97.025 Y106.690 E6.48743
G1 X96.337 Y106.001 E6.53159
G1 X95.926 Y106.137 E6.55122
G1 X96.612 Y106.824 E6.59526
G1 X96.199 Y106.958 E6.61495
G1 X95.510 Y106.269 E6.65917
G1 X95.009 Y106.314 E6.68199
G1 X95.718 Y107.023 E6.72747
G1 X95.217 Y107.068 E6.75031
G1 X94.508 Y106.360 E6.79576
G1 X94.007 Y106.406 E6.81859
G1 X94.715 Y107.114 E6.86400
G1 X94.214 Y107.159 E6.88685
G1 X93.494 Y106.440 E6.93299
G1 X92.948 Y106.440 E6.95780
G1 X93.705 Y107.197 E7.00638
G1 X93.158 Y107.197 E7.03119
G1 X92.401 Y106.440 E7.07977
G1 X91.854 Y106.440 E7.10458
G1 X92.611 Y107.197 E7.15316
G1 X92.064 Y107.197 E7.17797
G1 X91.307 Y106.440 E7.22655
G1 X89.330 Y107.197 F7800.000
G1 X89.127 Y106.993 E7.23961 F540.000
G1 X89.127 Y106.447 E7.26442
G1 X89.877 Y107.197 E7.31257
G1 X90.424 Y107.197 E7.33738
G1 X89.127 Y105.900 E7.42061
G1 X89.127 Y105.353 E7.44542
G1 X90.296 Y106.522 E7.52043
G1 X90.760 Y106.440 E7.54184
G1 X91.517 Y107.197 E7.59042
G1 X90.971 Y107.197 E7.61523
G1 X90.214 Y106.440 E7.66381
G1 X90.296 Y105.975 E7.68522
G1 X89.127 Y104.806 E7.76023
G1 X89.127 Y104.259 E7.78504
G1 X90.296 Y105.428 E7.86006
G1 X90.296 Y104.882 E7.88487
G1 X89.127 Y103.713 E7.95988
G1 X89.127 Y103.166 E7.98469
G1 X90.296 Y104.335 E8.05970
G1 X90.296 Y103.788 E8.08451
G1 X89.127 Y102.619 E8.15953
G1 X89.127 Y102.072 E8.18434
G1 X90.296 Y103.241 E8.25935
G1 X90.296 Y102.694 E8.28416
G1 X89.127 Y101.525 E8.35917
G1 X89.127 Y100.978 E8.38398
G1 X90.296 Y102.148 E8.45900
G1 X90.296 Y101.601 E8.48381
G1 X89.127 Y100.432 E8.55882
G1 X89.127 Y99.885 E8.58363
G1 X90.296 Y101.054 E8.65864
G1 X90.296 Y100.507 E8.68345
G1 X89.127 Y99.338 E8.75847
G1 X89.127 Y98.791 E8.78328
G1 X90.296 Y99.960 E8.85829
G1 X90.296 Y99.414 E8.88310
G1 X89.127 Y98.244 E8.95811
G1 X89.127 Y97.698 E8.98292
G1 X90.296 Y98.867 E9.05794
G1 X90.296 Y98.320 E9.08275
G1 X89.127 Y97.151 E9.15776
G1 X89.127 Y96.604 E9.18257
G1 X90.296 Y97.773 E9.25758
G1 X90.296 Y97.226 E9.28239
G1 X89.127 Y96.057 E9.35741
G1 X89.127 Y95.510 E9.38222
G1 X90.296 Y96.679 E9.45723
G1 X90.296 Y96.133 E9.48204
G1 X89.127 Y94.964 E9.55705
G1 X89.127 Y94.417 E9.58186
G1 X90.296 Y95.586 E9.65688
G1 X90.296 Y95.039 E9.68169
G1 X89.127 Y93.870 E9.75670
G1 X89.127 Y93.323 E9.78151
G1 X90.296 Y94.492 E9.85653
G1 X90.296 Y93.945 E9.88133
G1 X89.160 Y92.810 E9.95421
G1 X89.700 Y92.803 E9.97872
G1 X90.457 Y93.560 E10.02730
G1 X91.004 Y93.560 E10.05211
G1 X90.247 Y92.803 E10.10068
G1 X90.794 Y92.803 E10.12549
G1 X91.551 Y93.560 E10.17407
G1 X92.098 Y93.560 E10.19888
G1 X91.341 Y92.803 E10.24746
G1 X91.887 Y92.803 E10.27227
G1 X92.644 Y93.560 E10.32085
G1 X93.191 Y93.560 E10.34566
G1 X92.434 Y92.803 E10.39424
G1 X92.981 Y92.803 E10.41904
G1 X93.738 Y93.560 E10.46762
G1 X94.287 Y93.562 E10.49252
G1 X93.528 Y92.803 E10.54122
G1 X94.075 Y92.803 E10.56603
G1 X94.879 Y93.607 E10.61762
G1 X95.486 Y93.667 E10.64530
G1 X94.647 Y92.829 E10.69909
G1 X95.238 Y92.872 E10.72595
G1 X96.214 Y93.849 E10.78860
G1 X98.833 Y94.281 F7800.000
G1 X99.817 Y95.264 E10.85170 F540.000
M106 S255
G92 E0
G1 Z0.600 F7800.000
G1 X110.288 Y107.648 F7800.000
G1 X110.288 Y92.352 E4.58339 F600.000
G92 E0
G1 X109.252 Y92.352 F7800.000
G1 X104.021 Y94.029 F7800.000
G1 X102.172 Y93.052 F7800.000
G1 X100.914 Y92.517 F7800.000
G1 X99.354 Y94.018 F7800.000
G1 X89.784 Y93.461 F7800.000
G1 X90.747 Y93.181 E0.30026 F600.000
G1 X94.223 Y93.183 E1.34183
G1 X95.301 Y93.258 E1.66578
G1 X95.685 Y93.314 E1.78194
G1 X96.435 Y93.498 E2.01328
G1 X96.833 Y93.627 E2.13873
G1 X97.498 Y93.926 E2.35724
G1 X97.849 Y94.118 E2.47721
G1 X98.459 Y94.547 E2.70057
G1 X98.721 Y94.762 E2.80222
G1 X99.440 Y95.547 E3.12097
G1 X100.022 Y96.488 E3.45263
G1 X100.454 Y97.575 E3.80315
G1 X100.718 Y98.794 E4.17696
G1 X100.808 Y100.137 E4.58030
G1 X100.603 Y102.128 E5.17988
G1 X100.021 Y103.711 E5.68535
G1 X99.864 Y103.947 E5.77030
G1 X99.068 Y104.976 E6.16011
G1 X98.737 Y105.257 E6.29026
G1 X97.726 Y105.948 E6.65726
G1 X97.518 Y106.052 E6.72691
G1 X97.285 Y106.147 E6.80219
G1 X95.958 Y106.582 E7.22074
G1 X95.584 Y106.649 E7.33464
G1 X93.699 Y106.818 E7.90158
G1 X90.747 Y106.818 E8.78630
G1 X89.784 Y106.539 E9.08656
G1 X89.711 Y105.989 E9.25292
G1 X89.711 Y94.011 E12.84209
G1 X89.784 Y93.461 E13.00845
G92 E0
G1 Z0.900 F7800.000
G1 X110.288 Y107.648 F7800.000
G1 X110.288 Y92.352 E4.58339 F600.000
G92 E0
G1 X109.252 Y92.352 F7800.000
G1 X104.021 Y94.029 F7800.000
G1 X102.172 Y93.052 F7800.000
G1 X100.914 Y92.517 F7800.000
G1 X99.354 Y94.018 F7800.000
G1 X89.784 Y93.461 F7800.000
G1 X90.747 Y93.181 E0.30026 F600.000
G1 X94.223 Y93.183 E1.34183
G1 X95.301 Y93.258 E1.66578
G1 X95.685 Y93.314 E1.78194
G1 X96.435 Y93.498 E2.01328
G1 X96.833 Y93.627 E2.13872
G1 X97.498 Y93.926 E2.35724
G1 X97.849 Y94.118 E2.47721
G1 X98.459 Y94.547 E2.70057
G1 X98.721 Y94.762 E2.80222
G1 X99.440 Y95.547 E3.12097
G1 X100.022 Y96.488 E3.45263
G1 X100.454 Y97.575 E3.80315
G1 X100.718 Y98.794 E4.17696
G1 X100.808 Y100.137 E4.58030
G1 X100.603 Y102.128 E5.17988
G1 X100.021 Y103.711 E5.68535
G1 X99.864 Y103.947 E5.77030
G1 X99.068 Y104.976 E6.16011
G1 X98.737 Y105.257 E6.29026
G1 X97.726 Y105.948 E6.65726
G1 X97.518 Y106.052 E6.72691
G1 X97.285 Y106.147 E6.80219
G1 X95.958 Y106.582 E7.22074
G1 X95.584 Y106.649 E7.33464
G1 X93.699 Y106.818 E7.90158
G1 X90.747 Y106.818 E8.78630
G1 X89.784 Y106.539 E9.08656
G1 X89.711 Y105.989 E9.25292
G1 X89.711 Y94.011 E12.84209
G1 X89.784 Y93.461 E13.00845
G92 E0
G1 Z1.200 F7800.000
G1 X110.288 Y107.648 F7800.000
G1 X110.288 Y92.352 E4.58339 F600.000
G92 E0
G1 X109.252 Y92.352 F7800.000
G1 X104.021 Y94.029 F7800.000
G1 X102.172 Y93.052 F7800.000
G1 X100.914 Y92.517 F7800.000
G1 X99.354 Y94.018 F7800.000
G1 X89.784 Y93.461 F7800.000
G1 X90.747 Y93.181 E0.30026 F600.000
G1 X94.223 Y93.183 E1.34183
G1 X95.301 Y93.258 E1.66579
G1 X95.685 Y93.314 E1.78194
G1 X96.435 Y93.498 E2.01328
G1 X96.833 Y93.627 E2.13872
G1 X97.498 Y93.926 E2.35724
G1 X97.849 Y94.118 E2.47721
G1 X98.459 Y94.547 E2.70057
G1 X98.721 Y94.762 E2.80221
G1 X99.440 Y95.547 E3.12097
G1 X100.022 Y96.488 E3.45263
G1 X100.454 Y97.575 E3.80315
G1 X100.718 Y98.794 E4.17696
G1 X100.808 Y100.137 E4.58030
G1 X100.603 Y102.128 E5.17988
G1 X100.021 Y103.711 E5.68535
G1 X99.864 Y103.947 E5.77030
G1 X99.068 Y104.976 E6.16011
G1 X98.737 Y105.257 E6.29026
G1 X97.726 Y105.948 E6.65726
G1 X97.518 Y106.052 E6.72691
G1 X97.285 Y106.147 E6.80219
G1 X95.958 Y106.582 E7.22074
G1 X95.584 Y106.649 E7.33464
G1 X93.699 Y106.818 E7.90158
G1 X90.747 Y106.818 E8.78630
G1 X89.784 Y106.539 E9.08656
G1 X89.711 Y105.989 E9.25292
G1 X89.711 Y94.011 E12.84209
G1 X89.784 Y93.461 E13.00845
G92 E0
G1 Z1.500 F7800.000
G1 X110.288 Y107.648 F7800.000
G1 X110.288 Y92.352 E4.58339 F600.000
G92 E0
G1 X109.252 Y92.352 F7800.000
G1 X104.021 Y94.029 F7800.000
G1 X102.172 Y93.052 F7800.000
G1 X100.914 Y92.517 F7800.000
G1 X99.354 Y94.018 F7800.000
G1 X89.784 Y93.461 F7800.000
G1 X90.747 Y93.181 E0.30026 F600.000
G1 X94.223 Y93.183 E1.34183
G1 X95.301 Y93.258 E1.66578
G1 X95.685 Y93.314 E1.78194
G1 X96.435 Y93.498 E2.01328
G1 X96.833 Y93.627 E2.13872
G1 X97.498 Y93.926 E2.35724
G1 X97.849 Y94.118 E2.47721
G1 X98.459 Y94.547 E2.70057
G1 X98.721 Y94.762 E2.80222
G1 X99.440 Y95.547 E3.12097
G1 X100.022 Y96.488 E3.45263
G1 X100.454 Y97.575 E3.80315
G1 X100.718 Y98.794 E4.17696
G1 X100.808 Y100.137 E4.58030
G1 X100.603 Y102.128 E5.17988
G1 X100.021 Y103.711 E5.68535
G1 X99.864 Y103.947 E5.77030
G1 X99.068 Y104.976 E6.16011
G1 X98.737 Y105.257 E6.29026
G1 X97.726 Y105.948 E6.65726
G1 X97.518 Y106.052 E6.72691
G1 X97.285 Y106.147 E6.80219
G1 X95.958 Y106.582 E7.22074
G1 X95.584 Y106.649 E7.33464
G1 X93.699 Y106.818 E7.90158
G1 X90.747 Y106.818 E8.78630
G1 X89.784 Y106.539 E9.08656
G1 X89.711 Y105.989 E9.25292
G1 X89.711 Y94.011 E12.84209
G1 X89.784 Y93.461 E13.00845
G92 E0
G1 Z1.800 F7800.000
G1 X110.288 Y107.648 F7800.000
G1 X110.288 Y92.352 E4.58339 F600.000
G92 E0
G1 X109.252 Y92.352 F7800.000
G1 X104.021 Y94.029 F7800.000
G1 X102.172 Y93.052 F7800.000
G1 X100.914 Y92.517 F7800.000
G1 X99.354 Y94.018 F7800.000
G1 X89.784 Y93.461 F7800.000
G1 X90.747 Y93.181 E0.30026 F600.000
G1 X94.223 Y93.183 E1.34183
G1 X95.301 Y93.258 E1.66578
G1 X95.685 Y93.314 E1.78194
G1 X96.435 Y93.498 E2.01328
G1 X96.833 Y93.627 E2.13872
G1 X97.498 Y93.926 E2.35724
G1 X97.849 Y94.118 E2.47721
G1 X98.459 Y94.547 E2.70057
G1 X98.721 Y94.762 E2.80222
G1 X99.440 Y95.547 E3.12097
G1 X100.022 Y96.488 E3.45263
G1 X100.454 Y97.575 E3.80315
G1 X100.718 Y98.794 E4.17696
G1 X100.808 Y100.137 E4.58030
G1 X100.603 Y102.128 E5.17988
G1 X100.021 Y103.711 E5.68535
G1 X99.864 Y103.947 E5.77030
G1 X99.068 Y104.976 E6.16011
G1 X98.737 Y105.257 E6.29026
G1 X97.726 Y105.948 E6.65726
G1 X97.518 Y106.052 E6.72691
G1 X97.285 Y106.147 E6.80219
G1 X95.958 Y106.582 E7.22074
G1 X95.584 Y106.649 E7.33464
G1 X93.699 Y106.818 E7.90158
G1 X90.747 Y106.818 E8.78630
G1 X89.784 Y106.539 E9.08656
G1 X89.711 Y105.989 E9.25292
G1 X89.711 Y94.011 E12.84209
G1 X89.784 Y93.461 E13.00845
G92 E0
G1 Z2.100 F7800.000
G1 X110.288 Y107.648 F7800.000
G1 X110.288 Y92.352 E4.58339 F600.000
G92 E0
G1 X109.252 Y92.352 F7800.000
G1 X104.021 Y94.029 F7800.000
G1 X102.172 Y93.052 F7800.000
G1 X100.914 Y92.517 F7800.000
G1 X99.354 Y94.018 F7800.000
G1 X89.784 Y93.461 F7800.000
G1 X90.747 Y93.182 E0.30028 F600.000
G1 X94.223 Y93.184 E1.34182
G1 X95.301 Y93.258 E1.66578
G1 X95.685 Y93.314 E1.78194
G1 X96.435 Y93.498 E2.01327
G1 X96.833 Y93.627 E2.13872
G1 X97.498 Y93.926 E2.35724
G1 X97.849 Y94.118 E2.47721
G1 X98.459 Y94.547 E2.70057
G1 X98.721 Y94.762 E2.80221
G1 X99.440 Y95.547 E3.12097
G1 X100.022 Y96.488 E3.45263
G1 X100.454 Y97.575 E3.80315
G1 X100.718 Y98.794 E4.17696
G1 X100.808 Y100.137 E4.58030
G1 X100.603 Y102.128 E5.17987
G1 X100.021 Y103.711 E5.68535
G1 X99.864 Y103.947 E5.77030
G1 X99.068 Y104.976 E6.16011
G1 X98.737 Y105.257 E6.29026
G1 X97.726 Y105.948 E6.65725
G1 X97.518 Y106.052 E6.72691
G1 X97.285 Y106.147 E6.80219
G1 X95.958 Y106.582 E7.22074
G1 X95.584 Y106.649 E7.33464
G1 X93.699 Y106.818 E7.90157
G1 X90.747 Y106.818 E8.78630
G1 X89.784 Y106.539 E9.08656
G1 X89.711 Y105.989 E9.25292
G1 X89.711 Y94.011 E12.84208
G1 X89.784 Y93.461 E13.00833
G92 E0
M107
M104 S0 ; turn off temperature
G28 X0  ; home X axis
M84     ; disable motors

; filament used = 120.6mm (0.9cm3)

; avoid_crossing_perimeters = 1
; bed_shape = 0x0,250x0,250x250,0x250
; bed_temperature = 0
; before_layer_gcode = 
; bridge_acceleration = 0
; bridge_fan_speed = 100
; brim_width = 0
; complete_objects = 0
; cooling = 1
; default_acceleration = 0
; disable_fan_first_layers = 1
; duplicate_distance = 6
; end_gcode = M104 S0 ; turn off temperature\nG28 X0  ; home X axis\nM84     ; disable motors\n
; extruder_clearance_height = 20
; extruder_clearance_radius = 20
