; generated by Slic3r 1.2.9 on 2016-03-11 at 01:23:33

; external perimeters extrusion width = 1.54mm
; perimeters extrusion width = 2.62mm
; infill extrusion width = 6.27mm
; solid infill extrusion width = 2.62mm
; top infill extrusion width = 2.62mm

M107
M104 S30 ; set temperature
G28 ; home all axes
G1 Z5 F5000 ; lift nozzle
M302
M92 E10000
M500
M501
G1 E100
M109 S30 ; wait for temperature to be reached
G21 ; set units to millimeters
G90 ; use absolute coordinates
M82 ; use absolute distances for extrusion
G92 E0
G1 Z0.300 F7800.000
G1 X113.784 Y98.866 F7800.000
G1 X113.784 Y107.519 E0.39155 F378.000
G1 X109.221 Y107.519 E0.59802
G1 X109.221 Y106.277 E0.65422
G1 X112.173 Y106.277 E0.78780
G1 X112.173 Y96.973 E1.20879
G1 X112.098 Y96.025 E1.25183
G1 X111.866 Y95.217 E1.28986
G1 X111.469 Y94.566 E1.32438
G1 X110.927 Y94.089 E1.35702
G1 X110.269 Y93.804 E1.38948
G1 X109.508 Y93.710 E1.42420
G1 X108.798 Y93.796 E1.45652
G1 X108.167 Y94.055 E1.48742
G1 X107.622 Y94.484 E1.51879
G1 X107.187 Y95.060 E1.55145
G1 X106.873 Y95.757 E1.58605
G1 X106.732 Y96.352 E1.61370
G1 X105.181 Y96.095 E1.68483
G1 X105.903 Y94.173 E1.77770
G1 X107.355 Y92.911 E1.86477
G1 X109.506 Y92.483 E1.96402
G1 X110.675 Y92.611 E2.01720
G1 X110.743 Y92.618 E2.02031 F378.000
G1 X111.786 Y93.020 E2.07090
G1 X112.637 Y93.686 E2.11979
G1 X113.271 Y94.587 E2.16964
G1 X113.654 Y95.697 E2.22279
G1 X113.784 Y97.036 E2.28365
G1 X113.784 Y98.635 E2.35600
G1 X112.166 Y95.351 F7800.000
G1 X113.516 Y96.701 E2.44410 F540.000
G1 X113.558 Y97.299 E2.47176
G1 X112.336 Y96.077 E2.55154
G1 X112.384 Y96.680 E2.57949
G1 X113.558 Y97.855 E2.65614
G1 X113.558 Y98.411 E2.68180
G1 X112.399 Y97.252 E2.75742
G1 X112.399 Y97.808 E2.78308
G1 X113.558 Y98.967 E2.85871
G1 X113.558 Y99.523 E2.88436
G1 X112.399 Y98.364 E2.95999
G1 X112.399 Y98.920 E2.98565
G1 X113.558 Y100.079 E3.06128
G1 X113.558 Y100.636 E3.08693
G1 X112.399 Y99.476 E3.16256
G1 X112.399 Y100.033 E3.18821
G1 X113.558 Y101.192 E3.26384
G1 X113.558 Y101.748 E3.28950
G1 X112.399 Y100.589 E3.36513
G1 X112.399 Y101.145 E3.39078
G1 X113.558 Y102.304 E3.46641
G1 X113.558 Y102.860 E3.49206
G1 X112.399 Y101.701 E3.56769
G1 X112.399 Y102.257 E3.59335
G1 X113.558 Y103.416 E3.66898
G1 X113.558 Y103.972 E3.69463
G1 X112.399 Y102.813 E3.77026
G1 X112.399 Y103.369 E3.79591
G1 X113.558 Y104.528 E3.87154
G1 X113.558 Y105.084 E3.89720
G1 X112.399 Y103.925 E3.97283
G1 X112.399 Y104.481 E3.99848
G1 X113.558 Y105.640 E4.07411
G1 X113.558 Y106.196 E4.09976
G1 X112.399 Y105.037 E4.17539
G1 X112.399 Y105.593 E4.20105
G1 X113.558 Y106.752 E4.27668
G1 X113.531 Y107.281 E4.30109
G1 X112.399 Y106.149 E4.37492
G1 X112.197 Y106.503 F7800.000
G1 X112.987 Y107.293 E4.42647 F540.000
G1 X112.431 Y107.293 E4.45213
G1 X111.641 Y106.503 E4.50368
G1 X111.085 Y106.503 E4.52934
G1 X111.875 Y107.293 E4.58089
G1 X111.319 Y107.293 E4.60654
G1 X110.529 Y106.503 E4.65810
G1 X109.973 Y106.503 E4.68375
G1 X110.763 Y107.293 E4.73530
G1 X110.207 Y107.293 E4.76096
G1 X109.447 Y106.533 E4.81052
G1 X109.447 Y107.089 E4.83618
G1 X109.651 Y107.293 E4.84946
G92 E0
G1 X112.948 Y96.942 F7800.000
G1 X112.879 Y95.884 F7800.000
G1 X112.876 Y95.867 F7800.000
G1 X112.691 Y95.283 F7800.000
G1 X106.155 Y96.012 F7800.000
G1 X105.627 Y95.484 E0.03447 F540.000
G1 X105.778 Y95.080 E0.05439
G1 X106.619 Y95.921 E0.10927
G1 X106.765 Y95.511 E0.12935
G1 X105.930 Y94.676 E0.18385
G1 X106.097 Y94.286 E0.20339
G1 X106.938 Y95.127 E0.25826
G1 X107.152 Y94.785 E0.27687
G1 X106.380 Y94.013 E0.32724
G1 X106.678 Y93.755 E0.34543
G1 X107.392 Y94.469 E0.39202
G1 X107.675 Y94.197 E0.41017
G1 X106.975 Y93.496 E0.45586
G1 X107.273 Y93.238 E0.47405
G1 X107.986 Y93.951 E0.52060
G1 X108.352 Y93.761 E0.53963
G1 X107.658 Y93.067 E0.58494
G1 X108.122 Y92.975 E0.60676
G1 X108.747 Y93.600 E0.64755
G1 X109.229 Y93.526 E0.67005
G1 X108.585 Y92.882 E0.71202
G1 X109.049 Y92.790 E0.73384
G1 X109.762 Y93.503 E0.78038
G1 X110.396 Y93.581 E0.80984
G1 X109.539 Y92.724 E0.86578
G1 X110.163 Y92.791 E0.89474
G1 X113.456 Y96.085 E1.10963
G1 X113.254 Y95.327 E1.14585
G1 X110.876 Y92.949 E1.30102
G1 X112.199 Y93.715 F7800.000
G1 X112.561 Y94.078 E1.32467 F540.000
G92 E0
G1 X107.253 Y92.702 F7800.000
G1 X101.588 Y94.739 F7800.000
G1 X102.197 Y98.043 F7800.000
G1 X103.216 Y99.978 F7800.000
G1 X99.166 Y100.253 F7800.000
G1 X95.023 Y106.779 F7800.000
G1 X93.401 Y107.306 E0.07713 F378.000
G1 X91.041 Y107.519 E0.18435
G1 X86.216 Y107.519 E0.40272
G1 X86.216 Y92.673 E1.07449
G1 X91.706 Y92.673 E1.32294
G1 X92.965 Y92.766 E1.38004
G1 X93.099 Y92.776 E1.38613 F378.000
G1 X94.365 Y93.082 E1.44506
G1 X95.514 Y93.589 E1.50191
G1 X96.522 Y94.286 E1.55737
G1 X97.364 Y95.161 E1.61230
G1 X98.042 Y96.216 E1.66907
G1 X98.540 Y97.429 E1.72836
G1 X98.840 Y98.774 E1.79071
G1 X98.940 Y100.249 E1.85761
G1 X98.710 Y102.413 E1.95611
G1 X98.029 Y104.201 E2.04267
G1 X96.898 Y105.628 E2.12506
G1 X95.348 Y106.674 E2.20968
G1 X95.242 Y106.708 E2.21468
G1 X94.471 Y105.596 F7800.000
G1 X94.430 Y105.625 E2.21694 F378.000
G1 X92.869 Y106.141 E2.29133
G1 X91.018 Y106.310 E2.37545
G1 X87.837 Y106.310 E2.51940
G1 X87.837 Y93.882 E3.08176
G1 X91.483 Y93.882 E3.24676 F378.000
G1 X92.589 Y93.966 E3.29693
G1 X93.615 Y94.222 E3.34477
G1 X94.550 Y94.649 E3.39132
G1 X95.372 Y95.241 E3.43713
G1 X96.057 Y95.983 E3.48283
G1 X96.601 Y96.874 E3.53006
G1 X96.996 Y97.892 E3.57947
G1 X97.231 Y99.019 E3.63156
G1 X97.309 Y100.257 E3.68770
G1 X97.132 Y102.050 E3.76923
G1 X96.590 Y103.555 E3.84158
G1 X95.681 Y104.756 E3.90976
G1 X94.661 Y105.465 E3.96597
G92 E0
G1 X87.062 Y106.744 F7800.000
G1 X87.062 Y106.744 F7800.000
G1 X88.622 Y106.536 F7800.000
G1 X89.379 Y107.293 E0.04858 F540.000
G1 X89.926 Y107.293 E0.07339
G1 X89.169 Y106.536 E0.12197
G1 X89.716 Y106.536 E0.14678
G1 X90.473 Y107.293 E0.19535
G1 X91.020 Y107.293 E0.22016
G1 X90.263 Y106.536 E0.26874
G1 X90.809 Y106.536 E0.29355
G1 X91.529 Y107.255 E0.33970
G1 X92.030 Y107.210 E0.36254
G1 X91.322 Y106.502 E0.40796
G1 X91.823 Y106.456 E0.43079
G1 X92.532 Y107.164 E0.47623
G1 X93.033 Y107.119 E0.49908
G1 X92.324 Y106.410 E0.54455
G1 X92.825 Y106.365 E0.56738
G1 X93.514 Y107.054 E0.61159
G1 X93.927 Y106.920 E0.63128
G1 X93.241 Y106.233 E0.67532
G1 X93.652 Y106.097 E0.69496
G1 X94.340 Y106.786 E0.73912
G1 X94.753 Y106.652 E0.75881
G1 X94.063 Y105.962 E0.80308
G1 X94.474 Y105.826 E0.82272
G1 X95.166 Y106.518 E0.86711
G1 X95.519 Y106.324 E0.88539
G1 X94.799 Y105.605 E0.93154
G1 X95.122 Y105.381 E0.94937
G1 X95.845 Y106.104 E0.99577
G1 X96.172 Y105.883 E1.01364
G1 X95.445 Y105.157 E1.06028
G1 X95.768 Y104.932 E1.07811
G1 X96.498 Y105.663 E1.12499
G1 X96.801 Y105.419 E1.14264
G1 X96.016 Y104.634 E1.19303
G1 X96.252 Y104.323 E1.21074
G1 X97.052 Y105.123 E1.26209
G1 X97.294 Y104.818 E1.27975
G1 X96.487 Y104.011 E1.33150
G1 X96.723 Y103.700 E1.34921
G1 X97.535 Y104.513 E1.40136
G1 X97.777 Y104.208 E1.41902
G1 X96.890 Y103.321 E1.47592
G1 X97.035 Y102.919 E1.49531
G1 X97.952 Y103.835 E1.55413
G1 X98.103 Y103.440 E1.57335
G1 X97.180 Y102.517 E1.63257
G1 X97.324 Y102.114 E1.65196
G1 X98.253 Y103.044 E1.71159
G1 X98.404 Y102.648 E1.73081
G1 X97.392 Y101.635 E1.79578
G1 X97.441 Y101.138 E1.81846
G1 X98.513 Y102.209 E1.88721
G1 X98.565 Y101.715 E1.90977
G1 X97.491 Y100.640 E1.97872
G1 X97.533 Y100.136 E2.00167
G1 X98.618 Y101.221 E2.07124
G1 X98.670 Y100.726 E2.09379
G1 X97.497 Y99.553 E2.16910
G1 X97.460 Y98.969 E2.19563
G1 X98.705 Y100.215 E2.27556
G1 X98.665 Y99.628 E2.30223
G1 X97.329 Y98.291 E2.38801
G1 X97.149 Y97.564 E2.42199
G1 X98.626 Y99.041 E2.51677
G1 X98.497 Y98.366 E2.54796
G1 X96.803 Y96.672 E2.65668
G1 X97.978 Y96.754 F7800.000
G1 X94.781 Y93.556 E2.86186 F540.000
G1 X94.433 Y94.302 F7800.000
G1 X93.181 Y93.050 E2.94216 F540.000
G1 X93.902 Y93.224 E2.97581
G1 X98.340 Y97.662 E3.26057
G1 X97.132 Y95.360 F7800.000
G1 X96.148 Y94.377 E3.32367 F540.000
G1 X93.529 Y93.945 F7800.000
G1 X92.553 Y92.968 E3.38631 F540.000
G1 X91.962 Y92.925 E3.41317
G1 X92.801 Y93.763 E3.46697
G1 X92.194 Y93.703 E3.49465
G1 X91.390 Y92.899 E3.54624
G1 X90.843 Y92.899 E3.57105
G1 X91.602 Y93.658 E3.61975
G1 X91.053 Y93.656 E3.64464
G1 X90.296 Y92.899 E3.69322
G1 X89.749 Y92.899 E3.71803
G1 X90.506 Y93.656 E3.76661
G1 X89.959 Y93.656 E3.79142
G1 X89.202 Y92.899 E3.84000
G1 X88.656 Y92.899 E3.86481
G1 X89.413 Y93.656 E3.91338
G1 X88.866 Y93.656 E3.93819
G1 X88.109 Y92.899 E3.98677
G1 X87.562 Y92.899 E4.01158
G1 X88.319 Y93.656 E4.06016
G1 X87.772 Y93.656 E4.08497
G1 X87.015 Y92.899 E4.13355
G1 X86.475 Y92.906 E4.15806
G1 X87.611 Y94.041 E4.23093
G1 X87.611 Y94.588 E4.25574
G1 X86.442 Y93.419 E4.33076
G1 X86.442 Y93.966 E4.35557
G1 X87.611 Y95.135 E4.43058
G1 X87.611 Y95.682 E4.45539
G1 X86.442 Y94.513 E4.53040
G1 X86.442 Y95.060 E4.55521
G1 X87.611 Y96.229 E4.63023
G1 X87.611 Y96.775 E4.65504
G1 X86.442 Y95.606 E4.73005
G1 X86.442 Y96.153 E4.75486
G1 X87.611 Y97.322 E4.82987
G1 X87.611 Y97.869 E4.85468
G1 X86.442 Y96.700 E4.92970
G1 X86.442 Y97.247 E4.95451
G1 X87.611 Y98.416 E5.02952
G1 X87.611 Y98.963 E5.05433
G1 X86.442 Y97.794 E5.12934
G1 X86.442 Y98.340 E5.15415
G1 X87.611 Y99.510 E5.22917
G1 X87.611 Y100.056 E5.25398
G1 X86.442 Y98.887 E5.32899
G1 X86.442 Y99.434 E5.35380
G1 X87.611 Y100.603 E5.42881
G1 X87.611 Y101.150 E5.45362
G1 X86.442 Y99.981 E5.52864
G1 X86.442 Y100.528 E5.55345
G1 X87.611 Y101.697 E5.62846
G1 X87.611 Y102.244 E5.65327
G1 X86.442 Y101.074 E5.72828
G1 X86.442 Y101.621 E5.75309
G1 X87.611 Y102.790 E5.82811
G1 X87.611 Y103.337 E5.85292
G1 X86.442 Y102.168 E5.92793
G1 X86.442 Y102.715 E5.95274
G1 X87.611 Y103.884 E6.02775
G1 X87.611 Y104.431 E6.05256
G1 X86.442 Y103.262 E6.12758
G1 X86.442 Y103.809 E6.15239
G1 X87.611 Y104.978 E6.22740
G1 X87.611 Y105.524 E6.25221
G1 X86.442 Y104.355 E6.32723
G1 X86.442 Y104.902 E6.35203
G1 X87.611 Y106.071 E6.42705
G1 X87.529 Y106.536 E6.44846
G1 X88.286 Y107.293 E6.49704
G1 X88.832 Y107.293 E6.52185
G1 X88.075 Y106.536 E6.57042
G1 X87.611 Y106.618 E6.59183
G1 X86.442 Y105.449 E6.66685
G1 X86.442 Y105.996 E6.69166
G1 X87.739 Y107.293 E6.77489
G1 X87.192 Y107.293 E6.79970
G1 X86.442 Y106.543 E6.84785
G1 X86.442 Y107.089 E6.87266
G1 X86.645 Y107.293 E6.88572
M106 S255
G92 E0
G1 Z0.600 F7800.000
G1 X105.805 Y96.426 F7800.000
G1 X106.554 Y94.626 E0.58426 F600.000
G1 X107.222 Y93.931 E0.87319
G1 X107.672 Y93.558 E1.04833
G1 X107.952 Y93.448 E1.13847
G1 X108.760 Y93.220 E1.38993
G1 X109.534 Y93.101 E1.62451
G1 X110.312 Y93.189 E1.85917
G1 X110.591 Y93.245 E1.94452
G1 X111.154 Y93.476 E2.12695
G1 X111.443 Y93.625 E2.22431
G1 X111.910 Y94.013 E2.40606
G1 X112.100 Y94.195 E2.48521
G1 X112.495 Y94.798 E2.70120
G1 X112.580 Y94.940 E2.75058
G1 X112.850 Y95.785 E3.01630
G1 X112.888 Y95.985 E3.07744
G1 X112.979 Y97.075 E3.40517
G1 X112.979 Y106.052 E6.09507
G1 X112.897 Y106.632 E6.27055
G1 X111.948 Y106.898 E6.56585
G1 X108.996 Y106.898 E7.45041
G92 E0
G1 X107.019 Y101.536 F7800.000
G1 X104.063 Y101.172 F7800.000
G1 X103.747 Y100.739 F7800.000
G1 X99.166 Y100.253 F7800.000
G1 X87.099 Y93.557 F7800.000
G1 X88.062 Y93.277 E0.30026 F600.000
G1 X91.538 Y93.279 E1.34183
G1 X92.616 Y93.354 E1.66578
G1 X93.000 Y93.410 E1.78194
G1 X93.750 Y93.594 E2.01328
G1 X94.148 Y93.723 E2.13872
G1 X94.813 Y94.022 E2.35724
G1 X95.164 Y94.214 E2.47721
G1 X95.774 Y94.643 E2.70057
G1 X96.036 Y94.858 E2.80222
G1 X96.755 Y95.643 E3.12097
G1 X97.337 Y96.584 E3.45263
G1 X97.769 Y97.671 E3.80315
G1 X98.033 Y98.890 E4.17696
G1 X98.123 Y100.233 E4.58030
G1 X97.918 Y102.224 E5.17988
G1 X97.336 Y103.807 E5.68535
G1 X97.179 Y104.043 E5.77030
G1 X96.383 Y105.072 E6.16011
G1 X96.052 Y105.353 E6.29026
G1 X95.041 Y106.044 E6.65726
G1 X94.833 Y106.148 E6.72691
G1 X94.600 Y106.243 E6.80219
G1 X93.273 Y106.678 E7.22074
G1 X92.899 Y106.745 E7.33464
G1 X91.014 Y106.914 E7.90158
G1 X88.062 Y106.914 E8.78630
G1 X87.099 Y106.635 E9.08656
G1 X87.026 Y106.085 E9.25292
G1 X87.026 Y94.107 E12.84208
G1 X87.099 Y93.557 E13.00845
G92 E0
G1 Z0.900 F7800.000
G1 X105.805 Y96.426 F7800.000
G1 X106.554 Y94.626 E0.58426 F600.000
G1 X107.222 Y93.931 E0.87319
G1 X107.672 Y93.558 E1.04833
G1 X107.952 Y93.448 E1.13847
G1 X108.760 Y93.220 E1.38993
G1 X109.534 Y93.101 E1.62451
G1 X110.312 Y93.189 E1.85917
G1 X110.591 Y93.245 E1.94452
G1 X111.154 Y93.476 E2.12695
G1 X111.443 Y93.625 E2.22432
G1 X111.910 Y94.013 E2.40606
G1 X112.100 Y94.195 E2.48521
G1 X112.495 Y94.798 E2.70120
G1 X112.580 Y94.940 E2.75058
G1 X112.850 Y95.785 E3.01630
G1 X112.888 Y95.985 E3.07744
G1 X112.979 Y97.075 E3.40517
G1 X112.979 Y106.052 E6.09507
G1 X112.897 Y106.632 E6.27055
G1 X111.948 Y106.898 E6.56585
G1 X108.996 Y106.898 E7.45041
G92 E0
G1 X107.019 Y101.536 F7800.000
G1 X104.063 Y101.172 F7800.000
G1 X103.747 Y100.739 F7800.000
G1 X99.166 Y100.253 F7800.000
G1 X87.099 Y93.557 F7800.000
G1 X88.062 Y93.277 E0.30026 F600.000
G1 X91.538 Y93.279 E1.34183
G1 X92.616 Y93.354 E1.66578
G1 X93.000 Y93.410 E1.78194
G1 X93.750 Y93.594 E2.01328
G1 X94.148 Y93.723 E2.13872
G1 X94.813 Y94.022 E2.35724
G1 X95.164 Y94.214 E2.47721
G1 X95.774 Y94.643 E2.70057
G1 X96.036 Y94.858 E2.80222
G1 X96.755 Y95.643 E3.12097
G1 X97.337 Y96.584 E3.45263
G1 X97.769 Y97.671 E3.80315
G1 X98.033 Y98.890 E4.17696
G1 X98.123 Y100.233 E4.58030
G1 X97.918 Y102.224 E5.17988
G1 X97.336 Y103.807 E5.68535
G1 X97.179 Y104.043 E5.77030
G1 X96.383 Y105.072 E6.16011
G1 X96.052 Y105.353 E6.29026
G1 X95.041 Y106.044 E6.65726
G1 X94.833 Y106.148 E6.72691
G1 X94.600 Y106.243 E6.80219
G1 X93.273 Y106.678 E7.22074
G1 X92.899 Y106.745 E7.33464
G1 X91.014 Y106.914 E7.90158
G1 X88.062 Y106.914 E8.78630
G1 X87.099 Y106.635 E9.08656
G1 X87.026 Y106.085 E9.25292
G1 X87.026 Y94.107 E12.84208
G1 X87.099 Y93.557 E13.00845
G92 E0
G1 Z1.200 F7800.000
G1 X105.805 Y96.426 F7800.000
G1 X106.554 Y94.626 E0.58426 F600.000
G1 X107.222 Y93.931 E0.87319
G1 X107.672 Y93.558 E1.04833
G1 X107.952 Y93.448 E1.13847
G1 X108.760 Y93.220 E1.38993
G1 X109.534 Y93.101 E1.62451
G1 X110.312 Y93.189 E1.85917
G1 X110.591 Y93.245 E1.94452
G1 X111.154 Y93.476 E2.12695
G1 X111.443 Y93.625 E2.22432
G1 X111.910 Y94.013 E2.40606
G1 X112.100 Y94.195 E2.48521
G1 X112.495 Y94.798 E2.70120
G1 X112.580 Y94.940 E2.75058
G1 X112.850 Y95.785 E3.01629
G1 X112.888 Y95.985 E3.07744
G1 X112.979 Y97.075 E3.40517
G1 X112.979 Y106.052 E6.09507
G1 X112.897 Y106.632 E6.27055
G1 X111.948 Y106.898 E6.56585
G1 X108.996 Y106.898 E7.45041
G92 E0
G1 X107.019 Y101.536 F7800.000
G1 X104.063 Y101.172 F7800.000
G1 X103.747 Y100.739 F7800.000
G1 X99.166 Y100.253 F7800.000
G1 X87.099 Y93.557 F7800.000
G1 X88.062 Y93.277 E0.30026 F600.000
G1 X91.538 Y93.279 E1.34183
G1 X92.616 Y93.354 E1.66578
G1 X93.000 Y93.410 E1.78194
G1 X93.750 Y93.594 E2.01328
G1 X94.148 Y93.723 E2.13872
G1 X94.813 Y94.022 E2.35724
G1 X95.164 Y94.214 E2.47721
G1 X95.774 Y94.643 E2.70057
G1 X96.036 Y94.858 E2.80221
G1 X96.755 Y95.643 E3.12097
G1 X97.337 Y96.584 E3.45263
G1 X97.769 Y97.671 E3.80315
G1 X98.033 Y98.890 E4.17696
G1 X98.123 Y100.233 E4.58030
G1 X97.918 Y102.224 E5.17988
G1 X97.336 Y103.807 E5.68535
G1 X97.179 Y104.043 E5.77030
G1 X96.383 Y105.072 E6.16011
G1 X96.052 Y105.353 E6.29026
G1 X95.041 Y106.044 E6.65726
G1 X94.833 Y106.148 E6.72691
G1 X94.600 Y106.243 E6.80219
G1 X93.273 Y106.678 E7.22074
G1 X92.899 Y106.745 E7.33464
G1 X91.014 Y106.914 E7.90158
G1 X88.062 Y106.914 E8.78630
G1 X87.099 Y106.635 E9.08656
G1 X87.026 Y106.085 E9.25292
G1 X87.026 Y94.107 E12.84208
G1 X87.099 Y93.557 E13.00845
G92 E0
G1 Z1.500 F7800.000
G1 X105.805 Y96.426 F7800.000
G1 X106.554 Y94.626 E0.58426 F600.000
G1 X107.222 Y93.931 E0.87319
G1 X107.672 Y93.558 E1.04833
G1 X107.952 Y93.448 E1.13847
G1 X108.760 Y93.220 E1.38993
G1 X109.534 Y93.101 E1.62451
G1 X110.312 Y93.189 E1.85917
G1 X110.591 Y93.245 E1.94452
G1 X111.154 Y93.476 E2.12695
G1 X111.443 Y93.625 E2.22432
G1 X111.910 Y94.013 E2.40606
G1 X112.100 Y94.195 E2.48521
G1 X112.495 Y94.798 E2.70120
G1 X112.580 Y94.940 E2.75058
G1 X112.850 Y95.785 E3.01629
G1 X112.888 Y95.985 E3.07744
G1 X112.979 Y97.075 E3.40517
G1 X112.979 Y106.052 E6.09507
G1 X112.897 Y106.632 E6.27055
G1 X111.948 Y106.898 E6.56585
G1 X108.996 Y106.898 E7.45041
G92 E0
