; generated by Slic3r 1.2.9 on 2016-03-11 at 01:23:34

; external perimeters extrusion width = 1.54mm
; perimeters extrusion width = 2.62mm
; infill extrusion width = 6.27mm
; solid infill extrusion width = 2.62mm
; top infill extrusion width = 2.62mm

M107
M104 S30 ; set temperature
G28 ; home all axes
G1 Z5 F5000 ; lift nozzle
M302
M92 E10000
M500
M501
G1 E100
M109 S30 ; wait for temperature to be reached
G21 ; set units to millimeters
G90 ; use absolute coordinates
M82 ; use absolute distances for extrusion
G92 E0
G1 Z0.300 F7800.000
G1 X104.043 Y105.557 F7800.000
G1 X104.043 Y92.577 E0.58736 F378.000
G1 X105.664 Y92.577 E0.66071
G1 X105.664 Y98.325 E0.92081
G1 X107.914 Y100.044 E1.04893 F378.000
G1 X114.071 Y92.577 E1.48688
G1 X116.049 Y92.577 E1.57634
G1 X108.872 Y101.015 E2.07756
G1 X115.135 Y107.423 E2.48302
G1 X113.325 Y107.423 E2.56489
G1 X105.664 Y99.424 E3.06608
G1 X105.664 Y107.423 E3.42804
G1 X104.043 Y107.423 E3.50139
G1 X104.043 Y105.788 E3.57535
G1 X104.269 Y106.993 F7800.000
G1 X104.473 Y107.197 E3.58876 F540.000
G1 X105.034 Y107.197 E3.61490
G1 X104.269 Y106.432 E3.66529
G1 X104.269 Y105.871 E3.69143
G1 X105.438 Y107.040 E3.76844
G1 X105.438 Y106.479 E3.79458
G1 X104.269 Y105.309 E3.87159
G1 X104.269 Y104.748 E3.89773
G1 X105.438 Y105.917 E3.97474
G1 X105.438 Y105.356 E4.00088
G1 X104.269 Y104.187 E4.07788
G1 X104.269 Y103.625 E4.10403
G1 X105.438 Y104.795 E4.18103
G1 X105.438 Y104.233 E4.20718
G1 X104.269 Y103.064 E4.28418
G1 X104.269 Y102.503 E4.31033
G1 X105.438 Y103.672 E4.38733
G1 X105.438 Y103.111 E4.41348
G1 X104.269 Y101.941 E4.49048
G1 X104.269 Y101.380 E4.51663
G1 X105.438 Y102.549 E4.59363
G1 X105.438 Y101.988 E4.61978
G1 X104.269 Y100.819 E4.69678
G1 X104.269 Y100.257 E4.72293
G1 X105.438 Y101.427 E4.79993
G1 X105.438 Y100.865 E4.82608
G1 X104.269 Y99.696 E4.90308
G1 X104.269 Y99.135 E4.92923
G1 X105.438 Y100.304 E5.00623
G1 X105.438 Y99.743 E5.03238
G1 X104.269 Y98.573 E5.10938
G1 X105.076 Y98.818 E5.14863
G1 X104.269 Y98.012 E5.20173
G1 X104.269 Y97.451 E5.22788
G1 X105.341 Y98.522 E5.29844
G1 X105.438 Y98.059 E5.32051
G1 X104.269 Y96.889 E5.39751
G1 X104.269 Y96.328 E5.42366
G1 X105.438 Y97.497 E5.50066
G1 X105.438 Y96.936 E5.52681
G1 X104.269 Y95.767 E5.60381
G1 X104.269 Y95.205 E5.62995
G1 X105.438 Y96.375 E5.70696
G1 X105.438 Y95.813 E5.73310
G1 X104.269 Y94.644 E5.81011
G1 X104.269 Y94.083 E5.83625
G1 X105.438 Y95.252 E5.91326
G1 X105.438 Y94.691 E5.93940
G1 X104.269 Y93.521 E6.01641
G1 X104.269 Y92.960 E6.04255
G1 X105.438 Y94.129 E6.11956
G1 X105.438 Y93.568 E6.14570
G1 X104.673 Y92.803 E6.19609
G1 X105.235 Y92.803 E6.22223
G1 X105.438 Y93.007 E6.23564
G1 X105.472 Y98.664 F7800.000
G1 X106.353 Y99.452 E6.35161 F540.000
G1 X106.507 Y99.583 F7800.000
G1 X114.121 Y107.197 E6.84651 F540.000
G1 X113.567 Y107.197 E6.87197
G1 X112.729 Y106.359 E6.92646
G1 X107.814 Y100.336 F7800.000
G1 X108.561 Y101.083 E6.97501 F540.000
G1 X108.816 Y100.784 E6.99307
G1 X108.124 Y100.092 E7.03802
G1 X108.375 Y99.789 E7.05611
G1 X109.070 Y100.484 E7.10133
G1 X109.325 Y100.185 E7.11939
G1 X108.625 Y99.485 E7.16489
G1 X108.875 Y99.181 E7.18298
G1 X109.579 Y99.886 E7.22876
G1 X109.834 Y99.586 E7.24682
G1 X109.126 Y98.878 E7.29288
G1 X109.376 Y98.574 E7.31097
G1 X110.089 Y99.287 E7.35730
G1 X110.343 Y98.988 E7.37536
G1 X109.626 Y98.271 E7.42197
G1 X109.877 Y97.967 E7.44006
G1 X110.598 Y98.688 E7.48695
G1 X110.853 Y98.389 E7.50501
G1 X110.127 Y97.663 E7.55217
G1 X110.377 Y97.360 E7.57026
G1 X111.107 Y98.090 E7.61770
G1 X111.362 Y97.790 E7.63576
G1 X110.628 Y97.056 E7.68348
G1 X110.878 Y96.753 E7.70157
G1 X111.616 Y97.491 E7.74956
G1 X111.871 Y97.192 E7.76763
G1 X111.128 Y96.449 E7.81590
G1 X111.379 Y96.145 E7.83399
G1 X112.126 Y96.892 E7.88253
G1 X112.380 Y96.593 E7.90060
G1 X111.629 Y95.842 E7.94942
G1 X111.879 Y95.538 E7.96751
G1 X112.635 Y96.294 E8.01661
G1 X112.889 Y95.994 E8.03468
G1 X112.130 Y95.235 E8.08406
G1 X112.380 Y94.931 E8.10214
G1 X113.144 Y95.695 E8.15180
G1 X113.399 Y95.396 E8.16987
G1 X112.630 Y94.627 E8.21980
G1 X112.881 Y94.324 E8.23789
G1 X113.653 Y95.096 E8.28810
G1 X113.908 Y94.797 E8.30616
G1 X113.131 Y94.020 E8.35665
G1 X113.381 Y93.716 E8.37474
G1 X114.162 Y94.497 E8.42550
G1 X114.417 Y94.198 E8.44357
G1 X113.632 Y93.413 E8.49461
G1 X113.882 Y93.109 E8.51270
G1 X114.672 Y93.899 E8.56402
G1 X114.926 Y93.599 E8.58208
G1 X114.133 Y92.806 E8.63368
G1 X114.684 Y92.803 E8.65901
G1 X115.181 Y93.300 E8.69133
G1 X115.238 Y92.803 E8.71433
G1 X115.436 Y93.001 E8.72718
G92 E0
G1 X107.878 Y99.734 F7800.000
G1 X107.889 Y92.352 F7800.000
G1 X101.818 Y92.352 F7800.000
G1 X100.174 Y98.398 F7800.000
G1 X100.219 Y100.537 F7800.000
G1 X100.101 Y102.762 F7800.000
G1 X96.405 Y102.370 F7800.000
G1 X88.578 Y107.417 F7800.000
G1 X83.690 Y107.423 E0.22122 F378.000
G1 X83.690 Y92.577 E0.89299
G1 X89.180 Y92.577 E1.14144
G1 X90.485 Y92.673 E1.20063
G1 X90.573 Y92.680 E1.20463 F378.000
G1 X91.839 Y92.986 E1.26355
G1 X92.988 Y93.493 E1.32041
G1 X93.996 Y94.190 E1.37587
G1 X94.838 Y95.065 E1.43080
G1 X95.516 Y96.120 E1.48756
G1 X96.014 Y97.333 E1.54686
G1 X96.314 Y98.678 E1.60921
G1 X96.414 Y100.153 E1.67611
G1 X96.184 Y102.317 E1.77461
G1 X95.503 Y104.105 E1.86117
G1 X94.372 Y105.532 E1.94356
G1 X92.822 Y106.578 E2.02817
G1 X90.875 Y107.210 E2.12077
G1 X88.809 Y107.396 E2.21467
G1 X88.699 Y106.195 F7800.000
G1 X88.492 Y106.214 E2.22407 F378.000
G1 X85.311 Y106.214 E2.36802
G1 X85.311 Y93.786 E2.93038
G1 X88.957 Y93.786 E3.09538 F378.000
G1 X90.063 Y93.870 E3.14555
G1 X91.089 Y94.126 E3.19339
G1 X92.024 Y94.553 E3.23994
G1 X92.846 Y95.145 E3.28575
G1 X93.531 Y95.887 E3.33146
G1 X94.075 Y96.778 E3.37868
G1 X94.470 Y97.796 E3.42809
G1 X94.705 Y98.923 E3.48018
G1 X94.783 Y100.161 E3.53632
G1 X94.606 Y101.954 E3.61785
G1 X94.064 Y103.459 E3.69020
G1 X93.155 Y104.660 E3.75838
G1 X91.904 Y105.529 E3.82731
G1 X90.343 Y106.045 E3.90169
G1 X88.929 Y106.174 E3.96596
G1 X86.096 Y106.440 F7800.000
G1 X86.853 Y107.197 E4.01454 F540.000
G1 X87.400 Y107.197 E4.03935
G1 X86.643 Y106.440 E4.08793
G1 X87.190 Y106.440 E4.11274
G1 X87.947 Y107.197 E4.16132
G1 X88.494 Y107.197 E4.18613
G1 X87.737 Y106.440 E4.23470
G1 X88.283 Y106.440 E4.25951
G1 X89.003 Y107.159 E4.30566
G1 X89.504 Y107.114 E4.32850
G1 X88.796 Y106.406 E4.37392
G1 X89.297 Y106.360 E4.39675
G1 X90.006 Y107.068 E4.44219
G1 X90.507 Y107.023 E4.46504
G1 X89.798 Y106.314 E4.51051
G1 X90.299 Y106.269 E4.53334
G1 X90.988 Y106.958 E4.57755
G1 X91.401 Y106.824 E4.59725
G1 X90.715 Y106.137 E4.64129
G1 X91.126 Y106.001 E4.66092
G1 X91.814 Y106.690 E4.70508
G1 X92.227 Y106.556 E4.72477
G1 X91.537 Y105.866 E4.76904
G1 X91.948 Y105.730 E4.78868
G1 X92.640 Y106.422 E4.83307
G1 X92.993 Y106.228 E4.85135
G1 X92.273 Y105.509 E4.89751
G1 X92.596 Y105.285 E4.91533
G1 X93.319 Y106.008 E4.96173
G1 X93.646 Y105.787 E4.97960
G1 X92.919 Y105.061 E5.02625
G1 X93.242 Y104.836 E5.04407
G1 X93.972 Y105.567 E5.09096
G1 X94.275 Y105.323 E5.10860
G1 X93.490 Y104.538 E5.15899
G1 X93.726 Y104.227 E5.17670
G1 X94.526 Y105.027 E5.22805
G1 X94.768 Y104.722 E5.24571
G1 X93.961 Y103.915 E5.29746
G1 X94.197 Y103.604 E5.31517
G1 X95.009 Y104.417 E5.36732
G1 X95.251 Y104.112 E5.38498
G1 X94.364 Y103.225 E5.44188
G1 X94.509 Y102.823 E5.46127
G1 X95.426 Y103.739 E5.52009
G1 X95.577 Y103.344 E5.53931
G1 X94.654 Y102.421 E5.59853
G1 X94.798 Y102.018 E5.61793
G1 X95.727 Y102.948 E5.67755
G1 X95.878 Y102.552 E5.69678
G1 X94.866 Y101.539 E5.76174
G1 X94.915 Y101.042 E5.78442
G1 X95.987 Y102.113 E5.85317
G1 X96.039 Y101.619 E5.87573
G1 X94.965 Y100.544 E5.94468
G1 X95.007 Y100.040 E5.96763
G1 X96.092 Y101.125 E6.03720
G1 X96.144 Y100.630 E6.05975
G1 X94.971 Y99.457 E6.13506
G1 X94.934 Y98.873 E6.16159
G1 X96.179 Y100.119 E6.24152
G1 X96.139 Y99.532 E6.26820
G1 X94.803 Y98.195 E6.35397
G1 X94.623 Y97.468 E6.38795
G1 X96.100 Y98.945 E6.48273
G1 X95.971 Y98.270 E6.51392
G1 X94.277 Y96.576 E6.62264
G1 X95.452 Y96.658 F7800.000
G1 X92.255 Y93.460 E6.82782 F540.000
G1 X91.907 Y94.206 F7800.000
G1 X90.655 Y92.954 E6.90813 F540.000
G1 X91.376 Y93.128 E6.94177
G1 X95.814 Y97.566 E7.22653
G1 X94.606 Y95.264 F7800.000
G1 X93.622 Y94.281 E7.28963 F540.000
G1 X91.003 Y93.849 F7800.000
G1 X90.027 Y92.872 E7.35227 F540.000
G1 X89.436 Y92.829 E7.37914
G1 X90.275 Y93.667 E7.43293
G1 X89.668 Y93.607 E7.46061
G1 X88.864 Y92.803 E7.51220
G1 X88.317 Y92.803 E7.53701
G1 X89.076 Y93.562 E7.58571
G1 X88.527 Y93.560 E7.61060
G1 X87.770 Y92.803 E7.65918
G1 X87.223 Y92.803 E7.68399
G1 X87.980 Y93.560 E7.73257
G1 X87.433 Y93.560 E7.75738
G1 X86.676 Y92.803 E7.80596
G1 X86.130 Y92.803 E7.83077
G1 X86.887 Y93.560 E7.87935
G1 X86.340 Y93.560 E7.90416
G1 X85.583 Y92.803 E7.95273
G1 X85.036 Y92.803 E7.97754
G1 X85.793 Y93.560 E8.02612
G1 X85.246 Y93.560 E8.05093
G1 X84.489 Y92.803 E8.09951
G1 X83.949 Y92.810 E8.12402
G1 X85.085 Y93.945 E8.19689
G1 X85.085 Y94.492 E8.22170
G1 X83.916 Y93.323 E8.29672
G1 X83.916 Y93.870 E8.32153
G1 X85.085 Y95.039 E8.39654
G1 X85.085 Y95.586 E8.42135
G1 X83.916 Y94.417 E8.49636
G1 X83.916 Y94.964 E8.52117
G1 X85.085 Y96.133 E8.59619
G1 X85.085 Y96.679 E8.62100
G1 X83.916 Y95.510 E8.69601
G1 X83.916 Y96.057 E8.72082
G1 X85.085 Y97.226 E8.79583
G1 X85.085 Y97.773 E8.82064
G1 X83.916 Y96.604 E8.89566
G1 X83.916 Y97.151 E8.92047
G1 X85.085 Y98.320 E8.99548
G1 X85.085 Y98.867 E9.02029
G1 X83.916 Y97.698 E9.09530
G1 X83.916 Y98.244 E9.12011
G1 X85.085 Y99.414 E9.19513
G1 X85.085 Y99.960 E9.21994
G1 X83.916 Y98.791 E9.29495
G1 X83.916 Y99.338 E9.31976
G1 X85.085 Y100.507 E9.39477
G1 X85.085 Y101.054 E9.41958
G1 X83.916 Y99.885 E9.49460
G1 X83.916 Y100.432 E9.51941
G1 X85.085 Y101.601 E9.59442
G1 X85.085 Y102.148 E9.61923
G1 X83.916 Y100.978 E9.69424
G1 X83.916 Y101.525 E9.71905
G1 X85.085 Y102.694 E9.79407
G1 X85.085 Y103.241 E9.81888
G1 X83.916 Y102.072 E9.89389
G1 X83.916 Y102.619 E9.91870
G1 X85.085 Y103.788 E9.99372
G1 X85.085 Y104.335 E10.01852
G1 X83.916 Y103.166 E10.09354
G1 X83.916 Y103.713 E10.11835
G1 X85.085 Y104.882 E10.19336
G1 X85.085 Y105.428 E10.21817
G1 X83.916 Y104.259 E10.29319
G1 X83.916 Y104.806 E10.31800
G1 X85.085 Y105.975 E10.39301
G1 X85.003 Y106.440 E10.41442
G1 X85.760 Y107.197 E10.46300
G1 X86.306 Y107.197 E10.48781
G1 X85.549 Y106.440 E10.53638
G1 X85.085 Y106.522 E10.55779
G1 X83.916 Y105.353 E10.63281
G1 X83.916 Y105.900 E10.65762
G1 X85.213 Y107.197 E10.74085
G1 X84.666 Y107.197 E10.76566
G1 X83.916 Y106.447 E10.81381
G1 X83.916 Y106.993 E10.83862
G1 X84.119 Y107.197 E10.85168
M106 S255
G92 E0
G1 Z0.600 F7800.000
G1 X115.242 Y92.352 F7800.000
G1 X108.577 Y100.310 E3.11048 F600.000
G1 X108.130 Y100.775 E3.30375
G1 X108.580 Y101.587 E3.58188
G1 X114.443 Y107.648 E6.10884
G92 E0
G1 X104.889 Y106.648 F7800.000
G1 X104.889 Y106.648 F7800.000
G1 X105.786 Y102.575 F7800.000
G1 X104.854 Y98.214 E1.33630 F600.000
G1 X104.854 Y92.352 E3.09283
G1 X104.854 Y107.648 F7800.000
G1 X104.854 Y99.984 E5.38932 F600.000
G1 X105.043 Y99.099 E5.66049
G1 X105.213 Y99.099 E5.71145
G1 X106.400 Y99.495 E6.08643
G1 X107.387 Y100.377 E6.48307
G1 X109.855 Y101.699 E7.32204
G92 E0
G1 X105.889 Y98.214 F7800.000
G1 X105.889 Y98.214 F7800.000
G1 X107.606 Y97.365 F7800.000
G1 X109.006 Y93.468 F7800.000
G1 X107.889 Y92.352 F7800.000
G1 X105.889 Y91.352 F7800.000
G1 X103.818 Y91.352 F7800.000
G1 X101.818 Y92.352 F7800.000
G1 X99.633 Y94.537 F7800.000
G1 X99.514 Y94.457 F7800.000
G1 X95.717 Y96.016 F7800.000
G1 X84.573 Y93.461 F7800.000
G1 X85.536 Y93.181 E0.30026 F600.000
G1 X89.012 Y93.183 E1.34183
G1 X90.090 Y93.258 E1.66578
G1 X90.474 Y93.314 E1.78194
G1 X91.224 Y93.498 E2.01328
G1 X91.622 Y93.627 E2.13873
G1 X92.287 Y93.926 E2.35724
G1 X92.638 Y94.118 E2.47721
G1 X93.248 Y94.547 E2.70057
G1 X93.510 Y94.762 E2.80222
G1 X94.229 Y95.547 E3.12097
G1 X94.811 Y96.488 E3.45263
G1 X95.243 Y97.575 E3.80315
G1 X95.507 Y98.794 E4.17696
G1 X95.597 Y100.137 E4.58030
G1 X95.392 Y102.128 E5.17988
G1 X94.810 Y103.711 E5.68535
G1 X94.653 Y103.947 E5.77030
G1 X93.857 Y104.976 E6.16011
G1 X93.526 Y105.257 E6.29026
G1 X92.515 Y105.948 E6.65726
G1 X92.307 Y106.052 E6.72691
G1 X92.074 Y106.147 E6.80219
G1 X90.747 Y106.582 E7.22074
G1 X90.373 Y106.649 E7.33464
G1 X88.488 Y106.818 E7.90158
G1 X85.536 Y106.818 E8.78630
G1 X84.573 Y106.539 E9.08656
G1 X84.500 Y105.989 E9.25292
G1 X84.500 Y94.011 E12.84209
G1 X84.573 Y93.461 E13.00845
G92 E0
G1 Z0.900 F7800.000
G1 X115.242 Y92.352 F7800.000
G1 X108.577 Y100.310 E3.11048 F600.000
G1 X108.130 Y100.775 E3.30375
G1 X108.580 Y101.587 E3.58188
G1 X114.443 Y107.648 E6.10884
G92 E0
G1 X104.889 Y106.648 F7800.000
G1 X104.889 Y106.648 F7800.000
G1 X105.786 Y102.575 F7800.000
G1 X104.854 Y98.214 E1.33630 F600.000
G1 X104.854 Y92.352 E3.09283
G1 X104.854 Y107.648 F7800.000
G1 X104.854 Y99.984 E5.38932 F600.000
G1 X105.043 Y99.099 E5.66049
G1 X105.213 Y99.099 E5.71145
G1 X106.400 Y99.495 E6.08643
G1 X107.387 Y100.377 E6.48307
G1 X109.855 Y101.699 E7.32204
G92 E0
G1 X105.889 Y98.214 F7800.000
G1 X105.889 Y98.214 F7800.000
G1 X107.606 Y97.365 F7800.000
G1 X109.006 Y93.468 F7800.000
G1 X107.889 Y92.352 F7800.000
G1 X105.889 Y91.352 F7800.000
G1 X103.818 Y91.352 F7800.000
G1 X101.818 Y92.352 F7800.000
G1 X99.633 Y94.537 F7800.000
G1 X99.514 Y94.457 F7800.000
G1 X95.717 Y96.016 F7800.000
G1 X84.573 Y93.461 F7800.000
G1 X85.536 Y93.181 E0.30026 F600.000
G1 X89.012 Y93.183 E1.34183
G1 X90.090 Y93.258 E1.66578
G1 X90.474 Y93.314 E1.78194
G1 X91.224 Y93.498 E2.01328
G1 X91.622 Y93.627 E2.13872
G1 X92.287 Y93.926 E2.35724
G1 X92.638 Y94.118 E2.47721
G1 X93.248 Y94.547 E2.70057
G1 X93.510 Y94.762 E2.80222
G1 X94.229 Y95.547 E3.12097
G1 X94.811 Y96.488 E3.45263
G1 X95.243 Y97.575 E3.80315
G1 X95.507 Y98.794 E4.17696
G1 X95.597 Y100.137 E4.58030
G1 X95.392 Y102.128 E5.17988
G1 X94.810 Y103.711 E5.68535
G1 X94.653 Y103.947 E5.77030
G1 X93.857 Y104.976 E6.16011
G1 X93.526 Y105.257 E6.29026
G1 X92.515 Y105.948 E6.65726
G1 X92.307 Y106.052 E6.72691
G1 X92.074 Y106.147 E6.80219
G1 X90.747 Y106.582 E7.22074
G1 X90.373 Y106.649 E7.33464
G1 X88.488 Y106.818 E7.90158
G1 X85.536 Y106.818 E8.78630
G1 X84.573 Y106.539 E9.08656
G1 X84.500 Y105.989 E9.25292
G1 X84.500 Y94.011 E12.84209
G1 X84.573 Y93.461 E13.00845
G92 E0
G1 Z1.200 F7800.000
G1 X115.242 Y92.352 F7800.000
G1 X108.577 Y100.310 E3.11048 F600.000
G1 X108.130 Y100.775 E3.30375
G1 X108.580 Y101.587 E3.58188
G1 X114.443 Y107.648 E6.10884
G92 E0
G1 X104.889 Y106.648 F7800.000
G1 X104.889 Y106.648 F7800.000
G1 X105.786 Y102.575 F7800.000
G1 X104.854 Y98.214 E1.33630 F600.000
G1 X104.854 Y92.352 E3.09283
G1 X104.854 Y107.648 F7800.000
G1 X104.854 Y99.984 E5.38932 F600.000
G1 X105.043 Y99.099 E5.66049
G1 X105.213 Y99.099 E5.71145
G1 X106.400 Y99.495 E6.08643
G1 X107.387 Y100.377 E6.48307
G1 X109.855 Y101.699 E7.32204
G92 E0
G1 X105.889 Y98.214 F7800.000
G1 X105.889 Y98.214 F7800.000
G1 X107.606 Y97.365 F7800.000
G1 X109.006 Y93.468 F7800.000
G1 X107.889 Y92.352 F7800.000
G1 X105.889 Y91.352 F7800.000
G1 X103.818 Y91.352 F7800.000
G1 X101.818 Y92.352 F7800.000
G1 X99.633 Y94.537 F7800.000
G1 X99.514 Y94.457 F7800.000
G1 X95.717 Y96.016 F7800.000
G1 X84.573 Y93.461 F7800.000
G1 X85.536 Y93.181 E0.30026 F600.000
G1 X89.012 Y93.183 E1.34183
G1 X90.090 Y93.258 E1.66579
G1 X90.474 Y93.314 E1.78194
G1 X91.224 Y93.498 E2.01328
G1 X91.622 Y93.627 E2.13872
G1 X92.287 Y93.926 E2.35724
G1 X92.638 Y94.118 E2.47721
G1 X93.248 Y94.547 E2.70057
G1 X93.510 Y94.762 E2.80221
G1 X94.229 Y95.547 E3.12097
G1 X94.811 Y96.488 E3.45263
G1 X95.243 Y97.575 E3.80315
G1 X95.507 Y98.794 E4.17696
G1 X95.597 Y100.137 E4.58030
G1 X95.392 Y102.128 E5.17988
G1 X94.810 Y103.711 E5.68535
G1 X94.653 Y103.947 E5.77030
G1 X93.857 Y104.976 E6.16011
G1 X93.526 Y105.257 E6.29026
G1 X92.515 Y105.948 E6.65726
G1 X92.307 Y106.052 E6.72691
G1 X92.074 Y106.147 E6.80219
G1 X90.747 Y106.582 E7.22074
G1 X90.373 Y106.649 E7.33464
G1 X88.488 Y106.818 E7.90158
G1 X85.536 Y106.818 E8.78630
G1 X84.573 Y106.539 E9.08656
G1 X84.500 Y105.989 E9.25292
G1 X84.500 Y94.011 E12.84209
G1 X84.573 Y93.461 E13.00845
G92 E0
G1 Z1.500 F7800.000
G1 X115.242 Y92.352 F7800.000
G1 X108.577 Y100.310 E3.11048 F600.000
