; generated by Slic3r 1.2.9 on 2016-03-11 at 01:23:35

; external perimeters extrusion width = 1.54mm
; perimeters extrusion width = 2.62mm
; infill extrusion width = 6.27mm
; solid infill extrusion width = 2.62mm
; top infill extrusion width = 2.62mm

M107
M104 S30 ; set temperature
G28 ; home all axes
G1 Z5 F5000 ; lift nozzle
M302
M92 E10000
M500
M501
G1 E100
M109 S30 ; wait for temperature to be reached
G21 ; set units to millimeters
G90 ; use absolute coordinates
M82 ; use absolute distances for extrusion
G92 E0
G1 Z0.300 F7800.000
G1 X107.128 Y104.726 F7800.000
G1 X107.128 Y107.423 E0.12205 F378.000
G1 X105.507 Y107.423 E0.19540
G1 X105.507 Y92.577 E0.86717
G1 X114.850 Y92.577 E1.28993
G1 X114.850 Y93.819 E1.34613
G1 X107.128 Y93.819 E1.69555 F378.000
G1 X107.128 Y104.495 E2.17862
G1 X105.937 Y107.197 F7800.000
G1 X105.733 Y106.993 E2.19195 F540.000
G1 X105.733 Y106.435 E2.21778
G1 X106.495 Y107.197 E2.26765
G1 X106.902 Y107.047 E2.28776
G1 X105.733 Y105.877 E2.36431
G1 X105.733 Y105.319 E2.39014
G1 X106.902 Y106.489 E2.46669
G1 X106.902 Y105.931 E2.49252
G1 X105.733 Y104.761 E2.56907
G1 X105.733 Y104.203 E2.59491
G1 X106.902 Y105.373 E2.67146
G1 X106.902 Y104.815 E2.69729
G1 X105.733 Y103.645 E2.77384
G1 X105.733 Y103.087 E2.79967
G1 X106.902 Y104.257 E2.87622
G1 X106.902 Y103.699 E2.90206
G1 X105.733 Y102.529 E2.97861
G1 X105.733 Y101.971 E3.00444
G1 X106.902 Y103.141 E3.08099
G1 X106.902 Y102.583 E3.10682
G1 X105.733 Y101.413 E3.18337
G1 X105.733 Y100.855 E3.20921
G1 X106.902 Y102.025 E3.28575
G1 X106.902 Y101.467 E3.31159
G1 X105.733 Y100.297 E3.38814
G1 X105.733 Y99.739 E3.41397
G1 X106.902 Y100.909 E3.49052
G1 X106.902 Y100.351 E3.51636
G1 X105.733 Y99.181 E3.59290
G1 X105.733 Y98.623 E3.61874
G1 X106.902 Y99.793 E3.69529
G1 X106.902 Y99.235 E3.72112
G1 X105.733 Y98.065 E3.79767
G1 X105.733 Y97.507 E3.82350
G1 X106.902 Y98.677 E3.90005
G1 X106.902 Y98.119 E3.92589
G1 X105.733 Y96.949 E4.00244
G1 X105.733 Y96.391 E4.02827
G1 X106.902 Y97.561 E4.10482
G1 X106.902 Y97.003 E4.13065
G1 X105.733 Y95.833 E4.20720
G1 X105.733 Y95.275 E4.23304
G1 X106.902 Y96.445 E4.30959
G1 X106.902 Y95.887 E4.33542
G1 X105.733 Y94.717 E4.41197
G1 X105.733 Y94.159 E4.43780
G1 X106.902 Y95.329 E4.51435
G1 X106.902 Y94.771 E4.54019
G1 X105.733 Y93.601 E4.61674
G1 X105.733 Y93.043 E4.64257
G1 X106.902 Y94.213 E4.71912
G1 X106.902 Y93.655 E4.74495
G1 X106.051 Y92.803 E4.80071
G1 X106.609 Y92.803 E4.82655
G1 X107.399 Y93.593 E4.87828
G1 X107.957 Y93.593 E4.90412
G1 X107.167 Y92.803 E4.95585
G1 X107.725 Y92.803 E4.98168
G1 X108.515 Y93.593 E5.03341
G1 X109.073 Y93.593 E5.05925
G1 X108.283 Y92.803 E5.11098
G1 X108.841 Y92.803 E5.13682
G1 X109.631 Y93.593 E5.18855
G1 X110.189 Y93.593 E5.21438
G1 X109.399 Y92.803 E5.26611
G1 X109.957 Y92.803 E5.29195
G1 X110.747 Y93.593 E5.34368
G1 X111.305 Y93.593 E5.36952
G1 X110.515 Y92.803 E5.42125
G1 X111.073 Y92.803 E5.44708
G1 X111.863 Y93.593 E5.49881
G1 X112.421 Y93.593 E5.52465
G1 X111.631 Y92.803 E5.57638
G1 X112.189 Y92.803 E5.60222
G1 X112.979 Y93.593 E5.65395
G1 X113.537 Y93.593 E5.67978
G1 X112.747 Y92.803 E5.73151
G1 X113.305 Y92.803 E5.75735
G1 X114.095 Y93.593 E5.80908
G1 X114.624 Y93.565 E5.83363
G1 X113.863 Y92.803 E5.88350
G1 X114.421 Y92.803 E5.90933
G1 X114.624 Y93.007 E5.92267
G92 E0
G1 X107.353 Y94.044 F7800.000
G1 X112.214 Y104.787 F7800.000
G1 X107.353 Y108.648 F7800.000
G1 X103.282 Y107.648 F7800.000
G1 X101.563 Y102.762 F7800.000
G1 X101.681 Y100.537 F7800.000
G1 X98.100 Y100.157 F7800.000
G1 X86.937 Y107.423 F7800.000
G1 X85.150 Y107.423 E0.08088 F378.000
G1 X85.150 Y92.577 E0.75265
G1 X90.640 Y92.577 E1.00110
G1 X91.945 Y92.673 E1.06029
G1 X92.033 Y92.680 E1.06429 F378.000
G1 X93.299 Y92.986 E1.12321
G1 X94.448 Y93.493 E1.18007
G1 X95.456 Y94.190 E1.23553
G1 X96.298 Y95.065 E1.29046
G1 X96.976 Y96.120 E1.34722
G1 X97.474 Y97.333 E1.40652
G1 X97.774 Y98.678 E1.46887
G1 X97.874 Y100.153 E1.53577
G1 X97.644 Y102.317 E1.63427
G1 X96.963 Y104.105 E1.72083
G1 X95.832 Y105.532 E1.80322
G1 X94.282 Y106.578 E1.88783
G1 X92.335 Y107.210 E1.98043
G1 X89.975 Y107.423 E2.08765
G1 X87.168 Y107.423 E2.21468
G1 X87.168 Y106.214 F7800.000
G1 X86.771 Y106.214 E2.23266 F378.000
G1 X86.771 Y93.786 E2.79502
G1 X90.417 Y93.786 E2.96002 F378.000
G1 X91.523 Y93.870 E3.01019
G1 X92.549 Y94.126 E3.05803
G1 X93.484 Y94.553 E3.10458
G1 X94.306 Y95.145 E3.15040
G1 X94.991 Y95.887 E3.19610
G1 X95.535 Y96.778 E3.24333
G1 X95.930 Y97.796 E3.29274
G1 X96.165 Y98.923 E3.34483
G1 X96.243 Y100.161 E3.40096
G1 X96.066 Y101.954 E3.48249
G1 X95.524 Y103.459 E3.55485
G1 X94.615 Y104.660 E3.62303
G1 X93.364 Y105.529 E3.69195
G1 X91.803 Y106.045 E3.76633
G1 X89.952 Y106.214 E3.85046
G1 X87.399 Y106.214 E3.96597
G1 X87.556 Y106.440 F7800.000
G1 X88.313 Y107.197 E4.01455 F540.000
G1 X88.860 Y107.197 E4.03936
G1 X88.103 Y106.440 E4.08794
G1 X88.650 Y106.440 E4.11275
G1 X89.407 Y107.197 E4.16133
G1 X89.954 Y107.197 E4.18614
G1 X89.197 Y106.440 E4.23472
G1 X89.743 Y106.440 E4.25953
G1 X90.463 Y107.159 E4.30567
G1 X90.964 Y107.114 E4.32852
G1 X90.256 Y106.406 E4.37393
G1 X90.757 Y106.360 E4.39676
G1 X91.466 Y107.068 E4.44221
G1 X91.967 Y107.023 E4.46505
G1 X91.258 Y106.314 E4.51052
G1 X91.759 Y106.269 E4.53335
G1 X92.448 Y106.958 E4.57757
G1 X92.861 Y106.824 E4.59726
G1 X92.175 Y106.137 E4.64130
G1 X92.586 Y106.001 E4.66093
G1 X93.274 Y106.690 E4.70509
G1 X93.687 Y106.556 E4.72478
G1 X92.997 Y105.866 E4.76906
G1 X93.408 Y105.730 E4.78869
G1 X94.100 Y106.422 E4.83308
G1 X94.453 Y106.228 E4.85136
G1 X93.733 Y105.509 E4.89752
G1 X94.056 Y105.285 E4.91534
G1 X94.779 Y106.008 E4.96174
G1 X95.106 Y105.787 E4.97962
G1 X94.379 Y105.061 E5.02626
G1 X94.702 Y104.836 E5.04408
G1 X95.432 Y105.567 E5.09097
G1 X95.735 Y105.323 E5.10861
G1 X94.950 Y104.538 E5.15900
G1 X95.186 Y104.227 E5.17671
G1 X95.986 Y105.027 E5.22806
G1 X96.228 Y104.722 E5.24572
G1 X95.421 Y103.915 E5.29747
G1 X95.657 Y103.604 E5.31518
G1 X96.469 Y104.417 E5.36733
G1 X96.711 Y104.112 E5.38499
G1 X95.824 Y103.225 E5.44189
G1 X95.969 Y102.823 E5.46128
G1 X96.886 Y103.739 E5.52010
G1 X97.037 Y103.344 E5.53932
G1 X96.114 Y102.421 E5.59854
G1 X96.258 Y102.018 E5.61794
G1 X97.187 Y102.948 E5.67757
G1 X97.338 Y102.552 E5.69679
G1 X96.326 Y101.539 E5.76175
G1 X96.375 Y101.042 E5.78443
G1 X97.447 Y102.113 E5.85318
G1 X97.499 Y101.619 E5.87574
G1 X96.425 Y100.544 E5.94469
G1 X96.467 Y100.040 E5.96764
G1 X97.552 Y101.125 E6.03721
G1 X97.604 Y100.630 E6.05976
G1 X96.431 Y99.457 E6.13507
G1 X96.394 Y98.873 E6.16160
G1 X97.639 Y100.119 E6.24153
G1 X97.599 Y99.532 E6.26821
G1 X96.263 Y98.195 E6.35398
G1 X96.083 Y97.468 E6.38796
G1 X97.560 Y98.945 E6.48274
G1 X97.431 Y98.270 E6.51393
G1 X95.737 Y96.576 E6.62265
G1 X96.912 Y96.658 F7800.000
G1 X93.715 Y93.460 E6.82783 F540.000
G1 X93.367 Y94.206 F7800.000
G1 X92.115 Y92.954 E6.90814 F540.000
G1 X92.836 Y93.128 E6.94178
G1 X97.274 Y97.566 E7.22655
G1 X96.066 Y95.264 F7800.000
G1 X95.082 Y94.281 E7.28964 F540.000
G1 X92.463 Y93.849 F7800.000
G1 X91.487 Y92.872 E7.35229 F540.000
G1 X90.896 Y92.829 E7.37915
G1 X91.735 Y93.667 E7.43294
G1 X91.128 Y93.607 E7.46062
G1 X90.324 Y92.803 E7.51221
G1 X89.777 Y92.803 E7.53702
G1 X90.536 Y93.562 E7.58572
G1 X89.987 Y93.560 E7.61062
G1 X89.230 Y92.803 E7.65919
G1 X88.683 Y92.803 E7.68400
G1 X89.440 Y93.560 E7.73258
G1 X88.893 Y93.560 E7.75739
G1 X88.136 Y92.803 E7.80597
G1 X87.590 Y92.803 E7.83078
G1 X88.347 Y93.560 E7.87936
G1 X87.800 Y93.560 E7.90417
G1 X87.043 Y92.803 E7.95275
G1 X86.496 Y92.803 E7.97756
G1 X87.253 Y93.560 E8.02613
G1 X86.706 Y93.560 E8.05094
G1 X85.949 Y92.803 E8.09952
G1 X85.409 Y92.810 E8.12403
G1 X86.545 Y93.945 E8.19691
G1 X86.545 Y94.492 E8.22171
G1 X85.376 Y93.323 E8.29673
G1 X85.376 Y93.870 E8.32154
G1 X86.545 Y95.039 E8.39655
G1 X86.545 Y95.586 E8.42136
G1 X85.376 Y94.417 E8.49638
G1 X85.376 Y94.964 E8.52119
G1 X86.545 Y96.133 E8.59620
G1 X86.545 Y96.679 E8.62101
G1 X85.376 Y95.510 E8.69602
G1 X85.376 Y96.057 E8.72083
G1 X86.545 Y97.226 E8.79585
G1 X86.545 Y97.773 E8.82066
G1 X85.376 Y96.604 E8.89567
G1 X85.376 Y97.151 E8.92048
G1 X86.545 Y98.320 E8.99549
G1 X86.545 Y98.867 E9.02030
G1 X85.376 Y97.698 E9.09532
G1 X85.376 Y98.244 E9.12013
G1 X86.545 Y99.414 E9.19514
G1 X86.545 Y99.960 E9.21995
G1 X85.376 Y98.791 E9.29496
G1 X85.376 Y99.338 E9.31977
G1 X86.545 Y100.507 E9.39479
G1 X86.545 Y101.054 E9.41960
G1 X85.376 Y99.885 E9.49461
G1 X85.376 Y100.432 E9.51942
G1 X86.545 Y101.601 E9.59443
G1 X86.545 Y102.148 E9.61924
G1 X85.376 Y100.978 E9.69426
G1 X85.376 Y101.525 E9.71907
G1 X86.545 Y102.694 E9.79408
G1 X86.545 Y103.241 E9.81889
G1 X85.376 Y102.072 E9.89391
G1 X85.376 Y102.619 E9.91872
G1 X86.545 Y103.788 E9.99373
G1 X86.545 Y104.335 E10.01854
G1 X85.376 Y103.166 E10.09355
G1 X85.376 Y103.713 E10.11836
G1 X86.545 Y104.882 E10.19338
G1 X86.545 Y105.428 E10.21819
G1 X85.376 Y104.259 E10.29320
G1 X85.376 Y104.806 E10.31801
G1 X86.545 Y105.975 E10.39302
G1 X86.463 Y106.440 E10.41443
G1 X87.220 Y107.197 E10.46301
G1 X87.766 Y107.197 E10.48782
G1 X87.009 Y106.440 E10.53640
G1 X86.545 Y106.522 E10.55781
G1 X85.376 Y105.353 E10.63282
G1 X85.376 Y105.900 E10.65763
G1 X86.673 Y107.197 E10.74087
G1 X86.126 Y107.197 E10.76568
G1 X85.376 Y106.447 E10.81382
G1 X85.376 Y106.993 E10.83863
G1 X85.579 Y107.197 E10.85170
M106 S255
G92 E0
G1 Z0.600 F7800.000
G1 X106.318 Y107.648 F7800.000
G1 X106.318 Y94.044 E4.07639 F600.000
G1 X106.398 Y93.468 E4.25074
G1 X107.353 Y93.198 E4.54819
G1 X115.075 Y93.198 E6.86205
G92 E0
G1 X105.282 Y92.352 F7800.000
G1 X105.282 Y92.352 F7800.000
G1 X103.282 Y92.352 F7800.000
G1 X101.096 Y94.539 F7800.000
G1 X100.974 Y94.457 F7800.000
G1 X100.270 Y94.029 F7800.000
G1 X98.973 Y93.320 F7800.000
G1 X98.421 Y93.052 F7800.000
G1 X97.163 Y92.517 F7800.000
G1 X95.603 Y94.018 F7800.000
G1 X86.033 Y93.461 F7800.000
G1 X86.996 Y93.181 E0.30026 F600.000
G1 X90.472 Y93.183 E1.34183
G1 X91.550 Y93.258 E1.66578
G1 X91.934 Y93.314 E1.78194
G1 X92.684 Y93.498 E2.01328
G1 X93.082 Y93.627 E2.13873
G1 X93.747 Y93.926 E2.35724
G1 X94.098 Y94.118 E2.47721
G1 X94.708 Y94.547 E2.70057
G1 X94.970 Y94.762 E2.80222
G1 X95.689 Y95.547 E3.12097
G1 X96.271 Y96.488 E3.45263
G1 X96.703 Y97.575 E3.80315
G1 X96.967 Y98.794 E4.17696
G1 X97.057 Y100.137 E4.58030
G1 X96.852 Y102.128 E5.17988
G1 X96.270 Y103.711 E5.68535
G1 X96.113 Y103.947 E5.77030
G1 X95.317 Y104.976 E6.16011
G1 X94.986 Y105.257 E6.29026
G1 X93.975 Y105.948 E6.65726
G1 X93.767 Y106.052 E6.72691
G1 X93.534 Y106.147 E6.80219
G1 X92.207 Y106.582 E7.22074
G1 X91.833 Y106.649 E7.33464
G1 X89.948 Y106.818 E7.90158
G1 X86.996 Y106.818 E8.78630
G1 X86.033 Y106.539 E9.08656
G1 X85.960 Y105.989 E9.25292
G1 X85.960 Y94.011 E12.84209
G1 X86.033 Y93.461 E13.00845
G92 E0
G1 Z0.900 F7800.000
G1 X106.318 Y107.648 F7800.000
G1 X106.318 Y94.044 E4.07639 F600.000
G1 X106.398 Y93.468 E4.25074
G1 X107.353 Y93.198 E4.54819
G1 X115.075 Y93.198 E6.86205
G92 E0
G1 X105.282 Y92.352 F7800.000
G1 X105.282 Y92.352 F7800.000
G1 X103.282 Y92.352 F7800.000
G1 X101.096 Y94.539 F7800.000
G1 X100.974 Y94.457 F7800.000
G1 X100.270 Y94.029 F7800.000
G1 X98.973 Y93.320 F7800.000
G1 X98.421 Y93.052 F7800.000
G1 X97.163 Y92.517 F7800.000
G1 X95.603 Y94.018 F7800.000
G1 X86.033 Y93.461 F7800.000
G1 X86.996 Y93.181 E0.30026 F600.000
G1 X90.472 Y93.183 E1.34183
G1 X91.550 Y93.258 E1.66578
G1 X91.934 Y93.314 E1.78194
G1 X92.684 Y93.498 E2.01328
G1 X93.082 Y93.627 E2.13872
G1 X93.747 Y93.926 E2.35724
G1 X94.098 Y94.118 E2.47721
G1 X94.708 Y94.547 E2.70057
G1 X94.970 Y94.762 E2.80222
G1 X95.689 Y95.547 E3.12097
G1 X96.271 Y96.488 E3.45263
G1 X96.703 Y97.575 E3.80315
G1 X96.967 Y98.794 E4.17696
G1 X97.057 Y100.137 E4.58030
G1 X96.852 Y102.128 E5.17988
G1 X96.270 Y103.711 E5.68535
G1 X96.113 Y103.947 E5.77030
G1 X95.317 Y104.976 E6.16011
G1 X94.986 Y105.257 E6.29026
G1 X93.975 Y105.948 E6.65726
G1 X93.767 Y106.052 E6.72691
G1 X93.534 Y106.147 E6.80219
G1 X92.207 Y106.582 E7.22074
G1 X91.833 Y106.649 E7.33464
G1 X89.948 Y106.818 E7.90158
G1 X86.996 Y106.818 E8.78630
G1 X86.033 Y106.539 E9.08656
G1 X85.960 Y105.989 E9.25292
G1 X85.960 Y94.011 E12.84209
G1 X86.033 Y93.461 E13.00845
G92 E0
G1 Z1.200 F7800.000
G1 X106.318 Y107.648 F7800.000
G1 X106.318 Y94.044 E4.07639 F600.000
G1 X106.398 Y93.468 E4.25074
G1 X107.353 Y93.198 E4.54819
G1 X115.075 Y93.198 E6.86205
G92 E0
G1 X105.282 Y92.352 F7800.000
G1 X105.282 Y92.352 F7800.000
G1 X103.282 Y92.352 F7800.000
G1 X101.096 Y94.539 F7800.000
G1 X100.974 Y94.457 F7800.000
G1 X100.270 Y94.029 F7800.000
G1 X98.973 Y93.320 F7800.000
G1 X98.421 Y93.052 F7800.000
G1 X97.163 Y92.517 F7800.000
G1 X95.603 Y94.018 F7800.000
G1 X86.033 Y93.461 F7800.000
G1 X86.996 Y93.181 E0.30026 F600.000
G1 X90.472 Y93.183 E1.34183
G1 X91.550 Y93.258 E1.66579
G1 X91.934 Y93.314 E1.78194
G1 X92.684 Y93.498 E2.01328
G1 X93.082 Y93.627 E2.13872
G1 X93.747 Y93.926 E2.35724
G1 X94.098 Y94.118 E2.47721
G1 X94.708 Y94.547 E2.70057
G1 X94.970 Y94.762 E2.80221
G1 X95.689 Y95.547 E3.12097
G1 X96.271 Y96.488 E3.45263
G1 X96.703 Y97.575 E3.80315
G1 X96.967 Y98.794 E4.17696
G1 X97.057 Y100.137 E4.58030
G1 X96.852 Y102.128 E5.17988
G1 X96.270 Y103.711 E5.68535
G1 X96.113 Y103.947 E5.77030
G1 X95.317 Y104.976 E6.16011
G1 X94.986 Y105.257 E6.29026
G1 X93.975 Y105.948 E6.65726
G1 X93.767 Y106.052 E6.72691
G1 X93.534 Y106.147 E6.80219
G1 X92.207 Y106.582 E7.22074
G1 X91.833 Y106.649 E7.33464
G1 X89.948 Y106.818 E7.90158
G1 X86.996 Y106.818 E8.78630
G1 X86.033 Y106.539 E9.08656
G1 X85.960 Y105.989 E9.25292
G1 X85.960 Y94.011 E12.84209
G1 X86.033 Y93.461 E13.00845
G92 E0
G1 Z1.500 F7800.000
G1 X106.318 Y107.648 F7800.000
G1 X106.318 Y94.044 E4.07639 F600.000
G1 X106.398 Y93.468 E4.25074
G1 X107.353 Y93.198 E4.54819
G1 X115.075 Y93.198 E6.86205
G92 E0
G1 X105.282 Y92.352 F7800.000
G1 X105.282 Y92.352 F7800.000
G1 X103.282 Y92.352 F7800.000
G1 X101.096 Y94.539 F7800.000
G1 X100.974 Y94.457 F7800.000
G1 X100.270 Y94.029 F7800.000
G1 X98.973 Y93.320 F7800.000
G1 X98.421 Y93.052 F7800.000
G1 X97.163 Y92.517 F7800.000
G1 X95.603 Y94.018 F7800.000
G1 X86.033 Y93.461 F7800.000
G1 X86.996 Y93.181 E0.30026 F600.000
G1 X90.472 Y93.183 E1.34183
G1 X91.550 Y93.258 E1.66578
G1 X91.934 Y93.314 E1.78194
G1 X92.684 Y93.498 E2.01328
G1 X93.082 Y93.627 E2.13872
G1 X93.747 Y93.926 E2.35724
G1 X94.098 Y94.118 E2.47721
G1 X94.708 Y94.547 E2.70057
G1 X94.970 Y94.762 E2.80222
G1 X95.689 Y95.547 E3.12097
G1 X96.271 Y96.488 E3.45263
G1 X96.703 Y97.575 E3.80315
G1 X96.967 Y98.794 E4.17696
G1 X97.057 Y100.137 E4.58030
G1 X96.852 Y102.128 E5.17988
G1 X96.270 Y103.711 E5.68535
G1 X96.113 Y103.947 E5.77030
G1 X95.317 Y104.976 E6.16011
G1 X94.986 Y105.257 E6.29026
G1 X93.975 Y105.948 E6.65726
G1 X93.767 Y106.052 E6.72691
G1 X93.534 Y106.147 E6.80219
G1 X92.207 Y106.582 E7.22074
G1 X91.833 Y106.649 E7.33464
G1 X89.948 Y106.818 E7.90158
G1 X86.996 Y106.818 E8.78630
G1 X86.033 Y106.539 E9.08656
G1 X85.960 Y105.989 E9.25292
G1 X85.960 Y94.011 E12.84209
G1 X86.033 Y93.461 E13.00845
G92 E0
G1 Z1.800 F7800.000
G1 X106.318 Y107.648 F7800.000
G1 X106.318 Y94.044 E4.07639 F600.000
G1 X106.398 Y93.468 E4.25074
G1 X107.353 Y93.198 E4.54819
G1 X115.075 Y93.198 E6.86205
G92 E0
G1 X105.282 Y92.352 F7800.000
G1 X105.282 Y92.352 F7800.000
G1 X103.282 Y92.352 F7800.000
G1 X101.096 Y94.539 F7800.000
G1 X100.974 Y94.457 F7800.000
G1 X100.270 Y94.029 F7800.000
G1 X98.973 Y93.320 F7800.000
G1 X98.421 Y93.052 F7800.000
G1 X97.163 Y92.517 F7800.000
G1 X95.603 Y94.018 F7800.000
G1 X86.033 Y93.461 F7800.000
G1 X86.996 Y93.181 E0.30026 F600.000
G1 X90.472 Y93.183 E1.34183
G1 X91.550 Y93.258 E1.66578
G1 X91.934 Y93.314 E1.78194
G1 X92.684 Y93.498 E2.01328
G1 X93.082 Y93.627 E2.13872
G1 X93.747 Y93.926 E2.35724
G1 X94.098 Y94.118 E2.47721
G1 X94.708 Y94.547 E2.70057
G1 X94.970 Y94.762 E2.80222
G1 X95.689 Y95.547 E3.12097
G1 X96.271 Y96.488 E3.45263
G1 X96.703 Y97.575 E3.80315
G1 X96.967 Y98.794 E4.17696
G1 X97.057 Y100.137 E4.58030
G1 X96.852 Y102.128 E5.17988
G1 X96.270 Y103.711 E5.68535
G1 X96.113 Y103.947 E5.77030
G1 X95.317 Y104.976 E6.16011
G1 X94.986 Y105.257 E6.29026
G1 X93.975 Y105.948 E6.65726
