; generated by Slic3r 1.2.9 on 2016-03-11 at 01:23:39

; external perimeters extrusion width = 1.54mm
; perimeters extrusion width = 2.62mm
; infill extrusion width = 6.27mm
; solid infill extrusion width = 2.62mm
; top infill extrusion width = 2.62mm

M107
M104 S30 ; set temperature
G28 ; home all axes
G1 Z5 F5000 ; lift nozzle
M302
M92 E10000
M500
M501
G1 E100
M109 S30 ; wait for temperature to be reached
G21 ; set units to millimeters
G90 ; use absolute coordinates
M82 ; use absolute distances for extrusion
G92 E0
G1 Z0.300 F7800.000
G1 X106.124 Y96.307 F7800.000
G1 X106.124 Y98.556 E0.10175 F378.000
G1 X110.818 Y98.556 E0.31412 F378.000
G1 X112.285 Y98.695 E0.38079
G1 X113.509 Y99.103 E0.43921
G1 X114.511 Y99.777 E0.49383
G1 X115.253 Y100.677 E0.54661
G1 X115.699 Y101.766 E0.59984
G1 X115.849 Y103.055 E0.65857
G1 X115.699 Y104.347 E0.71742
G1 X115.256 Y105.415 E0.76974
G1 X114.520 Y106.273 E0.82088
G1 X113.508 Y106.907 E0.87493
G1 X112.235 Y107.292 E0.93509
G1 X110.687 Y107.423 E1.00540
G1 X104.503 Y107.423 E1.28520
G1 X104.503 Y92.577 E1.95697
G1 X106.124 Y92.577 E2.03032
G1 X106.124 Y96.076 E2.18867
G1 X106.124 Y99.743 F7800.000
G1 X110.553 Y99.743 E2.38907 F378.000
G1 X112.557 Y100.098 E2.48117
G1 X113.812 Y101.210 E2.55704
G1 X114.224 Y103.035 E2.64168
G1 X113.801 Y104.800 E2.72385
G1 X112.515 Y105.872 E2.79961
G1 X110.466 Y106.214 E2.89359
G1 X106.124 Y106.214 E3.09005
G1 X106.124 Y99.974 E3.37240
G1 X105.898 Y97.694 F7800.000
G1 X104.729 Y96.525 E3.44799 F540.000
G1 X104.729 Y95.974 E3.47318
G1 X105.898 Y97.143 E3.54876
G1 X105.898 Y96.592 E3.57395
G1 X104.729 Y95.423 E3.64954
G1 X104.729 Y94.872 E3.67473
G1 X105.898 Y96.041 E3.75031
G1 X105.898 Y95.490 E3.77550
G1 X104.729 Y94.321 E3.85109
G1 X104.729 Y93.770 E3.87628
G1 X105.898 Y94.939 E3.95186
G1 X105.898 Y94.388 E3.97705
G1 X104.729 Y93.219 E4.05264
G1 X104.864 Y92.803 E4.07263
G1 X105.898 Y93.837 E4.13948
G1 X105.898 Y93.286 E4.16467
G1 X105.415 Y92.803 E4.19590
G92 E0
G1 X105.349 Y93.352 F7800.000
G1 X105.349 Y93.352 F7800.000
G1 X112.876 Y99.161 F7800.000
G1 X115.369 Y101.654 E0.16116 F540.000
G1 X115.531 Y102.368 E0.19462
G1 X112.073 Y98.910 E0.41820
G1 X111.465 Y98.852 E0.44614
G1 X112.445 Y99.833 E0.50955
G1 X111.776 Y99.714 E0.54064
G1 X110.856 Y98.795 E0.60010
G1 X110.292 Y98.782 E0.62587
G1 X111.106 Y99.596 E0.67849
G1 X110.477 Y99.517 E0.70750
G1 X109.741 Y98.782 E0.75502
G1 X109.190 Y98.782 E0.78021
G1 X109.926 Y99.517 E0.82774
G1 X109.375 Y99.517 E0.85293
G1 X108.639 Y98.782 E0.90046
G1 X108.088 Y98.782 E0.92564
G1 X108.824 Y99.517 E0.97317
G1 X108.273 Y99.517 E0.99836
G1 X107.537 Y98.782 E1.04589
G1 X106.986 Y98.782 E1.07108
G1 X107.722 Y99.517 E1.11860
G1 X107.171 Y99.517 E1.14379
G1 X106.436 Y98.782 E1.19132
G1 X105.898 Y98.796 E1.21588
G1 X104.729 Y97.627 E1.29147
G1 X104.729 Y97.076 E1.31666
G1 X105.898 Y98.245 E1.39224
G1 X105.885 Y98.782 E1.41680
G1 X106.620 Y99.517 E1.46433
G1 X106.069 Y99.517 E1.48952
G1 X104.729 Y98.178 E1.57611
G1 X104.729 Y98.729 E1.60130
G1 X105.898 Y99.898 E1.67689
G1 X105.898 Y100.449 E1.70208
G1 X104.729 Y99.280 E1.77766
G1 X104.729 Y99.831 E1.80285
G1 X105.898 Y101.000 E1.87844
G1 X105.898 Y101.551 E1.90363
G1 X104.729 Y100.382 E1.97921
G1 X104.729 Y100.933 E2.00440
G1 X105.898 Y102.102 E2.07999
G1 X105.898 Y102.653 E2.10518
G1 X104.729 Y101.484 E2.18076
G1 X104.729 Y102.035 E2.20595
G1 X105.898 Y103.204 E2.28154
G1 X105.898 Y103.755 E2.30673
G1 X104.729 Y102.586 E2.38231
G1 X104.729 Y103.137 E2.40750
G1 X105.898 Y104.306 E2.48309
G1 X105.898 Y104.857 E2.50828
G1 X104.729 Y103.688 E2.58386
G1 X104.729 Y104.239 E2.60905
G1 X105.898 Y105.408 E2.68464
G1 X105.898 Y105.959 E2.70983
G1 X104.729 Y104.790 E2.78541
G1 X104.729 Y105.341 E2.81060
G1 X106.586 Y107.197 E2.93063
G1 X107.137 Y107.197 E2.95582
G1 X106.380 Y106.440 E3.00477
G1 X106.931 Y106.440 E3.02996
G1 X107.688 Y107.197 E3.07891
G1 X108.239 Y107.197 E3.10410
G1 X107.482 Y106.440 E3.15305
G1 X108.033 Y106.440 E3.17824
G1 X108.790 Y107.197 E3.22719
G1 X109.341 Y107.197 E3.25237
G1 X108.584 Y106.440 E3.30132
G1 X109.135 Y106.440 E3.32651
G1 X109.892 Y107.197 E3.37546
G1 X110.443 Y107.197 E3.40065
G1 X109.686 Y106.440 E3.44960
G1 X110.237 Y106.440 E3.47479
G1 X110.975 Y107.178 E3.52254
G1 X111.483 Y107.136 E3.54585
G1 X110.734 Y106.386 E3.59431
G1 X111.206 Y106.307 E3.61620
G1 X111.991 Y107.093 E3.66698
G1 X112.459 Y107.009 E3.68870
G1 X111.678 Y106.228 E3.73918
G1 X112.150 Y106.150 E3.76107
G1 X112.882 Y106.881 E3.80837
G1 X113.305 Y106.753 E3.82857
G1 X112.602 Y106.050 E3.87401
G1 X112.902 Y105.800 E3.89190
G1 X113.675 Y106.572 E3.94182
G1 X114.013 Y106.360 E3.96010
G1 X113.203 Y105.549 E4.01250
G1 X113.503 Y105.299 E4.03038
G1 X114.346 Y106.142 E4.08490
G1 X114.618 Y105.863 E4.10271
G1 X113.804 Y105.048 E4.15536
G1 X114.033 Y104.727 E4.17341
G1 X114.873 Y105.566 E4.22767
G1 X115.107 Y105.250 E4.24568
G1 X114.140 Y104.283 E4.30820
G1 X114.247 Y103.838 E4.32909
G1 X115.269 Y104.860 E4.39517
G1 X115.430 Y104.471 E4.41444
G1 X114.353 Y103.394 E4.48408
G1 X114.457 Y102.946 E4.50508
G1 X115.520 Y104.009 E4.57382
G1 X115.577 Y103.516 E4.59655
G1 X114.296 Y102.234 E4.67937
G1 X114.135 Y101.523 E4.71272
G1 X115.604 Y102.991 E4.80767
G1 X114.518 Y100.252 F7800.000
G1 X114.132 Y99.867 E4.83259 F540.000
G92 E0
G1 X113.804 Y105.807 F7800.000
G1 X113.804 Y105.807 F7800.000
G1 X106.035 Y107.197 F7800.000
G1 X104.729 Y105.891 E0.08441 F540.000
G1 X104.729 Y106.442 E0.10960
G1 X105.484 Y107.197 E0.15838
G1 X104.933 Y107.197 E0.18357
G1 X104.729 Y106.993 E0.19673
G92 E0
G1 X104.278 Y107.648 F7800.000
G1 X102.278 Y107.648 F7800.000
G1 X100.446 Y103.735 F7800.000
G1 X96.865 Y102.370 F7800.000
G1 X84.150 Y95.968 F7800.000
G1 X84.150 Y92.577 E0.15346 F378.000
G1 X89.640 Y92.577 E0.40191
G1 X90.945 Y92.673 E0.46110
G1 X91.033 Y92.680 E0.46509 F378.000
G1 X92.299 Y92.986 E0.52402
G1 X93.448 Y93.493 E0.58087
G1 X94.456 Y94.190 E0.63634
G1 X95.298 Y95.065 E0.69127
G1 X95.976 Y96.120 E0.74803
G1 X96.474 Y97.333 E0.80733
G1 X96.774 Y98.678 E0.86968
G1 X96.874 Y100.153 E0.93658
G1 X96.644 Y102.317 E1.03507
G1 X95.963 Y104.105 E1.12164
G1 X94.832 Y105.532 E1.20403
G1 X93.282 Y106.578 E1.28864
G1 X91.335 Y107.210 E1.38123
G1 X88.975 Y107.423 E1.48845
G1 X84.150 Y107.423 E1.70682
G1 X84.150 Y96.199 E2.21468
G1 X85.771 Y96.199 F7800.000
G1 X85.771 Y93.786 E2.32388 F378.000
G1 X89.417 Y93.786 E2.48889 F378.000
G1 X90.523 Y93.870 E2.53905
G1 X91.549 Y94.126 E2.58689
G1 X92.484 Y94.553 E2.63345
G1 X93.306 Y95.145 E2.67926
G1 X93.991 Y95.887 E2.72496
G1 X94.535 Y96.778 E2.77219
G1 X94.930 Y97.796 E2.82160
G1 X95.165 Y98.923 E2.87369
G1 X95.243 Y100.161 E2.92983
G1 X95.066 Y101.954 E3.01135
G1 X94.524 Y103.459 E3.08371
G1 X93.615 Y104.660 E3.15189
G1 X92.364 Y105.529 E3.22081
G1 X90.803 Y106.045 E3.29520
G1 X88.952 Y106.214 E3.37932
G1 X85.771 Y106.214 E3.52327
G1 X85.771 Y96.430 E3.96597
G1 X84.996 Y93.352 F7800.000
G1 X84.996 Y93.352 F7800.000
G1 X91.463 Y93.849 F7800.000
G1 X90.487 Y92.872 E4.02861 F540.000
G1 X89.896 Y92.829 E4.05548
G1 X90.735 Y93.667 E4.10927
G1 X90.128 Y93.607 E4.13695
G1 X89.324 Y92.803 E4.18854
G1 X88.777 Y92.803 E4.21335
G1 X89.536 Y93.562 E4.26205
G1 X88.987 Y93.560 E4.28695
G1 X88.230 Y92.803 E4.33552
G1 X87.683 Y92.803 E4.36033
G1 X88.440 Y93.560 E4.40891
G1 X87.893 Y93.560 E4.43372
G1 X87.136 Y92.803 E4.48230
G1 X86.590 Y92.803 E4.50711
G1 X87.347 Y93.560 E4.55569
G1 X86.800 Y93.560 E4.58050
G1 X86.043 Y92.803 E4.62907
G1 X85.496 Y92.803 E4.65388
G1 X86.253 Y93.560 E4.70246
G1 X85.706 Y93.560 E4.72727
G1 X84.949 Y92.803 E4.77585
G1 X84.409 Y92.810 E4.80036
G1 X85.545 Y93.945 E4.87323
G1 X85.545 Y94.492 E4.89804
G1 X84.376 Y93.323 E4.97306
G1 X84.376 Y93.870 E4.99787
G1 X85.545 Y95.039 E5.07288
G1 X85.545 Y95.586 E5.09769
G1 X84.376 Y94.417 E5.17270
G1 X84.376 Y94.964 E5.19751
G1 X85.545 Y96.133 E5.27253
G1 X85.545 Y96.679 E5.29734
G1 X84.376 Y95.510 E5.37235
G1 X84.376 Y96.057 E5.39716
G1 X85.545 Y97.226 E5.47217
G1 X85.545 Y97.773 E5.49698
G1 X84.376 Y96.604 E5.57200
G1 X84.376 Y97.151 E5.59681
G1 X85.545 Y98.320 E5.67182
G1 X85.545 Y98.867 E5.69663
G1 X84.376 Y97.698 E5.77165
G1 X84.376 Y98.244 E5.79645
G1 X85.545 Y99.414 E5.87147
G1 X85.545 Y99.960 E5.89628
G1 X84.376 Y98.791 E5.97129
G1 X84.376 Y99.338 E5.99610
G1 X85.545 Y100.507 E6.07112
G1 X85.545 Y101.054 E6.09593
G1 X84.376 Y99.885 E6.17094
G1 X84.376 Y100.432 E6.19575
G1 X85.545 Y101.601 E6.27076
G1 X85.545 Y102.148 E6.29557
G1 X84.376 Y100.978 E6.37059
G1 X84.376 Y101.525 E6.39540
G1 X85.545 Y102.694 E6.47041
G1 X85.545 Y103.241 E6.49522
G1 X84.376 Y102.072 E6.57023
G1 X84.376 Y102.619 E6.59504
G1 X85.545 Y103.788 E6.67006
G1 X85.545 Y104.335 E6.69487
G1 X84.376 Y103.166 E6.76988
G1 X84.376 Y103.713 E6.79469
G1 X85.545 Y104.882 E6.86970
G1 X85.545 Y105.428 E6.89451
G1 X84.376 Y104.259 E6.96953
G1 X84.376 Y104.806 E6.99434
G1 X85.545 Y105.975 E7.06935
G1 X85.463 Y106.440 E7.09076
G1 X86.220 Y107.197 E7.13934
G1 X86.766 Y107.197 E7.16415
G1 X86.009 Y106.440 E7.21273
G1 X85.545 Y106.522 E7.23413
G1 X84.376 Y105.353 E7.30915
G1 X84.376 Y105.900 E7.33396
G1 X85.673 Y107.197 E7.41719
G1 X85.126 Y107.197 E7.44200
G1 X84.376 Y106.447 E7.49015
G1 X84.376 Y106.993 E7.51496
G1 X84.579 Y107.197 E7.52802
G1 X86.556 Y106.440 F7800.000
G1 X87.313 Y107.197 E7.57660 F540.000
G1 X87.860 Y107.197 E7.60141
G1 X87.103 Y106.440 E7.64999
G1 X87.650 Y106.440 E7.67480
G1 X88.407 Y107.197 E7.72338
G1 X88.954 Y107.197 E7.74819
G1 X88.197 Y106.440 E7.79676
G1 X88.743 Y106.440 E7.82157
G1 X89.463 Y107.159 E7.86772
G1 X89.964 Y107.114 E7.89056
G1 X89.256 Y106.406 E7.93598
G1 X89.757 Y106.360 E7.95881
G1 X90.466 Y107.068 E8.00426
G1 X90.967 Y107.023 E8.02710
G1 X90.258 Y106.314 E8.07257
G1 X90.759 Y106.269 E8.09540
G1 X91.448 Y106.958 E8.13962
G1 X91.861 Y106.824 E8.15931
G1 X91.175 Y106.137 E8.20335
G1 X91.586 Y106.001 E8.22298
G1 X92.274 Y106.690 E8.26714
G1 X92.687 Y106.556 E8.28683
G1 X91.997 Y105.866 E8.33110
G1 X92.408 Y105.730 E8.35074
G1 X93.100 Y106.422 E8.39513
G1 X93.453 Y106.228 E8.41341
G1 X92.733 Y105.509 E8.45957
G1 X93.056 Y105.285 E8.47739
G1 X93.779 Y106.008 E8.52379
G1 X94.106 Y105.787 E8.54167
G1 X93.379 Y105.061 E8.58831
G1 X93.702 Y104.836 E8.60613
G1 X94.432 Y105.567 E8.65302
G1 X94.735 Y105.323 E8.67066
G1 X93.950 Y104.538 E8.72105
G1 X94.186 Y104.227 E8.73876
G1 X94.986 Y105.027 E8.79011
G1 X95.228 Y104.722 E8.80777
G1 X94.421 Y103.915 E8.85952
G1 X94.657 Y103.604 E8.87723
G1 X95.469 Y104.417 E8.92938
G1 X95.711 Y104.112 E8.94704
G1 X94.824 Y103.225 E9.00394
G1 X94.969 Y102.823 E9.02333
G1 X95.886 Y103.739 E9.08215
G1 X96.037 Y103.344 E9.10137
G1 X95.114 Y102.421 E9.16059
G1 X95.258 Y102.018 E9.17999
G1 X96.187 Y102.948 E9.23961
G1 X96.338 Y102.552 E9.25884
G1 X95.326 Y101.539 E9.32380
G1 X95.375 Y101.042 E9.34648
G1 X96.447 Y102.113 E9.41523
G1 X96.499 Y101.619 E9.43779
G1 X95.425 Y100.544 E9.50674
G1 X95.467 Y100.040 E9.52969
G1 X96.552 Y101.125 E9.59926
G1 X96.604 Y100.630 E9.62181
G1 X95.431 Y99.457 E9.69712
G1 X95.394 Y98.873 E9.72365
G1 X96.639 Y100.119 E9.80358
G1 X96.599 Y99.532 E9.83026
G1 X95.263 Y98.195 E9.91603
G1 X95.083 Y97.468 E9.95001
G1 X96.560 Y98.945 E10.04479
G1 X96.431 Y98.270 E10.07598
G1 X94.737 Y96.576 E10.18470
G1 X95.912 Y96.658 F7800.000
G1 X92.715 Y93.460 E10.38988 F540.000
G1 X92.367 Y94.206 F7800.000
G1 X91.115 Y92.954 E10.47019 F540.000
G1 X91.836 Y93.128 E10.50383
G1 X96.274 Y97.566 E10.78860
G1 X95.066 Y95.264 F7800.000
G1 X94.082 Y94.281 E10.85169 F540.000
M106 S255
G92 E0
G1 Z0.600 F7800.000
G1 X106.165 Y102.637 F7800.000
G1 X105.314 Y98.331 E1.31513 F600.000
G1 X105.314 Y92.352 E3.10672
G1 X105.476 Y99.149 F7800.000
G1 X110.677 Y99.156 E4.66536 F600.000
G1 X112.146 Y99.350 E5.10941
G1 X112.605 Y99.466 E5.25115
G1 X113.044 Y99.645 E5.39310
G1 X113.199 Y99.734 E5.44676
G1 X113.992 Y100.349 E5.74740
G1 X114.246 Y100.612 E5.85687
G1 X114.579 Y101.080 E6.02919
G1 X114.863 Y101.981 E6.31226
G1 X115.031 Y103.055 E6.63802
G1 X114.853 Y104.127 E6.96349
G1 X114.570 Y104.993 E7.23646
G1 X114.232 Y105.435 E7.40303
G1 X113.998 Y105.666 E7.50174
G1 X113.205 Y106.241 E7.79522
G1 X112.995 Y106.354 E7.86657
G1 X112.561 Y106.519 E8.00594
G1 X112.107 Y106.625 E8.14537
G1 X110.661 Y106.807 E8.58224
G1 X110.447 Y106.818 E8.64631
G1 X106.349 Y106.818 E9.87426
G1 X105.387 Y106.539 E10.17451
G1 X105.314 Y105.989 E10.34088
G1 X105.314 Y99.968 E12.14505
G1 X105.476 Y99.149 E12.39505
G92 E0
G1 X104.278 Y92.352 F7800.000
G1 X99.974 Y94.457 F7800.000
G1 X97.421 Y93.052 F7800.000
G1 X96.163 Y92.517 F7800.000
G1 X94.603 Y94.018 F7800.000
G1 X85.033 Y93.461 F7800.000
G1 X85.996 Y93.181 E0.30026 F600.000
G1 X89.472 Y93.183 E1.34183
G1 X90.550 Y93.258 E1.66578
G1 X90.934 Y93.314 E1.78194
G1 X91.684 Y93.498 E2.01328
G1 X92.082 Y93.627 E2.13873
G1 X92.747 Y93.926 E2.35724
G1 X93.098 Y94.118 E2.47721
G1 X93.708 Y94.547 E2.70057
G1 X93.970 Y94.762 E2.80222
G1 X94.689 Y95.547 E3.12097
G1 X95.271 Y96.488 E3.45263
G1 X95.703 Y97.575 E3.80315
G1 X95.967 Y98.794 E4.17696
G1 X96.057 Y100.137 E4.58030
G1 X95.852 Y102.128 E5.17988
G1 X95.270 Y103.711 E5.68535
G1 X95.113 Y103.947 E5.77030
G1 X94.317 Y104.976 E6.16011
G1 X93.986 Y105.257 E6.29026
G1 X92.975 Y105.948 E6.65726
G1 X92.767 Y106.052 E6.72691
G1 X92.534 Y106.147 E6.80219
G1 X91.207 Y106.582 E7.22074
G1 X90.833 Y106.649 E7.33464
G1 X88.948 Y106.818 E7.90158
G1 X85.996 Y106.818 E8.78630
G1 X85.033 Y106.539 E9.08656
G1 X84.960 Y105.989 E9.25292
G1 X84.960 Y94.011 E12.84209
G1 X85.033 Y93.461 E13.00845
G92 E0
G1 Z0.900 F7800.000
G1 X106.165 Y102.637 F7800.000
G1 X105.314 Y98.331 E1.31513 F600.000
G1 X105.314 Y92.352 E3.10672
G1 X105.476 Y99.149 F7800.000
G1 X110.677 Y99.156 E4.66536 F600.000
G1 X112.146 Y99.350 E5.10941
G1 X112.605 Y99.466 E5.25115
G1 X113.044 Y99.645 E5.39310
G1 X113.199 Y99.734 E5.44676
G1 X113.992 Y100.349 E5.74740
G1 X114.246 Y100.612 E5.85687
G1 X114.579 Y101.080 E6.02919
G1 X114.863 Y101.981 E6.31226
G1 X115.031 Y103.055 E6.63802
G1 X114.853 Y104.127 E6.96349
G1 X114.570 Y104.993 E7.23646
G1 X114.232 Y105.435 E7.40303
G1 X113.998 Y105.666 E7.50174
G1 X113.205 Y106.241 E7.79522
G1 X112.995 Y106.354 E7.86657
G1 X112.561 Y106.519 E8.00594
G1 X112.107 Y106.625 E8.14537
G1 X110.661 Y106.807 E8.58224
G1 X110.447 Y106.818 E8.64631
G1 X106.349 Y106.818 E9.87426
G1 X105.387 Y106.539 E10.17451
G1 X105.314 Y105.989 E10.34088
G1 X105.314 Y99.968 E12.14505
G1 X105.476 Y99.149 E12.39505
G92 E0
G1 X104.278 Y92.352 F7800.000
G1 X99.974 Y94.457 F7800.000
G1 X97.421 Y93.052 F7800.000
G1 X96.163 Y92.517 F7800.000
G1 X94.603 Y94.018 F7800.000
G1 X85.033 Y93.461 F7800.000
G1 X85.996 Y93.181 E0.30026 F600.000
G1 X89.472 Y93.183 E1.34183
G1 X90.550 Y93.258 E1.66578
G1 X90.934 Y93.314 E1.78194
G1 X91.684 Y93.498 E2.01328
G1 X92.082 Y93.627 E2.13872
G1 X92.747 Y93.926 E2.35724
G1 X93.098 Y94.118 E2.47721
G1 X93.708 Y94.547 E2.70057
G1 X93.970 Y94.762 E2.80222
G1 X94.689 Y95.547 E3.12097
G1 X95.271 Y96.488 E3.45263
G1 X95.703 Y97.575 E3.80315
G1 X95.967 Y98.794 E4.17696
G1 X96.057 Y100.137 E4.58030
G1 X95.852 Y102.128 E5.17988
G1 X95.270 Y103.711 E5.68535
G1 X95.113 Y103.947 E5.77030
G1 X94.317 Y104.976 E6.16011
G1 X93.986 Y105.257 E6.29026
G1 X92.975 Y105.948 E6.65726
G1 X92.767 Y106.052 E6.72691
G1 X92.534 Y106.147 E6.80219
G1 X91.207 Y106.582 E7.22074
G1 X90.833 Y106.649 E7.33464
G1 X88.948 Y106.818 E7.90158
G1 X85.996 Y106.818 E8.78630
G1 X85.033 Y106.539 E9.08656
G1 X84.960 Y105.989 E9.25292
G1 X84.960 Y94.011 E12.84209
G1 X85.033 Y93.461 E13.00845
G92 E0
G1 Z1.200 F7800.000
G1 X106.165 Y102.637 F7800.000
G1 X105.314 Y98.331 E1.31513 F600.000
G1 X105.314 Y92.352 E3.10672
G1 X105.476 Y99.149 F7800.000
G1 X110.677 Y99.156 E4.66536 F600.000
G1 X112.146 Y99.350 E5.10941
G1 X112.605 Y99.466 E5.25115
G1 X113.044 Y99.645 E5.39310
G1 X113.199 Y99.734 E5.44676
G1 X113.992 Y100.349 E5.74740
G1 X114.246 Y100.612 E5.85687
G1 X114.579 Y101.080 E6.02920
G1 X114.863 Y101.981 E6.31226
G1 X115.031 Y103.055 E6.63802
G1 X114.853 Y104.127 E6.96349
G1 X114.570 Y104.993 E7.23646
G1 X114.232 Y105.435 E7.40303
G1 X113.998 Y105.666 E7.50174
