; generated by Slic3r 1.2.9 on 2016-03-11 at 01:23:41

; external perimeters extrusion width = 1.54mm
; perimeters extrusion width = 2.62mm
; infill extrusion width = 6.27mm
; solid infill extrusion width = 2.62mm
; top infill extrusion width = 2.62mm

M107
M104 S30 ; set temperature
G28 ; home all axes
G1 Z5 F5000 ; lift nozzle
M302
M92 E10000
M500
M501
G1 E100
M109 S30 ; wait for temperature to be reached
G21 ; set units to millimeters
G90 ; use absolute coordinates
M82 ; use absolute distances for extrusion
G92 E0
G1 Z0.300 F7800.000
G1 X103.802 Y102.086 F7800.000
G1 X103.802 Y92.577 E0.43029 F378.000
G1 X105.423 Y92.577 E0.50364
G1 X105.423 Y98.940 E0.79156
G1 X110.547 Y98.940 E1.02341 F378.000
G1 X114.523 Y92.577 E1.36292
G1 X116.366 Y92.577 E1.44635
G1 X112.081 Y99.088 E1.79905
G1 X113.437 Y99.461 E1.86271
G1 X114.305 Y99.924 E1.90721
G1 X115.010 Y100.565 E1.95031
G1 X115.531 Y101.351 E1.99300
G1 X115.844 Y102.254 E2.03623
G1 X115.949 Y103.277 E2.08277
G1 X115.800 Y104.492 E2.13816
G1 X115.359 Y105.500 E2.18794
G1 X114.624 Y106.318 E2.23770
G1 X113.610 Y106.927 E2.29124
G1 X112.330 Y107.297 E2.35155
G1 X110.769 Y107.423 E2.42240
G1 X103.802 Y107.423 E2.73765
G1 X103.802 Y102.317 E2.96867
G1 X105.423 Y102.317 F7800.000
G1 X105.423 Y100.127 E3.06779 F378.000
G1 X110.668 Y100.127 E3.30514 F378.000
G1 X111.713 Y100.215 E3.35256
G1 X112.610 Y100.485 E3.39496
G1 X113.345 Y100.943 E3.43415
G1 X113.889 Y101.573 E3.47183
G1 X114.214 Y102.349 E3.50990
G1 X114.320 Y103.258 E3.55128
G1 X114.212 Y104.137 E3.59136
G1 X113.880 Y104.880 E3.62818
G1 X113.326 Y105.469 E3.66480
G1 X112.555 Y105.901 E3.70480
G1 X111.658 Y106.134 E3.74673
G1 X110.580 Y106.214 E3.79562
G1 X105.423 Y106.214 E4.02899
G1 X105.423 Y102.548 E4.19486
G1 X104.028 Y105.895 F7800.000
G1 X105.330 Y107.197 E4.27880 F540.000
G1 X104.781 Y107.197 E4.30384
G1 X104.028 Y106.444 E4.35237
G1 X104.028 Y106.993 E4.37741
G1 X104.231 Y107.197 E4.39054
G1 X105.197 Y98.824 F7800.000
G1 X104.028 Y97.655 E4.46590 F540.000
G1 X104.028 Y97.105 E4.49094
G1 X105.197 Y98.274 E4.56630
G1 X105.197 Y97.725 E4.59134
G1 X104.028 Y96.556 E4.66670
G1 X104.028 Y96.007 E4.69174
G1 X105.197 Y97.176 E4.76710
G1 X105.197 Y96.626 E4.79214
G1 X104.028 Y95.457 E4.86750
G1 X104.028 Y94.908 E4.89254
G1 X105.197 Y96.077 E4.96790
G1 X105.197 Y95.528 E4.99294
G1 X104.028 Y94.359 E5.06830
G1 X104.028 Y93.809 E5.09334
G1 X105.197 Y94.978 E5.16870
G1 X105.197 Y94.429 E5.19374
G1 X104.028 Y93.260 E5.26910
G1 X104.120 Y92.803 E5.29035
G1 X105.197 Y93.880 E5.35975
G1 X105.197 Y93.330 E5.38479
G1 X104.670 Y92.803 E5.41878
G92 E0
G1 X104.648 Y93.352 F7800.000
G1 X104.648 Y93.352 F7800.000
G1 X112.648 Y100.232 F7800.000
G1 X111.643 Y99.227 E0.06476 F540.000
G1 X111.929 Y98.964 E0.08249
G1 X111.211 Y98.245 E0.12882
G1 X111.422 Y97.907 E0.14699
G1 X112.147 Y98.633 E0.19376
G1 X112.366 Y98.302 E0.21184
G1 X111.633 Y97.569 E0.25905
G1 X111.844 Y97.231 E0.27722
G1 X112.584 Y97.970 E0.32487
G1 X112.802 Y97.639 E0.34294
G1 X112.056 Y96.893 E0.39103
G1 X112.267 Y96.555 E0.40920
G1 X113.020 Y97.308 E0.45773
G1 X113.238 Y96.976 E0.47580
G1 X112.478 Y96.217 E0.52477
G1 X112.689 Y95.879 E0.54294
G1 X113.456 Y96.645 E0.59234
G1 X113.674 Y96.314 E0.61042
G1 X112.901 Y95.541 E0.66026
G1 X113.112 Y95.203 E0.67843
G1 X113.892 Y95.983 E0.72871
G1 X114.110 Y95.651 E0.74679
G1 X113.323 Y94.864 E0.79750
G1 X113.534 Y94.526 E0.81568
G1 X114.328 Y95.320 E0.86683
G1 X114.546 Y94.989 E0.88491
G1 X113.746 Y94.188 E0.93650
G1 X113.957 Y93.850 E0.95468
G1 X114.764 Y94.657 E1.00671
G1 X114.982 Y94.326 E1.02479
G1 X114.168 Y93.512 E1.07726
G1 X114.379 Y93.174 E1.09543
G1 X115.200 Y93.995 E1.14834
G1 X115.418 Y93.664 E1.16642
G1 X114.591 Y92.836 E1.21977
G1 X115.107 Y92.803 E1.24335
G1 X115.636 Y93.332 E1.27747
G1 X115.656 Y92.803 E1.30162
G1 X115.854 Y93.001 E1.31438
G92 E0
G1 X114.696 Y101.494 F7800.000
G1 X114.696 Y101.494 F7800.000
G1 X113.159 Y99.644 F7800.000
G1 X115.467 Y101.953 E0.14880 F540.000
G1 X115.653 Y102.688 E0.18334
G1 X112.401 Y99.436 E0.39295
G1 X111.711 Y99.295 E0.42504
G1 X110.999 Y98.583 E0.47093
G1 X110.788 Y98.921 E0.48911
G1 X111.862 Y99.995 E0.55833
G1 X111.260 Y99.943 E0.58588
G1 X110.483 Y99.166 E0.63595
G1 X109.934 Y99.166 E0.66099
G1 X110.669 Y99.901 E0.70838
G1 X110.120 Y99.901 E0.73342
G1 X109.385 Y99.166 E0.78080
G1 X108.835 Y99.166 E0.80584
G1 X109.570 Y99.901 E0.85322
G1 X109.021 Y99.901 E0.87826
G1 X108.286 Y99.166 E0.92565
G1 X107.737 Y99.166 E0.95069
G1 X108.472 Y99.901 E0.99807
G1 X107.922 Y99.901 E1.02311
G1 X107.187 Y99.166 E1.07050
G1 X106.638 Y99.166 E1.09554
G1 X107.373 Y99.901 E1.14292
G1 X106.824 Y99.901 E1.16796
G1 X106.088 Y99.166 E1.21535
G1 X105.539 Y99.166 E1.24038
G1 X106.274 Y99.901 E1.28777
G1 X105.725 Y99.901 E1.31281
G1 X104.028 Y98.204 E1.42220
G1 X104.028 Y98.753 E1.44724
G1 X105.197 Y99.922 E1.52260
G1 X105.197 Y100.472 E1.54764
G1 X104.028 Y99.303 E1.62300
G1 X104.028 Y99.852 E1.64804
G1 X105.197 Y101.021 E1.72341
G1 X105.197 Y101.570 E1.74844
G1 X104.028 Y100.401 E1.82381
G1 X104.028 Y100.951 E1.84884
G1 X105.197 Y102.120 E1.92421
G1 X105.197 Y102.669 E1.94925
G1 X104.028 Y101.500 E2.02461
G1 X104.028 Y102.049 E2.04965
G1 X105.197 Y103.218 E2.12501
G1 X105.197 Y103.768 E2.15005
G1 X104.028 Y102.599 E2.22541
G1 X104.028 Y103.148 E2.25045
G1 X105.197 Y104.317 E2.32581
G1 X105.197 Y104.866 E2.35085
G1 X104.028 Y103.697 E2.42621
G1 X104.028 Y104.247 E2.45125
G1 X105.197 Y105.416 E2.52661
G1 X105.197 Y105.965 E2.55165
G1 X104.028 Y104.796 E2.62701
G1 X104.028 Y105.345 E2.65205
G1 X105.879 Y107.197 E2.77140
G1 X106.429 Y107.197 E2.79644
G1 X105.672 Y106.440 E2.84525
G1 X106.221 Y106.440 E2.87028
G1 X106.978 Y107.197 E2.91909
G1 X107.527 Y107.197 E2.94413
G1 X106.770 Y106.440 E2.99293
G1 X107.320 Y106.440 E3.01797
G1 X108.077 Y107.197 E3.06677
G1 X108.626 Y107.197 E3.09181
G1 X107.869 Y106.440 E3.14062
G1 X108.418 Y106.440 E3.16565
G1 X109.175 Y107.197 E3.21446
G1 X109.725 Y107.197 E3.23950
G1 X108.968 Y106.440 E3.28830
G1 X109.517 Y106.440 E3.31334
G1 X110.274 Y107.197 E3.36214
G1 X110.823 Y107.197 E3.38718
G1 X110.066 Y106.440 E3.43598
G1 X110.608 Y106.433 E3.46069
G1 X111.333 Y107.157 E3.50740
G1 X111.841 Y107.116 E3.53065
G1 X111.120 Y106.395 E3.57715
G1 X111.631 Y106.356 E3.60050
G1 X112.350 Y107.075 E3.64685
G1 X112.777 Y106.953 E3.66710
G1 X112.067 Y106.243 E3.71287
G1 X112.503 Y106.130 E3.73340
G1 X113.203 Y106.830 E3.77852
G1 X113.617 Y106.694 E3.79838
G1 X112.872 Y105.949 E3.84643
G1 X113.224 Y105.752 E3.86483
G1 X113.960 Y106.488 E3.91230
G1 X114.303 Y106.282 E3.93055
G1 X113.542 Y105.520 E3.97964
G1 X113.808 Y105.237 E3.99735
G1 X114.605 Y106.034 E4.04871
G1 X114.873 Y105.753 E4.06642
G1 X114.068 Y104.948 E4.11828
G1 X114.238 Y104.569 E4.13724
G1 X115.133 Y105.464 E4.19492
G1 X115.316 Y105.098 E4.21357
G1 X114.408 Y104.189 E4.27216
G1 X114.482 Y103.715 E4.29405
G1 X115.484 Y104.716 E4.35860
G1 X115.607 Y104.290 E4.37882
G1 X114.543 Y103.225 E4.44742
G1 X114.483 Y102.616 E4.47531
G1 X115.667 Y103.800 E4.55163
G1 X115.716 Y103.300 E4.57455
G1 X114.309 Y101.893 E4.66524
G92 E0
G1 X103.577 Y107.648 F7800.000
G1 X101.577 Y107.648 F7800.000
G1 X99.194 Y105.644 F7800.000
G1 X95.452 Y104.217 F7800.000
G1 X94.168 Y105.476 F7800.000
G1 X94.123 Y105.532 E0.00322 F378.000
G1 X92.573 Y106.578 E0.08784
G1 X90.627 Y107.210 E0.18043
G1 X88.267 Y107.423 E0.28765
G1 X83.441 Y107.423 E0.50602
G1 X83.441 Y92.577 E1.17779
G1 X88.932 Y92.577 E1.42624
G1 X90.236 Y92.673 E1.48543
G1 X90.325 Y92.680 E1.48943 F378.000
G1 X91.590 Y92.986 E1.54835
G1 X92.740 Y93.493 E1.60521
G1 X93.748 Y94.190 E1.66067
G1 X94.590 Y95.065 E1.71560
G1 X95.268 Y96.120 E1.77236
G1 X95.766 Y97.333 E1.83166
G1 X96.065 Y98.678 E1.89401
G1 X96.165 Y100.153 E1.96091
G1 X95.936 Y102.317 E2.05941
G1 X95.254 Y104.105 E2.14597
G1 X94.311 Y105.295 E2.21468
G1 X93.113 Y104.388 F7800.000
G1 X92.907 Y104.660 E2.23011 F378.000
G1 X91.656 Y105.529 E2.29903
G1 X90.095 Y106.045 E2.37342
G1 X88.243 Y106.214 E2.45754
G1 X85.062 Y106.214 E2.60149
G1 X85.062 Y93.786 E3.16385
G1 X88.709 Y93.786 E3.32885 F378.000
G1 X89.814 Y93.870 E3.37902
G1 X90.840 Y94.126 E3.42686
G1 X91.776 Y94.553 E3.47341
G1 X92.598 Y95.145 E3.51922
G1 X93.282 Y95.887 E3.56493
G1 X93.827 Y96.778 E3.61216
G1 X94.221 Y97.796 E3.66156
G1 X94.457 Y98.923 E3.71365
G1 X94.535 Y100.161 E3.76979
G1 X94.357 Y101.954 E3.85132
G1 X93.816 Y103.459 E3.92367
G1 X93.252 Y104.204 E3.96597
G1 X95.312 Y100.175 F7800.000
G1 X95.349 Y100.137 F7800.000
G1 X95.262 Y98.811 F7800.000
G1 X95.259 Y98.794 F7800.000
G1 X95.296 Y98.789 F7800.000
G1 X95.566 Y97.566 F7800.000
G1 X91.128 Y93.128 E4.25074 F540.000
G1 X90.407 Y92.954 E4.28438
G1 X91.659 Y94.206 E4.36469
G1 X92.006 Y93.460 F7800.000
G1 X95.204 Y96.658 E4.56987 F540.000
G1 X94.028 Y96.576 F7800.000
G1 X95.723 Y98.270 E4.67859 F540.000
G1 X95.851 Y98.945 E4.70978
G1 X94.374 Y97.468 E4.80456
G1 X94.554 Y98.195 E4.83854
G1 X95.891 Y99.532 E4.92431
G1 X95.931 Y100.119 E4.95099
G1 X94.685 Y98.873 E5.03091
G1 X94.722 Y99.457 E5.05745
G1 X95.896 Y100.630 E5.13275
G1 X95.843 Y101.125 E5.15531
G1 X94.759 Y100.040 E5.22488
G1 X94.716 Y100.544 E5.24783
G1 X95.791 Y101.619 E5.31678
G1 X95.738 Y102.113 E5.33934
G1 X94.667 Y101.042 E5.40809
G1 X94.617 Y101.539 E5.43077
G1 X95.630 Y102.552 E5.49573
G1 X95.479 Y102.948 E5.51495
G1 X94.550 Y102.018 E5.57458
G1 X94.405 Y102.421 E5.59397
G1 X95.328 Y103.344 E5.65320
G1 X95.177 Y103.739 E5.67242
G1 X94.260 Y102.823 E5.73124
G1 X94.116 Y103.225 E5.75063
G1 X95.003 Y104.112 E5.80753
G1 X94.761 Y104.417 E5.82519
G1 X93.948 Y103.604 E5.87734
G1 X93.713 Y103.915 E5.89505
G1 X94.519 Y104.722 E5.94680
G1 X94.277 Y105.027 E5.96446
G1 X93.477 Y104.227 E6.01581
G1 X93.242 Y104.538 E6.03352
G1 X94.027 Y105.323 E6.08391
G1 X93.724 Y105.567 E6.10155
G1 X92.993 Y104.836 E6.14844
G1 X92.670 Y105.061 E6.16626
G1 X93.397 Y105.787 E6.21290
G1 X93.071 Y106.008 E6.23078
G1 X92.348 Y105.285 E6.27718
G1 X92.025 Y105.509 E6.29500
G1 X92.744 Y106.228 E6.34116
G1 X92.391 Y106.422 E6.35944
G1 X91.699 Y105.730 E6.40383
G1 X91.288 Y105.866 E6.42346
G1 X91.978 Y106.556 E6.46774
G1 X91.565 Y106.690 E6.48743
G1 X90.877 Y106.001 E6.53159
G1 X90.466 Y106.137 E6.55122
G1 X91.153 Y106.824 E6.59526
G1 X90.740 Y106.958 E6.61495
G1 X90.051 Y106.269 E6.65917
G1 X89.550 Y106.314 E6.68199
G1 X90.259 Y107.023 E6.72747
G1 X89.757 Y107.068 E6.75031
G1 X89.049 Y106.360 E6.79576
G1 X88.548 Y106.406 E6.81859
G1 X89.256 Y107.114 E6.86400
G1 X88.754 Y107.159 E6.88685
G1 X88.035 Y106.440 E6.93299
G1 X87.488 Y106.440 E6.95780
G1 X88.245 Y107.197 E7.00638
G1 X87.698 Y107.197 E7.03119
G1 X86.941 Y106.440 E7.07977
G1 X86.394 Y106.440 E7.10458
G1 X87.152 Y107.197 E7.15316
G1 X86.605 Y107.197 E7.17797
G1 X85.848 Y106.440 E7.22655
G1 X83.871 Y107.197 F7800.000
G1 X83.667 Y106.993 E7.23961 F540.000
G1 X83.667 Y106.447 E7.26442
G1 X84.417 Y107.197 E7.31257
G1 X84.964 Y107.197 E7.33738
G1 X83.667 Y105.900 E7.42061
G1 X83.667 Y105.353 E7.44542
G1 X84.836 Y106.522 E7.52043
G1 X85.301 Y106.440 E7.54184
G1 X86.058 Y107.197 E7.59042
G1 X85.511 Y107.197 E7.61523
G1 X84.754 Y106.440 E7.66381
G1 X84.836 Y105.975 E7.68522
G1 X83.667 Y104.806 E7.76023
G1 X83.667 Y104.259 E7.78504
G1 X84.836 Y105.428 E7.86006
G1 X84.836 Y104.882 E7.88487
G1 X83.667 Y103.713 E7.95988
G1 X83.667 Y103.166 E7.98469
G1 X84.836 Y104.335 E8.05970
G1 X84.836 Y103.788 E8.08451
G1 X83.667 Y102.619 E8.15953
G1 X83.667 Y102.072 E8.18434
G1 X84.836 Y103.241 E8.25935
G1 X84.836 Y102.694 E8.28416
G1 X83.667 Y101.525 E8.35917
G1 X83.667 Y100.978 E8.38398
G1 X84.836 Y102.148 E8.45900
G1 X84.836 Y101.601 E8.48381
G1 X83.667 Y100.432 E8.55882
G1 X83.667 Y99.885 E8.58363
G1 X84.836 Y101.054 E8.65864
G1 X84.836 Y100.507 E8.68345
G1 X83.667 Y99.338 E8.75847
G1 X83.667 Y98.791 E8.78328
G1 X84.836 Y99.960 E8.85829
G1 X84.836 Y99.414 E8.88310
G1 X83.667 Y98.244 E8.95811
G1 X83.667 Y97.698 E8.98292
G1 X84.836 Y98.867 E9.05794
G1 X84.836 Y98.320 E9.08275
G1 X83.667 Y97.151 E9.15776
G1 X83.667 Y96.604 E9.18257
G1 X84.836 Y97.773 E9.25758
G1 X84.836 Y97.226 E9.28239
G1 X83.667 Y96.057 E9.35741
G1 X83.667 Y95.510 E9.38222
G1 X84.836 Y96.679 E9.45723
G1 X84.836 Y96.133 E9.48204
G1 X83.667 Y94.964 E9.55705
G1 X83.667 Y94.417 E9.58186
G1 X84.836 Y95.586 E9.65688
G1 X84.836 Y95.039 E9.68169
G1 X83.667 Y93.870 E9.75670
G1 X83.667 Y93.323 E9.78151
G1 X84.836 Y94.492 E9.85653
G1 X84.836 Y93.945 E9.88133
G1 X83.700 Y92.810 E9.95421
G1 X84.241 Y92.803 E9.97872
G1 X84.998 Y93.560 E10.02730
G1 X85.545 Y93.560 E10.05211
G1 X84.787 Y92.803 E10.10068
G1 X85.334 Y92.803 E10.12549
G1 X86.091 Y93.560 E10.17407
G1 X86.638 Y93.560 E10.19888
G1 X85.881 Y92.803 E10.24746
G1 X86.428 Y92.803 E10.27227
G1 X87.185 Y93.560 E10.32085
G1 X87.732 Y93.560 E10.34566
G1 X86.975 Y92.803 E10.39424
G1 X87.522 Y92.803 E10.41905
G1 X88.279 Y93.560 E10.46762
G1 X88.827 Y93.562 E10.49252
G1 X88.068 Y92.803 E10.54122
G1 X88.615 Y92.803 E10.56603
G1 X89.419 Y93.607 E10.61762
G1 X90.026 Y93.667 E10.64530
G1 X89.188 Y92.829 E10.69909
G1 X89.778 Y92.872 E10.72595
G1 X90.754 Y93.849 E10.78860
G1 X93.374 Y94.281 F7800.000
G1 X94.357 Y95.264 E10.85169 F540.000
M106 S255
G92 E0
G1 Z0.600 F7800.000
G1 X104.612 Y92.352 F7800.000
G1 X104.612 Y98.715 E1.90665 F600.000
G1 X105.463 Y103.021 E3.22178
G92 E0
G1 X104.648 Y106.648 F7800.000
G1 X104.648 Y106.648 F7800.000
G1 X110.443 Y98.681 F7800.000
G1 X111.746 Y99.535 E0.46681 F600.000
G1 X111.915 Y99.623 E0.52397
G1 X112.221 Y99.745 E0.62257
G1 X112.964 Y99.974 E0.85547
G1 X113.193 Y100.075 E0.93039
G1 X113.673 Y100.352 E1.09669
G1 X113.896 Y100.504 E1.17751
G1 X114.436 Y101.057 E1.40910
G1 X114.600 Y101.314 E1.50048
G1 X114.810 Y101.708 E1.63419
G1 X114.928 Y102.016 E1.73299
G1 X115.044 Y102.431 E1.86219
G1 X115.132 Y103.269 E2.11449
G1 X115.010 Y104.275 E2.41825
G1 X114.677 Y105.060 E2.67378
G1 X114.610 Y105.164 E2.71088
G1 X114.406 Y105.426 E2.81035
G1 X114.134 Y105.723 E2.93107
G1 X113.637 Y106.096 E3.11711
G1 X113.326 Y106.276 E3.22483
G1 X112.716 Y106.516 E3.42117
G1 X112.212 Y106.657 E3.57799
G1 X111.838 Y106.721 E3.69193
G1 X110.572 Y106.818 E4.07231
G1 X105.648 Y106.818 E5.54777
G1 X104.685 Y106.539 E5.84802
G1 X104.612 Y105.989 E6.01439
G1 X104.612 Y100.352 E7.70349
G1 X104.774 Y99.533 E7.95349
G1 X110.422 Y99.533 E9.64582
G1 X110.730 Y99.506 E9.73848
G1 X111.376 Y99.293 E9.94246
G1 X111.672 Y98.448 E10.21060
G1 X115.582 Y92.352 E12.38072
G92 E0
G1 X107.648 Y92.352 F7800.000
G1 X101.577 Y92.352 F7800.000
G1 X99.631 Y95.766 F7800.000
G1 X95.981 Y97.265 F7800.000
G1 X84.325 Y93.461 F7800.000
G1 X85.287 Y93.181 E0.30026 F600.000
G1 X88.763 Y93.183 E1.34183
G1 X89.842 Y93.258 E1.66578
G1 X90.225 Y93.314 E1.78194
G1 X90.975 Y93.498 E2.01328
G1 X91.373 Y93.627 E2.13873
G1 X92.038 Y93.926 E2.35724
G1 X92.390 Y94.118 E2.47721
G1 X92.999 Y94.547 E2.70057
G1 X93.261 Y94.762 E2.80222
G1 X93.980 Y95.547 E3.12097
G1 X94.563 Y96.488 E3.45263
G1 X94.995 Y97.575 E3.80315
G1 X95.259 Y98.794 E4.17696
G1 X95.348 Y100.137 E4.58030
G1 X95.144 Y102.128 E5.17988
G1 X94.562 Y103.711 E5.68535
G1 X94.405 Y103.947 E5.77030
G1 X93.608 Y104.976 E6.16011
G1 X93.277 Y105.257 E6.29026
G1 X92.266 Y105.948 E6.65726
G1 X92.058 Y106.052 E6.72691
G1 X91.826 Y106.147 E6.80219
G1 X90.498 Y106.582 E7.22074
G1 X90.124 Y106.649 E7.33464
G1 X88.240 Y106.818 E7.90158
G1 X85.287 Y106.818 E8.78630
G1 X84.325 Y106.539 E9.08656
G1 X84.252 Y105.989 E9.25292
G1 X84.252 Y94.011 E12.84209
G1 X84.325 Y93.461 E13.00845
G92 E0
G1 Z0.900 F7800.000
G1 X104.612 Y92.352 F7800.000
G1 X104.612 Y98.715 E1.90665 F600.000
G1 X105.463 Y103.021 E3.22178
G92 E0
G1 X104.648 Y106.648 F7800.000
G1 X104.648 Y106.648 F7800.000
G1 X110.443 Y98.681 F7800.000
G1 X111.746 Y99.535 E0.46681 F600.000
G1 X111.915 Y99.623 E0.52397
G1 X112.221 Y99.745 E0.62257
G1 X112.964 Y99.974 E0.85547
G1 X113.193 Y100.075 E0.93039
G1 X113.673 Y100.352 E1.09669
G1 X113.896 Y100.504 E1.17751
G1 X114.436 Y101.057 E1.40910
G1 X114.600 Y101.314 E1.50048
G1 X114.810 Y101.708 E1.63419
G1 X114.928 Y102.016 E1.73299
G1 X115.044 Y102.431 E1.86219
G1 X115.132 Y103.269 E2.11449
