; generated by Slic3r 1.2.9 on 2016-03-11 at 01:23:43

; external perimeters extrusion width = 1.54mm
; perimeters extrusion width = 2.62mm
; infill extrusion width = 6.27mm
; solid infill extrusion width = 2.62mm
; top infill extrusion width = 2.62mm

M107
M104 S30 ; set temperature
G28 ; home all axes
G1 Z5 F5000 ; lift nozzle
M302
M92 E10000
M500
M501
G1 E100
M109 S30 ; wait for temperature to be reached
G21 ; set units to millimeters
G90 ; use absolute coordinates
M82 ; use absolute distances for extrusion
G92 E0
G1 Z0.300 F7800.000
G1 X114.560 Y99.439 F7800.000
G1 X114.194 Y99.675 E0.01971 F378.000
G1 X113.830 Y99.867 E0.03833
G1 X113.033 Y100.205 E0.07749
G1 X112.173 Y100.480 E0.11833
G1 X109.074 Y101.222 E0.26255
G1 X108.127 Y101.487 E0.30704
G1 X107.480 Y101.724 E0.33822
G1 X107.020 Y101.967 E0.36173
G1 X106.634 Y102.246 E0.38333
G1 X106.317 Y102.568 E0.40374
G1 X106.082 Y102.947 E0.42390
G1 X105.942 Y103.384 E0.44468
G1 X105.896 Y103.877 E0.46708
G1 X106.012 Y104.675 E0.50358
G1 X106.371 Y105.346 E0.53802
G1 X106.961 Y105.864 E0.57354
G1 X107.751 Y106.224 E0.61281
G1 X108.721 Y106.434 E0.65775
G1 X109.874 Y106.503 E0.71002
G1 X110.934 Y106.441 E0.75805
G1 X111.840 Y106.250 E0.79997
G1 X112.595 Y105.925 E0.83715
G1 X113.203 Y105.449 E0.87209
G1 X113.664 Y104.813 E0.90762
G1 X113.897 Y104.221 E0.93640
G1 X115.482 Y104.500 E1.00921
G1 X115.135 Y105.373 E1.05173
G1 X114.527 Y106.231 E1.09931
G1 X113.751 Y106.848 E1.14417
G1 X112.748 Y107.270 E1.19339
G1 X111.462 Y107.528 E1.25273
G1 X109.897 Y107.615 E1.32367
G1 X108.213 Y107.499 E1.40006
G1 X106.827 Y107.157 E1.46465
G1 X105.737 Y106.595 E1.52013
G1 X104.956 Y105.839 E1.56931
G1 X104.490 Y104.901 E1.61671
G1 X104.331 Y103.754 E1.66911
G1 X104.361 Y103.243 E1.69229
G1 X104.451 Y102.768 E1.71413
G1 X104.599 Y102.338 E1.73472
G1 X104.803 Y101.947 E1.75471
G1 X105.060 Y101.589 E1.77465
G1 X105.371 Y101.265 E1.79494
G1 X105.752 Y100.966 E1.81688
G1 X106.223 Y100.681 E1.84178
G1 X106.784 Y100.413 E1.86991
G1 X107.488 Y100.153 E1.90386
G1 X108.389 Y99.890 E1.94634
G1 X111.388 Y99.180 E2.08578
G1 X111.942 Y99.030 E2.11178
G1 X112.448 Y98.855 E2.13600
G1 X112.905 Y98.655 E2.15856
G1 X113.311 Y98.420 E2.17980
G1 X113.659 Y98.141 E2.19997
G1 X113.946 Y97.817 E2.21958
G1 X114.160 Y97.431 E2.23954
G1 X114.287 Y96.981 E2.26069
G1 X114.329 Y96.468 E2.28401
G1 X114.198 Y95.589 E2.32420
G1 X113.798 Y94.847 E2.36234
G1 X113.139 Y94.270 E2.40197
G1 X112.262 Y93.866 E2.44567
G1 X111.270 Y93.646 E2.49163
G1 X109.930 Y93.551 E2.55245
G1 X108.698 Y93.624 E2.60827
G1 X107.640 Y93.847 E2.65719
G1 X106.754 Y94.225 E2.70081
G1 X106.042 Y94.774 E2.74145
G1 X105.516 Y95.498 E2.78199
G1 X105.256 Y96.185 E2.81521
G1 X103.728 Y95.880 E2.88569
G1 X104.674 Y94.045 E2.97909
G1 X106.733 Y92.808 E3.08779
G1 X109.860 Y92.386 E3.23054
G1 X111.547 Y92.503 E3.30707
G1 X111.666 Y92.512 E3.31247 F378.000
G1 X113.171 Y92.886 E3.38265
G1 X114.368 Y93.502 E3.44358
G1 X115.234 Y94.330 E3.49778
G1 X115.750 Y95.351 E3.54955
G1 X115.926 Y96.593 E3.60632
G1 X115.901 Y97.090 E3.62883
G1 X115.828 Y97.546 E3.64972
G1 X115.707 Y97.953 E3.66893
G1 X115.544 Y98.320 E3.68712
G1 X115.344 Y98.653 E3.70467
G1 X115.107 Y98.952 E3.72192
G1 X114.741 Y99.296 E3.74467
G1 X113.214 Y99.910 F7800.000
G1 X112.393 Y99.089 E3.79754 F540.000
G1 X112.780 Y98.928 E3.81665
G1 X113.599 Y99.747 E3.86939
G1 X113.971 Y99.569 E3.88814
G1 X113.144 Y98.743 E3.94136
G1 X113.481 Y98.531 E3.95949
G1 X114.317 Y99.367 E4.01330
G1 X114.634 Y99.135 E4.03119
G1 X113.786 Y98.287 E4.08578
G1 X114.044 Y97.996 E4.10349
G1 X114.917 Y98.869 E4.15973
G1 X115.165 Y98.568 E4.17749
G1 X114.258 Y97.661 E4.23594
G1 X114.419 Y97.274 E4.25505
G1 X115.368 Y98.223 E4.31617
G1 X115.528 Y97.833 E4.33534
G1 X114.520 Y96.825 E4.40025
G1 X114.546 Y96.302 E4.42410
G1 X115.636 Y97.393 E4.49433
G1 X115.689 Y96.896 E4.51706
G1 X114.450 Y95.658 E4.59683
G1 X114.018 Y94.677 F7800.000
G1 X115.644 Y96.303 E4.70154 F540.000
G1 X115.554 Y95.664 E4.73093
G1 X112.989 Y93.099 E4.89611
G1 X114.254 Y93.815 F7800.000
G1 X115.094 Y94.655 E4.95024 F540.000
G1 X113.730 Y94.389 F7800.000
G1 X112.255 Y92.914 E5.04522 F540.000
G1 X111.527 Y92.734 E5.07939
G1 X112.450 Y93.658 E5.13889
G1 X111.743 Y93.499 E5.17193
G1 X110.937 Y92.693 E5.22383
G1 X110.347 Y92.652 E5.25076
G1 X111.096 Y93.401 E5.29897
G1 X110.505 Y93.359 E5.32596
G1 X109.763 Y92.617 E5.37375
G1 X109.279 Y92.682 E5.39597
G1 X109.926 Y93.329 E5.43764
G1 X109.408 Y93.360 E5.46127
G1 X108.795 Y92.747 E5.50073
G1 X108.312 Y92.813 E5.52296
G1 X108.890 Y93.391 E5.56020
G1 X108.418 Y93.468 E5.58199
G1 X107.828 Y92.878 E5.61997
G1 X107.345 Y92.943 E5.64219
G1 X107.965 Y93.563 E5.68212
G1 X107.529 Y93.677 E5.70262
G1 X106.861 Y93.009 E5.74565
G1 X106.487 Y93.184 E5.76444
G1 X107.144 Y93.841 E5.80675
G1 X106.760 Y94.005 E5.82580
G1 X106.145 Y93.390 E5.86541
G1 X105.802 Y93.596 E5.88363
G1 X106.434 Y94.228 E5.92435
G1 X106.124 Y94.467 E5.94217
G1 X105.459 Y93.802 E5.98502
G1 X105.116 Y94.008 E6.00324
G1 X105.836 Y94.728 E6.04964
G1 X105.605 Y95.046 E6.06754
G1 X104.798 Y94.239 E6.11952
G1 X104.610 Y94.600 E6.13805
G1 X105.374 Y95.364 E6.18725
G1 X105.206 Y95.745 E6.20621
G1 X104.424 Y94.962 E6.25660
G1 X104.237 Y95.324 E6.27516
G1 X104.748 Y95.835 E6.30806
G92 E0
G1 X106.225 Y101.585 F7800.000
G1 X106.225 Y101.585 F7800.000
G1 X106.796 Y100.628 F7800.000
G1 X107.623 Y101.455 E0.05329 F540.000
G1 X107.244 Y101.625 E0.07220
G1 X106.424 Y100.805 E0.12501
G1 X106.071 Y101.001 E0.14340
G1 X106.891 Y101.821 E0.19621
G1 X106.573 Y102.051 E0.21411
G1 X105.741 Y101.220 E0.26768
G1 X105.441 Y101.469 E0.28543
G1 X106.292 Y102.320 E0.34023
G1 X106.051 Y102.627 E0.35803
G1 X105.179 Y101.755 E0.41419
G1 X104.956 Y102.081 E0.43217
G1 X105.856 Y102.981 E0.49017
G1 X105.723 Y103.397 E0.51005
G1 X104.776 Y102.450 E0.57105
G1 X104.647 Y102.870 E0.59107
G1 X105.674 Y103.897 E0.65722
G1 X105.749 Y104.521 E0.68581
G1 X104.577 Y103.349 E0.76130
G1 X104.594 Y103.914 E0.78708
G1 X106.100 Y105.420 E0.88408
G1 X106.733 Y106.054 F7800.000
G1 X107.828 Y107.149 E0.95459 F540.000
G1 X107.689 Y106.461 E0.98651
G1 X108.516 Y107.288 E1.03971
G1 X109.105 Y107.328 E1.06662
G1 X108.390 Y106.613 E1.11264
G1 X109.009 Y106.683 E1.14098
G1 X109.694 Y107.368 E1.18512
G1 X110.248 Y107.373 E1.21034
G1 X109.593 Y106.718 E1.25254
G1 X110.133 Y106.710 E1.27717
G1 X110.768 Y107.344 E1.31804
G1 X111.288 Y107.315 E1.34176
G1 X110.652 Y106.679 E1.38275
G1 X111.135 Y106.614 E1.40498
G1 X111.771 Y107.250 E1.44595
G1 X112.228 Y107.158 E1.46718
G1 X111.589 Y106.518 E1.50839
G1 X112.013 Y106.394 E1.52853
G1 X112.686 Y107.066 E1.57186
G1 X113.080 Y106.912 E1.59115
G1 X112.397 Y106.229 E1.63518
G1 X112.759 Y106.042 E1.65373
G1 X113.466 Y106.750 E1.69931
G1 X113.815 Y106.550 E1.71763
G1 X113.067 Y105.801 E1.76586
G1 X113.367 Y105.552 E1.78362
G1 X114.121 Y106.307 E1.83220
G1 X114.408 Y106.045 E1.84990
G1 X113.597 Y105.234 E1.90211
G1 X113.828 Y104.916 E1.92001
G1 X114.643 Y105.731 E1.97253
G1 X114.871 Y105.410 E1.99046
G1 X113.992 Y104.531 E2.04709
G1 X114.600 Y104.590 E2.07492
G1 X115.050 Y105.040 E2.10392
G92 E0
G1 X113.887 Y98.952 F7800.000
G1 X113.887 Y98.952 F7800.000
G1 X111.985 Y99.230 F7800.000
G1 X112.814 Y100.060 E0.05342 F540.000
G1 X112.399 Y100.193 E0.07330
G1 X111.555 Y99.349 E0.12763
G1 X111.116 Y99.459 E0.14824
G1 X111.971 Y100.314 E0.20327
G1 X111.528 Y100.420 E0.22401
G1 X110.672 Y99.564 E0.27910
G1 X110.229 Y99.670 E0.29988
G1 X111.085 Y100.526 E0.35502
G1 X110.642 Y100.632 E0.37577
G1 X109.785 Y99.775 E0.43097
G1 X109.341 Y99.880 E0.45175
G1 X110.199 Y100.738 E0.50701
G1 X109.756 Y100.844 E0.52775
G1 X108.897 Y99.985 E0.58308
G1 X108.453 Y100.090 E0.60385
G1 X109.313 Y100.950 E0.65923
G1 X108.877 Y101.062 E0.67976
G1 X108.025 Y100.211 E0.73458
G1 X107.601 Y100.335 E0.75474
G1 X108.448 Y101.182 E0.80930
G1 X108.025 Y101.308 E0.82940
G1 X107.194 Y100.478 E0.88289
G1 X104.682 Y104.551 F7800.000
G1 X107.099 Y106.969 E1.03857 F540.000
G1 X106.011 Y106.430 F7800.000
G1 X105.098 Y105.517 E1.09738 F540.000
G92 E0
G1 X104.232 Y102.711 F7800.000
G1 X100.924 Y100.440 F7800.000
G1 X101.146 Y99.537 F7800.000
G1 X100.580 Y98.397 F7800.000
G1 X96.921 Y98.645 F7800.000
G1 X84.074 Y94.745 F7800.000
G1 X84.074 Y92.577 E0.09809 F378.000
G1 X89.564 Y92.577 E0.34654
G1 X90.823 Y92.670 E0.40364
G1 X90.957 Y92.680 E0.40973 F378.000
G1 X92.223 Y92.986 E0.46866
G1 X93.372 Y93.493 E0.52551
G1 X94.380 Y94.190 E0.58098
G1 X95.222 Y95.065 E0.63590
G1 X95.900 Y96.120 E0.69267
G1 X96.398 Y97.333 E0.75197
G1 X96.698 Y98.678 E0.81431
G1 X96.798 Y100.153 E0.88122
G1 X96.568 Y102.317 E0.97971
G1 X95.887 Y104.105 E1.06628
G1 X94.756 Y105.532 E1.14866
G1 X93.206 Y106.578 E1.23328
G1 X91.259 Y107.210 E1.32587
G1 X88.899 Y107.423 E1.43309
G1 X84.074 Y107.423 E1.65146
G1 X84.074 Y94.976 E2.21468
G1 X85.695 Y94.976 F7800.000
G1 X85.695 Y93.786 E2.26852 F378.000
G1 X89.341 Y93.786 E2.43353 F378.000
G1 X90.447 Y93.870 E2.48369
G1 X91.473 Y94.126 E2.53153
G1 X92.408 Y94.553 E2.57808
G1 X93.230 Y95.145 E2.62390
G1 X93.915 Y95.887 E2.66960
G1 X94.459 Y96.778 E2.71683
G1 X94.854 Y97.796 E2.76624
G1 X95.089 Y98.923 E2.81833
G1 X95.167 Y100.161 E2.87447
G1 X94.990 Y101.954 E2.95599
G1 X94.448 Y103.459 E3.02835
G1 X93.539 Y104.660 E3.09653
G1 X92.288 Y105.529 E3.16545
G1 X90.727 Y106.045 E3.23983
G1 X88.876 Y106.214 E3.32396
G1 X85.695 Y106.214 E3.46791
G1 X85.695 Y95.207 E3.96597
G1 X84.920 Y93.352 F7800.000
G1 X84.920 Y93.352 F7800.000
G1 X91.387 Y93.849 F7800.000
G1 X90.411 Y92.872 E4.02861 F540.000
G1 X89.820 Y92.829 E4.05548
G1 X90.659 Y93.667 E4.10927
G1 X90.052 Y93.607 E4.13695
G1 X89.248 Y92.803 E4.18854
G1 X88.701 Y92.803 E4.21335
G1 X89.460 Y93.562 E4.26205
G1 X88.911 Y93.560 E4.28695
G1 X88.154 Y92.803 E4.33552
G1 X87.607 Y92.803 E4.36033
G1 X88.364 Y93.560 E4.40891
G1 X87.817 Y93.560 E4.43372
G1 X87.060 Y92.803 E4.48230
G1 X86.514 Y92.803 E4.50711
G1 X87.271 Y93.560 E4.55569
G1 X86.724 Y93.560 E4.58050
G1 X85.967 Y92.803 E4.62908
G1 X85.420 Y92.803 E4.65388
G1 X86.177 Y93.560 E4.70246
G1 X85.630 Y93.560 E4.72727
G1 X84.873 Y92.803 E4.77585
G1 X84.333 Y92.810 E4.80036
G1 X85.469 Y93.945 E4.87323
G1 X85.469 Y94.492 E4.89804
G1 X84.300 Y93.323 E4.97306
G1 X84.300 Y93.870 E4.99787
G1 X85.469 Y95.039 E5.07288
G1 X85.469 Y95.586 E5.09769
G1 X84.300 Y94.417 E5.17270
G1 X84.300 Y94.964 E5.19751
G1 X85.469 Y96.133 E5.27253
G1 X85.469 Y96.679 E5.29734
G1 X84.300 Y95.510 E5.37235
G1 X84.300 Y96.057 E5.39716
G1 X85.469 Y97.226 E5.47218
G1 X85.469 Y97.773 E5.49698
G1 X84.300 Y96.604 E5.57200
G1 X84.300 Y97.151 E5.59681
G1 X85.469 Y98.320 E5.67182
G1 X85.469 Y98.867 E5.69663
G1 X84.300 Y97.698 E5.77165
G1 X84.300 Y98.244 E5.79646
G1 X85.469 Y99.414 E5.87147
G1 X85.469 Y99.960 E5.89628
G1 X84.300 Y98.791 E5.97129
G1 X84.300 Y99.338 E5.99610
G1 X85.469 Y100.507 E6.07112
G1 X85.469 Y101.054 E6.09593
G1 X84.300 Y99.885 E6.17094
G1 X84.300 Y100.432 E6.19575
G1 X85.469 Y101.601 E6.27076
G1 X85.469 Y102.148 E6.29557
G1 X84.300 Y100.978 E6.37059
G1 X84.300 Y101.525 E6.39540
G1 X85.469 Y102.694 E6.47041
G1 X85.469 Y103.241 E6.49522
G1 X84.300 Y102.072 E6.57023
G1 X84.300 Y102.619 E6.59504
G1 X85.469 Y103.788 E6.67006
G1 X85.469 Y104.335 E6.69487
G1 X84.300 Y103.166 E6.76988
G1 X84.300 Y103.713 E6.79469
G1 X85.469 Y104.882 E6.86970
G1 X85.469 Y105.428 E6.89451
G1 X84.300 Y104.259 E6.96953
G1 X84.300 Y104.806 E6.99434
G1 X85.469 Y105.975 E7.06935
G1 X85.387 Y106.440 E7.09076
G1 X86.144 Y107.197 E7.13934
G1 X86.690 Y107.197 E7.16415
G1 X85.933 Y106.440 E7.21273
G1 X85.469 Y106.522 E7.23413
G1 X84.300 Y105.353 E7.30915
G1 X84.300 Y105.900 E7.33396
G1 X85.597 Y107.197 E7.41719
G1 X85.050 Y107.197 E7.44200
G1 X84.300 Y106.447 E7.49015
G1 X84.300 Y106.993 E7.51496
G1 X84.503 Y107.197 E7.52802
G1 X86.480 Y106.440 F7800.000
G1 X87.237 Y107.197 E7.57660 F540.000
G1 X87.784 Y107.197 E7.60141
G1 X87.027 Y106.440 E7.64999
G1 X87.574 Y106.440 E7.67480
G1 X88.331 Y107.197 E7.72338
G1 X88.878 Y107.197 E7.74819
G1 X88.121 Y106.440 E7.79676
G1 X88.667 Y106.440 E7.82157
G1 X89.387 Y107.159 E7.86772
G1 X89.888 Y107.114 E7.89056
G1 X89.180 Y106.406 E7.93598
G1 X89.681 Y106.360 E7.95881
G1 X90.390 Y107.068 E8.00425
G1 X90.891 Y107.023 E8.02710
G1 X90.182 Y106.314 E8.07257
G1 X90.683 Y106.269 E8.09540
G1 X91.372 Y106.958 E8.13961
G1 X91.785 Y106.824 E8.15931
G1 X91.099 Y106.137 E8.20334
G1 X91.510 Y106.001 E8.22298
G1 X92.198 Y106.690 E8.26714
G1 X92.611 Y106.556 E8.28683
G1 X91.921 Y105.866 E8.33110
G1 X92.332 Y105.730 E8.35074
G1 X93.024 Y106.422 E8.39513
G1 X93.377 Y106.228 E8.41341
G1 X92.657 Y105.509 E8.45957
G1 X92.980 Y105.285 E8.47739
G1 X93.703 Y106.008 E8.52379
G1 X94.030 Y105.787 E8.54166
G1 X93.303 Y105.061 E8.58831
G1 X93.626 Y104.836 E8.60613
G1 X94.356 Y105.567 E8.65302
G1 X94.659 Y105.323 E8.67066
G1 X93.874 Y104.538 E8.72105
G1 X94.110 Y104.227 E8.73876
G1 X94.910 Y105.027 E8.79011
G1 X95.152 Y104.722 E8.80777
G1 X94.345 Y103.915 E8.85952
G1 X94.581 Y103.604 E8.87723
G1 X95.393 Y104.417 E8.92938
G1 X95.635 Y104.112 E8.94704
G1 X94.748 Y103.225 E9.00394
G1 X94.893 Y102.823 E9.02333
G1 X95.810 Y103.739 E9.08215
G1 X95.961 Y103.344 E9.10137
G1 X95.038 Y102.421 E9.16059
G1 X95.182 Y102.018 E9.17999
G1 X96.111 Y102.948 E9.23961
G1 X96.262 Y102.552 E9.25884
G1 X95.250 Y101.539 E9.32380
G1 X95.299 Y101.042 E9.34648
G1 X96.371 Y102.113 E9.41523
G1 X96.423 Y101.619 E9.43779
G1 X95.349 Y100.544 E9.50674
G1 X95.391 Y100.040 E9.52969
G1 X96.476 Y101.125 E9.59926
G1 X96.528 Y100.630 E9.62181
G1 X95.355 Y99.457 E9.69712
G1 X95.318 Y98.873 E9.72365
G1 X96.563 Y100.119 E9.80358
G1 X96.523 Y99.532 E9.83026
G1 X95.187 Y98.195 E9.91603
G1 X95.007 Y97.468 E9.95001
G1 X96.484 Y98.945 E10.04479
G1 X96.355 Y98.270 E10.07598
G1 X94.661 Y96.576 E10.18470
G1 X95.836 Y96.658 F7800.000
G1 X92.639 Y93.460 E10.38988 F540.000
G1 X92.291 Y94.206 F7800.000
G1 X91.039 Y92.954 E10.47019 F540.000
G1 X91.760 Y93.128 E10.50383
G1 X96.198 Y97.566 E10.78859
G1 X94.990 Y95.264 F7800.000
G1 X94.006 Y94.281 E10.85169 F540.000
M106 S255
G92 E0
G1 Z0.600 F7800.000
G1 X115.044 Y104.194 F7800.000
G1 X113.966 Y105.700 E0.55490 F600.000
G1 X113.621 Y106.033 E0.69863
G1 X113.380 Y106.223 E0.79048
G1 X113.028 Y106.430 E0.91291
G1 X112.557 Y106.647 E1.06844
G1 X111.940 Y106.831 E1.26132
G1 X111.388 Y106.944 E1.43011
G1 X110.950 Y106.998 E1.56233
G1 X109.900 Y107.058 E1.87735
G1 X108.706 Y106.983 E2.23605
G1 X108.302 Y106.930 E2.35813
G1 X107.655 Y106.780 E2.55715
G1 X107.044 Y106.577 E2.74989
G1 X106.528 Y106.307 E2.92447
G1 X106.136 Y106.040 E3.06682
G1 X105.959 Y105.878 E3.13854
G1 X105.741 Y105.636 E3.23607
G1 X105.561 Y105.397 E3.32583
G1 X105.384 Y105.055 E3.44119
G1 X105.234 Y104.671 E3.56453
G1 X105.141 Y104.014 E3.76347
G1 X105.121 Y103.723 E3.85102
G1 X105.151 Y103.334 E3.96781
G1 X105.229 Y102.975 E4.07802
G1 X105.337 Y102.656 E4.17891
G1 X105.417 Y102.501 E4.23119
G1 X105.674 Y102.100 E4.37396
G1 X105.905 Y101.855 E4.47475
G1 X106.194 Y101.606 E4.58916
G1 X106.583 Y101.349 E4.72878
G1 X107.121 Y101.077 E4.90935
G1 X107.939 Y100.782 E5.16989
G1 X108.874 Y100.523 E5.46060
G1 X111.977 Y99.777 E6.41695
G1 X112.750 Y99.524 E6.66080
G1 X113.287 Y99.291 E6.83614
G1 X113.806 Y99.010 E7.01301
G1 X114.137 Y98.768 E7.13577
G1 X114.503 Y98.410 E7.28921
G1 X114.672 Y98.188 E7.37291
G1 X114.815 Y97.941 E7.45826
G1 X114.940 Y97.670 E7.54785
G1 X115.029 Y97.364 E7.64342
G1 X115.096 Y97.006 E7.75241
G1 X115.120 Y96.630 E7.86528
G1 X115.098 Y96.327 E7.95628
G1 X114.992 Y95.589 E8.17977
G1 X114.837 Y95.199 E8.30545
G1 X114.620 Y94.785 E8.44549
G1 X114.439 Y94.547 E8.53515
G1 X114.218 Y94.305 E8.63324
G1 X113.963 Y94.072 E8.73702
G1 X113.371 Y93.690 E8.94806
G1 X112.946 Y93.484 E9.08944
G1 X112.365 Y93.289 E9.27306
G1 X111.573 Y93.103 E9.51708
G1 X111.335 Y93.068 E9.58912
G1 X109.879 Y92.971 E10.02641
G1 X108.571 Y93.102 E10.42015
G1 X107.389 Y93.314 E10.78004
G1 X106.953 Y93.434 E10.91555
G1 X106.538 Y93.646 E11.05525
G1 X105.662 Y94.228 E11.37030
G1 X105.247 Y94.582 E11.53380
G1 X104.840 Y95.275 E11.77442
G1 X104.408 Y96.245 E12.09278
G92 E0
G1 X103.391 Y96.042 F7800.000
