; generated by Slic3r 1.2.9 on 2016-03-11 at 01:23:45

; external perimeters extrusion width = 1.54mm
; perimeters extrusion width = 2.62mm
; infill extrusion width = 6.27mm
; solid infill extrusion width = 2.62mm
; top infill extrusion width = 2.62mm

M107
M104 S30 ; set temperature
G28 ; home all axes
G1 Z5 F5000 ; lift nozzle
M302
M92 E10000
M500
M501
G1 E100
M109 S30 ; wait for temperature to be reached
G21 ; set units to millimeters
G90 ; use absolute coordinates
M82 ; use absolute distances for extrusion
G92 E0
G1 Z0.300 F7800.000
G1 X116.217 Y102.164 F7800.000
G1 X116.217 Y107.519 E0.24229 F378.000
G1 X114.606 Y107.519 E0.31519
G1 X114.606 Y98.326 E0.73116
G1 X114.475 Y96.965 E0.79302
G1 X114.072 Y95.815 E0.84818
G1 X113.394 Y94.896 E0.89986
G1 X112.473 Y94.234 E0.95121
G1 X111.346 Y93.840 E1.00521
G1 X110.022 Y93.711 E1.06540
G1 X108.737 Y93.836 E1.12380
G1 X107.654 Y94.218 E1.17575
G1 X106.783 Y94.861 E1.22477
G1 X106.151 Y95.753 E1.27419
G1 X105.778 Y96.867 E1.32739
G1 X105.656 Y98.186 E1.38730
G1 X105.656 Y107.519 E1.80963
G1 X104.035 Y107.519 E1.88298
G1 X104.035 Y98.030 E2.31233
G1 X104.118 Y96.914 E2.36300
G1 X104.366 Y95.920 E2.40935
G1 X104.776 Y95.037 E2.45339
G1 X105.333 Y94.275 E2.49612
G1 X106.024 Y93.644 E2.53847
G1 X106.852 Y93.142 E2.58228
G1 X107.804 Y92.776 E2.62843
G1 X108.864 Y92.555 E2.67743
G1 X110.034 Y92.481 E2.73045
G1 X111.125 Y92.551 E2.77994
G1 X111.250 Y92.558 E2.78557 F378.000
G1 X112.347 Y92.788 E2.83631
G1 X113.328 Y93.168 E2.88389
G1 X114.178 Y93.690 E2.92905
G1 X114.888 Y94.345 E2.97272
G1 X115.459 Y95.134 E3.01681
G1 X115.878 Y96.047 E3.06228
G1 X116.131 Y97.074 E3.11012
G1 X116.217 Y98.225 E3.16238
G1 X116.217 Y101.933 E3.33016
G1 X114.832 Y106.752 F7800.000
G1 X115.372 Y107.293 E3.36476 F540.000
G1 X115.918 Y107.293 E3.38944
G1 X114.832 Y106.207 E3.45894
G1 X114.832 Y105.662 E3.48362
G1 X115.991 Y106.821 E3.55780
G1 X115.991 Y106.275 E3.58248
G1 X114.832 Y105.116 E3.65666
G1 X114.832 Y104.571 E3.68134
G1 X115.991 Y105.730 E3.75552
G1 X115.991 Y105.185 E3.78020
G1 X114.832 Y104.025 E3.85438
G1 X114.832 Y103.480 E3.87906
G1 X115.991 Y104.639 E3.95324
G1 X115.991 Y104.094 E3.97792
G1 X114.832 Y102.935 E4.05210
G1 X114.832 Y102.389 E4.07678
G1 X115.991 Y103.548 E4.15096
G1 X115.991 Y103.003 E4.17564
G1 X114.832 Y101.844 E4.24982
G1 X114.832 Y101.298 E4.27450
G1 X115.991 Y102.458 E4.34868
G1 X115.991 Y101.912 E4.37337
G1 X114.832 Y100.753 E4.44754
G1 X114.832 Y100.208 E4.47223
G1 X115.991 Y101.367 E4.54641
G1 X115.991 Y100.821 E4.57109
G1 X114.832 Y99.662 E4.64527
G1 X114.832 Y99.117 E4.66995
G1 X115.991 Y100.276 E4.74413
G1 X115.991 Y99.731 E4.76881
G1 X114.832 Y98.571 E4.84299
G1 X114.810 Y98.004 E4.86867
G1 X115.991 Y99.185 E4.94424
G1 X115.991 Y98.640 E4.96892
G1 X114.752 Y97.401 E5.04820
G1 X114.686 Y96.790 E5.07602
G1 X115.973 Y98.076 E5.15837
G1 X115.929 Y97.487 E5.18510
G1 X114.393 Y95.951 E5.28342
G1 X114.812 Y94.734 F7800.000
G1 X114.207 Y94.129 E5.32214 F540.000
G1 X112.762 Y93.229 F7800.000
G1 X115.587 Y96.054 E5.50298 F540.000
G1 X115.816 Y96.828 E5.53948
G1 X111.940 Y92.953 E5.78752
G1 X111.250 Y92.808 E5.81940
G1 X112.365 Y93.923 E5.89077
G1 X111.527 Y93.631 F7800.000
G1 X110.649 Y92.752 E5.94701 F540.000
G1 X110.066 Y92.715 E5.97341
G1 X110.914 Y93.563 E6.02764
G1 X110.309 Y93.504 E6.05512
G1 X109.540 Y92.734 E6.10437
G1 X109.027 Y92.767 E6.12763
G1 X109.776 Y93.515 E6.17556
G1 X109.279 Y93.564 E6.19815
G1 X108.551 Y92.836 E6.24473
G1 X108.100 Y92.930 E6.26560
G1 X108.782 Y93.612 E6.30926
G1 X108.373 Y93.749 E6.32876
G1 X107.669 Y93.045 E6.37383
G1 X107.275 Y93.196 E6.39294
G1 X107.970 Y93.891 E6.43741
G1 X107.572 Y94.038 E6.45662
G1 X106.884 Y93.351 E6.50061
G1 X106.545 Y93.557 E6.51858
G1 X107.258 Y94.270 E6.56423
G1 X106.944 Y94.502 E6.58188
G1 X106.205 Y93.763 E6.62919
G1 X105.908 Y94.011 E6.64671
G1 X106.634 Y94.737 E6.69320
G1 X106.408 Y95.056 E6.71090
G1 X105.631 Y94.279 E6.76063
G1 X105.365 Y94.559 E6.77809
G1 X106.182 Y95.375 E6.83034
G1 X105.956 Y95.695 E6.84805
G1 X105.135 Y94.874 E6.90058
G1 X104.918 Y95.203 E6.91840
G1 X105.819 Y96.103 E6.97602
G1 X105.682 Y96.511 E6.99552
G1 X104.745 Y95.575 E7.05544
G1 X104.573 Y95.949 E7.07405
G1 X105.552 Y96.928 E7.13669
G1 X105.506 Y97.427 E7.15938
G1 X104.465 Y96.386 E7.22603
G1 X104.356 Y96.822 E7.24640
G1 X105.460 Y97.926 E7.31704
G1 X105.430 Y98.441 E7.34039
G1 X104.309 Y97.320 E7.41215
G1 X104.271 Y97.828 E7.43517
G1 X105.430 Y98.987 E7.50936
G1 X105.430 Y99.532 E7.53404
G1 X104.261 Y98.363 E7.60886
G1 X104.261 Y98.908 E7.63354
G1 X105.430 Y100.078 E7.70836
G1 X105.430 Y100.623 E7.73304
G1 X104.261 Y99.454 E7.80786
G1 X104.261 Y99.999 E7.83254
G1 X105.430 Y101.168 E7.90736
G1 X105.430 Y101.714 E7.93204
G1 X104.261 Y100.545 E8.00686
G1 X104.261 Y101.090 E8.03154
G1 X105.430 Y102.259 E8.10636
G1 X105.430 Y102.805 E8.13104
G1 X104.261 Y101.635 E8.20586
G1 X104.261 Y102.181 E8.23054
G1 X105.430 Y103.350 E8.30536
G1 X105.430 Y103.895 E8.33004
G1 X104.261 Y102.726 E8.40486
G1 X104.261 Y103.272 E8.42954
G1 X105.430 Y104.441 E8.50436
G1 X105.430 Y104.986 E8.52904
G1 X104.261 Y103.817 E8.60386
G1 X104.261 Y104.362 E8.62855
G1 X105.430 Y105.532 E8.70336
G1 X105.430 Y106.077 E8.72805
G1 X104.261 Y104.908 E8.80287
G1 X104.261 Y105.453 E8.82755
G1 X105.430 Y106.622 E8.90237
G1 X105.430 Y107.168 E8.92705
G1 X104.261 Y105.999 E9.00187
G1 X104.261 Y106.544 E9.02655
G1 X105.010 Y107.293 E9.07448
G1 X104.464 Y107.293 E9.09916
G1 X104.261 Y107.089 E9.11219
G92 E0
G1 X103.810 Y107.744 F7800.000
G1 X101.810 Y107.744 F7800.000
G1 X100.030 Y103.813 F7800.000
G1 X96.498 Y102.466 F7800.000
G1 X96.417 Y98.917 F7800.000
G1 X96.507 Y100.249 E0.06041 F378.000
G1 X96.278 Y102.413 E0.15891
G1 X95.596 Y104.201 E0.24547
G1 X94.465 Y105.628 E0.32786
G1 X92.915 Y106.674 E0.41247
G1 X90.969 Y107.306 E0.50507
G1 X88.609 Y107.519 E0.61229
G1 X83.783 Y107.519 E0.83065
G1 X83.783 Y92.673 E1.50242
G1 X89.274 Y92.673 E1.75087
G1 X90.532 Y92.766 E1.80797
G1 X90.667 Y92.776 E1.81406 F378.000
G1 X91.932 Y93.082 E1.87299
G1 X93.082 Y93.589 E1.92984
G1 X94.090 Y94.286 E1.98531
G1 X94.932 Y95.161 E2.04024
G1 X95.610 Y96.216 E2.09700
G1 X96.108 Y97.429 E2.15630
G1 X96.388 Y98.688 E2.21468
G1 X94.799 Y99.019 F7800.000
G1 X94.877 Y100.257 E2.27082 F378.000
G1 X94.699 Y102.050 E2.35235
G1 X94.158 Y103.555 E2.42470
G1 X93.249 Y104.756 E2.49289
G1 X91.998 Y105.625 E2.56181
G1 X90.437 Y106.141 E2.63619
G1 X88.585 Y106.310 E2.72031
G1 X85.404 Y106.310 E2.86426
G1 X85.404 Y93.882 E3.42662
G1 X89.051 Y93.882 E3.59163 F378.000
G1 X90.156 Y93.966 E3.64179
G1 X91.182 Y94.222 E3.68963
G1 X92.118 Y94.649 E3.73618
G1 X92.940 Y95.241 E3.78200
G1 X93.624 Y95.983 E3.82770
G1 X94.169 Y96.874 E3.87493
G1 X94.563 Y97.892 E3.92434
G1 X94.751 Y98.793 E3.96597
G1 X95.908 Y97.662 F7800.000
G1 X91.470 Y93.224 E4.25074 F540.000
G1 X90.749 Y93.050 E4.28438
G1 X92.001 Y94.302 E4.36469
G1 X92.348 Y93.556 F7800.000
G1 X95.546 Y96.754 E4.56987 F540.000
G1 X94.370 Y96.672 F7800.000
G1 X96.065 Y98.366 E4.67859 F540.000
G1 X96.193 Y99.041 E4.70978
G1 X94.716 Y97.564 E4.80456
G1 X94.896 Y98.291 E4.83854
G1 X96.233 Y99.628 E4.92431
G1 X96.273 Y100.215 E4.95099
G1 X95.027 Y98.969 E5.03092
G1 X95.064 Y99.553 E5.05745
G1 X96.238 Y100.726 E5.13275
G1 X96.185 Y101.221 E5.15531
G1 X95.101 Y100.136 E5.22488
G1 X95.058 Y100.640 E5.24783
G1 X96.133 Y101.715 E5.31678
G1 X96.080 Y102.209 E5.33934
G1 X95.009 Y101.138 E5.40809
G1 X94.959 Y101.635 E5.43077
G1 X95.972 Y102.648 E5.49573
G1 X95.821 Y103.044 E5.51495
G1 X94.892 Y102.114 E5.57458
G1 X94.747 Y102.517 E5.59398
G1 X95.670 Y103.440 E5.65320
G1 X95.519 Y103.835 E5.67242
G1 X94.602 Y102.919 E5.73124
G1 X94.458 Y103.321 E5.75063
G1 X95.345 Y104.208 E5.80753
G1 X95.103 Y104.513 E5.82519
G1 X94.290 Y103.700 E5.87734
G1 X94.055 Y104.011 E5.89505
G1 X94.861 Y104.818 E5.94680
G1 X94.619 Y105.123 E5.96446
G1 X93.819 Y104.323 E6.01581
G1 X93.584 Y104.634 E6.03352
G1 X94.369 Y105.419 E6.08391
G1 X94.066 Y105.663 E6.10155
G1 X93.335 Y104.932 E6.14844
G1 X93.012 Y105.157 E6.16626
G1 X93.739 Y105.883 E6.21290
G1 X93.413 Y106.104 E6.23078
G1 X92.690 Y105.381 E6.27718
G1 X92.367 Y105.605 E6.29500
G1 X93.086 Y106.324 E6.34116
G1 X92.733 Y106.518 E6.35944
G1 X92.041 Y105.826 E6.40383
G1 X91.630 Y105.962 E6.42346
G1 X92.320 Y106.652 E6.46774
G1 X91.907 Y106.786 E6.48743
G1 X91.219 Y106.097 E6.53159
G1 X90.808 Y106.233 E6.55122
G1 X91.495 Y106.920 E6.59526
G1 X91.082 Y107.054 E6.61495
G1 X90.393 Y106.365 E6.65917
G1 X89.892 Y106.410 E6.68200
G1 X90.601 Y107.119 E6.72747
G1 X90.099 Y107.164 E6.75031
G1 X89.391 Y106.456 E6.79576
G1 X88.890 Y106.502 E6.81859
G1 X89.598 Y107.210 E6.86400
G1 X89.096 Y107.255 E6.88685
G1 X88.377 Y106.536 E6.93299
G1 X87.830 Y106.536 E6.95780
G1 X88.587 Y107.293 E7.00638
G1 X88.040 Y107.293 E7.03119
G1 X87.283 Y106.536 E7.07977
G1 X86.736 Y106.536 E7.10458
G1 X87.494 Y107.293 E7.15316
G1 X86.947 Y107.293 E7.17797
G1 X86.190 Y106.536 E7.22655
G1 X84.213 Y107.293 F7800.000
G1 X84.009 Y107.089 E7.23961 F540.000
G1 X84.009 Y106.543 E7.26442
G1 X84.759 Y107.293 E7.31257
G1 X85.306 Y107.293 E7.33738
G1 X84.009 Y105.996 E7.42061
G1 X84.009 Y105.449 E7.44542
G1 X85.178 Y106.618 E7.52043
G1 X85.643 Y106.536 E7.54184
G1 X86.400 Y107.293 E7.59042
G1 X85.853 Y107.293 E7.61523
G1 X85.096 Y106.536 E7.66381
G1 X85.178 Y106.071 E7.68522
G1 X84.009 Y104.902 E7.76023
G1 X84.009 Y104.355 E7.78504
G1 X85.178 Y105.524 E7.86005
G1 X85.178 Y104.978 E7.88486
G1 X84.009 Y103.809 E7.95988
G1 X84.009 Y103.262 E7.98469
G1 X85.178 Y104.431 E8.05970
G1 X85.178 Y103.884 E8.08451
G1 X84.009 Y102.715 E8.15953
G1 X84.009 Y102.168 E8.18434
G1 X85.178 Y103.337 E8.25935
G1 X85.178 Y102.790 E8.28416
G1 X84.009 Y101.621 E8.35917
G1 X84.009 Y101.074 E8.38398
G1 X85.178 Y102.244 E8.45900
G1 X85.178 Y101.697 E8.48381
G1 X84.009 Y100.528 E8.55882
G1 X84.009 Y99.981 E8.58363
G1 X85.178 Y101.150 E8.65864
G1 X85.178 Y100.603 E8.68345
G1 X84.009 Y99.434 E8.75847
G1 X84.009 Y98.887 E8.78328
G1 X85.178 Y100.056 E8.85829
G1 X85.178 Y99.510 E8.88310
G1 X84.009 Y98.340 E8.95811
G1 X84.009 Y97.794 E8.98292
G1 X85.178 Y98.963 E9.05794
G1 X85.178 Y98.416 E9.08275
G1 X84.009 Y97.247 E9.15776
G1 X84.009 Y96.700 E9.18257
G1 X85.178 Y97.869 E9.25758
G1 X85.178 Y97.322 E9.28239
G1 X84.009 Y96.153 E9.35741
G1 X84.009 Y95.606 E9.38222
G1 X85.178 Y96.775 E9.45723
G1 X85.178 Y96.229 E9.48204
G1 X84.009 Y95.060 E9.55705
G1 X84.009 Y94.513 E9.58186
G1 X85.178 Y95.682 E9.65688
G1 X85.178 Y95.135 E9.68169
G1 X84.009 Y93.966 E9.75670
G1 X84.009 Y93.419 E9.78151
G1 X85.178 Y94.588 E9.85653
G1 X85.178 Y94.041 E9.88133
G1 X84.042 Y92.906 E9.95421
G1 X84.583 Y92.899 E9.97872
G1 X85.340 Y93.656 E10.02730
G1 X85.887 Y93.656 E10.05211
G1 X85.129 Y92.899 E10.10068
G1 X85.676 Y92.899 E10.12549
G1 X86.433 Y93.656 E10.17407
G1 X86.980 Y93.656 E10.19888
G1 X86.223 Y92.899 E10.24746
G1 X86.770 Y92.899 E10.27227
G1 X87.527 Y93.656 E10.32085
G1 X88.074 Y93.656 E10.34566
G1 X87.317 Y92.899 E10.39424
G1 X87.864 Y92.899 E10.41905
G1 X88.621 Y93.656 E10.46762
G1 X89.169 Y93.658 E10.49252
G1 X88.410 Y92.899 E10.54122
G1 X88.957 Y92.899 E10.56603
G1 X89.761 Y93.703 E10.61762
G1 X90.368 Y93.763 E10.64530
G1 X89.530 Y92.925 E10.69909
G1 X90.120 Y92.968 E10.72595
G1 X91.096 Y93.945 E10.78860
G1 X93.716 Y94.377 F7800.000
G1 X94.699 Y95.360 E10.85170 F540.000
M106 S255
G92 E0
G1 Z0.600 F7800.000
G1 X115.411 Y107.744 F7800.000
G1 X115.410 Y98.255 E2.84327 F600.000
G1 X115.320 Y97.203 E3.15975
G1 X115.216 Y96.677 E3.32027
G1 X115.108 Y96.316 E3.43318
G1 X114.788 Y95.526 E3.68879
G1 X114.313 Y94.854 E3.93515
G1 X113.993 Y94.497 E4.07883
G1 X113.782 Y94.296 E4.16632
G1 X113.022 Y93.785 E4.44068
G1 X112.657 Y93.607 E4.56244
G1 X112.159 Y93.424 E4.72145
G1 X111.576 Y93.262 E4.90265
G1 X111.164 Y93.187 E5.02802
G1 X110.034 Y93.097 E5.36785
G1 X108.949 Y93.182 E5.69389
G1 X108.506 Y93.262 E5.82878
G1 X107.989 Y93.406 E5.98947
G1 X107.471 Y93.597 E6.15493
G1 X107.151 Y93.750 E6.26144
G1 X106.391 Y94.270 E6.53726
G1 X106.177 Y94.476 E6.62627
G1 X105.903 Y94.786 E6.75029
G1 X105.447 Y95.433 E6.98748
G1 X105.141 Y96.193 E7.23305
G1 X105.026 Y96.587 E7.35604
G1 X104.934 Y97.045 E7.49584
G1 X104.848 Y98.101 E7.81325
G1 X104.845 Y107.744 E10.70287
G92 E0
G1 X103.810 Y98.022 F7800.000
G1 X103.810 Y98.022 F7800.000
G1 X100.160 Y97.749 F7800.000
G1 X100.076 Y96.592 F7800.000
G1 X100.071 Y96.526 F7800.000
G1 X100.033 Y95.917 F7800.000
G1 X100.027 Y95.840 F7800.000
G1 X99.970 Y95.051 F7800.000
G1 X99.970 Y95.051 F7800.000
G1 X99.951 Y94.800 F7800.000
G1 X99.941 Y94.637 F7800.000
G1 X99.736 Y94.500 F7800.000
G1 X99.008 Y94.057 F7800.000
G1 X97.711 Y93.349 F7800.000
G1 X95.109 Y95.021 F7800.000
G1 X84.667 Y93.557 F7800.000
G1 X85.629 Y93.277 E0.30026 F600.000
G1 X89.105 Y93.279 E1.34183
G1 X90.184 Y93.354 E1.66578
G1 X90.567 Y93.410 E1.78194
G1 X91.317 Y93.594 E2.01328
G1 X91.715 Y93.723 E2.13872
G1 X92.380 Y94.022 E2.35724
G1 X92.732 Y94.214 E2.47721
G1 X93.341 Y94.643 E2.70057
G1 X93.603 Y94.858 E2.80222
G1 X94.322 Y95.643 E3.12097
G1 X94.905 Y96.584 E3.45263
G1 X95.337 Y97.671 E3.80315
G1 X95.601 Y98.890 E4.17696
G1 X95.690 Y100.233 E4.58030
G1 X95.486 Y102.224 E5.17988
G1 X94.904 Y103.807 E5.68535
G1 X94.747 Y104.043 E5.77030
G1 X93.950 Y105.072 E6.16011
G1 X93.619 Y105.353 E6.29026
G1 X92.608 Y106.044 E6.65726
G1 X92.400 Y106.148 E6.72691
G1 X92.168 Y106.243 E6.80219
G1 X90.840 Y106.678 E7.22074
G1 X90.466 Y106.745 E7.33464
G1 X88.582 Y106.914 E7.90158
G1 X85.629 Y106.914 E8.78630
G1 X84.667 Y106.635 E9.08656
G1 X84.594 Y106.085 E9.25292
G1 X84.594 Y94.107 E12.84208
G1 X84.667 Y93.557 E13.00845
G92 E0
G1 Z0.900 F7800.000
G1 X115.411 Y107.744 F7800.000
G1 X115.410 Y98.255 E2.84327 F600.000
G1 X115.320 Y97.203 E3.15975
G1 X115.216 Y96.677 E3.32027
G1 X115.108 Y96.316 E3.43318
G1 X114.788 Y95.526 E3.68879
G1 X114.313 Y94.854 E3.93515
G1 X113.993 Y94.497 E4.07883
G1 X113.782 Y94.296 E4.16632
G1 X113.022 Y93.785 E4.44068
G1 X112.657 Y93.607 E4.56244
G1 X112.159 Y93.424 E4.72145
G1 X111.576 Y93.262 E4.90265
G1 X111.164 Y93.187 E5.02802
G1 X110.034 Y93.097 E5.36784
G1 X108.949 Y93.182 E5.69389
G1 X108.506 Y93.262 E5.82878
G1 X107.989 Y93.406 E5.98947
G1 X107.471 Y93.597 E6.15493
G1 X107.151 Y93.750 E6.26144
G1 X106.391 Y94.270 E6.53726
G1 X106.177 Y94.476 E6.62627
G1 X105.903 Y94.786 E6.75029
G1 X105.447 Y95.433 E6.98748
G1 X105.141 Y96.193 E7.23305
G1 X105.026 Y96.587 E7.35604
G1 X104.934 Y97.045 E7.49584
G1 X104.848 Y98.101 E7.81325
G1 X104.845 Y107.744 E10.70287
G92 E0
G1 X103.810 Y98.022 F7800.000
G1 X103.810 Y98.022 F7800.000
G1 X100.160 Y97.749 F7800.000
G1 X100.076 Y96.592 F7800.000
G1 X100.071 Y96.526 F7800.000
G1 X100.033 Y95.917 F7800.000
G1 X100.027 Y95.840 F7800.000
G1 X99.951 Y94.800 F7800.000
G1 X99.941 Y94.637 F7800.000
G1 X99.736 Y94.500 F7800.000
G1 X99.008 Y94.057 F7800.000
G1 X97.711 Y93.349 F7800.000
G1 X95.109 Y95.021 F7800.000
G1 X84.667 Y93.557 F7800.000
G1 X85.629 Y93.277 E0.30026 F600.000
G1 X89.105 Y93.279 E1.34183
G1 X90.184 Y93.354 E1.66578
G1 X90.567 Y93.410 E1.78194
G1 X91.317 Y93.594 E2.01328
G1 X91.715 Y93.723 E2.13872
G1 X92.380 Y94.022 E2.35724
G1 X92.732 Y94.214 E2.47721
G1 X93.341 Y94.643 E2.70057
G1 X93.603 Y94.858 E2.80222
G1 X94.322 Y95.643 E3.12097
G1 X94.905 Y96.584 E3.45263
G1 X95.337 Y97.671 E3.80315
G1 X95.601 Y98.890 E4.17696
G1 X95.690 Y100.233 E4.58030
G1 X95.486 Y102.224 E5.17988
G1 X94.904 Y103.807 E5.68535
G1 X94.747 Y104.043 E5.77030
G1 X93.950 Y105.072 E6.16011
G1 X93.619 Y105.353 E6.29026
G1 X92.608 Y106.044 E6.65726
G1 X92.400 Y106.148 E6.72691
G1 X92.168 Y106.243 E6.80219
G1 X90.840 Y106.678 E7.22074
G1 X90.466 Y106.745 E7.33464
G1 X88.582 Y106.914 E7.90158
G1 X85.629 Y106.914 E8.78630
G1 X84.667 Y106.635 E9.08656
G1 X84.594 Y106.085 E9.25292
G1 X84.594 Y94.107 E12.84208
G1 X84.667 Y93.557 E13.00845
G92 E0
G1 Z1.200 F7800.000
G1 X115.411 Y107.744 F7800.000
G1 X115.410 Y98.255 E2.84327 F600.000
G1 X115.320 Y97.203 E3.15975
G1 X115.216 Y96.677 E3.32027
G1 X115.108 Y96.316 E3.43318
G1 X114.788 Y95.526 E3.68879
G1 X114.313 Y94.854 E3.93515
G1 X113.993 Y94.497 E4.07883
