; generated by Slic3r 1.2.9 on 2016-03-11 at 01:23:45

; external perimeters extrusion width = 1.54mm
; perimeters extrusion width = 2.62mm
; infill extrusion width = 6.27mm
; solid infill extrusion width = 2.62mm
; top infill extrusion width = 2.62mm

M107
M104 S30 ; set temperature
G28 ; home all axes
G1 Z5 F5000 ; lift nozzle
M302
M92 E10000
M500
M501
G1 E100
M109 S30 ; wait for temperature to be reached
G21 ; set units to millimeters
G90 ; use absolute coordinates
M82 ; use absolute distances for extrusion
G92 E0
G1 Z0.300 F7800.000
G1 X106.812 Y96.468 F7800.000
G1 X108.395 Y92.577 E0.19009 F378.000
G1 X110.239 Y92.577 E0.27354
G1 X115.936 Y106.586 E0.95784
G1 X116.277 Y107.423 E0.99875 F378.000
G1 X114.585 Y107.423 E1.07530
G1 X110.447 Y96.800 E1.59116
G1 X109.525 Y94.056 E1.72216
G1 X109.130 Y94.056 E1.74005
G1 X108.207 Y96.800 E1.87106
G1 X104.047 Y107.423 E2.38729
G1 X102.356 Y107.423 E2.46380
G1 X106.725 Y96.682 E2.98848
G1 X108.930 Y94.008 F7800.000
G1 X108.290 Y93.368 E3.02963 F540.000
G1 X108.132 Y93.757 E3.04875
G1 X108.793 Y94.418 E3.09122
G1 X108.655 Y94.828 E3.11088
G1 X107.973 Y94.147 E3.15468
G1 X107.815 Y94.536 E3.17379
G1 X108.517 Y95.238 E3.21891
G1 X108.379 Y95.648 E3.23857
G1 X107.657 Y94.926 E3.28500
G1 X107.498 Y95.315 E3.30411
G1 X108.241 Y96.058 E3.35187
G1 X108.103 Y96.468 E3.37153
G1 X107.340 Y95.704 E3.42061
G1 X107.181 Y96.094 E3.43972
G1 X107.961 Y96.874 E3.48986
G1 X107.807 Y97.268 E3.50908
G1 X107.023 Y96.483 E3.55949
G1 X106.864 Y96.873 E3.57860
G1 X107.653 Y97.661 E3.62929
G1 X107.499 Y98.055 E3.64851
G1 X106.706 Y97.262 E3.69946
G1 X106.548 Y97.652 E3.71857
G1 X107.345 Y98.449 E3.76981
G1 X107.190 Y98.842 E3.78902
G1 X106.389 Y98.041 E3.84053
G1 X106.231 Y98.431 E3.85964
G1 X107.036 Y99.236 E3.91141
G1 X106.882 Y99.630 E3.93063
G1 X106.072 Y98.820 E3.98268
G1 X105.914 Y99.209 E4.00179
G1 X106.728 Y100.023 E4.05411
G1 X106.574 Y100.417 E4.07333
G1 X105.756 Y99.599 E4.12593
G1 X105.597 Y99.988 E4.14504
G1 X106.420 Y100.811 E4.19791
G1 X106.265 Y101.204 E4.21712
G1 X105.439 Y100.378 E4.27027
G1 X105.280 Y100.767 E4.28938
G1 X106.111 Y101.598 E4.34279
G1 X105.957 Y101.992 E4.36201
G1 X105.122 Y101.157 E4.41569
G1 X104.964 Y101.546 E4.43480
G1 X105.803 Y102.385 E4.48876
G1 X105.649 Y102.779 E4.50798
G1 X104.805 Y101.935 E4.56221
G1 X104.647 Y102.325 E4.58132
G1 X105.495 Y103.173 E4.63583
G1 X105.340 Y103.566 E4.65505
G1 X104.488 Y102.714 E4.70983
G1 X104.330 Y103.104 E4.72894
G1 X105.186 Y103.960 E4.78399
G1 X105.032 Y104.354 E4.80320
G1 X104.171 Y103.493 E4.85853
G1 X104.013 Y103.883 E4.87764
G1 X104.878 Y104.747 E4.93323
G1 X104.724 Y105.141 E4.95245
G1 X103.855 Y104.272 E5.00832
G1 X103.696 Y104.662 E5.02743
G1 X104.570 Y105.535 E5.08357
G1 X104.415 Y105.928 E5.10279
G1 X103.538 Y105.051 E5.15921
G1 X103.379 Y105.440 E5.17832
G1 X104.261 Y106.322 E5.23501
G1 X104.107 Y106.716 E5.25422
G1 X103.221 Y105.830 E5.31118
G1 X103.063 Y106.219 E5.33029
G1 X103.953 Y107.110 E5.38753
G1 X103.493 Y107.197 E5.40883
G1 X102.904 Y106.609 E5.44665
G1 X102.746 Y106.998 E5.46576
G1 X102.945 Y107.197 E5.47855
G92 E0
G1 X103.785 Y105.966 F7800.000
G1 X103.785 Y105.966 F7800.000
G1 X113.239 Y103.247 F7800.000
G1 X115.019 Y105.027 E0.11444 F540.000
G1 X115.394 Y105.951 F7800.000
G1 X113.588 Y104.145 E0.23054 F540.000
G1 X113.938 Y105.042 F7800.000
G1 X115.770 Y106.874 E0.34831 F540.000
G1 X115.545 Y107.197 E0.36620
G1 X114.288 Y105.939 E0.44704
G1 X114.637 Y106.837 F7800.000
G1 X114.997 Y107.197 E0.47020 F540.000
G1 X114.643 Y104.104 F7800.000
G1 X112.889 Y102.350 E0.58296 F540.000
G1 X112.539 Y101.452 F7800.000
G1 X114.268 Y103.180 E0.69407 F540.000
G1 X113.892 Y102.257 F7800.000
G1 X112.190 Y100.555 E0.80350 F540.000
G1 X113.141 Y100.410 F7800.000
G1 X111.491 Y98.760 E0.90960 F540.000
G1 X112.390 Y98.563 F7800.000
G1 X110.791 Y96.965 E1.01237 F540.000
G1 X111.639 Y96.717 F7800.000
G1 X110.209 Y95.286 E1.10430 F540.000
G1 X110.888 Y94.870 F7800.000
G1 X108.821 Y92.803 E1.23717 F540.000
G1 X108.449 Y92.978 E1.25588
G1 X109.300 Y93.830 E1.31060
G1 X109.932 Y94.461 F7800.000
G1 X111.263 Y95.793 E1.39621 F540.000
G1 X110.486 Y96.111 F7800.000
G1 X112.014 Y97.640 E1.49447 F540.000
G1 X111.141 Y97.862 F7800.000
G1 X112.766 Y99.487 E1.59890 F540.000
G1 X111.840 Y99.657 F7800.000
G1 X113.517 Y101.334 E1.70667 F540.000
G1 X110.512 Y93.946 F7800.000
G1 X109.369 Y92.803 E1.78018 F540.000
G1 X109.917 Y92.803 E1.80508
G1 X110.137 Y93.023 E1.81922
G92 E0
G1 X108.243 Y92.352 F7800.000
G1 X101.191 Y95.644 F7800.000
G1 X99.438 Y94.457 F7800.000
G1 X95.641 Y96.016 F7800.000
G1 X93.365 Y93.807 F7800.000
G1 X93.920 Y94.190 E0.03054 F378.000
G1 X94.762 Y95.065 E0.08547
G1 X95.440 Y96.120 E0.14223
G1 X95.938 Y97.333 E0.20153
G1 X96.238 Y98.678 E0.26388
G1 X96.338 Y100.153 E0.33078
G1 X96.108 Y102.317 E0.42927
G1 X95.427 Y104.105 E0.51584
G1 X94.296 Y105.532 E0.59823
G1 X92.746 Y106.578 E0.68284
G1 X90.799 Y107.210 E0.77543
G1 X88.439 Y107.423 E0.88265
G1 X83.614 Y107.423 E1.10102
G1 X83.614 Y92.577 E1.77279
G1 X89.104 Y92.577 E2.02124
G1 X90.409 Y92.673 E2.08043
G1 X90.497 Y92.680 E2.08443 F378.000
G1 X91.763 Y92.986 E2.14336
G1 X92.912 Y93.493 E2.20021
G1 X93.175 Y93.675 E2.21468
G1 X92.341 Y94.836 F7800.000
G1 X92.770 Y95.145 E2.23863 F378.000
G1 X93.455 Y95.887 E2.28433
G1 X93.999 Y96.778 E2.33156
G1 X94.394 Y97.796 E2.38097
G1 X94.629 Y98.923 E2.43306
G1 X94.707 Y100.161 E2.48920
G1 X94.530 Y101.954 E2.57072
G1 X93.988 Y103.459 E2.64308
G1 X93.079 Y104.660 E2.71126
G1 X91.828 Y105.529 E2.78018
G1 X90.267 Y106.045 E2.85457
G1 X88.416 Y106.214 E2.93869
G1 X85.235 Y106.214 E3.08264
G1 X85.235 Y93.786 E3.64500
G1 X88.881 Y93.786 E3.81000 F378.000
G1 X89.987 Y93.870 E3.86016
G1 X91.013 Y94.126 E3.90801
G1 X91.948 Y94.553 E3.95456
G1 X92.153 Y94.701 E3.96597
G1 X91.831 Y94.206 F7800.000
G1 X90.579 Y92.954 E4.04628 F540.000
G1 X91.300 Y93.128 E4.07993
G1 X95.738 Y97.566 E4.36469
G1 X95.376 Y96.658 F7800.000
G1 X92.179 Y93.460 E4.56987 F540.000
G1 X90.927 Y93.849 F7800.000
G1 X89.951 Y92.872 E4.63251 F540.000
G1 X89.360 Y92.829 E4.65937
G1 X90.199 Y93.667 E4.71317
G1 X89.592 Y93.607 E4.74084
G1 X88.788 Y92.803 E4.79243
G1 X88.241 Y92.803 E4.81724
G1 X89.000 Y93.562 E4.86594
G1 X88.451 Y93.560 E4.89084
G1 X87.694 Y92.803 E4.93942
G1 X87.147 Y92.803 E4.96423
G1 X87.904 Y93.560 E5.01281
G1 X87.357 Y93.560 E5.03762
G1 X86.600 Y92.803 E5.08619
G1 X86.054 Y92.803 E5.11100
G1 X86.811 Y93.560 E5.15958
G1 X86.264 Y93.560 E5.18439
G1 X85.507 Y92.803 E5.23297
G1 X84.960 Y92.803 E5.25778
G1 X85.717 Y93.560 E5.30636
G1 X85.170 Y93.560 E5.33117
G1 X84.413 Y92.803 E5.37975
G1 X83.873 Y92.810 E5.40425
G1 X85.009 Y93.945 E5.47713
G1 X85.009 Y94.492 E5.50194
G1 X83.840 Y93.323 E5.57695
G1 X83.840 Y93.870 E5.60176
G1 X85.009 Y95.039 E5.67678
G1 X85.009 Y95.586 E5.70159
G1 X83.840 Y94.417 E5.77660
G1 X83.840 Y94.964 E5.80141
G1 X85.009 Y96.133 E5.87642
G1 X85.009 Y96.679 E5.90123
G1 X83.840 Y95.510 E5.97625
G1 X83.840 Y96.057 E6.00106
G1 X85.009 Y97.226 E6.07607
G1 X85.009 Y97.773 E6.10088
G1 X83.840 Y96.604 E6.17589
G1 X83.840 Y97.151 E6.20070
G1 X85.009 Y98.320 E6.27572
G1 X85.009 Y98.867 E6.30053
G1 X83.840 Y97.698 E6.37554
G1 X83.840 Y98.244 E6.40035
G1 X85.009 Y99.414 E6.47536
G1 X85.009 Y99.960 E6.50017
G1 X83.840 Y98.791 E6.57519
G1 X83.840 Y99.338 E6.60000
G1 X85.009 Y100.507 E6.67501
G1 X85.009 Y101.054 E6.69982
G1 X83.840 Y99.885 E6.77483
G1 X83.840 Y100.432 E6.79964
G1 X85.009 Y101.601 E6.87466
G1 X85.009 Y102.148 E6.89947
G1 X83.840 Y100.978 E6.97448
G1 X83.840 Y101.525 E6.99929
G1 X85.009 Y102.694 E7.07430
G1 X85.009 Y103.241 E7.09911
G1 X83.840 Y102.072 E7.17413
G1 X83.840 Y102.619 E7.19894
G1 X85.009 Y103.788 E7.27395
G1 X85.009 Y104.335 E7.29876
G1 X83.840 Y103.166 E7.37378
G1 X83.840 Y103.713 E7.39858
G1 X85.009 Y104.882 E7.47360
G1 X85.009 Y105.428 E7.49841
G1 X83.840 Y104.259 E7.57342
G1 X83.840 Y104.806 E7.59823
G1 X85.009 Y105.975 E7.67325
G1 X84.927 Y106.440 E7.69465
G1 X85.684 Y107.197 E7.74323
G1 X86.230 Y107.197 E7.76804
G1 X85.473 Y106.440 E7.81662
G1 X85.009 Y106.522 E7.83803
G1 X83.840 Y105.353 E7.91304
G1 X83.840 Y105.900 E7.93785
G1 X85.137 Y107.197 E8.02109
G1 X84.590 Y107.197 E8.04590
G1 X83.840 Y106.447 E8.09405
G1 X83.840 Y106.993 E8.11885
G1 X84.043 Y107.197 E8.13192
G1 X86.020 Y106.440 F7800.000
G1 X86.777 Y107.197 E8.18050 F540.000
G1 X87.324 Y107.197 E8.20531
G1 X86.567 Y106.440 E8.25388
G1 X87.114 Y106.440 E8.27869
G1 X87.871 Y107.197 E8.32727
G1 X88.418 Y107.197 E8.35208
G1 X87.661 Y106.440 E8.40066
G1 X88.207 Y106.440 E8.42547
G1 X88.927 Y107.159 E8.47161
G1 X89.428 Y107.114 E8.49446
G1 X88.720 Y106.406 E8.53988
G1 X89.221 Y106.360 E8.56270
G1 X89.930 Y107.068 E8.60815
G1 X90.431 Y107.023 E8.63099
G1 X89.722 Y106.314 E8.67647
G1 X90.223 Y106.269 E8.69930
G1 X90.912 Y106.958 E8.74351
G1 X91.325 Y106.824 E8.76320
G1 X90.639 Y106.137 E8.80724
G1 X91.050 Y106.001 E8.82688
G1 X91.738 Y106.690 E8.87103
G1 X92.151 Y106.556 E8.89073
G1 X91.461 Y105.866 E8.93500
G1 X91.872 Y105.730 E8.95464
G1 X92.564 Y106.422 E8.99903
G1 X92.917 Y106.228 E9.01730
G1 X92.197 Y105.509 E9.06346
G1 X92.520 Y105.285 E9.08129
G1 X93.243 Y106.008 E9.12769
G1 X93.570 Y105.787 E9.14556
G1 X92.843 Y105.061 E9.19220
G1 X93.166 Y104.836 E9.21003
G1 X93.896 Y105.567 E9.25691
G1 X94.199 Y105.323 E9.27456
G1 X93.414 Y104.538 E9.32494
G1 X93.650 Y104.227 E9.34265
G1 X94.450 Y105.027 E9.39400
G1 X94.692 Y104.722 E9.41166
G1 X93.885 Y103.915 E9.46341
G1 X94.121 Y103.604 E9.48112
G1 X94.933 Y104.417 E9.53327
G1 X95.175 Y104.112 E9.55093
G1 X94.288 Y103.225 E9.60783
G1 X94.433 Y102.823 E9.62723
G1 X95.350 Y103.739 E9.68604
G1 X95.501 Y103.344 E9.70527
G1 X94.578 Y102.421 E9.76449
G1 X94.722 Y102.018 E9.78388
G1 X95.651 Y102.948 E9.84351
G1 X95.802 Y102.552 E9.86273
G1 X94.790 Y101.539 E9.92769
G1 X94.839 Y101.042 E9.95037
G1 X95.911 Y102.113 E10.01913
G1 X95.963 Y101.619 E10.04168
G1 X94.889 Y100.544 E10.11063
G1 X94.931 Y100.040 E10.13358
G1 X96.016 Y101.125 E10.20315
G1 X96.068 Y100.630 E10.22571
G1 X94.895 Y99.457 E10.30101
G1 X94.858 Y98.873 E10.32755
G1 X96.103 Y100.119 E10.40747
G1 X96.063 Y99.532 E10.43415
G1 X94.727 Y98.195 E10.51992
G1 X94.547 Y97.468 E10.55391
G1 X96.024 Y98.945 E10.64868
G1 X95.895 Y98.270 E10.67987
G1 X94.201 Y96.576 E10.78859
G1 X94.530 Y95.264 F7800.000
G1 X93.546 Y94.281 E10.85170 F540.000
M106 S255
G92 E0
G1 Z0.600 F7800.000
G1 X115.518 Y107.648 F7800.000
G1 X111.105 Y96.562 E3.57549 F600.000
G1 X110.159 Y94.013 E4.39000
G1 X109.719 Y93.349 E4.62869
G1 X109.292 Y93.316 E4.75724
G1 X108.917 Y93.353 E4.87012
G1 X108.486 Y94.010 E5.10552
G1 X107.541 Y96.558 E5.91986
G1 X103.114 Y107.648 E9.49798
G92 E0
G1 X102.021 Y107.648 F7800.000
G1 X99.722 Y103.664 F7800.000
G1 X100.559 Y100.581 F7800.000
G1 X96.564 Y100.157 F7800.000
G1 X84.497 Y93.461 F7800.000
G1 X85.460 Y93.181 E0.30026 F600.000
G1 X88.936 Y93.183 E1.34183
G1 X90.014 Y93.258 E1.66578
G1 X90.398 Y93.314 E1.78194
G1 X91.148 Y93.498 E2.01328
G1 X91.546 Y93.627 E2.13873
G1 X92.211 Y93.926 E2.35724
G1 X92.562 Y94.118 E2.47721
G1 X93.172 Y94.547 E2.70057
G1 X93.434 Y94.762 E2.80222
G1 X94.153 Y95.547 E3.12097
G1 X94.735 Y96.488 E3.45263
G1 X95.167 Y97.575 E3.80315
G1 X95.431 Y98.794 E4.17696
G1 X95.521 Y100.137 E4.58030
G1 X95.316 Y102.128 E5.17988
G1 X94.734 Y103.711 E5.68535
G1 X94.577 Y103.947 E5.77030
G1 X93.781 Y104.976 E6.16011
G1 X93.450 Y105.257 E6.29026
G1 X92.439 Y105.948 E6.65726
G1 X92.231 Y106.052 E6.72691
G1 X91.998 Y106.147 E6.80219
G1 X90.671 Y106.582 E7.22074
G1 X90.297 Y106.649 E7.33464
G1 X88.412 Y106.818 E7.90158
G1 X85.460 Y106.818 E8.78630
G1 X84.497 Y106.539 E9.08656
G1 X84.424 Y105.989 E9.25292
G1 X84.424 Y94.011 E12.84209
G1 X84.497 Y93.461 E13.00845
G92 E0
G1 Z0.900 F7800.000
G1 X115.518 Y107.648 F7800.000
G1 X111.105 Y96.562 E3.57549 F600.000
G1 X110.159 Y94.013 E4.39000
G1 X109.719 Y93.349 E4.62869
G1 X109.292 Y93.316 E4.75724
G1 X108.917 Y93.353 E4.87012
G1 X108.486 Y94.010 E5.10552
G1 X107.541 Y96.558 E5.91986
G1 X103.114 Y107.648 E9.49798
G92 E0
G1 X102.021 Y107.648 F7800.000
G1 X99.722 Y103.664 F7800.000
G1 X100.559 Y100.581 F7800.000
G1 X96.564 Y100.157 F7800.000
G1 X84.497 Y93.461 F7800.000
G1 X85.460 Y93.181 E0.30026 F600.000
G1 X88.936 Y93.183 E1.34183
G1 X90.014 Y93.258 E1.66578
G1 X90.398 Y93.314 E1.78194
G1 X91.148 Y93.498 E2.01328
G1 X91.546 Y93.627 E2.13872
G1 X92.211 Y93.926 E2.35724
G1 X92.562 Y94.118 E2.47721
G1 X93.172 Y94.547 E2.70057
G1 X93.434 Y94.762 E2.80222
G1 X94.153 Y95.547 E3.12097
G1 X94.735 Y96.488 E3.45263
G1 X95.167 Y97.575 E3.80315
G1 X95.431 Y98.794 E4.17696
G1 X95.521 Y100.137 E4.58030
G1 X95.316 Y102.128 E5.17988
G1 X94.734 Y103.711 E5.68535
G1 X94.577 Y103.947 E5.77030
G1 X93.781 Y104.976 E6.16011
G1 X93.450 Y105.257 E6.29026
G1 X92.439 Y105.948 E6.65726
G1 X92.231 Y106.052 E6.72691
G1 X91.998 Y106.147 E6.80219
G1 X90.671 Y106.582 E7.22074
G1 X90.297 Y106.649 E7.33464
G1 X88.412 Y106.818 E7.90158
G1 X85.460 Y106.818 E8.78630
G1 X84.497 Y106.539 E9.08656
G1 X84.424 Y105.989 E9.25292
G1 X84.424 Y94.011 E12.84209
G1 X84.497 Y93.461 E13.00845
G92 E0
G1 Z1.200 F7800.000
G1 X115.518 Y107.648 F7800.000
G1 X111.105 Y96.562 E3.57549 F600.000
G1 X110.159 Y94.013 E4.39000
G1 X109.719 Y93.349 E4.62869
G1 X109.292 Y93.316 E4.75724
G1 X108.917 Y93.353 E4.87012
G1 X108.486 Y94.010 E5.10552
G1 X107.541 Y96.558 E5.91986
G1 X103.114 Y107.648 E9.49798
G92 E0
G1 X102.021 Y107.648 F7800.000
G1 X99.722 Y103.664 F7800.000
G1 X100.559 Y100.581 F7800.000
G1 X96.564 Y100.157 F7800.000
G1 X84.497 Y93.461 F7800.000
G1 X85.460 Y93.181 E0.30026 F600.000
G1 X88.936 Y93.183 E1.34183
G1 X90.014 Y93.258 E1.66579
G1 X90.398 Y93.314 E1.78194
G1 X91.148 Y93.498 E2.01328
G1 X91.546 Y93.627 E2.13872
G1 X92.211 Y93.926 E2.35724
G1 X92.562 Y94.118 E2.47721
G1 X93.172 Y94.547 E2.70057
G1 X93.434 Y94.762 E2.80221
G1 X94.153 Y95.547 E3.12097
G1 X94.735 Y96.488 E3.45263
G1 X95.167 Y97.575 E3.80315
G1 X95.431 Y98.794 E4.17696
G1 X95.521 Y100.137 E4.58030
G1 X95.316 Y102.128 E5.17988
G1 X94.734 Y103.711 E5.68535
G1 X94.577 Y103.947 E5.77030
G1 X93.781 Y104.976 E6.16011
G1 X93.450 Y105.257 E6.29026
G1 X92.439 Y105.948 E6.65726
G1 X92.231 Y106.052 E6.72691
G1 X91.998 Y106.147 E6.80219
G1 X90.671 Y106.582 E7.22074
G1 X90.297 Y106.649 E7.33464
G1 X88.412 Y106.818 E7.90158
G1 X85.460 Y106.818 E8.78630
G1 X84.497 Y106.539 E9.08656
G1 X84.424 Y105.989 E9.25292
G1 X84.424 Y94.011 E12.84209
G1 X84.497 Y93.461 E13.00845
G92 E0
G1 Z1.500 F7800.000
G1 X115.518 Y107.648 F7800.000
G1 X111.105 Y96.562 E3.57549 F600.000
G1 X110.159 Y94.013 E4.39000
G1 X109.719 Y93.349 E4.62869
G1 X109.292 Y93.316 E4.75724
G1 X108.917 Y93.353 E4.87012
G1 X108.486 Y94.010 E5.10552
G1 X107.541 Y96.558 E5.91986
G1 X103.114 Y107.648 E9.49798
G92 E0
G1 X102.021 Y107.648 F7800.000
G1 X99.722 Y103.664 F7800.000
G1 X100.559 Y100.581 F7800.000
G1 X96.564 Y100.157 F7800.000
G1 X84.497 Y93.461 F7800.000
G1 X85.460 Y93.181 E0.30026 F600.000
G1 X88.936 Y93.183 E1.34183
G1 X90.014 Y93.258 E1.66578
G1 X90.398 Y93.314 E1.78194
G1 X91.148 Y93.498 E2.01328
G1 X91.546 Y93.627 E2.13872
G1 X92.211 Y93.926 E2.35724
G1 X92.562 Y94.118 E2.47721
G1 X93.172 Y94.547 E2.70057
G1 X93.434 Y94.762 E2.80222
G1 X94.153 Y95.547 E3.12097
G1 X94.735 Y96.488 E3.45263
G1 X95.167 Y97.575 E3.80315
G1 X95.431 Y98.794 E4.17696
G1 X95.521 Y100.137 E4.58030
G1 X95.316 Y102.128 E5.17988
G1 X94.734 Y103.711 E5.68535
G1 X94.577 Y103.947 E5.77030
G1 X93.781 Y104.976 E6.16011
G1 X93.450 Y105.257 E6.29026
G1 X92.439 Y105.948 E6.65726
G1 X92.231 Y106.052 E6.72691
G1 X91.998 Y106.147 E6.80219
G1 X90.671 Y106.582 E7.22074
G1 X90.297 Y106.649 E7.33464
G1 X88.412 Y106.818 E7.90158
G1 X85.460 Y106.818 E8.78630
G1 X84.497 Y106.539 E9.08656
G1 X84.424 Y105.989 E9.25292
G1 X84.424 Y94.011 E12.84209
G1 X84.497 Y93.461 E13.00845
G92 E0
G1 Z1.800 F7800.000
G1 X115.518 Y107.648 F7800.000
G1 X111.105 Y96.562 E3.57549 F600.000
G1 X110.159 Y94.013 E4.39000
G1 X109.719 Y93.349 E4.62869
G1 X109.292 Y93.316 E4.75724
G1 X108.917 Y93.353 E4.87012
G1 X108.486 Y94.010 E5.10552
G1 X107.541 Y96.558 E5.91986
