; generated by Slic3r 1.2.9 on 2016-03-11 at 01:23:48

; external perimeters extrusion width = 1.54mm
; perimeters extrusion width = 2.62mm
; infill extrusion width = 6.27mm
; solid infill extrusion width = 2.62mm
; top infill extrusion width = 2.62mm

M107
M104 S30 ; set temperature
G28 ; home all axes
G1 Z5 F5000 ; lift nozzle
M302
M92 E10000
M500
M501
G1 E100
M109 S30 ; wait for temperature to be reached
G21 ; set units to millimeters
G90 ; use absolute coordinates
M82 ; use absolute distances for extrusion
G92 E0
G1 Z0.300 F7800.000
G1 X113.438 Y103.523 F7800.000
G1 X115.999 Y107.423 E0.21114 F378.000
G1 X114.262 Y107.423 E0.28974
G1 X109.525 Y99.942 E0.69040
G1 X104.760 Y107.423 E1.09173
G1 X103.023 Y107.423 E1.17034
G1 X108.697 Y98.759 E1.63898
G1 X108.697 Y92.577 E1.91872
G1 X110.308 Y92.577 E1.99161
G1 X110.308 Y98.759 E2.27136
G1 X113.311 Y103.330 E2.51881 F378.000
G1 X112.554 Y102.695 F7800.000
G1 X109.960 Y100.102 E2.68777 F540.000
G1 X110.428 Y99.459 F7800.000
G1 X108.923 Y97.955 E2.78579 F540.000
G1 X108.923 Y97.399 E2.81137
G1 X110.082 Y98.558 E2.88688
G1 X110.082 Y98.003 E2.91245
G1 X108.923 Y96.844 E2.98796
G1 X108.923 Y96.289 E3.01354
G1 X110.082 Y97.448 E3.08905
G1 X110.082 Y96.893 E3.11462
G1 X108.923 Y95.734 E3.19014
G1 X108.923 Y95.179 E3.21571
G1 X110.082 Y96.338 E3.29122
G1 X110.082 Y95.782 E3.31680
G1 X108.923 Y94.623 E3.39231
G1 X108.923 Y94.068 E3.41788
G1 X110.082 Y95.227 E3.49339
G1 X110.082 Y94.672 E3.51897
G1 X108.923 Y93.513 E3.59448
G1 X108.923 Y92.958 E3.62006
G1 X110.082 Y94.117 E3.69557
G1 X110.082 Y93.562 E3.72114
G1 X109.324 Y92.803 E3.77057
G1 X109.879 Y92.803 E3.79615
G1 X110.082 Y93.007 E3.80941
G1 X109.533 Y98.507 F7800.000
G1 X109.530 Y98.495 F7800.000
G1 X109.502 Y98.481 F7800.000
G1 X109.472 Y98.582 F7800.000
G1 X111.491 Y101.077 F7800.000
G1 X108.923 Y98.510 E3.97668 F540.000
G1 X108.806 Y98.948 E3.99757
G1 X109.491 Y99.633 E4.04219
G1 X109.275 Y99.972 E4.06071
G1 X108.587 Y99.283 E4.10557
G1 X108.367 Y99.619 E4.12404
G1 X109.059 Y100.311 E4.16914
G1 X108.843 Y100.650 E4.18766
G1 X108.147 Y99.954 E4.23300
G1 X107.927 Y100.290 E4.25147
G1 X108.627 Y100.989 E4.29705
G1 X108.411 Y101.329 E4.31558
G1 X107.708 Y100.625 E4.36140
G1 X107.488 Y100.961 E4.37987
G1 X108.195 Y101.668 E4.42593
G1 X107.979 Y102.007 E4.44445
G1 X107.268 Y101.296 E4.49075
G1 X107.048 Y101.632 E4.50923
G1 X107.763 Y102.346 E4.55577
G1 X107.547 Y102.685 E4.57429
G1 X106.829 Y101.967 E4.62107
G1 X106.609 Y102.303 E4.63954
G1 X107.331 Y103.024 E4.68656
G1 X107.115 Y103.363 E4.70509
G1 X106.389 Y102.638 E4.75235
G1 X106.170 Y102.973 E4.77082
G1 X106.899 Y103.703 E4.81832
G1 X106.683 Y104.042 E4.83685
G1 X105.950 Y103.309 E4.88459
G1 X105.730 Y103.644 E4.90306
G1 X106.467 Y104.381 E4.95105
G1 X106.251 Y104.720 E4.96957
G1 X105.510 Y103.980 E5.01779
G1 X105.291 Y104.315 E5.03627
G1 X106.035 Y105.059 E5.08473
G1 X105.819 Y105.398 E5.10325
G1 X105.071 Y104.651 E5.15196
G1 X104.851 Y104.986 E5.17043
G1 X105.603 Y105.738 E5.21937
G1 X105.387 Y106.077 E5.23790
G1 X104.632 Y105.322 E5.28708
G1 X104.412 Y105.657 E5.30556
G1 X105.170 Y106.416 E5.35498
G1 X104.954 Y106.755 E5.37350
G1 X104.192 Y105.993 E5.42317
G1 X103.972 Y106.328 E5.44164
G1 X104.738 Y107.094 E5.49155
G1 X104.286 Y107.197 E5.51292
G1 X103.753 Y106.664 E5.54767
G1 X103.533 Y106.999 E5.56614
G1 X103.731 Y107.197 E5.57905
G1 X109.472 Y98.582 F7800.000
G1 X109.472 Y98.582 F7800.000
G1 X110.919 Y101.616 F7800.000
G1 X113.617 Y104.313 E5.75479 F540.000
G1 X112.836 Y104.643 F7800.000
G1 X115.390 Y107.197 E5.92115 F540.000
G1 X114.835 Y107.197 E5.94673
G1 X113.795 Y106.157 E6.01447
G1 X114.679 Y105.931 F7800.000
G1 X111.878 Y103.129 E6.19700 F540.000
G92 E0
G1 X109.524 Y100.362 F7800.000
G1 X109.516 Y106.407 F7800.000
G1 X104.883 Y108.648 F7800.000
G1 X102.606 Y108.648 F7800.000
G1 X99.406 Y105.552 F7800.000
G1 X100.296 Y103.808 F7800.000
G1 X96.524 Y102.370 F7800.000
G1 X90.819 Y107.225 F7800.000
G1 X88.634 Y107.423 E0.09923 F378.000
G1 X83.809 Y107.423 E0.31760
G1 X83.809 Y92.577 E0.98937
G1 X89.299 Y92.577 E1.23782
G1 X90.604 Y92.673 E1.29701
G1 X90.692 Y92.680 E1.30101 F378.000
G1 X91.958 Y92.986 E1.35994
G1 X93.107 Y93.493 E1.41679
G1 X94.115 Y94.190 E1.47225
G1 X94.957 Y95.065 E1.52718
G1 X95.635 Y96.120 E1.58394
G1 X96.133 Y97.333 E1.64324
G1 X96.433 Y98.678 E1.70559
G1 X96.533 Y100.153 E1.77249
G1 X96.303 Y102.317 E1.87099
G1 X95.622 Y104.105 E1.95755
G1 X94.491 Y105.532 E2.03994
G1 X92.941 Y106.578 E2.12455
G1 X91.046 Y107.193 E2.21468
G1 X90.647 Y105.984 F7800.000
G1 X90.462 Y106.045 E2.22347 F378.000
G1 X88.611 Y106.214 E2.30759
G1 X85.430 Y106.214 E2.45154
G1 X85.430 Y93.786 E3.01390
G1 X89.076 Y93.786 E3.17890 F378.000
G1 X90.182 Y93.870 E3.22906
G1 X91.208 Y94.126 E3.27691
G1 X92.143 Y94.553 E3.32346
G1 X92.965 Y95.145 E3.36927
G1 X93.650 Y95.887 E3.41497
G1 X94.194 Y96.778 E3.46220
G1 X94.589 Y97.796 E3.51161
G1 X94.824 Y98.923 E3.56370
G1 X94.902 Y100.161 E3.61984
G1 X94.725 Y101.954 E3.70136
G1 X94.183 Y103.459 E3.77372
G1 X93.274 Y104.660 E3.84190
G1 X92.023 Y105.529 E3.91082
G1 X90.866 Y105.911 E3.96597
G1 X86.215 Y106.440 F7800.000
G1 X86.972 Y107.197 E4.01455 F540.000
G1 X87.519 Y107.197 E4.03936
G1 X86.762 Y106.440 E4.08794
G1 X87.309 Y106.440 E4.11275
G1 X88.066 Y107.197 E4.16133
G1 X88.613 Y107.197 E4.18614
G1 X87.856 Y106.440 E4.23472
G1 X88.402 Y106.440 E4.25952
G1 X89.122 Y107.159 E4.30567
G1 X89.623 Y107.114 E4.32852
G1 X88.915 Y106.406 E4.37393
G1 X89.416 Y106.360 E4.39676
G1 X90.125 Y107.068 E4.44221
G1 X90.626 Y107.023 E4.46505
G1 X89.917 Y106.314 E4.51052
G1 X90.418 Y106.269 E4.53335
G1 X91.107 Y106.958 E4.57757
G1 X91.520 Y106.824 E4.59726
G1 X90.834 Y106.137 E4.64130
G1 X91.245 Y106.001 E4.66093
G1 X91.933 Y106.690 E4.70509
G1 X92.346 Y106.556 E4.72478
G1 X91.656 Y105.866 E4.76906
G1 X92.067 Y105.730 E4.78869
G1 X92.759 Y106.422 E4.83308
G1 X93.112 Y106.228 E4.85136
G1 X92.392 Y105.509 E4.89752
G1 X92.715 Y105.285 E4.91534
G1 X93.438 Y106.008 E4.96174
G1 X93.765 Y105.787 E4.97962
G1 X93.038 Y105.061 E5.02626
G1 X93.361 Y104.836 E5.04408
G1 X94.091 Y105.567 E5.09097
G1 X94.394 Y105.323 E5.10861
G1 X93.609 Y104.538 E5.15900
G1 X93.845 Y104.227 E5.17671
G1 X94.645 Y105.027 E5.22806
G1 X94.887 Y104.722 E5.24572
G1 X94.080 Y103.915 E5.29747
G1 X94.316 Y103.604 E5.31518
G1 X95.128 Y104.417 E5.36733
G1 X95.370 Y104.112 E5.38499
G1 X94.483 Y103.225 E5.44189
G1 X94.628 Y102.823 E5.46128
G1 X95.545 Y103.739 E5.52010
G1 X95.696 Y103.344 E5.53932
G1 X94.773 Y102.421 E5.59855
G1 X94.917 Y102.018 E5.61794
G1 X95.846 Y102.948 E5.67757
G1 X95.997 Y102.552 E5.69679
G1 X94.985 Y101.539 E5.76175
G1 X95.034 Y101.042 E5.78443
G1 X96.106 Y102.113 E5.85318
G1 X96.158 Y101.619 E5.87574
G1 X95.084 Y100.544 E5.94469
G1 X95.126 Y100.040 E5.96764
G1 X96.211 Y101.125 E6.03721
G1 X96.263 Y100.630 E6.05977
G1 X95.090 Y99.457 E6.13507
G1 X95.053 Y98.873 E6.16160
G1 X96.298 Y100.119 E6.24153
G1 X96.258 Y99.532 E6.26821
G1 X94.922 Y98.195 E6.35398
G1 X94.742 Y97.468 E6.38796
G1 X96.219 Y98.945 E6.48274
G1 X96.090 Y98.270 E6.51393
G1 X94.396 Y96.576 E6.62265
G1 X95.571 Y96.658 F7800.000
G1 X92.374 Y93.460 E6.82783 F540.000
G1 X92.026 Y94.206 F7800.000
G1 X90.774 Y92.954 E6.90814 F540.000
G1 X91.495 Y93.128 E6.94178
G1 X95.933 Y97.566 E7.22655
G1 X94.725 Y95.264 F7800.000
G1 X93.741 Y94.281 E7.28965 F540.000
G1 X91.122 Y93.849 F7800.000
G1 X90.146 Y92.872 E7.35229 F540.000
G1 X89.555 Y92.829 E7.37915
G1 X90.394 Y93.667 E7.43295
G1 X89.787 Y93.607 E7.46062
G1 X88.983 Y92.803 E7.51221
G1 X88.436 Y92.803 E7.53702
G1 X89.195 Y93.562 E7.58572
G1 X88.646 Y93.560 E7.61062
G1 X87.889 Y92.803 E7.65920
G1 X87.342 Y92.803 E7.68401
G1 X88.099 Y93.560 E7.73258
G1 X87.552 Y93.560 E7.75739
G1 X86.795 Y92.803 E7.80597
G1 X86.249 Y92.803 E7.83078
G1 X87.006 Y93.560 E7.87936
G1 X86.459 Y93.560 E7.90417
G1 X85.702 Y92.803 E7.95275
G1 X85.155 Y92.803 E7.97756
G1 X85.912 Y93.560 E8.02614
G1 X85.365 Y93.560 E8.05095
G1 X84.608 Y92.803 E8.09952
G1 X84.068 Y92.810 E8.12403
G1 X85.204 Y93.945 E8.19691
G1 X85.204 Y94.492 E8.22172
G1 X84.035 Y93.323 E8.29673
G1 X84.035 Y93.870 E8.32154
G1 X85.204 Y95.039 E8.39655
G1 X85.204 Y95.586 E8.42136
G1 X84.035 Y94.417 E8.49638
G1 X84.035 Y94.964 E8.52119
G1 X85.204 Y96.133 E8.59620
G1 X85.204 Y96.679 E8.62101
G1 X84.035 Y95.510 E8.69602
G1 X84.035 Y96.057 E8.72083
G1 X85.204 Y97.226 E8.79585
G1 X85.204 Y97.773 E8.82066
G1 X84.035 Y96.604 E8.89567
G1 X84.035 Y97.151 E8.92048
G1 X85.204 Y98.320 E8.99550
G1 X85.204 Y98.867 E9.02030
G1 X84.035 Y97.698 E9.09532
G1 X84.035 Y98.244 E9.12013
G1 X85.204 Y99.414 E9.19514
G1 X85.204 Y99.960 E9.21995
G1 X84.035 Y98.791 E9.29497
G1 X84.035 Y99.338 E9.31978
G1 X85.204 Y100.507 E9.39479
G1 X85.204 Y101.054 E9.41960
G1 X84.035 Y99.885 E9.49461
G1 X84.035 Y100.432 E9.51942
G1 X85.204 Y101.601 E9.59444
G1 X85.204 Y102.148 E9.61925
G1 X84.035 Y100.978 E9.69426
G1 X84.035 Y101.525 E9.71907
G1 X85.204 Y102.694 E9.79408
G1 X85.204 Y103.241 E9.81889
G1 X84.035 Y102.072 E9.89391
G1 X84.035 Y102.619 E9.91872
G1 X85.204 Y103.788 E9.99373
G1 X85.204 Y104.335 E10.01854
G1 X84.035 Y103.166 E10.09355
G1 X84.035 Y103.713 E10.11836
G1 X85.204 Y104.882 E10.19338
G1 X85.204 Y105.428 E10.21819
G1 X84.035 Y104.259 E10.29320
G1 X84.035 Y104.806 E10.31801
G1 X85.204 Y105.975 E10.39302
G1 X85.122 Y106.440 E10.41443
G1 X85.879 Y107.197 E10.46301
G1 X86.425 Y107.197 E10.48782
G1 X85.668 Y106.440 E10.53640
G1 X85.204 Y106.522 E10.55781
G1 X84.035 Y105.353 E10.63282
G1 X84.035 Y105.900 E10.65763
G1 X85.332 Y107.197 E10.74087
G1 X84.785 Y107.197 E10.76568
G1 X84.035 Y106.447 E10.81382
G1 X84.035 Y106.993 E10.83863
G1 X84.238 Y107.197 E10.85170
M106 S255
G92 E0
G1 Z0.600 F7800.000
G1 X109.503 Y92.352 F7800.000
G1 X109.503 Y99.209 E2.05473 F600.000
G1 X109.630 Y99.286 E2.09907
G1 X110.268 Y99.891 E2.36271
G1 X115.271 Y107.648 E5.12860
G1 X109.472 Y98.582 F7800.000
G1 X109.472 Y98.582 F7800.000
G1 X103.750 Y107.648 F7800.000
G1 X108.767 Y99.880 E7.89969 F600.000
G1 X109.380 Y99.287 E8.15525
G1 X110.533 Y98.560 E8.56368
G92 E0
G1 X108.472 Y98.692 F7800.000
G1 X108.472 Y98.692 F7800.000
G1 X102.443 Y96.893 F7800.000
G1 X102.392 Y96.432 F7800.000
G1 X101.890 Y96.030 F7800.000
G1 X100.983 Y95.362 F7800.000
G1 X99.633 Y94.457 F7800.000
G1 X95.836 Y96.016 F7800.000
G1 X84.692 Y93.461 F7800.000
G1 X85.655 Y93.181 E0.30026 F600.000
G1 X89.131 Y93.183 E1.34183
G1 X90.209 Y93.258 E1.66578
G1 X90.593 Y93.314 E1.78194
G1 X91.343 Y93.498 E2.01328
G1 X91.741 Y93.627 E2.13873
G1 X92.406 Y93.926 E2.35724
G1 X92.757 Y94.118 E2.47721
G1 X93.367 Y94.547 E2.70057
G1 X93.629 Y94.762 E2.80222
G1 X94.348 Y95.547 E3.12097
G1 X94.930 Y96.488 E3.45263
G1 X95.362 Y97.575 E3.80315
G1 X95.626 Y98.794 E4.17696
G1 X95.716 Y100.137 E4.58030
G1 X95.511 Y102.128 E5.17988
G1 X94.929 Y103.711 E5.68535
G1 X94.772 Y103.947 E5.77030
G1 X93.976 Y104.976 E6.16011
G1 X93.645 Y105.257 E6.29026
G1 X92.634 Y105.948 E6.65726
G1 X92.426 Y106.052 E6.72691
G1 X92.193 Y106.147 E6.80219
G1 X90.866 Y106.582 E7.22074
G1 X90.492 Y106.649 E7.33464
G1 X88.607 Y106.818 E7.90158
G1 X85.655 Y106.818 E8.78630
G1 X84.692 Y106.539 E9.08656
G1 X84.619 Y105.989 E9.25292
G1 X84.619 Y94.011 E12.84209
G1 X84.692 Y93.461 E13.00845
G92 E0
G1 Z0.900 F7800.000
G1 X109.503 Y92.352 F7800.000
G1 X109.503 Y99.209 E2.05473 F600.000
G1 X109.630 Y99.286 E2.09907
G1 X110.268 Y99.891 E2.36271
G1 X115.271 Y107.648 E5.12860
G1 X109.472 Y98.582 F7800.000
G1 X109.472 Y98.582 F7800.000
G1 X103.750 Y107.648 F7800.000
G1 X108.767 Y99.880 E7.89969 F600.000
G1 X109.380 Y99.287 E8.15525
G1 X110.533 Y98.560 E8.56368
G92 E0
G1 X108.472 Y98.692 F7800.000
G1 X108.472 Y98.692 F7800.000
G1 X102.443 Y96.893 F7800.000
G1 X102.392 Y96.432 F7800.000
G1 X101.890 Y96.030 F7800.000
G1 X100.983 Y95.362 F7800.000
G1 X99.633 Y94.457 F7800.000
G1 X95.836 Y96.016 F7800.000
G1 X84.692 Y93.461 F7800.000
G1 X85.655 Y93.181 E0.30026 F600.000
G1 X89.131 Y93.183 E1.34183
G1 X90.209 Y93.258 E1.66578
G1 X90.593 Y93.314 E1.78194
G1 X91.343 Y93.498 E2.01328
G1 X91.741 Y93.627 E2.13872
G1 X92.406 Y93.926 E2.35724
G1 X92.757 Y94.118 E2.47721
G1 X93.367 Y94.547 E2.70057
G1 X93.629 Y94.762 E2.80222
G1 X94.348 Y95.547 E3.12097
G1 X94.930 Y96.488 E3.45263
G1 X95.362 Y97.575 E3.80315
G1 X95.626 Y98.794 E4.17696
G1 X95.716 Y100.137 E4.58030
G1 X95.511 Y102.128 E5.17988
G1 X94.929 Y103.711 E5.68535
G1 X94.772 Y103.947 E5.77030
G1 X93.976 Y104.976 E6.16011
G1 X93.645 Y105.257 E6.29026
G1 X92.634 Y105.948 E6.65726
G1 X92.426 Y106.052 E6.72691
G1 X92.193 Y106.147 E6.80219
G1 X90.866 Y106.582 E7.22074
G1 X90.492 Y106.649 E7.33464
G1 X88.607 Y106.818 E7.90158
G1 X85.655 Y106.818 E8.78630
G1 X84.692 Y106.539 E9.08656
G1 X84.619 Y105.989 E9.25292
G1 X84.619 Y94.011 E12.84209
G1 X84.692 Y93.461 E13.00845
G92 E0
G1 Z1.200 F7800.000
G1 X109.503 Y92.352 F7800.000
G1 X109.503 Y99.209 E2.05473 F600.000
G1 X109.630 Y99.286 E2.09907
G1 X110.268 Y99.891 E2.36271
G1 X115.271 Y107.648 E5.12860
G1 X109.472 Y98.582 F7800.000
G1 X109.472 Y98.582 F7800.000
G1 X103.750 Y107.648 F7800.000
G1 X108.767 Y99.880 E7.89969 F600.000
G1 X109.380 Y99.287 E8.15525
G1 X110.533 Y98.560 E8.56368
G92 E0
G1 X108.472 Y98.692 F7800.000
G1 X108.472 Y98.692 F7800.000
G1 X102.443 Y96.893 F7800.000
G1 X102.392 Y96.432 F7800.000
G1 X101.890 Y96.030 F7800.000
G1 X100.983 Y95.362 F7800.000
G1 X99.633 Y94.457 F7800.000
G1 X95.836 Y96.016 F7800.000
G1 X84.692 Y93.461 F7800.000
G1 X85.655 Y93.181 E0.30026 F600.000
G1 X89.131 Y93.183 E1.34183
G1 X90.209 Y93.258 E1.66579
G1 X90.593 Y93.314 E1.78194
G1 X91.343 Y93.498 E2.01328
G1 X91.741 Y93.627 E2.13872
G1 X92.406 Y93.926 E2.35724
G1 X92.757 Y94.118 E2.47721
G1 X93.367 Y94.547 E2.70057
G1 X93.629 Y94.762 E2.80221
G1 X94.348 Y95.547 E3.12097
G1 X94.930 Y96.488 E3.45263
G1 X95.362 Y97.575 E3.80315
G1 X95.626 Y98.794 E4.17696
G1 X95.716 Y100.137 E4.58030
G1 X95.511 Y102.128 E5.17988
G1 X94.929 Y103.711 E5.68535
G1 X94.772 Y103.947 E5.77030
G1 X93.976 Y104.976 E6.16011
G1 X93.645 Y105.257 E6.29026
G1 X92.634 Y105.948 E6.65726
G1 X92.426 Y106.052 E6.72691
G1 X92.193 Y106.147 E6.80219
G1 X90.866 Y106.582 E7.22074
G1 X90.492 Y106.649 E7.33464
G1 X88.607 Y106.818 E7.90158
G1 X85.655 Y106.818 E8.78630
G1 X84.692 Y106.539 E9.08656
G1 X84.619 Y105.989 E9.25292
G1 X84.619 Y94.011 E12.84209
G1 X84.692 Y93.461 E13.00845
G92 E0
G1 Z1.500 F7800.000
G1 X109.503 Y92.352 F7800.000
G1 X109.503 Y99.209 E2.05473 F600.000
G1 X109.630 Y99.286 E2.09907
G1 X110.268 Y99.891 E2.36271
G1 X115.271 Y107.648 E5.12860
G1 X109.472 Y98.582 F7800.000
G1 X109.472 Y98.582 F7800.000
G1 X103.750 Y107.648 F7800.000
G1 X108.767 Y99.880 E7.89969 F600.000
G1 X109.380 Y99.287 E8.15525
G1 X110.533 Y98.560 E8.56368
G92 E0
G1 X108.472 Y98.692 F7800.000
G1 X108.472 Y98.692 F7800.000
G1 X102.443 Y96.893 F7800.000
G1 X102.392 Y96.432 F7800.000
G1 X101.890 Y96.030 F7800.000
G1 X100.983 Y95.362 F7800.000
G1 X99.633 Y94.457 F7800.000
G1 X95.836 Y96.016 F7800.000
G1 X84.692 Y93.461 F7800.000
G1 X85.655 Y93.181 E0.30026 F600.000
G1 X89.131 Y93.183 E1.34183
G1 X90.209 Y93.258 E1.66578
G1 X90.593 Y93.314 E1.78194
G1 X91.343 Y93.498 E2.01328
G1 X91.741 Y93.627 E2.13872
G1 X92.406 Y93.926 E2.35724
G1 X92.757 Y94.118 E2.47721
G1 X93.367 Y94.547 E2.70057
G1 X93.629 Y94.762 E2.80222
G1 X94.348 Y95.547 E3.12097
G1 X94.930 Y96.488 E3.45263
G1 X95.362 Y97.575 E3.80315
G1 X95.626 Y98.794 E4.17696
G1 X95.716 Y100.137 E4.58030
G1 X95.511 Y102.128 E5.17988
G1 X94.929 Y103.711 E5.68535
G1 X94.772 Y103.947 E5.77030
G1 X93.976 Y104.976 E6.16011
G1 X93.645 Y105.257 E6.29026
G1 X92.634 Y105.948 E6.65726
G1 X92.426 Y106.052 E6.72691
G1 X92.193 Y106.147 E6.80219
G1 X90.866 Y106.582 E7.22074
G1 X90.492 Y106.649 E7.33464
G1 X88.607 Y106.818 E7.90158
G1 X85.655 Y106.818 E8.78630
G1 X84.692 Y106.539 E9.08656
G1 X84.619 Y105.989 E9.25292
G1 X84.619 Y94.011 E12.84209
G1 X84.692 Y93.461 E13.00845
G92 E0
G1 Z1.800 F7800.000
G1 X109.503 Y92.352 F7800.000
G1 X109.503 Y99.209 E2.05473 F600.000
G1 X109.630 Y99.286 E2.09907
G1 X110.268 Y99.891 E2.36271
G1 X115.271 Y107.648 E5.12860
G1 X109.472 Y98.582 F7800.000
