; generated by Slic3r 1.2.9 on 2016-03-11 at 01:23:51

; external perimeters extrusion width = 1.54mm
; perimeters extrusion width = 2.62mm
; infill extrusion width = 6.27mm
; solid infill extrusion width = 2.62mm
; top infill extrusion width = 2.62mm

M107
M104 S30 ; set temperature
G28 ; home all axes
G1 Z5 F5000 ; lift nozzle
M302
M92 E10000
M500
M501
G1 E100
M109 S30 ; wait for temperature to be reached
G21 ; set units to millimeters
G90 ; use absolute coordinates
M82 ; use absolute distances for extrusion
G92 E0
G1 Z0.300 F7800.000
G1 X114.750 Y98.122 F7800.000
G1 X114.665 Y98.339 E0.01052 F378.000
G1 X114.155 Y99.016 E0.04888
G1 X113.452 Y99.561 E0.08912
G1 X112.566 Y99.946 E0.13286
G1 X111.447 Y100.177 E0.18456
G1 X111.423 Y100.600 E0.20369
G1 X112.276 Y100.878 E0.24431
G1 X112.947 Y101.267 E0.27936
G1 X113.482 Y101.779 E0.31287
G1 X113.873 Y102.398 E0.34600
G1 X114.109 Y103.110 E0.37996
G1 X114.186 Y103.901 E0.41593
G1 X113.624 Y105.853 E0.50784
G1 X111.944 Y107.019 E0.60034
G1 X109.031 Y107.423 E0.73344
G1 X103.729 Y107.423 E0.97333
G1 X103.729 Y92.577 E1.64510
G1 X109.687 Y92.577 E1.91467
G1 X111.141 Y92.689 E1.98069
G1 X111.288 Y92.700 E1.98736 F378.000
G1 X112.615 Y93.064 E2.04962
G1 X113.679 Y93.663 E2.10486
G1 X114.454 Y94.467 E2.15538
G1 X114.918 Y95.456 E2.20483
G1 X115.075 Y96.650 E2.25930
G1 X114.972 Y97.552 E2.30041
G1 X114.833 Y97.907 E2.31762
G1 X113.260 Y97.464 F7800.000
G1 X112.984 Y98.445 E2.36372 F378.000
G1 X111.613 Y99.420 E2.43984
G1 X109.440 Y99.729 E2.53914
G1 X105.350 Y99.729 E2.72421
G1 X105.350 Y93.786 E2.99312
G1 X109.595 Y93.786 E3.18519 F378.000
G1 X110.770 Y93.866 E3.23849
G1 X111.738 Y94.113 E3.28369
G1 X112.488 Y94.537 E3.32267
G1 X113.018 Y95.139 E3.35899
G1 X113.333 Y95.902 E3.39635
G1 X113.438 Y96.831 E3.43861
G1 X113.322 Y97.242 E3.45795
G92 E0
G1 X113.893 Y98.076 F7800.000
G1 X113.893 Y98.076 F7800.000
G1 X111.119 Y101.273 F7800.000
G1 X111.657 Y101.567 E0.02774 F378.000
G1 X112.162 Y102.117 E0.06150
G1 X112.461 Y102.825 E0.09631
G1 X112.559 Y103.676 E0.13507
G1 X112.457 Y104.489 E0.17215
G1 X112.142 Y105.154 E0.20544
G1 X111.615 Y105.643 E0.23797
G1 X110.914 Y105.966 E0.27289
G1 X110.059 Y106.153 E0.31250
G1 X109.052 Y106.214 E0.35814
G1 X105.350 Y106.214 E0.52564
G1 X105.350 Y100.895 E0.76633 F378.000
G1 X109.053 Y100.895 E0.93387
G1 X110.091 Y100.967 E0.98095
G1 X110.911 Y101.175 E1.01925
G1 X111.213 Y100.912 F7800.000
G1 X111.941 Y101.227 E1.09706 F540.000
G1 X111.272 Y99.839 F7800.000
G1 X111.709 Y99.763 E1.14050 F540.000
G1 X112.130 Y99.589 E1.18511
G1 X112.334 Y99.394 F7800.000
G1 X112.637 Y99.697 E1.20469 F540.000
G1 X113.021 Y99.530 E1.22383
G1 X112.510 Y99.019 E1.25684
G1 X112.832 Y98.790 E1.27490
G1 X113.399 Y99.357 E1.31156
G1 X113.710 Y99.117 E1.32951
G1 X113.154 Y98.561 E1.36541
G1 X113.284 Y98.140 E1.38555
G1 X114.019 Y98.875 E1.43304
G1 X114.256 Y98.561 E1.45102
G1 X113.405 Y97.710 E1.50600
G1 X113.526 Y97.280 E1.52642
G1 X114.487 Y98.241 E1.58852
G1 X114.641 Y97.844 E1.60797
G1 X113.647 Y96.850 E1.67224
G1 X113.611 Y96.263 E1.69913
G1 X114.768 Y97.420 E1.77393
G1 X114.825 Y96.926 E1.79668
G1 X113.490 Y95.591 E1.88298
G1 X114.281 Y94.729 F7800.000
G1 X113.342 Y93.791 E1.94366 F540.000
G1 X112.215 Y93.214 F7800.000
G1 X114.712 Y95.711 E2.10511 F540.000
G1 X114.795 Y96.346 E2.13435
G1 X111.456 Y93.006 E2.35027
G1 X110.794 Y92.895 E2.38093
G1 X111.761 Y93.862 E2.44341
G1 X111.021 Y93.673 E2.47830
G1 X110.197 Y92.849 E2.53156
G1 X109.600 Y92.804 E2.55893
G1 X110.406 Y93.609 E2.61101
G1 X109.815 Y93.569 E2.63810
G1 X109.049 Y92.803 E2.68761
G1 X108.498 Y92.803 E2.71280
G1 X109.255 Y93.560 E2.76174
G1 X108.704 Y93.560 E2.78693
G1 X107.947 Y92.803 E2.83588
G1 X107.396 Y92.803 E2.86107
G1 X108.153 Y93.560 E2.91001
G1 X107.602 Y93.560 E2.93520
G1 X106.845 Y92.803 E2.98415
G1 X106.294 Y92.803 E3.00934
G1 X107.051 Y93.560 E3.05829
G1 X106.500 Y93.560 E3.08347
G1 X105.743 Y92.803 E3.13242
G1 X105.192 Y92.803 E3.15761
G1 X105.949 Y93.560 E3.20656
G1 X105.398 Y93.560 E3.23174
G1 X104.641 Y92.803 E3.28069
G1 X104.090 Y92.803 E3.30588
G1 X105.124 Y93.837 E3.37275
G1 X105.124 Y94.388 E3.39794
G1 X103.955 Y93.219 E3.47352
G1 X103.955 Y93.770 E3.49871
G1 X105.124 Y94.939 E3.57430
G1 X105.124 Y95.490 E3.59949
G1 X103.955 Y94.321 E3.67507
G1 X103.955 Y94.872 E3.70026
G1 X105.124 Y96.041 E3.77584
G1 X105.124 Y96.592 E3.80103
G1 X103.955 Y95.423 E3.87661
G1 X103.955 Y95.974 E3.90180
G1 X105.124 Y97.143 E3.97739
G1 X105.124 Y97.694 E4.00257
G1 X103.955 Y96.525 E4.07816
G1 X103.955 Y97.076 E4.10335
G1 X105.124 Y98.245 E4.17893
G1 X105.124 Y98.796 E4.20412
G1 X103.955 Y97.627 E4.27970
G1 X103.955 Y98.178 E4.30489
G1 X105.124 Y99.347 E4.38048
G1 X105.124 Y99.898 E4.40566
G1 X103.955 Y98.729 E4.48125
G1 X103.955 Y99.280 E4.50644
G1 X105.344 Y100.669 E4.59625
G1 X105.124 Y101.000 F7800.000
G1 X103.955 Y99.831 E4.67183 F540.000
G1 X103.955 Y100.382 E4.69702
G1 X105.124 Y101.551 E4.77261
G1 X105.124 Y102.102 E4.79779
G1 X103.955 Y100.933 E4.87338
G1 X103.955 Y101.484 E4.89857
G1 X105.124 Y102.653 E4.97415
G1 X105.124 Y103.204 E4.99934
G1 X103.955 Y102.035 E5.07492
G1 X103.955 Y102.586 E5.10011
G1 X105.124 Y103.755 E5.17569
G1 X105.124 Y104.306 E5.20088
G1 X103.955 Y103.137 E5.27647
G1 X103.955 Y103.688 E5.30165
G1 X105.124 Y104.857 E5.37724
G1 X105.124 Y105.408 E5.40243
G1 X103.955 Y104.239 E5.47801
G1 X103.955 Y104.790 E5.50320
G1 X105.124 Y105.959 E5.57878
G1 X105.055 Y106.440 E5.60102
G1 X105.812 Y107.197 E5.64996
G1 X106.363 Y107.197 E5.67515
G1 X105.606 Y106.440 E5.72410
G1 X105.124 Y106.510 E5.74633
G1 X103.955 Y105.341 E5.82191
G1 X103.955 Y105.892 E5.84710
G1 X105.261 Y107.197 E5.93151
G1 X104.710 Y107.197 E5.95670
G1 X103.955 Y106.442 E6.00548
G1 X103.955 Y106.993 E6.03067
G1 X104.159 Y107.197 E6.04383
G1 X106.157 Y106.440 F7800.000
G1 X106.914 Y107.197 E6.09278 F540.000
G1 X107.465 Y107.197 E6.11796
G1 X106.708 Y106.440 E6.16691
G1 X107.259 Y106.440 E6.19210
G1 X108.016 Y107.197 E6.24105
G1 X108.567 Y107.197 E6.26624
G1 X107.810 Y106.440 E6.31518
G1 X108.360 Y106.440 E6.34037
G1 X109.114 Y107.194 E6.38911
G1 X109.598 Y107.127 E6.41144
G1 X108.911 Y106.440 E6.45584
G1 X109.435 Y106.412 E6.47980
G1 X110.082 Y107.060 E6.52164
G1 X110.566 Y106.992 E6.54397
G1 X109.954 Y106.381 E6.58350
G1 X110.415 Y106.290 E6.60495
G1 X111.050 Y106.925 E6.64599
G1 X111.533 Y106.858 E6.66832
G1 X110.867 Y106.191 E6.71142
G1 X111.255 Y106.028 E6.73065
G1 X111.982 Y106.756 E6.77770
G1 X112.308 Y106.530 E6.79580
G1 X111.632 Y105.855 E6.83947
G1 X111.936 Y105.608 E6.85737
G1 X112.633 Y106.305 E6.90243
G1 X112.958 Y106.079 E6.92053
G1 X112.222 Y105.342 E6.96815
G1 X112.433 Y105.003 E6.98643
G1 X113.283 Y105.853 E7.04138
G1 X113.504 Y105.523 E7.05954
G1 X112.611 Y104.630 E7.11728
G1 X112.714 Y104.182 E7.13829
G1 X113.627 Y105.095 E7.19735
G1 X113.750 Y104.667 E7.21769
G1 X112.775 Y103.692 E7.28076
G1 X112.730 Y103.096 E7.30809
G1 X113.874 Y104.240 E7.38205
G1 X113.936 Y103.751 E7.40458
G1 X112.556 Y102.371 E7.49377
G1 X112.100 Y101.364 F7800.000
G1 X113.836 Y103.100 E7.60600 F540.000
G1 X111.025 Y100.840 F7800.000
G1 X110.045 Y99.860 E7.66936 F540.000
G1 X110.528 Y99.792 E7.69164
G1 X111.123 Y100.387 E7.73013
G1 X110.430 Y100.796 F7800.000
G1 X109.563 Y99.929 E7.78620 F540.000
G1 X109.038 Y99.955 E7.81023
G1 X109.797 Y100.714 E7.85931
G1 X109.205 Y100.673 E7.88642
G1 X108.487 Y99.955 E7.93286
G1 X107.936 Y99.955 E7.95805
G1 X108.650 Y100.669 E8.00422
G1 X108.099 Y100.669 E8.02940
G1 X107.385 Y99.955 E8.07557
G1 X106.834 Y99.955 E8.10076
G1 X107.548 Y100.669 E8.14693
G1 X106.997 Y100.669 E8.17211
G1 X106.283 Y99.955 E8.21828
G1 X105.732 Y99.955 E8.24347
G1 X106.446 Y100.669 E8.28964
G1 X105.895 Y100.669 E8.31483
G1 X105.181 Y99.955 E8.36099
G92 E0
G1 X103.504 Y92.352 F7800.000
G1 X100.109 Y94.044 F7800.000
G1 X95.619 Y96.715 F7800.000
G1 X89.441 Y96.715 F7800.000
G1 X86.770 Y94.044 F7800.000
G1 X84.924 Y95.119 F7800.000
G1 X84.924 Y92.577 E0.11502 F378.000
G1 X96.488 Y92.577 E0.63829
G1 X96.488 Y93.819 E0.69449
G1 X86.545 Y93.819 E1.14440 F378.000
G1 X86.545 Y99.611 E1.40648
G1 X95.394 Y99.611 E1.80690
G1 X95.394 Y100.831 E1.86210
G1 X86.545 Y100.831 E2.26251
G1 X86.545 Y106.181 E2.50459
G1 X96.044 Y106.181 E2.93442
G1 X96.044 Y107.423 E2.99062
G1 X84.924 Y107.423 E3.49379
G1 X84.924 Y95.350 E4.04008
G1 X86.319 Y93.976 F7800.000
G1 X85.168 Y92.825 E4.11378 F540.000
G1 X85.150 Y93.353 E4.13769
G1 X86.319 Y94.522 E4.21254
G1 X86.319 Y95.067 E4.23724
G1 X85.150 Y93.898 E4.31209
G1 X85.150 Y94.444 E4.33680
G1 X86.319 Y95.613 E4.41165
G1 X86.319 Y96.159 E4.43635
G1 X85.150 Y94.990 E4.51120
G1 X85.150 Y95.535 E4.53591
G1 X86.319 Y96.704 E4.61076
G1 X86.319 Y97.250 E4.63546
G1 X85.150 Y96.081 E4.71031
G1 X85.150 Y96.626 E4.73501
G1 X86.319 Y97.796 E4.80987
G1 X86.319 Y98.341 E4.83457
G1 X85.150 Y97.172 E4.90942
G1 X85.150 Y97.718 E4.93412
G1 X86.319 Y98.887 E5.00897
G1 X86.319 Y99.432 E5.03368
G1 X85.150 Y98.263 E5.10853
G1 X85.150 Y98.809 E5.13323
G1 X86.946 Y100.605 E5.24822
G1 X87.491 Y100.605 E5.27292
G1 X86.723 Y99.837 E5.32210
G1 X87.269 Y99.837 E5.34680
G1 X88.037 Y100.605 E5.39598
G1 X88.583 Y100.605 E5.42068
G1 X87.814 Y99.837 E5.46986
G1 X88.360 Y99.837 E5.49456
G1 X89.128 Y100.605 E5.54374
G1 X89.674 Y100.605 E5.56844
G1 X88.906 Y99.837 E5.61762
G1 X89.451 Y99.837 E5.64232
G1 X90.219 Y100.605 E5.69150
G1 X90.765 Y100.605 E5.71620
G1 X89.997 Y99.837 E5.76538
G1 X90.543 Y99.837 E5.79008
G1 X91.311 Y100.605 E5.83926
G1 X91.856 Y100.605 E5.86396
G1 X91.088 Y99.837 E5.91314
G1 X91.634 Y99.837 E5.93784
G1 X92.402 Y100.605 E5.98702
G1 X92.948 Y100.605 E6.01172
G1 X92.180 Y99.837 E6.06090
G1 X92.725 Y99.837 E6.08560
G1 X93.493 Y100.605 E6.13478
G1 X94.039 Y100.605 E6.15948
G1 X93.271 Y99.837 E6.20865
G1 X93.816 Y99.837 E6.23336
G1 X94.585 Y100.605 E6.28253
G1 X95.130 Y100.605 E6.30724
G1 X94.362 Y99.837 E6.35641
G1 X94.908 Y99.837 E6.38112
G1 X95.168 Y100.097 E6.39777
G92 E0
G1 X85.770 Y106.648 F7800.000
G1 X85.770 Y106.648 F7800.000
G1 X94.930 Y106.407 F7800.000
G1 X95.720 Y107.197 E0.05059 F540.000
G1 X95.818 Y106.749 E0.07135
G1 X95.476 Y106.407 E0.09324
G1 X95.175 Y107.197 F7800.000
G1 X94.384 Y106.407 E0.14383 F540.000
G1 X93.839 Y106.407 E0.16853
G1 X94.629 Y107.197 E0.21912
G1 X94.083 Y107.197 E0.24382
G1 X93.293 Y106.407 E0.29441
G1 X92.748 Y106.407 E0.31911
G1 X93.538 Y107.197 E0.36969
G1 X92.992 Y107.197 E0.39440
G1 X92.202 Y106.407 E0.44498
G1 X91.656 Y106.407 E0.46968
G1 X92.446 Y107.197 E0.52027
G1 X91.901 Y107.197 E0.54497
G1 X91.111 Y106.407 E0.59556
G1 X90.565 Y106.407 E0.62026
G1 X91.355 Y107.197 E0.67085
G1 X90.810 Y107.197 E0.69555
G1 X90.019 Y106.407 E0.74613
G1 X89.474 Y106.407 E0.77084
G1 X90.264 Y107.197 E0.82142
G1 X89.718 Y107.197 E0.84612
G1 X88.928 Y106.407 E0.89671
G1 X88.383 Y106.407 E0.92141
G1 X89.173 Y107.197 E0.97200
G1 X88.627 Y107.197 E0.99670
G1 X87.837 Y106.407 E1.04729
G1 X87.291 Y106.407 E1.07199
G1 X88.081 Y107.197 E1.12257
G1 X87.536 Y107.197 E1.14728
G1 X86.746 Y106.407 E1.19786
G1 X86.319 Y106.526 E1.21792
G1 X85.150 Y105.357 E1.29278
G1 X85.150 Y105.902 E1.31748
G1 X86.444 Y107.197 E1.40038
G1 X86.990 Y107.197 E1.42508
G1 X86.200 Y106.407 E1.47567
G1 X86.319 Y105.980 E1.49573
G1 X85.150 Y104.811 E1.57058
G1 X85.150 Y104.265 E1.59528
G1 X86.319 Y105.434 E1.67013
G1 X86.319 Y104.889 E1.69484
G1 X85.150 Y103.720 E1.76969
G1 X85.150 Y103.174 E1.79439
G1 X86.319 Y104.343 E1.86924
G1 X86.319 Y103.798 E1.89394
G1 X85.150 Y102.628 E1.96880
G1 X85.150 Y102.083 E1.99350
G1 X86.319 Y103.252 E2.06835
G1 X86.319 Y102.706 E2.09305
G1 X85.150 Y101.537 E2.16790
G1 X85.150 Y100.992 E2.19261
G1 X86.319 Y102.161 E2.26746
G1 X86.319 Y101.615 E2.29216
G1 X85.150 Y100.446 E2.36701
G1 X85.150 Y99.900 E2.39172
G1 X86.319 Y101.069 E2.46657
G1 X86.400 Y100.605 E2.48791
G1 X85.150 Y99.355 E2.56797
G1 X86.481 Y93.593 F7800.000
G1 X85.691 Y92.803 E2.61855 F540.000
G1 X86.237 Y92.803 E2.64325
G1 X87.027 Y93.593 E2.69384
G1 X87.573 Y93.593 E2.71854
G1 X86.782 Y92.803 E2.76913
G1 X87.328 Y92.803 E2.79383
G1 X88.118 Y93.593 E2.84441
G1 X88.664 Y93.593 E2.86912
G1 X87.874 Y92.803 E2.91970
G1 X88.419 Y92.803 E2.94440
G1 X89.209 Y93.593 E2.99499
G1 X89.755 Y93.593 E3.01969
G1 X88.965 Y92.803 E3.07027
G1 X89.511 Y92.803 E3.09498
G1 X90.301 Y93.593 E3.14556
G1 X90.846 Y93.593 E3.17026
G1 X90.056 Y92.803 E3.22085
G1 X90.602 Y92.803 E3.24555
G1 X91.392 Y93.593 E3.29614
G1 X91.938 Y93.593 E3.32084
G1 X91.147 Y92.803 E3.37142
G1 X91.693 Y92.803 E3.39613
G1 X92.483 Y93.593 E3.44671
G1 X93.029 Y93.593 E3.47141
G1 X92.239 Y92.803 E3.52200
G1 X92.784 Y92.803 E3.54670
G1 X93.574 Y93.593 E3.59729
G1 X94.120 Y93.593 E3.62199
G1 X93.330 Y92.803 E3.67257
G1 X93.876 Y92.803 E3.69728
G1 X94.666 Y93.593 E3.74786
G1 X95.211 Y93.593 E3.77256
G1 X94.421 Y92.803 E3.82315
G1 X94.967 Y92.803 E3.84785
G1 X95.757 Y93.593 E3.89844
G1 X96.262 Y93.552 E3.92136
G1 X95.513 Y92.803 E3.96933
G1 X96.058 Y92.803 E3.99404
G1 X96.262 Y93.007 E4.00707
G1 X85.770 Y93.352 F7800.000
G1 X85.770 Y93.352 F7800.000
G1 X85.734 Y93.388 F7800.000
G1 X85.699 Y93.352 F7800.000
G1 X85.150 Y106.448 F7800.000
G1 X85.899 Y107.197 E4.05504 F540.000
G1 X85.353 Y107.197 E4.07974
G1 X85.150 Y106.993 E4.09278
M106 S255
G92 E0
G1 Z0.600 F7800.000
G1 X105.378 Y103.801 F7800.000
G1 X104.540 Y99.504 E1.31181 F600.000
G1 X104.540 Y94.011 E2.95776
G1 X104.613 Y93.461 E3.12413
G1 X105.575 Y93.181 E3.42438
G1 X109.644 Y93.182 E4.64347
G1 X110.940 Y93.283 E5.03310
G1 X111.180 Y93.322 E5.10598
G1 X112.077 Y93.575 E5.38510
G1 X112.358 Y93.691 E5.47618
G1 X112.786 Y93.932 E5.62358
G1 X113.223 Y94.254 E5.78596
G1 X113.556 Y94.615 E5.93341
G1 X113.758 Y94.875 E6.03188
G1 X114.122 Y95.689 E6.29911
G1 X114.246 Y96.695 E6.60294
G1 X114.207 Y97.093 E6.72259
G1 X114.157 Y97.351 E6.80140
G1 X113.958 Y97.944 E6.98891
G1 X113.666 Y98.533 E7.18599
G1 X113.259 Y98.969 E7.36455
G1 X113.149 Y99.050 E7.40538
G1 X112.413 Y99.466 E7.65871
G1 X111.878 Y99.699 E7.83359
G1 X111.544 Y99.792 E7.93766
G1 X110.689 Y100.308 E8.23701
G1 X109.890 Y101.178 E8.59080
G1 X104.697 Y100.312 F7800.000
G1 X109.541 Y100.324 E10.04214 F600.000
G1 X110.117 Y100.303 E10.21474
G1 X110.673 Y100.326 E10.38158
G1 X111.046 Y100.739 E10.54851
G1 X111.180 Y100.848 E10.60014
G1 X111.467 Y101.022 E10.70082
G1 X112.023 Y101.282 E10.88450
G1 X112.596 Y101.734 E11.10320
G1 X112.947 Y102.215 E11.28193
G1 X113.196 Y102.718 E11.44977
G1 X113.320 Y103.277 E11.62145
G1 X113.361 Y103.825 E11.78626
G1 X113.213 Y104.547 E12.00706
G1 X113.126 Y104.847 E12.10044
G1 X112.933 Y105.357 E12.26398
G1 X112.594 Y105.704 E12.40927
G1 X112.094 Y106.106 E12.60149
G1 X111.688 Y106.363 E12.74538
G1 X111.017 Y106.549 E12.95418
G1 X110.196 Y106.696 E13.20415
G1 X108.989 Y106.818 E13.56758
G1 X105.575 Y106.818 E14.59048
G1 X104.613 Y106.539 E14.89073
G1 X104.540 Y105.989 E15.05710
G1 X104.540 Y101.120 E16.51608
G1 X104.697 Y100.312 E16.76276
G92 E0
G1 X103.504 Y92.352 F7800.000
G1 X100.109 Y93.748 F7800.000
G1 X98.713 Y92.352 F7800.000
G1 X96.713 Y92.352 F7800.000
G1 X96.713 Y93.198 F7800.000
G1 X86.770 Y93.198 E2.97938 F600.000
G1 X85.814 Y93.468 E3.27683
G1 X85.734 Y94.044 E3.45118
G1 X85.734 Y99.386 E5.05189
G1 X86.605 Y103.706 E6.37226
G1 X85.770 Y106.648 F7800.000
G1 X85.770 Y106.648 F7800.000
G1 X96.269 Y106.802 F7800.000
G1 X86.770 Y106.802 E9.21860 F600.000
G1 X85.814 Y106.532 E9.51604
G1 X85.734 Y105.956 E9.69040
G1 X85.734 Y101.056 E11.15866
G1 X85.903 Y100.221 E11.41390
G1 X95.619 Y100.221 E14.32532
G92 E0
G1 Z0.900 F7800.000
G1 X105.378 Y103.801 F7800.000
G1 X104.540 Y99.504 E1.31181 F600.000
G1 X104.540 Y94.011 E2.95776
G1 X104.613 Y93.461 E3.12413
G1 X105.575 Y93.181 E3.42438
G1 X109.644 Y93.182 E4.64347
G1 X110.940 Y93.283 E5.03310
G1 X111.180 Y93.322 E5.10598
G1 X112.077 Y93.575 E5.38510
G1 X112.358 Y93.691 E5.47618
G1 X112.786 Y93.932 E5.62358
G1 X113.223 Y94.254 E5.78596
G1 X113.556 Y94.615 E5.93341
G1 X113.758 Y94.875 E6.03188
G1 X114.122 Y95.689 E6.29911
G1 X114.246 Y96.695 E6.60294
G1 X114.207 Y97.093 E6.72259
G1 X114.157 Y97.351 E6.80140
G1 X113.958 Y97.944 E6.98891
G1 X113.666 Y98.533 E7.18599
