; generated by Slic3r 1.2.9 on 2016-03-11 at 01:23:52

; external perimeters extrusion width = 1.54mm
; perimeters extrusion width = 2.62mm
; infill extrusion width = 6.27mm
; solid infill extrusion width = 2.62mm
; top infill extrusion width = 2.62mm

M107
M104 S30 ; set temperature
G28 ; home all axes
G1 Z5 F5000 ; lift nozzle
M302
M92 E10000
M500
M501
G1 E100
M109 S30 ; wait for temperature to be reached
G21 ; set units to millimeters
G90 ; use absolute coordinates
M82 ; use absolute distances for extrusion
G92 E0
G1 Z0.300 F7800.000
G1 X102.337 Y98.546 F7800.000
G1 X102.625 Y97.176 E0.06334 F378.000
G1 X103.102 Y95.954 E0.12271
G1 X103.759 Y94.896 E0.17905
G1 X104.586 Y94.017 E0.23366
G1 X105.586 Y93.314 E0.28898
G1 X106.742 Y92.799 E0.34625
G1 X108.038 Y92.489 E0.40656
G1 X109.477 Y92.386 E0.47180
G1 X110.750 Y92.486 E0.52961
G1 X110.885 Y92.497 E0.53573 F378.000
G1 X112.168 Y92.829 E0.59570
G1 X113.330 Y93.381 E0.65388
G1 X114.349 Y94.143 E0.71146
G1 X115.205 Y95.107 E0.76982
G1 X115.785 Y96.088 E0.82138
G1 X114.482 Y96.737 E0.88728
G1 X113.312 Y95.102 E0.97825
G1 X111.626 Y94.000 E1.06939
G1 X109.581 Y93.635 E1.16341
G1 X107.957 Y93.832 E1.23743
G1 X106.567 Y94.425 E1.30580
G1 X105.419 Y95.414 E1.37437
G1 X104.568 Y96.722 E1.44499
G1 X104.060 Y98.274 E1.51888
G1 X103.892 Y100.064 E1.60019
G1 X104.053 Y101.863 E1.68192
G1 X104.541 Y103.401 E1.75493
G1 X105.360 Y104.672 E1.82338
G1 X106.481 Y105.620 E1.88977
G1 X107.861 Y106.187 E1.95730
G1 X109.483 Y106.374 E2.03118
G1 X110.554 Y106.293 E2.07980
G1 X111.527 Y106.050 E2.12516
G1 X112.403 Y105.642 E2.16888
G1 X113.156 Y105.077 E2.21150
G1 X113.759 Y104.364 E2.25375
G1 X114.109 Y103.697 E2.28780
G1 X115.637 Y104.202 E2.36062
G1 X115.164 Y105.088 E2.40606
G1 X114.393 Y105.989 E2.45972
G1 X113.436 Y106.694 E2.51350
G1 X112.296 Y107.204 E2.57003
G1 X110.973 Y107.511 E2.63148
G1 X109.471 Y107.614 E2.69962
G1 X107.356 Y107.390 E2.79582
G1 X105.590 Y106.723 E2.88125
G1 X104.156 Y105.616 E2.96319
G1 X103.096 Y104.118 E3.04626
G1 X102.456 Y102.270 E3.13473
G1 X102.241 Y100.061 E3.23517
G1 X102.322 Y98.777 E3.29341
G1 X104.127 Y102.936 F7800.000
G1 X102.609 Y101.418 E3.39060 F540.000
G1 X102.550 Y100.813 E3.41809
G1 X103.873 Y102.137 E3.50284
G1 X103.787 Y101.505 E3.53172
G1 X102.491 Y100.209 E3.61469
G1 X102.488 Y99.660 E3.63952
G1 X103.733 Y100.906 E3.71925
G1 X103.680 Y100.306 E3.74649
G1 X102.520 Y99.147 E3.82070
G1 X102.553 Y98.634 E3.84397
G1 X103.699 Y99.780 E3.91736
G1 X103.746 Y99.282 E3.94004
G1 X102.632 Y98.168 E4.01135
G1 X102.727 Y97.717 E4.03221
G1 X103.793 Y98.783 E4.10045
G1 X103.841 Y98.286 E4.12307
G1 X102.822 Y97.266 E4.18834
G1 X102.964 Y96.863 E4.20770
G1 X103.976 Y97.875 E4.27246
G1 X104.110 Y97.463 E4.29204
G1 X103.117 Y96.471 E4.35561
G1 X103.271 Y96.078 E4.37468
G1 X104.245 Y97.052 E4.43704
G1 X104.385 Y96.647 E4.45646
G1 X103.470 Y95.732 E4.51503
G1 X103.679 Y95.395 E4.53297
G1 X104.600 Y96.316 E4.59194
G1 X104.815 Y95.986 E4.60979
G1 X103.888 Y95.059 E4.66916
G1 X104.143 Y94.768 E4.68666
G1 X105.030 Y95.656 E4.74346
G1 X105.245 Y95.325 E4.76131
G1 X104.412 Y94.492 E4.81464
G1 X104.685 Y94.219 E4.83210
G1 X105.530 Y95.065 E4.88623
G1 X105.823 Y94.812 E4.90374
G1 X104.985 Y93.973 E4.95743
G1 X105.305 Y93.748 E4.97516
G1 X106.116 Y94.560 E5.02711
G1 X106.410 Y94.307 E5.04462
G1 X105.625 Y93.523 E5.09483
G1 X105.997 Y93.349 E5.11341
G1 X106.769 Y94.121 E5.16282
G1 X107.151 Y93.958 E5.18164
G1 X106.375 Y93.181 E5.23134
G1 X106.753 Y93.013 E5.25005
G1 X107.534 Y93.794 E5.30006
G1 X107.916 Y93.631 E5.31887
G1 X107.192 Y92.907 E5.36523
G1 X107.632 Y92.802 E5.38573
G1 X108.391 Y93.561 E5.43432
G1 X108.878 Y93.502 E5.45650
G1 X108.083 Y92.707 E5.50737
G1 X108.592 Y92.670 E5.53046
G1 X109.364 Y93.443 E5.57990
G1 X109.916 Y93.449 E5.60489
G1 X109.101 Y92.634 E5.65710
G1 X109.645 Y92.632 E5.68174
G1 X110.580 Y93.568 E5.74162
G1 X111.245 Y93.686 E5.77216
G1 X110.237 Y92.679 E5.83664
G1 X110.849 Y92.745 E5.86447
G1 X112.026 Y93.922 E5.93982
G1 X112.461 Y93.266 F7800.000
G1 X115.302 Y96.107 E6.12172 F540.000
G1 X114.938 Y96.288 E6.14014
G1 X113.454 Y94.805 E6.23512
G1 X113.602 Y94.952 F7800.000
G1 X111.585 Y92.935 E6.36425 F540.000
G1 X113.945 Y94.204 F7800.000
G1 X114.444 Y94.704 E6.39622 F540.000
G92 E0
G1 X114.490 Y104.639 F7800.000
G1 X114.490 Y104.639 F7800.000
G1 X114.592 Y104.126 F7800.000
G1 X115.154 Y104.688 E0.03597 F540.000
G1 X114.955 Y105.035 E0.05407
G1 X114.086 Y104.166 E0.10974
G1 X113.886 Y104.511 E0.12782
G1 X114.704 Y105.329 E0.18017
G1 X114.452 Y105.623 E0.19769
G1 X113.636 Y104.807 E0.24995
G1 X113.386 Y105.103 E0.26747
G1 X114.181 Y105.898 E0.31838
G1 X113.871 Y106.133 E0.33600
G1 X113.099 Y105.361 E0.38545
G1 X112.787 Y105.595 E0.40309
G1 X113.557 Y106.365 E0.45238
G1 X113.219 Y106.573 E0.47034
G1 X112.475 Y105.828 E0.51800
G1 X112.103 Y106.001 E0.53659
G1 X112.842 Y106.741 E0.58394
G1 X112.465 Y106.909 E0.60264
G1 X111.730 Y106.175 E0.64966
G1 X111.325 Y106.315 E0.66907
G1 X112.054 Y107.044 E0.71575
G1 X111.612 Y107.147 E0.73633
G1 X110.889 Y106.424 E0.78261
G1 X110.441 Y106.522 E0.80336
G1 X111.169 Y107.250 E0.84997
G1 X110.683 Y107.310 E0.87213
G1 X109.934 Y106.561 E0.92010
G1 X109.426 Y106.599 E0.94313
G1 X110.173 Y107.345 E0.99090
G1 X109.662 Y107.380 E1.01407
G1 X108.817 Y106.535 E1.06818
G1 X108.200 Y106.464 E1.09627
G1 X109.072 Y107.335 E1.15208
G1 X108.462 Y107.271 E1.17987
G1 X107.524 Y106.334 E1.23987
G1 X106.598 Y105.953 F7800.000
G1 X107.851 Y107.206 E1.32008 F540.000
G1 X107.124 Y107.024 E1.35403
G1 X102.918 Y102.819 E1.62326
G1 X102.667 Y102.022 E1.66106
G1 X104.490 Y103.845 E1.77775
G1 X103.207 Y103.653 F7800.000
G1 X106.247 Y106.693 E1.97237 F540.000
G1 X104.588 Y105.580 F7800.000
G1 X104.230 Y105.222 E1.99529 F540.000
G92 E0
G1 X102.894 Y104.222 F7800.000
G1 X99.987 Y106.279 F7800.000
G1 X99.352 Y105.956 F7800.000
G1 X95.468 Y105.956 F7800.000
G1 X87.161 Y107.423 F7800.000
G1 X84.123 Y107.423 E0.13746 F378.000
G1 X84.123 Y92.577 E0.80923
G1 X95.687 Y92.577 E1.33250
G1 X95.687 Y93.819 E1.38869
G1 X85.744 Y93.819 E1.83861 F378.000
G1 X85.744 Y99.611 E2.10069
G1 X94.593 Y99.611 E2.50110
G1 X94.593 Y100.831 E2.55631
G1 X85.744 Y100.831 E2.95672
G1 X85.744 Y106.181 E3.19880
G1 X95.243 Y106.181 E3.62862
G1 X95.243 Y107.423 E3.68482
G1 X87.392 Y107.423 E4.04008
G1 X84.552 Y107.197 F7800.000
G1 X84.349 Y106.993 E4.05312 F540.000
G1 X84.349 Y106.448 E4.07782
G1 X85.098 Y107.197 E4.12579
G1 X85.643 Y107.197 E4.15049
G1 X84.349 Y105.902 E4.23339
G92 E0
G1 X84.898 Y106.648 F7800.000
G1 X84.898 Y106.648 F7800.000
G1 X84.933 Y106.612 F7800.000
G1 X84.969 Y106.648 F7800.000
G1 X86.690 Y100.605 F7800.000
G1 X85.922 Y99.837 E0.04918 F540.000
G1 X86.468 Y99.837 E0.07388
G1 X87.236 Y100.605 E0.12306
G1 X87.782 Y100.605 E0.14776
G1 X87.013 Y99.837 E0.19694
G1 X87.559 Y99.837 E0.22164
G1 X88.327 Y100.605 E0.27082
G1 X88.873 Y100.605 E0.29552
G1 X88.105 Y99.837 E0.34470
G1 X88.650 Y99.837 E0.36940
G1 X89.418 Y100.605 E0.41857
G1 X89.964 Y100.605 E0.44328
G1 X89.196 Y99.837 E0.49245
G1 X89.742 Y99.837 E0.51716
G1 X90.510 Y100.605 E0.56633
G1 X91.055 Y100.605 E0.59104
G1 X90.287 Y99.837 E0.64021
G1 X90.833 Y99.837 E0.66491
G1 X91.601 Y100.605 E0.71409
G1 X92.147 Y100.605 E0.73879
G1 X91.379 Y99.837 E0.78797
G1 X91.924 Y99.837 E0.81267
G1 X92.692 Y100.605 E0.86185
G1 X93.238 Y100.605 E0.88655
G1 X92.470 Y99.837 E0.93573
G1 X93.015 Y99.837 E0.96043
G1 X93.784 Y100.605 E1.00961
G1 X94.329 Y100.605 F7800.000
G1 X93.561 Y99.837 E1.05879 F540.000
G1 X94.107 Y99.837 E1.08349
G1 X94.367 Y100.097 E1.10014
G92 E0
G1 X84.969 Y106.648 F7800.000
G1 X84.969 Y106.648 F7800.000
G1 X94.675 Y106.407 F7800.000
G1 X95.017 Y106.749 E0.02190 F540.000
G1 X94.919 Y107.197 E0.04266
G1 X94.129 Y106.407 E0.09324
G1 X93.583 Y106.407 E0.11795
G1 X94.374 Y107.197 E0.16853
G1 X93.828 Y107.197 E0.19323
G1 X93.038 Y106.407 E0.24382
G1 X92.492 Y106.407 E0.26852
G1 X93.282 Y107.197 E0.31911
G1 X92.737 Y107.197 E0.34381
G1 X91.947 Y106.407 E0.39440
G1 X91.401 Y106.407 E0.41910
G1 X92.191 Y107.197 E0.46968
G1 X91.645 Y107.197 E0.49439
G1 X90.855 Y106.407 E0.54497
G1 X90.310 Y106.407 E0.56967
G1 X91.100 Y107.197 E0.62026
G1 X90.554 Y107.197 E0.64496
G1 X89.764 Y106.407 E0.69555
G1 X89.218 Y106.407 E0.72025
G1 X90.009 Y107.197 E0.77084
G1 X89.463 Y107.197 E0.79554
G1 X88.673 Y106.407 E0.84612
G1 X88.127 Y106.407 E0.87083
G1 X88.917 Y107.197 E0.92141
G1 X88.372 Y107.197 E0.94611
G1 X87.582 Y106.407 E0.99670
G1 X87.036 Y106.407 E1.02140
G1 X87.826 Y107.197 E1.07199
G1 X87.280 Y107.197 E1.09669
G1 X86.490 Y106.407 E1.14728
G1 X85.945 Y106.407 E1.17198
G1 X86.735 Y107.197 E1.22256
G1 X86.189 Y107.197 E1.24727
G1 X84.349 Y105.357 E1.36510
G1 X84.349 Y104.811 E1.38980
G1 X85.518 Y105.980 E1.46466
G1 X85.518 Y105.434 E1.48936
G1 X84.349 Y104.265 E1.56421
G1 X84.349 Y103.720 E1.58891
G1 X85.518 Y104.889 E1.66376
G1 X85.518 Y104.343 E1.68847
G1 X84.349 Y103.174 E1.76332
G1 X84.349 Y102.628 E1.78802
G1 X85.518 Y103.798 E1.86287
G1 X85.518 Y103.252 E1.88757
G1 X84.349 Y102.083 E1.96243
G1 X84.349 Y101.537 E1.98713
G1 X85.518 Y102.706 E2.06198
G1 X85.518 Y102.161 E2.08668
G1 X84.349 Y100.992 E2.16153
G1 X84.349 Y100.446 E2.18624
G1 X85.518 Y101.615 E2.26109
G1 X85.518 Y101.069 E2.28579
G1 X84.349 Y99.900 E2.36064
G1 X84.349 Y99.355 E2.38535
G1 X85.599 Y100.605 E2.46540
G1 X86.145 Y100.605 E2.49011
G1 X84.349 Y98.809 E2.60510
G1 X84.349 Y98.263 E2.62980
G1 X85.518 Y99.432 E2.70465
G1 X85.518 Y98.887 E2.72935
G1 X84.349 Y97.718 E2.80421
G1 X84.349 Y97.172 E2.82891
G1 X85.518 Y98.341 E2.90376
G1 X85.518 Y97.796 E2.92846
G1 X84.349 Y96.626 E3.00331
G1 X84.349 Y96.081 E3.02802
G1 X85.518 Y97.250 E3.10287
G1 X85.518 Y96.704 E3.12757
G1 X84.349 Y95.535 E3.20242
G1 X84.349 Y94.990 E3.22712
G1 X85.518 Y96.159 E3.30198
G1 X85.518 Y95.613 E3.32668
G1 X84.349 Y94.444 E3.40153
G1 X84.349 Y93.898 E3.42623
G1 X85.518 Y95.067 E3.50108
G1 X85.518 Y94.522 E3.52579
G1 X84.349 Y93.353 E3.60064
G1 X84.367 Y92.825 E3.62454
G1 X85.518 Y93.976 E3.69825
G1 X85.680 Y93.593 F7800.000
G1 X84.890 Y92.803 E3.74883 F540.000
G1 X85.436 Y92.803 E3.77353
G1 X86.226 Y93.593 E3.82412
G1 X86.772 Y93.593 E3.84882
G1 X85.981 Y92.803 E3.89941
G1 X86.527 Y92.803 E3.92411
G1 X87.317 Y93.593 E3.97469
G1 X87.863 Y93.593 E3.99939
G1 X87.073 Y92.803 E4.04998
G1 X87.618 Y92.803 E4.07468
G1 X88.408 Y93.593 E4.12527
G1 X88.954 Y93.593 E4.14997
G1 X88.164 Y92.803 E4.20055
G1 X88.710 Y92.803 E4.22526
G1 X89.500 Y93.593 E4.27584
G1 X90.045 Y93.593 E4.30054
G1 X89.255 Y92.803 E4.35113
G1 X89.801 Y92.803 E4.37583
G1 X90.591 Y93.593 E4.42642
G1 X91.137 Y93.593 E4.45112
G1 X90.346 Y92.803 E4.50170
G1 X90.892 Y92.803 E4.52641
G1 X91.682 Y93.593 E4.57699
G1 X92.228 Y93.593 E4.60169
G1 X91.438 Y92.803 E4.65228
G1 X91.983 Y92.803 E4.67698
G1 X92.773 Y93.593 E4.72757
G1 X93.319 Y93.593 E4.75227
G1 X92.529 Y92.803 E4.80285
G1 X93.075 Y92.803 E4.82755
G1 X93.865 Y93.593 E4.87814
G1 X94.410 Y93.593 E4.90284
G1 X93.620 Y92.803 E4.95343
G1 X94.166 Y92.803 E4.97813
G1 X94.956 Y93.593 E5.02871
G1 X95.461 Y93.552 E5.05164
G1 X94.712 Y92.803 E5.09961
G1 X95.257 Y92.803 E5.12431
G1 X95.461 Y93.007 E5.13735
M106 S255
G92 E0
G1 Z0.600 F7800.000
G1 X115.087 Y103.783 F7800.000
G1 X114.330 Y104.879 E0.39909 F600.000
G1 X113.867 Y105.424 E0.61329
G1 X113.743 Y105.540 E0.66423
G1 X113.066 Y106.059 E0.91981
G1 X112.673 Y106.278 E1.05466
G1 X112.076 Y106.551 E1.25121
G1 X111.663 Y106.685 E1.38131
G1 X110.878 Y106.874 E1.62348
G1 X110.582 Y106.915 E1.71288
G1 X109.482 Y106.992 E2.04329
G1 X107.820 Y106.811 E2.54418
G1 X107.509 Y106.749 E2.63946
G1 X106.257 Y106.256 E3.04241
G1 X105.941 Y106.095 E3.14887
G1 X104.907 Y105.260 E3.54707
G1 X104.715 Y105.081 E3.62575
G1 X103.888 Y103.857 E4.06831
G1 X103.818 Y103.747 E4.10739
G1 X103.769 Y103.614 E4.14997
G1 X103.265 Y102.094 E4.62983
G1 X103.068 Y100.047 E5.24586
G1 X103.176 Y98.660 E5.66271
G1 X103.290 Y97.996 E5.86470
G1 X103.444 Y97.420 E6.04323
G1 X103.845 Y96.325 E6.39259
G1 X104.425 Y95.408 E6.71790
G1 X104.739 Y95.010 E6.86980
G1 X105.112 Y94.624 E7.03067
G1 X105.956 Y93.966 E7.35122
G1 X106.321 Y93.761 E7.47683
G1 X106.972 Y93.477 E7.68949
G1 X107.672 Y93.246 E7.91035
G1 X108.140 Y93.144 E8.05387
G1 X109.474 Y93.015 E8.45568
G1 X109.723 Y93.029 E8.53033
G1 X110.773 Y93.164 E8.84758
G1 X111.693 Y93.364 E9.12967
G1 X111.946 Y93.440 E9.20885
G1 X112.954 Y94.003 E9.55476
G1 X113.658 Y94.496 E9.81219
G1 X113.867 Y94.666 E9.89305
G1 X114.583 Y95.561 E10.23634
G1 X115.261 Y96.600 E10.60818
G92 E0
G1 X109.477 Y92.160 F7800.000
G1 X109.477 Y92.160 F7800.000
G1 X109.405 Y91.161 F7800.000
G1 X107.928 Y91.215 F7800.000
G1 X107.756 Y91.228 F7800.000
G1 X106.384 Y91.389 F7800.000
G1 X106.155 Y91.427 F7800.000
G1 X104.846 Y91.705 F7800.000
G1 X104.538 Y91.787 F7800.000
G1 X103.271 Y92.188 F7800.000
G1 X102.844 Y92.347 F7800.000
G1 X101.592 Y92.889 F7800.000
G1 X101.021 Y93.171 F7800.000
G1 X99.733 Y93.888 F7800.000
G1 X99.673 Y93.921 F7800.000
G1 X98.104 Y92.352 F7800.000
G1 X95.912 Y92.352 F7800.000
G1 X95.912 Y93.198 F7800.000
G1 X85.969 Y93.198 E2.97938 F600.000
G1 X85.013 Y93.468 E3.27683
G1 X84.933 Y94.044 E3.45118
G1 X84.933 Y99.386 E5.05189
G1 X85.804 Y103.706 E6.37226
G1 X84.969 Y106.648 F7800.000
G1 X84.969 Y106.648 F7800.000
G1 X95.468 Y106.802 F7800.000
G1 X85.969 Y106.802 E9.21860 F600.000
G1 X85.013 Y106.532 E9.51604
G1 X84.933 Y105.956 E9.69040
G1 X84.933 Y101.056 E11.15866
G1 X85.102 Y100.221 E11.41390
G1 X94.818 Y100.221 E14.32532
G92 E0
G1 Z0.900 F7800.000
G1 X115.087 Y103.783 F7800.000
G1 X114.330 Y104.879 E0.39909 F600.000
G1 X113.867 Y105.424 E0.61329
G1 X113.743 Y105.540 E0.66423
G1 X113.066 Y106.059 E0.91981
G1 X112.673 Y106.278 E1.05466
G1 X112.076 Y106.551 E1.25121
G1 X111.663 Y106.685 E1.38131
G1 X110.878 Y106.874 E1.62348
G1 X110.582 Y106.915 E1.71288
G1 X109.482 Y106.992 E2.04329
G1 X107.820 Y106.811 E2.54418
G1 X107.509 Y106.749 E2.63946
G1 X106.257 Y106.256 E3.04241
G1 X105.941 Y106.095 E3.14887
G1 X104.907 Y105.260 E3.54707
G1 X104.715 Y105.081 E3.62575
G1 X103.888 Y103.857 E4.06831
G1 X103.818 Y103.747 E4.10739
G1 X103.769 Y103.614 E4.14997
G1 X103.265 Y102.094 E4.62983
G1 X103.068 Y100.047 E5.24586
G1 X103.176 Y98.660 E5.66271
G1 X103.290 Y97.996 E5.86470
G1 X103.444 Y97.420 E6.04323
G1 X103.845 Y96.325 E6.39259
G1 X104.425 Y95.408 E6.71790
G1 X104.739 Y95.010 E6.86980
G1 X105.112 Y94.624 E7.03067
G1 X105.956 Y93.966 E7.35122
G1 X106.321 Y93.761 E7.47683
G1 X106.972 Y93.477 E7.68949
G1 X107.672 Y93.246 E7.91035
G1 X108.140 Y93.144 E8.05387
G1 X109.474 Y93.015 E8.45568
G1 X109.723 Y93.029 E8.53033
G1 X110.773 Y93.164 E8.84758
G1 X111.693 Y93.364 E9.12967
G1 X111.946 Y93.440 E9.20885
G1 X112.954 Y94.003 E9.55476
G1 X113.658 Y94.496 E9.81219
G1 X113.867 Y94.666 E9.89305
G1 X114.583 Y95.561 E10.23634
G1 X115.261 Y96.600 E10.60818
G92 E0
G1 X109.477 Y92.160 F7800.000
G1 X109.477 Y92.160 F7800.000
G1 X109.405 Y91.161 F7800.000
G1 X107.928 Y91.215 F7800.000
G1 X107.756 Y91.228 F7800.000
G1 X106.384 Y91.389 F7800.000
G1 X106.155 Y91.427 F7800.000
G1 X104.846 Y91.705 F7800.000
G1 X104.538 Y91.787 F7800.000
G1 X103.271 Y92.188 F7800.000
G1 X102.844 Y92.347 F7800.000
G1 X101.592 Y92.889 F7800.000
G1 X101.021 Y93.171 F7800.000
G1 X99.733 Y93.888 F7800.000
G1 X99.673 Y93.921 F7800.000
G1 X98.104 Y92.352 F7800.000
G1 X95.912 Y92.352 F7800.000
G1 X95.912 Y93.198 F7800.000
G1 X85.969 Y93.198 E2.97938 F600.000
G1 X85.013 Y93.468 E3.27683
G1 X84.933 Y94.044 E3.45118
G1 X84.933 Y99.386 E5.05189
G1 X85.804 Y103.706 E6.37226
G1 X84.969 Y106.648 F7800.000
G1 X84.969 Y106.648 F7800.000
G1 X95.468 Y106.802 F7800.000
G1 X85.969 Y106.802 E9.21860 F600.000
G1 X85.013 Y106.532 E9.51604
G1 X84.933 Y105.956 E9.69040
G1 X84.933 Y101.056 E11.15866
G1 X85.102 Y100.221 E11.41390
G1 X94.818 Y100.221 E14.32532
G92 E0
G1 Z1.200 F7800.000
G1 X115.087 Y103.783 F7800.000
G1 X114.330 Y104.879 E0.39909 F600.000
G1 X113.867 Y105.424 E0.61329
G1 X113.743 Y105.540 E0.66423
G1 X113.066 Y106.059 E0.91981
G1 X112.673 Y106.278 E1.05466
G1 X112.076 Y106.551 E1.25121
G1 X111.663 Y106.685 E1.38131
G1 X110.878 Y106.874 E1.62348
