; generated by Slic3r 1.2.9 on 2016-03-11 at 01:23:53

; external perimeters extrusion width = 1.54mm
; perimeters extrusion width = 2.62mm
; infill extrusion width = 6.27mm
; solid infill extrusion width = 2.62mm
; top infill extrusion width = 2.62mm

M107
M104 S30 ; set temperature
G28 ; home all axes
G1 Z5 F5000 ; lift nozzle
M302
M92 E10000
M500
M501
G1 E100
M109 S30 ; wait for temperature to be reached
G21 ; set units to millimeters
G90 ; use absolute coordinates
M82 ; use absolute distances for extrusion
G92 E0
G1 Z0.300 F7800.000
G1 X103.044 Y100.777 F7800.000
G1 X103.044 Y92.577 E0.37103 F378.000
G1 X108.535 Y92.577 E0.61948
G1 X109.839 Y92.673 E0.67868
G1 X109.927 Y92.680 E0.68267 F378.000
G1 X111.193 Y92.986 E0.74160
G1 X112.342 Y93.493 E0.79845
G1 X113.350 Y94.190 E0.85392
G1 X114.192 Y95.065 E0.90884
G1 X114.870 Y96.120 E0.96561
G1 X115.368 Y97.333 E1.02490
G1 X115.668 Y98.678 E1.08725
G1 X115.768 Y100.153 E1.15416
G1 X115.538 Y102.317 E1.25265
G1 X114.857 Y104.105 E1.33922
G1 X113.726 Y105.532 E1.42160
G1 X112.176 Y106.578 E1.50622
G1 X110.230 Y107.210 E1.59881
G1 X107.870 Y107.423 E1.70603
G1 X103.044 Y107.423 E1.92440
G1 X103.044 Y101.008 E2.21468
G1 X104.665 Y101.008 F7800.000
G1 X104.665 Y93.786 E2.54146 F378.000
G1 X108.311 Y93.786 E2.70647 F378.000
G1 X109.417 Y93.870 E2.75663
G1 X110.443 Y94.126 E2.80447
G1 X111.378 Y94.553 E2.85102
G1 X112.200 Y95.145 E2.89684
G1 X112.885 Y95.887 E2.94254
G1 X113.429 Y96.778 E2.98977
G1 X113.824 Y97.796 E3.03918
G1 X114.059 Y98.923 E3.09126
G1 X114.138 Y100.161 E3.14740
G1 X113.960 Y101.954 E3.22893
G1 X113.419 Y103.459 E3.30129
G1 X112.510 Y104.660 E3.36946
G1 X111.258 Y105.529 E3.43839
G1 X109.697 Y106.045 E3.51277
G1 X107.846 Y106.214 E3.59689
G1 X104.665 Y106.214 E3.74084
G1 X104.665 Y101.239 E3.96597
G1 X103.890 Y106.648 F7800.000
G1 X103.890 Y106.648 F7800.000
G1 X105.450 Y106.440 F7800.000
G1 X106.207 Y107.197 E4.01455 F540.000
G1 X106.754 Y107.197 E4.03936
G1 X105.997 Y106.440 E4.08793
G1 X106.544 Y106.440 E4.11274
G1 X107.301 Y107.197 E4.16132
G1 X107.848 Y107.197 E4.18613
G1 X107.091 Y106.440 E4.23471
G1 X107.638 Y106.440 E4.25952
G1 X108.357 Y107.159 E4.30567
G1 X108.858 Y107.114 E4.32851
G1 X108.150 Y106.406 E4.37393
G1 X108.651 Y106.360 E4.39675
G1 X109.360 Y107.068 E4.44220
G1 X109.861 Y107.023 E4.46505
G1 X109.152 Y106.314 E4.51052
G1 X109.653 Y106.269 E4.53335
G1 X110.343 Y106.958 E4.57756
G1 X110.755 Y106.824 E4.59725
G1 X110.069 Y106.137 E4.64129
G1 X110.480 Y106.001 E4.66093
G1 X111.168 Y106.690 E4.70508
G1 X111.581 Y106.556 E4.72478
G1 X110.891 Y105.866 E4.76905
G1 X111.302 Y105.730 E4.78869
G1 X111.994 Y106.421 E4.83308
G1 X112.347 Y106.228 E4.85135
G1 X111.627 Y105.509 E4.89751
G1 X111.950 Y105.285 E4.91534
G1 X112.673 Y106.008 E4.96174
G1 X113.000 Y105.787 E4.97961
G1 X112.273 Y105.061 E5.02625
G1 X112.596 Y104.836 E5.04408
G1 X113.327 Y105.567 E5.09096
G1 X113.630 Y105.323 E5.10861
G1 X112.844 Y104.538 E5.15899
G1 X113.080 Y104.227 E5.17670
G1 X113.880 Y105.027 E5.22806
G1 X114.122 Y104.722 E5.24572
G1 X113.315 Y103.915 E5.29747
G1 X113.551 Y103.604 E5.31518
G1 X114.364 Y104.417 E5.36733
G1 X114.605 Y104.112 E5.38499
G1 X113.718 Y103.225 E5.44190
G1 X113.863 Y102.823 E5.46129
G1 X114.780 Y103.739 E5.52011
G1 X114.931 Y103.344 E5.53933
G1 X114.008 Y102.421 E5.59856
G1 X114.152 Y102.018 E5.61795
G1 X115.082 Y102.948 E5.67759
G1 X115.233 Y102.552 E5.69681
G1 X114.220 Y101.539 E5.76177
G1 X114.269 Y101.042 E5.78446
G1 X115.341 Y102.113 E5.85321
G1 X115.393 Y101.619 E5.87577
G1 X114.319 Y100.544 E5.94472
G1 X114.362 Y100.040 E5.96767
G1 X115.446 Y101.125 E6.03724
G1 X115.498 Y100.630 E6.05979
G1 X114.325 Y99.457 E6.13510
G1 X114.288 Y98.873 E6.16164
G1 X115.533 Y100.119 E6.24157
G1 X115.494 Y99.532 E6.26825
G1 X114.157 Y98.195 E6.35402
G1 X113.977 Y97.468 E6.38800
G1 X115.454 Y98.945 E6.48278
G1 X115.325 Y98.270 E6.51397
G1 X113.631 Y96.576 E6.62269
G1 X114.807 Y96.658 F7800.000
G1 X111.609 Y93.460 E6.82786 F540.000
G1 X111.261 Y94.206 F7800.000
G1 X110.010 Y92.954 E6.90817 F540.000
G1 X110.730 Y93.128 E6.94182
G1 X115.168 Y97.566 E7.22657
G1 X113.958 Y95.262 F7800.000
G1 X112.976 Y94.281 E7.28953 F540.000
G1 X110.357 Y93.849 F7800.000
G1 X109.381 Y92.872 E7.35217 F540.000
G1 X108.790 Y92.829 E7.37903
G1 X109.629 Y93.667 E7.43283
G1 X109.022 Y93.607 E7.46051
G1 X108.218 Y92.803 E7.51210
G1 X107.671 Y92.803 E7.53691
G1 X108.430 Y93.562 E7.58561
G1 X107.881 Y93.560 E7.61050
G1 X107.124 Y92.803 E7.65908
G1 X106.577 Y92.803 E7.68389
G1 X107.334 Y93.560 E7.73247
G1 X106.788 Y93.560 E7.75728
G1 X106.031 Y92.803 E7.80586
G1 X105.484 Y92.803 E7.83067
G1 X106.241 Y93.560 E7.87924
G1 X105.694 Y93.560 E7.90405
G1 X104.937 Y92.803 E7.95263
G1 X104.390 Y92.803 E7.97744
G1 X105.147 Y93.560 E8.02602
G1 X104.600 Y93.560 E8.05083
G1 X103.843 Y92.803 E8.09941
G1 X103.303 Y92.810 E8.12392
G1 X104.439 Y93.945 E8.19679
G1 X104.439 Y94.492 E8.22160
G1 X103.270 Y93.323 E8.29661
G1 X103.270 Y93.870 E8.32142
G1 X104.439 Y95.039 E8.39644
G1 X104.439 Y95.586 E8.42125
G1 X103.270 Y94.417 E8.49626
G1 X103.270 Y94.964 E8.52107
G1 X104.439 Y96.133 E8.59609
G1 X104.439 Y96.679 E8.62089
G1 X103.270 Y95.510 E8.69591
G1 X103.270 Y96.057 E8.72072
G1 X104.439 Y97.226 E8.79573
G1 X104.439 Y97.773 E8.82054
G1 X103.270 Y96.604 E8.89556
G1 X103.270 Y97.151 E8.92037
G1 X104.439 Y98.320 E8.99538
G1 X104.439 Y98.867 E9.02019
G1 X103.270 Y97.698 E9.09520
G1 X103.270 Y98.244 E9.12001
G1 X104.439 Y99.414 E9.19503
G1 X104.439 Y99.960 E9.21984
G1 X103.270 Y98.791 E9.29485
G1 X103.270 Y99.338 E9.31966
G1 X104.439 Y100.507 E9.39467
G1 X104.439 Y101.054 E9.41948
G1 X103.270 Y99.885 E9.49450
G1 X103.270 Y100.432 E9.51931
G1 X104.439 Y101.601 E9.59432
G1 X104.439 Y102.148 E9.61913
G1 X103.270 Y100.978 E9.69414
G1 X103.270 Y101.525 E9.71895
G1 X104.439 Y102.694 E9.79397
G1 X104.439 Y103.241 E9.81878
G1 X103.270 Y102.072 E9.89379
G1 X103.270 Y102.619 E9.91860
G1 X104.439 Y103.788 E9.99361
G1 X104.439 Y104.335 E10.01842
G1 X103.270 Y103.166 E10.09344
G1 X103.270 Y103.713 E10.11825
G1 X104.439 Y104.882 E10.19326
G1 X104.439 Y105.428 E10.21807
G1 X103.270 Y104.259 E10.29309
G1 X103.270 Y104.806 E10.31789
G1 X104.439 Y105.975 E10.39291
G1 X104.357 Y106.440 E10.41432
G1 X105.114 Y107.197 E10.46290
G1 X105.661 Y107.197 E10.48771
G1 X104.904 Y106.440 E10.53628
G1 X104.439 Y106.522 E10.55769
G1 X103.270 Y105.353 E10.63271
G1 X103.270 Y105.900 E10.65752
G1 X104.567 Y107.197 E10.74075
G1 X104.020 Y107.197 E10.76556
G1 X103.270 Y106.447 E10.81371
G1 X103.270 Y106.993 E10.83852
G1 X103.473 Y107.197 E10.85158
G92 E0
G1 X102.819 Y107.648 F7800.000
G1 X100.819 Y107.648 F7800.000
G1 X97.576 Y107.648 F7800.000
G1 X95.576 Y107.648 F7800.000
G1 X92.747 Y106.181 F7800.000
G1 X95.351 Y106.181 E0.11782 F378.000
G1 X95.351 Y107.423 E0.17402
G1 X84.231 Y107.423 E0.67719
G1 X84.231 Y92.577 E1.34896
G1 X95.795 Y92.577 E1.87222
G1 X95.795 Y93.819 E1.92842
G1 X85.852 Y93.819 E2.37834 F378.000
G1 X85.852 Y99.611 E2.64042
G1 X94.701 Y99.611 E3.04083
G1 X94.701 Y100.831 E3.09603
G1 X85.852 Y100.831 E3.49645
G1 X85.852 Y106.181 E3.73853
G1 X92.516 Y106.181 E4.04008
G1 X94.238 Y106.407 F7800.000
G1 X95.028 Y107.197 E4.09067 F540.000
G1 X95.125 Y106.749 E4.11143
G1 X94.783 Y106.407 E4.13333
G1 X94.482 Y107.197 F7800.000
G1 X93.692 Y106.407 E4.18391 F540.000
G1 X93.146 Y106.407 E4.20861
G1 X93.936 Y107.197 E4.25920
G1 X93.391 Y107.197 E4.28390
G1 X92.601 Y106.407 E4.33449
G1 X92.055 Y106.407 E4.35919
G1 X92.845 Y107.197 E4.40978
G1 X92.300 Y107.197 E4.43448
G1 X91.509 Y106.407 E4.48506
G1 X90.964 Y106.407 E4.50977
G1 X91.754 Y107.197 E4.56035
G1 X91.208 Y107.197 E4.58505
G1 X90.418 Y106.407 E4.63564
G1 X89.873 Y106.407 E4.66034
G1 X90.663 Y107.197 E4.71093
G1 X90.117 Y107.197 E4.73563
G1 X89.327 Y106.407 E4.78622
G1 X88.781 Y106.407 E4.81092
G1 X89.571 Y107.197 E4.86150
G1 X89.026 Y107.197 E4.88621
G1 X88.236 Y106.407 E4.93679
G1 X87.690 Y106.407 E4.96149
G1 X88.480 Y107.197 E5.01208
G1 X87.935 Y107.197 E5.03678
G1 X87.144 Y106.407 E5.08737
G1 X86.599 Y106.407 E5.11207
G1 X87.389 Y107.197 E5.16266
G1 X86.843 Y107.197 E5.18736
G1 X86.053 Y106.407 E5.23794
G1 X85.626 Y106.526 E5.25800
G1 X84.457 Y105.357 E5.33286
G1 X84.457 Y105.902 E5.35756
G1 X85.752 Y107.197 E5.44046
G1 X86.298 Y107.197 E5.46516
G1 X85.508 Y106.407 E5.51575
G1 X85.626 Y105.980 E5.53581
G1 X84.457 Y104.811 E5.61066
G1 X84.457 Y104.265 E5.63536
G1 X85.626 Y105.434 E5.71022
G1 X85.626 Y104.889 E5.73492
G1 X84.457 Y103.720 E5.80977
G1 X84.457 Y103.174 E5.83447
G1 X85.626 Y104.343 E5.90932
G1 X85.626 Y103.798 E5.93403
G1 X84.457 Y102.628 E6.00888
G1 X84.457 Y102.083 E6.03358
G1 X85.626 Y103.252 E6.10843
G1 X85.626 Y102.706 E6.13313
G1 X84.457 Y101.537 E6.20799
G1 X84.457 Y100.992 E6.23269
G1 X85.626 Y102.161 E6.30754
G1 X85.626 Y101.615 E6.33224
G1 X84.457 Y100.446 E6.40709
G1 X84.457 Y99.900 E6.43180
G1 X85.626 Y101.069 E6.50665
G1 X85.708 Y100.605 E6.52799
G1 X84.457 Y99.355 E6.60805
G1 X85.626 Y93.976 F7800.000
G1 X84.475 Y92.825 E6.68175 F540.000
G1 X84.457 Y93.353 E6.70565
G1 X85.626 Y94.522 E6.78051
G1 X85.626 Y95.067 E6.80521
G1 X84.457 Y93.898 E6.88006
G1 X84.457 Y94.444 E6.90476
G1 X85.626 Y95.613 E6.97961
G1 X85.626 Y96.159 E7.00432
G1 X84.457 Y94.990 E7.07917
G1 X84.457 Y95.535 E7.10387
G1 X85.626 Y96.704 E7.17872
G1 X85.626 Y97.250 E7.20342
G1 X84.457 Y96.081 E7.27828
G1 X84.457 Y96.626 E7.30298
G1 X85.626 Y97.796 E7.37783
G1 X85.626 Y98.341 E7.40253
G1 X84.457 Y97.172 E7.47738
G1 X84.457 Y97.718 E7.50209
G1 X85.626 Y98.887 E7.57694
G1 X85.626 Y99.432 E7.60164
G1 X84.457 Y98.263 E7.67649
G1 X84.457 Y98.809 E7.70120
G1 X86.253 Y100.605 E7.81619
G1 X86.799 Y100.605 E7.84089
G1 X86.031 Y99.837 E7.89007
G1 X86.576 Y99.837 E7.91477
G1 X87.344 Y100.605 E7.96395
G1 X87.890 Y100.605 E7.98865
G1 X87.122 Y99.837 E8.03783
G1 X87.668 Y99.837 E8.06253
G1 X88.436 Y100.605 E8.11170
G1 X88.981 Y100.605 E8.13641
G1 X88.213 Y99.837 E8.18558
G1 X88.759 Y99.837 E8.21029
G1 X89.527 Y100.605 E8.25946
G1 X90.073 Y100.605 E8.28417
G1 X89.305 Y99.837 E8.33334
G1 X89.850 Y99.837 E8.35805
G1 X90.618 Y100.605 E8.40722
G1 X91.164 Y100.605 E8.43193
G1 X90.396 Y99.837 E8.48110
G1 X90.941 Y99.837 E8.50580
G1 X91.709 Y100.605 E8.55498
G1 X92.255 Y100.605 E8.57968
G1 X91.487 Y99.837 E8.62886
G1 X92.033 Y99.837 E8.65356
G1 X92.801 Y100.605 E8.70274
G1 X93.346 Y100.605 E8.72744
G1 X92.578 Y99.837 E8.77662
G1 X93.124 Y99.837 E8.80132
G1 X93.892 Y100.605 E8.85050
G1 X94.438 Y100.605 E8.87520
G1 X93.670 Y99.837 E8.92438
G1 X94.215 Y99.837 E8.94908
G1 X94.475 Y100.097 E8.96573
G92 E0
G1 X85.077 Y93.352 F7800.000
G1 X85.077 Y93.352 F7800.000
G1 X95.569 Y93.007 F7800.000
G1 X95.366 Y92.803 E0.01304 F540.000
G1 X94.820 Y92.803 E0.03774
G1 X95.569 Y93.552 E0.08571
G1 X95.064 Y93.593 E0.10864
G1 X94.274 Y92.803 E0.15922
G1 X93.729 Y92.803 E0.18392
G1 X94.519 Y93.593 E0.23451
G1 X93.973 Y93.593 E0.25921
G1 X93.183 Y92.803 E0.30980
G1 X92.637 Y92.803 E0.33450
G1 X93.428 Y93.593 E0.38508
G1 X92.882 Y93.593 E0.40978
G1 X92.092 Y92.803 E0.46037
G1 X91.546 Y92.803 E0.48507
G1 X92.336 Y93.593 E0.53566
G1 X91.791 Y93.593 E0.56036
G1 X91.001 Y92.803 E0.61094
G1 X90.455 Y92.803 E0.63565
G1 X91.245 Y93.593 E0.68623
G1 X90.699 Y93.593 E0.71093
G1 X89.909 Y92.803 E0.76152
G1 X89.364 Y92.803 E0.78622
G1 X90.154 Y93.593 E0.83681
G1 X89.608 Y93.593 E0.86151
G1 X88.818 Y92.803 E0.91209
G1 X88.272 Y92.803 E0.93680
G1 X89.063 Y93.593 E0.98738
G1 X88.517 Y93.593 E1.01208
G1 X87.727 Y92.803 E1.06267
G1 X87.181 Y92.803 E1.08737
G1 X87.971 Y93.593 E1.13796
G1 X87.426 Y93.593 E1.16266
G1 X86.636 Y92.803 E1.21324
G1 X86.090 Y92.803 E1.23795
G1 X86.880 Y93.593 E1.28853
G1 X86.334 Y93.593 E1.31323
G1 X85.544 Y92.803 E1.36382
G1 X84.999 Y92.803 E1.38852
G1 X85.789 Y93.593 E1.43911
G1 X84.457 Y106.448 F7800.000
G1 X85.206 Y107.197 E1.48707 F540.000
G1 X84.661 Y107.197 E1.51178
G1 X84.457 Y106.993 E1.52481
M106 S255
G92 E0
G1 Z0.600 F7800.000
G1 X103.927 Y93.461 F7800.000
G1 X104.890 Y93.181 E0.30026 F600.000
G1 X108.366 Y93.183 E1.34183
G1 X109.444 Y93.258 E1.66578
G1 X109.828 Y93.314 E1.78194
G1 X110.578 Y93.498 E2.01328
G1 X110.976 Y93.627 E2.13870
G1 X111.641 Y93.926 E2.35724
G1 X111.993 Y94.118 E2.47721
G1 X112.602 Y94.547 E2.70057
G1 X112.864 Y94.762 E2.80221
G1 X113.583 Y95.547 E3.12096
G1 X114.166 Y96.488 E3.45263
G1 X114.597 Y97.575 E3.80314
G1 X114.861 Y98.794 E4.17696
G1 X114.951 Y100.137 E4.58029
G1 X114.746 Y102.128 E5.17987
G1 X114.164 Y103.711 E5.68534
G1 X114.007 Y103.947 E5.77029
G1 X113.211 Y104.976 E6.16009
G1 X112.880 Y105.257 E6.29026
G1 X111.869 Y105.948 E6.65726
G1 X111.661 Y106.052 E6.72693
G1 X111.428 Y106.147 E6.80220
G1 X110.101 Y106.582 E7.22073
G1 X109.727 Y106.649 E7.33462
G1 X107.842 Y106.818 E7.90156
G1 X104.890 Y106.818 E8.78628
G1 X103.927 Y106.539 E9.08654
G1 X103.854 Y105.989 E9.25290
G1 X103.854 Y94.011 E12.84207
G1 X103.927 Y93.461 E13.00843
G92 E0
G1 X102.819 Y92.352 F7800.000
G1 X99.420 Y93.751 F7800.000
G1 X98.020 Y92.352 F7800.000
G1 X96.020 Y92.352 F7800.000
G1 X96.020 Y93.198 F7800.000
G1 X86.077 Y93.198 E2.97938 F600.000
G1 X85.122 Y93.468 E3.27683
G1 X85.042 Y94.044 E3.45118
G1 X85.042 Y99.386 E5.05189
G1 X85.912 Y103.706 E6.37226
G1 X85.077 Y106.648 F7800.000
G1 X85.077 Y106.648 F7800.000
G1 X95.576 Y106.802 F7800.000
G1 X86.077 Y106.802 E9.21860 F600.000
G1 X85.122 Y106.532 E9.51604
G1 X85.042 Y105.956 E9.69040
G1 X85.042 Y101.056 E11.15866
G1 X85.210 Y100.221 E11.41390
G1 X94.926 Y100.221 E14.32532
G92 E0
G1 Z0.900 F7800.000
G1 X103.927 Y93.461 F7800.000
G1 X104.890 Y93.181 E0.30026 F600.000
G1 X108.366 Y93.183 E1.34183
G1 X109.444 Y93.258 E1.66578
G1 X109.828 Y93.314 E1.78193
G1 X110.578 Y93.498 E2.01328
G1 X110.976 Y93.627 E2.13870
G1 X111.641 Y93.926 E2.35724
G1 X111.993 Y94.118 E2.47721
G1 X112.602 Y94.547 E2.70057
G1 X112.864 Y94.762 E2.80221
G1 X113.583 Y95.547 E3.12096
G1 X114.166 Y96.488 E3.45263
G1 X114.597 Y97.575 E3.80314
G1 X114.861 Y98.794 E4.17696
G1 X114.951 Y100.137 E4.58029
G1 X114.746 Y102.128 E5.17987
G1 X114.164 Y103.711 E5.68534
G1 X114.007 Y103.947 E5.77029
G1 X113.211 Y104.976 E6.16009
G1 X112.880 Y105.257 E6.29026
G1 X111.869 Y105.948 E6.65726
G1 X111.661 Y106.052 E6.72693
G1 X111.428 Y106.147 E6.80220
G1 X110.101 Y106.582 E7.22073
G1 X109.727 Y106.649 E7.33462
G1 X107.842 Y106.818 E7.90156
G1 X104.890 Y106.818 E8.78628
G1 X103.927 Y106.539 E9.08654
G1 X103.854 Y105.989 E9.25290
G1 X103.854 Y94.011 E12.84207
G1 X103.927 Y93.461 E13.00843
G92 E0
G1 X102.819 Y92.352 F7800.000
G1 X99.420 Y93.751 F7800.000
G1 X98.020 Y92.352 F7800.000
G1 X96.020 Y92.352 F7800.000
G1 X96.020 Y93.198 F7800.000
G1 X86.077 Y93.198 E2.97938 F600.000
G1 X85.122 Y93.468 E3.27683
G1 X85.042 Y94.044 E3.45118
G1 X85.042 Y99.386 E5.05189
G1 X85.912 Y103.706 E6.37226
G1 X85.077 Y106.648 F7800.000
G1 X85.077 Y106.648 F7800.000
G1 X95.576 Y106.802 F7800.000
G1 X86.077 Y106.802 E9.21860 F600.000
G1 X85.122 Y106.532 E9.51604
G1 X85.042 Y105.956 E9.69040
G1 X85.042 Y101.056 E11.15866
G1 X85.210 Y100.221 E11.41390
G1 X94.926 Y100.221 E14.32532
G92 E0
G1 Z1.200 F7800.000
G1 X103.927 Y93.461 F7800.000
G1 X104.890 Y93.181 E0.30026 F600.000
G1 X108.366 Y93.183 E1.34183
G1 X109.444 Y93.258 E1.66579
G1 X109.828 Y93.314 E1.78194
G1 X110.578 Y93.498 E2.01328
G1 X110.976 Y93.627 E2.13870
G1 X111.641 Y93.926 E2.35724
G1 X111.993 Y94.118 E2.47722
G1 X112.602 Y94.547 E2.70057
G1 X112.864 Y94.762 E2.80221
G1 X113.583 Y95.547 E3.12096
G1 X114.166 Y96.488 E3.45263
G1 X114.597 Y97.575 E3.80314
G1 X114.861 Y98.794 E4.17696
G1 X114.951 Y100.137 E4.58029
G1 X114.746 Y102.128 E5.17987
G1 X114.164 Y103.711 E5.68534
G1 X114.007 Y103.947 E5.77029
G1 X113.211 Y104.976 E6.16009
G1 X112.880 Y105.257 E6.29026
G1 X111.869 Y105.948 E6.65726
G1 X111.661 Y106.052 E6.72693
G1 X111.428 Y106.147 E6.80220
G1 X110.101 Y106.582 E7.22073
G1 X109.727 Y106.649 E7.33462
G1 X107.842 Y106.818 E7.90156
G1 X104.890 Y106.818 E8.78628
G1 X103.927 Y106.539 E9.08654
G1 X103.854 Y105.989 E9.25290
G1 X103.854 Y94.011 E12.84207
G1 X103.927 Y93.461 E13.00843
G92 E0
G1 X102.819 Y92.352 F7800.000
G1 X99.420 Y93.751 F7800.000
