; generated by Slic3r 1.2.9 on 2016-03-11 at 01:23:56

; external perimeters extrusion width = 1.54mm
; perimeters extrusion width = 2.62mm
; infill extrusion width = 6.27mm
; solid infill extrusion width = 2.62mm
; top infill extrusion width = 2.62mm

M107
M104 S30 ; set temperature
G28 ; home all axes
G1 Z5 F5000 ; lift nozzle
M302
M92 E10000
M500
M501
G1 E100
M109 S30 ; wait for temperature to be reached
G21 ; set units to millimeters
G90 ; use absolute coordinates
M82 ; use absolute distances for extrusion
G92 E0
G1 Z0.300 F7800.000
G1 X114.580 Y95.396 F7800.000
G1 X113.935 Y94.866 E0.03780 F378.000
G1 X113.207 Y94.436 E0.07605
G1 X112.371 Y94.084 E0.11710
G1 X111.459 Y93.824 E0.16002
G1 X110.502 Y93.668 E0.20386
G1 X109.496 Y93.615 E0.24947
G1 X107.823 Y93.806 E0.32565
G1 X106.392 Y94.387 E0.39556
G1 X105.222 Y95.358 E0.46435
G1 X104.361 Y96.660 E0.53496
G1 X103.848 Y98.231 E0.60975
G1 X103.679 Y100.064 E0.69306
G1 X103.838 Y101.895 E0.77619
G1 X104.321 Y103.443 E0.84960
G1 X105.134 Y104.705 E0.91751
G1 X106.260 Y105.636 E0.98363
G1 X107.670 Y106.191 E1.05222
G1 X109.345 Y106.374 E1.12846
G1 X110.454 Y106.306 E1.17871
G1 X111.438 Y106.102 E1.22418
G1 X112.303 Y105.758 E1.26630
G1 X113.052 Y105.261 E1.30698
G1 X113.683 Y104.600 E1.34835
G1 X114.094 Y103.944 E1.38336
G1 X115.631 Y104.397 E1.45586
G1 X115.132 Y105.266 E1.50117
G1 X114.352 Y106.137 E1.55412
G1 X113.419 Y106.789 E1.60562
G1 X112.299 Y107.245 E1.66031
G1 X110.962 Y107.522 E1.72212
G1 X109.409 Y107.614 E1.79248
G1 X107.227 Y107.393 E1.89175
G1 X105.415 Y106.736 E1.97895
G1 X103.959 Y105.648 E2.06121
G1 X102.890 Y104.161 E2.14409
G1 X102.244 Y102.303 E2.23308
G1 X102.027 Y100.062 E2.33498
G1 X102.126 Y98.552 E2.40343
G1 X102.424 Y97.183 E2.46683
G1 X102.918 Y95.956 E2.52666
G1 X103.596 Y94.893 E2.58375
G1 X104.449 Y94.012 E2.63923
G1 X105.478 Y93.309 E2.69560
G1 X106.670 Y92.797 E2.75430
G1 X108.011 Y92.489 E2.81657
G1 X109.504 Y92.385 E2.88431
G1 X110.718 Y92.454 E2.93931
G1 X112.065 Y92.681 E3.00114 F378.000
G1 X113.245 Y93.048 E3.05704
G1 X114.332 Y93.550 E3.11121
G1 X115.297 Y94.172 E3.16317
G1 X116.079 Y94.857 E3.21020
G1 X116.079 Y99.807 E3.43419
G1 X110.053 Y99.807 E3.70686
G1 X110.053 Y98.522 E3.76500
G1 X114.621 Y98.522 E3.97170
G1 X114.621 Y95.608 E4.10355
G1 X115.454 Y94.709 F7800.000
G1 X115.853 Y95.107 E4.12924 F540.000
G1 X115.853 Y95.656 F7800.000
G1 X113.793 Y93.597 E4.26197 F540.000
G1 X113.278 Y94.180 F7800.000
G1 X112.036 Y92.937 E4.34201 F540.000
G1 X111.354 Y92.805 E4.37365
G1 X112.372 Y93.823 E4.43926
G1 X112.833 Y93.186 F7800.000
G1 X115.853 Y96.206 E4.63382 F540.000
G1 X115.853 Y96.755 E4.65884
G1 X114.847 Y95.749 E4.72366
G1 X114.847 Y96.298 E4.74868
G1 X115.853 Y97.304 E4.81351
G1 X115.853 Y97.853 E4.83853
G1 X114.847 Y96.847 E4.90336
G1 X114.847 Y97.396 E4.92838
G1 X115.853 Y98.402 E4.99320
G1 X115.853 Y98.951 E5.01822
G1 X114.847 Y97.945 E5.08305
G1 X114.847 Y98.494 E5.10807
G1 X115.853 Y99.500 E5.17290
G1 X115.384 Y99.581 E5.19455
G1 X114.551 Y98.748 E5.24823
G1 X114.002 Y98.748 E5.27325
G1 X114.835 Y99.581 E5.32693
G1 X114.286 Y99.581 E5.35195
G1 X113.453 Y98.748 E5.40563
G1 X112.904 Y98.748 E5.43065
G1 X113.737 Y99.581 E5.48433
G1 X113.188 Y99.581 E5.50935
G1 X112.355 Y98.748 E5.56303
G1 X111.806 Y98.748 E5.58805
G1 X112.639 Y99.581 E5.64173
G1 X112.090 Y99.581 E5.66675
G1 X111.257 Y98.748 E5.72043
G1 X110.707 Y98.748 E5.74545
G1 X111.541 Y99.581 E5.79913
G1 X110.991 Y99.581 E5.82415
G1 X110.279 Y98.868 E5.87007
G92 E0
G1 X104.439 Y95.137 F7800.000
G1 X104.439 Y95.137 F7800.000
G1 X110.948 Y93.497 F7800.000
G1 X110.101 Y92.650 E0.05457 F540.000
G1 X109.519 Y92.617 E0.08112
G1 X110.330 Y93.428 E0.13336
G1 X109.750 Y93.398 E0.15978
G1 X108.994 Y92.642 E0.20851
G1 X108.481 Y92.677 E0.23196
G1 X109.230 Y93.427 E0.28026
G1 X108.738 Y93.483 E0.30286
G1 X107.968 Y92.714 E0.35244
G1 X107.522 Y92.817 E0.37331
G1 X108.245 Y93.540 E0.41990
G1 X107.768 Y93.612 E0.44188
G1 X107.075 Y92.919 E0.48650
G1 X106.637 Y93.030 E0.50711
G1 X107.377 Y93.770 E0.55483
G1 X106.987 Y93.929 E0.57404
G1 X106.252 Y93.195 E0.62134
G1 X105.868 Y93.359 E0.64039
G1 X106.596 Y94.087 E0.68729
G1 X106.230 Y94.271 E0.70593
G1 X105.493 Y93.534 E0.75344
G1 X105.167 Y93.756 E0.77144
G1 X105.930 Y94.520 E0.82063
G1 X105.630 Y94.769 E0.83840
G1 X104.841 Y93.979 E0.88928
G1 X104.537 Y94.224 E0.90708
G1 X105.330 Y95.018 E0.95820
G1 X105.041 Y95.278 E0.97591
G1 X104.262 Y94.499 E1.02612
G1 X103.988 Y94.774 E1.04381
G1 X104.823 Y95.609 E1.09762
G1 X104.604 Y95.939 E1.11568
G1 X103.722 Y95.058 E1.17249
G1 X103.509 Y95.393 E1.19060
G1 X104.385 Y96.270 E1.24711
G1 X104.167 Y96.600 E1.26517
G1 X103.295 Y95.728 E1.32137
G1 X103.089 Y96.071 E1.33961
G1 X104.030 Y97.013 E1.40029
G1 X103.895 Y97.427 E1.42013
G1 X102.931 Y96.463 E1.48227
G1 X102.773 Y96.854 E1.50150
G1 X103.760 Y97.841 E1.56509
G1 X103.626 Y98.256 E1.58496
G1 X102.624 Y97.254 E1.64955
G1 X102.526 Y97.705 E1.67058
G1 X103.580 Y98.759 E1.73851
G1 X103.533 Y99.261 E1.76151
G1 X102.427 Y98.156 E1.83276
G1 X102.343 Y98.620 E1.85427
G1 X103.487 Y99.764 E1.92800
G1 X103.464 Y100.291 E1.95201
G1 X102.309 Y99.135 E2.02647
G1 X102.275 Y99.650 E2.05000
G1 X103.517 Y100.892 E2.13002
G1 X103.569 Y101.494 E2.15752
G1 X102.275 Y100.200 E2.24089
G1 X102.334 Y100.808 E2.26872
G1 X103.641 Y102.114 E2.35290
G1 X103.889 Y102.912 E2.39097
G1 X102.393 Y101.416 E2.48736
G1 X102.452 Y102.024 E2.51520
G1 X104.187 Y103.759 E2.62701
G1 X102.987 Y103.657 F7800.000
G1 X106.004 Y106.675 E2.82142 F540.000
G1 X106.400 Y105.972 F7800.000
G1 X107.626 Y107.198 E2.90038 F540.000
G1 X108.237 Y107.260 E2.92837
G1 X107.306 Y106.329 E2.98833
G1 X107.989 Y106.463 E3.02002
G1 X108.848 Y107.322 E3.07536
G1 X109.459 Y107.383 E3.10335
G1 X108.605 Y106.530 E3.15836
G1 X109.221 Y106.597 E3.18660
G1 X109.983 Y107.358 E3.23567
G1 X110.501 Y107.328 E3.25932
G1 X109.744 Y106.571 E3.30808
G1 X110.262 Y106.539 E3.33170
G1 X111.017 Y107.295 E3.38037
G1 X111.472 Y107.201 E3.40154
G1 X110.735 Y106.463 E3.44905
G1 X111.190 Y106.369 E3.47021
G1 X111.927 Y107.106 E3.51773
G1 X112.369 Y106.999 E3.53845
G1 X111.618 Y106.248 E3.58690
G1 X112.011 Y106.091 E3.60616
G1 X112.760 Y106.840 E3.65443
G1 X113.150 Y106.681 E3.67362
G1 X112.397 Y105.929 E3.72211
G1 X112.727 Y105.710 E3.74016
G1 X113.508 Y106.490 E3.79046
G1 X113.831 Y106.265 E3.80843
G1 X113.057 Y105.490 E3.85831
G1 X113.346 Y105.230 E3.87603
G1 X114.151 Y106.036 E3.92791
G1 X114.426 Y105.761 E3.94560
G1 X113.615 Y104.950 E3.99787
G1 X113.875 Y104.661 E4.01558
G1 X114.688 Y105.474 E4.06795
G1 X114.947 Y105.184 E4.08567
G1 X114.087 Y104.323 E4.14113
G1 X114.697 Y104.385 E4.16910
G1 X115.151 Y104.839 E4.19834
G92 E0
G1 X114.388 Y104.936 F7800.000
G1 X114.388 Y104.936 F7800.000
G1 X106.866 Y106.987 F7800.000
G1 X102.695 Y102.816 E0.26878 F540.000
G1 X104.026 Y105.246 F7800.000
G1 X104.377 Y105.596 E0.29135 F540.000
G92 E0
G1 X102.901 Y100.062 F7800.000
G1 X103.056 Y98.064 F7800.000
G1 X103.636 Y96.313 F7800.000
G1 X104.232 Y95.395 F7800.000
G1 X104.439 Y95.137 F7800.000
G1 X111.604 Y93.604 F7800.000
G1 X110.693 Y92.694 E0.05867 F540.000
G92 E0
G1 X102.717 Y95.853 F7800.000
G1 X98.603 Y96.332 F7800.000
G1 X98.179 Y98.275 F7800.000
G1 X98.227 Y99.386 F7800.000
G1 X94.616 Y99.386 F7800.000
G1 X83.921 Y100.328 F7800.000
G1 X83.921 Y92.577 E0.35072 F378.000
G1 X95.485 Y92.577 E0.87399
G1 X95.485 Y93.819 E0.93018
G1 X85.542 Y93.819 E1.38010 F378.000
G1 X85.542 Y99.611 E1.64218
G1 X94.391 Y99.611 E2.04259
G1 X94.391 Y100.831 E2.09780
G1 X85.542 Y100.831 E2.49821
G1 X85.542 Y106.181 E2.74029
G1 X95.041 Y106.181 E3.17011
G1 X95.041 Y107.423 E3.22631
G1 X83.921 Y107.423 E3.72949
G1 X83.921 Y100.559 E4.04008
G1 X86.489 Y100.605 F7800.000
G1 X85.721 Y99.837 E4.08926 F540.000
G1 X86.266 Y99.837 E4.11396
G1 X87.034 Y100.605 E4.16314
G1 X87.580 Y100.605 E4.18784
G1 X86.812 Y99.837 E4.23702
G1 X87.358 Y99.837 E4.26172
G1 X88.126 Y100.605 E4.31090
G1 X88.671 Y100.605 E4.33560
G1 X87.903 Y99.837 E4.38478
G1 X88.449 Y99.837 E4.40948
G1 X89.217 Y100.605 E4.45866
G1 X89.763 Y100.605 E4.48336
G1 X88.995 Y99.837 E4.53254
G1 X89.540 Y99.837 E4.55724
G1 X90.308 Y100.605 E4.60641
G1 X90.854 Y100.605 E4.63112
G1 X90.086 Y99.837 E4.68029
G1 X90.631 Y99.837 E4.70500
G1 X91.399 Y100.605 E4.75417
G1 X91.945 Y100.605 E4.77888
G1 X91.177 Y99.837 E4.82805
G1 X91.723 Y99.837 E4.85276
G1 X92.491 Y100.605 E4.90193
G1 X93.036 Y100.605 E4.92663
G1 X92.268 Y99.837 E4.97581
G1 X92.814 Y99.837 E5.00051
G1 X93.582 Y100.605 E5.04969
G1 X94.128 Y100.605 F7800.000
G1 X93.360 Y99.837 E5.09887 F540.000
G1 X93.905 Y99.837 E5.12357
G1 X94.165 Y100.097 E5.14022
G92 E0
G1 X84.767 Y106.648 F7800.000
G1 X84.767 Y106.648 F7800.000
G1 X94.473 Y106.407 F7800.000
G1 X94.815 Y106.749 E0.02190 F540.000
G1 X94.718 Y107.197 E0.04266
G1 X93.928 Y106.407 E0.09324
G1 X93.382 Y106.407 E0.11795
G1 X94.172 Y107.197 E0.16853
G1 X93.626 Y107.197 E0.19323
G1 X92.836 Y106.407 E0.24382
G1 X92.291 Y106.407 E0.26852
G1 X93.081 Y107.197 E0.31911
G1 X92.535 Y107.197 E0.34381
G1 X91.745 Y106.407 E0.39440
G1 X91.199 Y106.407 E0.41910
G1 X91.990 Y107.197 E0.46968
G1 X91.444 Y107.197 E0.49439
G1 X90.654 Y106.407 E0.54497
G1 X90.108 Y106.407 E0.56967
G1 X90.898 Y107.197 E0.62026
G1 X90.353 Y107.197 E0.64496
G1 X89.563 Y106.407 E0.69555
G1 X89.017 Y106.407 E0.72025
G1 X89.807 Y107.197 E0.77084
G1 X89.261 Y107.197 E0.79554
G1 X88.471 Y106.407 E0.84612
G1 X87.926 Y106.407 E0.87083
G1 X88.716 Y107.197 E0.92141
G1 X88.170 Y107.197 E0.94611
G1 X87.380 Y106.407 E0.99670
G1 X86.834 Y106.407 E1.02140
G1 X87.625 Y107.197 E1.07199
G1 X87.079 Y107.197 E1.09669
G1 X86.289 Y106.407 E1.14728
G1 X85.743 Y106.407 E1.17198
G1 X86.533 Y107.197 E1.22256
G1 X85.988 Y107.197 E1.24727
G1 X84.147 Y105.357 E1.36510
G1 X84.147 Y104.811 E1.38980
G1 X85.316 Y105.980 E1.46466
G1 X85.316 Y105.434 E1.48936
G1 X84.147 Y104.265 E1.56421
G1 X84.147 Y103.720 E1.58891
G1 X85.316 Y104.889 E1.66376
G1 X85.316 Y104.343 E1.68847
G1 X84.147 Y103.174 E1.76332
G1 X84.147 Y102.628 E1.78802
G1 X85.316 Y103.798 E1.86287
G1 X85.316 Y103.252 E1.88757
G1 X84.147 Y102.083 E1.96243
G1 X84.147 Y101.537 E1.98713
G1 X85.316 Y102.706 E2.06198
G1 X85.316 Y102.161 E2.08668
G1 X84.147 Y100.992 E2.16154
G1 X84.147 Y100.446 E2.18624
G1 X85.316 Y101.615 E2.26109
G1 X85.316 Y101.069 E2.28579
G1 X84.147 Y99.900 E2.36064
G1 X84.147 Y99.355 E2.38535
G1 X85.398 Y100.605 E2.46540
G1 X85.943 Y100.605 E2.49011
G1 X84.147 Y98.809 E2.60510
G1 X84.147 Y98.263 E2.62980
G1 X85.316 Y99.432 E2.70465
G1 X85.316 Y98.887 E2.72935
G1 X84.147 Y97.718 E2.80421
G1 X84.147 Y97.172 E2.82891
G1 X85.316 Y98.341 E2.90376
G1 X85.316 Y97.796 E2.92846
G1 X84.147 Y96.626 E3.00331
G1 X84.147 Y96.081 E3.02802
G1 X85.316 Y97.250 E3.10287
G1 X85.316 Y96.704 E3.12757
G1 X84.147 Y95.535 E3.20242
G1 X84.147 Y94.990 E3.22712
G1 X85.316 Y96.159 E3.30198
G1 X85.316 Y95.613 E3.32668
G1 X84.147 Y94.444 E3.40153
G1 X84.147 Y93.898 E3.42623
G1 X85.316 Y95.067 E3.50108
G1 X85.316 Y94.522 E3.52579
G1 X84.147 Y93.353 E3.60064
G1 X84.165 Y92.825 E3.62454
G1 X85.316 Y93.976 E3.69825
G1 X85.479 Y93.593 F7800.000
G1 X84.689 Y92.803 E3.74883 F540.000
G1 X85.234 Y92.803 E3.77353
G1 X86.024 Y93.593 E3.82412
G1 X86.570 Y93.593 E3.84882
G1 X85.780 Y92.803 E3.89941
G1 X86.326 Y92.803 E3.92411
G1 X87.116 Y93.593 E3.97469
G1 X87.661 Y93.593 E3.99939
G1 X86.871 Y92.803 E4.04998
G1 X87.417 Y92.803 E4.07468
G1 X88.207 Y93.593 E4.12527
G1 X88.753 Y93.593 E4.14997
G1 X87.962 Y92.803 E4.20055
G1 X88.508 Y92.803 E4.22526
G1 X89.298 Y93.593 E4.27584
G1 X89.844 Y93.593 E4.30054
G1 X89.054 Y92.803 E4.35113
G1 X89.599 Y92.803 E4.37583
G1 X90.389 Y93.593 E4.42642
G1 X90.935 Y93.593 E4.45112
G1 X90.145 Y92.803 E4.50170
G1 X90.691 Y92.803 E4.52641
G1 X91.481 Y93.593 E4.57699
G1 X92.026 Y93.593 E4.60169
G1 X91.236 Y92.803 E4.65228
G1 X91.782 Y92.803 E4.67698
G1 X92.572 Y93.593 E4.72757
G1 X93.118 Y93.593 E4.75227
G1 X92.327 Y92.803 E4.80285
G1 X92.873 Y92.803 E4.82756
G1 X93.663 Y93.593 E4.87814
G1 X94.209 Y93.593 E4.90284
G1 X93.419 Y92.803 E4.95343
G1 X93.964 Y92.803 E4.97813
G1 X94.754 Y93.593 E5.02871
G1 X95.259 Y93.552 E5.05164
G1 X94.510 Y92.803 E5.09961
G1 X95.056 Y92.803 E5.12431
G1 X95.259 Y93.007 E5.13735
G1 X84.767 Y93.352 F7800.000
G1 X84.767 Y93.352 F7800.000
G1 X84.732 Y93.387 F7800.000
G1 X84.696 Y93.352 F7800.000
G1 X84.147 Y105.902 F7800.000
G1 X85.442 Y107.197 E5.22025 F540.000
G1 X84.896 Y107.197 E5.24496
G1 X84.147 Y106.448 E5.29292
G1 X84.147 Y106.993 E5.31763
G1 X84.351 Y107.197 E5.33066
M106 S255
G92 E0
G1 Z0.600 F7800.000
G1 X115.089 Y104.003 F7800.000
G1 X114.218 Y105.144 E0.42996 F600.000
G1 X113.837 Y105.556 E0.59838
G1 X113.605 Y105.755 E0.68999
G1 X113.064 Y106.138 E0.88840
G1 X112.708 Y106.326 E1.00904
G1 X112.098 Y106.582 E1.20745
G1 X111.550 Y106.740 E1.37825
G1 X110.876 Y106.879 E1.58432
G1 X110.597 Y106.916 E1.66887
G1 X109.422 Y106.991 E2.02148
G1 X109.260 Y106.982 E2.07022
G1 X107.633 Y106.811 E2.56036
G1 X107.409 Y106.772 E2.62851
G1 X106.051 Y106.264 E3.06301
G1 X105.795 Y106.143 E3.14797
G1 X104.696 Y105.289 E3.56478
G1 X104.503 Y105.114 E3.64303
G1 X103.673 Y103.897 E4.08442
G1 X103.605 Y103.789 E4.12265
G1 X103.553 Y103.650 E4.16697
G1 X103.051 Y102.126 E4.64789
G1 X102.862 Y100.156 E5.24101
G1 X102.859 Y99.968 E5.29713
G1 X102.962 Y98.670 E5.68750
G1 X103.085 Y97.956 E5.90469
G1 X103.228 Y97.430 E6.06773
G1 X103.634 Y96.325 E6.42056
G1 X104.232 Y95.395 E6.75200
G1 X104.573 Y94.969 E6.91543
G1 X104.943 Y94.598 E7.07251
G1 X105.822 Y93.936 E7.40218
G1 X106.170 Y93.748 E7.52064
G1 X106.883 Y93.450 E7.75230
G1 X107.783 Y93.182 E8.03358
G1 X108.106 Y93.127 E8.13174
G1 X109.508 Y93.001 E8.55371
G1 X110.614 Y93.063 E8.88545
G1 X111.545 Y93.214 E9.16812
G1 X111.915 Y93.296 E9.28161
G1 X112.529 Y93.480 E9.47386
G1 X113.012 Y93.653 E9.62753
G1 X113.545 Y93.893 E9.80267
G1 X114.010 Y94.136 E9.95988
G1 X114.256 Y94.288 E10.04643
G1 X114.982 Y94.823 E10.31674
G1 X115.320 Y95.201 E10.46872
G1 X115.350 Y95.536 E10.56955
G1 X115.350 Y98.297 E11.39688
G1 X115.234 Y98.962 E11.59917
G1 X110.695 Y99.164 E12.96049
G1 X116.304 Y99.164 E14.64106
G92 E0
G1 X116.441 Y92.426 F7800.000
G1 X107.905 Y91.214 F7800.000
G1 X102.743 Y92.330 F7800.000
G1 X99.597 Y93.862 F7800.000
G1 X99.447 Y94.044 F7800.000
G1 X95.710 Y94.044 F7800.000
G1 X95.710 Y93.198 F7800.000
G1 X85.767 Y93.198 E2.97938 F600.000
G1 X84.812 Y93.468 E3.27683
G1 X84.732 Y94.044 E3.45118
G1 X84.732 Y99.386 E5.05189
G1 X85.602 Y103.706 E6.37226
G1 X84.767 Y106.648 F7800.000
G1 X84.767 Y106.648 F7800.000
G1 X95.266 Y106.802 F7800.000
G1 X85.767 Y106.802 E9.21860 F600.000
G1 X84.812 Y106.532 E9.51604
G1 X84.732 Y105.956 E9.69040
G1 X84.732 Y101.056 E11.15866
G1 X84.900 Y100.221 E11.41390
G1 X94.616 Y100.221 E14.32532
G92 E0
G1 Z0.900 F7800.000
G1 X115.089 Y104.003 F7800.000
G1 X114.218 Y105.144 E0.42996 F600.000
G1 X113.837 Y105.556 E0.59838
G1 X113.605 Y105.755 E0.68999
G1 X113.064 Y106.138 E0.88840
G1 X112.708 Y106.326 E1.00904
G1 X112.098 Y106.582 E1.20745
G1 X111.550 Y106.740 E1.37825
G1 X110.876 Y106.879 E1.58432
G1 X110.597 Y106.916 E1.66887
G1 X109.422 Y106.991 E2.02148
G1 X109.260 Y106.982 E2.07022
G1 X107.633 Y106.811 E2.56036
G1 X107.409 Y106.772 E2.62851
G1 X106.051 Y106.264 E3.06301
G1 X105.795 Y106.143 E3.14797
G1 X104.696 Y105.289 E3.56478
G1 X104.503 Y105.114 E3.64303
G1 X103.673 Y103.897 E4.08442
G1 X103.605 Y103.789 E4.12265
G1 X103.553 Y103.650 E4.16697
G1 X103.051 Y102.126 E4.64789
G1 X102.862 Y100.156 E5.24101
G1 X102.859 Y99.968 E5.29713
G1 X102.962 Y98.670 E5.68750
G1 X103.085 Y97.956 E5.90469
G1 X103.228 Y97.430 E6.06773
G1 X103.634 Y96.325 E6.42056
G1 X104.232 Y95.395 E6.75200
G1 X104.573 Y94.969 E6.91543
G1 X104.943 Y94.598 E7.07251
G1 X105.822 Y93.936 E7.40218
G1 X106.170 Y93.748 E7.52064
G1 X106.883 Y93.450 E7.75230
G1 X107.783 Y93.182 E8.03358
G1 X108.106 Y93.127 E8.13174
G1 X109.508 Y93.001 E8.55371
G1 X110.614 Y93.063 E8.88545
G1 X111.545 Y93.214 E9.16812
G1 X111.915 Y93.296 E9.28161
G1 X112.529 Y93.480 E9.47386
G1 X113.012 Y93.653 E9.62753
G1 X113.545 Y93.893 E9.80267
G1 X114.010 Y94.136 E9.95988
