; generated by Slic3r 1.2.9 on 2016-03-11 at 01:23:57

; external perimeters extrusion width = 1.54mm
; perimeters extrusion width = 2.62mm
; infill extrusion width = 6.27mm
; solid infill extrusion width = 2.62mm
; top infill extrusion width = 2.62mm

M107
M104 S30 ; set temperature
G28 ; home all axes
G1 Z5 F5000 ; lift nozzle
M302
M92 E10000
M500
M501
G1 E100
M109 S30 ; wait for temperature to be reached
G21 ; set units to millimeters
G90 ; use absolute coordinates
M82 ; use absolute distances for extrusion
G92 E0
G1 Z0.300 F7800.000
G1 X113.773 Y94.377 F7800.000
G1 X113.773 Y92.577 E0.08146 F378.000
G1 X115.394 Y92.577 E0.15481
G1 X115.394 Y107.423 E0.82658
G1 X113.773 Y107.423 E0.89993
G1 X113.773 Y100.959 E1.19242
G1 X105.040 Y100.959 E1.58758
G1 X105.040 Y107.423 E1.88007
G1 X103.419 Y107.423 E1.95342
G1 X103.419 Y92.577 E2.62519
G1 X105.040 Y92.577 E2.69854
G1 X105.040 Y99.674 E3.01968
G1 X113.773 Y99.674 E3.41484 F378.000
G1 X113.773 Y94.608 E3.64406
G1 X115.168 Y93.007 F7800.000
G1 X114.964 Y92.803 E3.65731 F540.000
G1 X114.410 Y92.803 E3.68283
G1 X115.168 Y93.561 E3.73216
G1 X115.168 Y94.116 E3.75768
G1 X113.999 Y92.947 E3.83376
G1 X113.999 Y93.501 E3.85928
G1 X115.168 Y94.670 E3.93535
G1 X115.168 Y95.225 E3.96087
G1 X113.999 Y94.056 E4.03695
G1 X113.999 Y94.610 E4.06247
G1 X115.168 Y95.779 E4.13854
G1 X115.168 Y96.334 E4.16406
G1 X113.999 Y95.165 E4.24014
G1 X113.999 Y95.719 E4.26566
G1 X115.168 Y96.889 E4.34173
G1 X115.168 Y97.443 E4.36725
G1 X113.999 Y96.274 E4.44333
G1 X113.999 Y96.829 E4.46885
G1 X115.168 Y97.998 E4.54492
G1 X115.168 Y98.552 E4.57044
G1 X113.999 Y97.383 E4.64652
G1 X113.999 Y97.938 E4.67203
G1 X115.168 Y99.107 E4.74811
G1 X115.168 Y99.661 E4.77363
G1 X113.999 Y98.492 E4.84971
G1 X113.999 Y99.047 E4.87522
G1 X115.168 Y100.216 E4.95130
G1 X115.168 Y100.770 E4.97682
G1 X113.999 Y99.601 E5.05290
G1 X113.743 Y99.900 F7800.000
G1 X115.168 Y101.325 E5.14563 F540.000
G1 X115.168 Y101.880 E5.17115
G1 X113.188 Y99.900 E5.29997
G1 X112.634 Y99.900 E5.32549
G1 X113.467 Y100.733 E5.37970
G1 X112.912 Y100.733 E5.40522
G1 X112.079 Y99.900 E5.45943
G1 X111.525 Y99.900 E5.48495
G1 X112.358 Y100.733 E5.53916
G1 X111.803 Y100.733 E5.56468
G1 X110.970 Y99.900 E5.61889
G1 X110.415 Y99.900 E5.64441
G1 X111.248 Y100.733 E5.69862
G1 X110.694 Y100.733 E5.72414
G1 X109.861 Y99.900 E5.77835
G1 X109.306 Y99.900 E5.80387
G1 X110.139 Y100.733 E5.85808
G1 X109.585 Y100.733 E5.88360
G1 X108.752 Y99.900 E5.93781
G1 X108.197 Y99.900 E5.96333
G1 X109.030 Y100.733 E6.01754
G1 X108.476 Y100.733 E6.04306
G1 X107.643 Y99.900 E6.09727
G1 X107.088 Y99.900 E6.12279
G1 X107.921 Y100.733 E6.17700
G1 X107.367 Y100.733 E6.20252
G1 X106.533 Y99.900 E6.25673
G1 X105.979 Y99.900 E6.28225
G1 X106.812 Y100.733 E6.33646
G1 X106.257 Y100.733 E6.36198
G1 X105.424 Y99.900 E6.41619
G1 X104.870 Y99.900 E6.44171
G1 X105.703 Y100.733 E6.49592
G1 X105.148 Y100.733 E6.52144
G1 X103.645 Y99.230 E6.61928
G1 X103.645 Y99.784 E6.64480
G1 X104.814 Y100.953 E6.72087
G1 X104.814 Y101.508 E6.74639
G1 X103.645 Y100.339 E6.82247
G1 X103.645 Y100.893 E6.84799
G1 X104.814 Y102.062 E6.92406
G1 X104.814 Y102.617 E6.94958
G1 X103.645 Y101.448 E7.02566
G1 X103.645 Y102.002 E7.05118
G1 X104.814 Y103.171 E7.12725
G1 X104.814 Y103.726 E7.15277
G1 X103.645 Y102.557 E7.22885
G1 X103.645 Y103.112 E7.25437
G1 X104.814 Y104.281 E7.33044
G1 X104.814 Y104.835 E7.35596
G1 X103.645 Y103.666 E7.43204
G1 X103.645 Y104.221 E7.45756
G1 X104.814 Y105.390 E7.53363
G1 X104.814 Y105.944 E7.55915
G1 X103.645 Y104.775 E7.63523
G1 X103.645 Y105.330 E7.66075
G1 X104.814 Y106.499 E7.73682
G1 X104.814 Y107.053 E7.76234
G1 X103.645 Y105.884 E7.83842
G1 X103.645 Y106.439 E7.86394
G1 X104.403 Y107.197 E7.91327
G1 X103.848 Y107.197 E7.93879
G1 X103.645 Y106.993 E7.95204
G1 X104.814 Y99.844 F7800.000
G1 X103.645 Y98.675 E8.02811 F540.000
G1 X103.645 Y98.120 E8.05363
G1 X104.814 Y99.290 E8.12971
G1 X104.814 Y98.735 E8.15523
G1 X103.645 Y97.566 E8.23130
G1 X103.645 Y97.011 E8.25682
G1 X104.814 Y98.180 E8.33290
G1 X104.814 Y97.626 E8.35842
G1 X103.645 Y96.457 E8.43449
G1 X103.645 Y95.902 E8.46001
G1 X104.814 Y97.071 E8.53609
G1 X104.814 Y96.517 E8.56161
G1 X103.645 Y95.348 E8.63768
G1 X103.645 Y94.793 E8.66320
G1 X104.814 Y95.962 E8.73928
G1 X104.814 Y95.408 E8.76479
G1 X103.645 Y94.238 E8.84087
G1 X103.645 Y93.684 E8.86639
G1 X104.814 Y94.853 E8.94247
G1 X104.814 Y94.298 E8.96798
G1 X103.645 Y93.129 E9.04406
G1 X103.873 Y92.803 E9.06239
G1 X104.814 Y93.744 E9.12361
G1 X104.814 Y93.189 E9.14913
G1 X104.428 Y92.803 E9.17427
G92 E0
G1 X104.265 Y93.352 F7800.000
G1 X104.265 Y93.352 F7800.000
G1 X113.999 Y101.265 F7800.000
G1 X115.168 Y102.434 E0.07608 F540.000
G1 X115.168 Y102.989 E0.10159
G1 X113.999 Y101.820 E0.17767
G1 X113.999 Y102.374 E0.20319
G1 X115.168 Y103.543 E0.27927
G1 X115.168 Y104.098 E0.30478
G1 X113.999 Y102.929 E0.38086
G1 X113.999 Y103.483 E0.40638
G1 X115.168 Y104.652 E0.48246
G1 X115.168 Y105.207 E0.50797
G1 X113.999 Y104.038 E0.58405
G1 X113.999 Y104.592 E0.60957
G1 X115.168 Y105.762 E0.68565
G1 X115.168 Y106.316 E0.71116
G1 X113.999 Y105.147 E0.78724
G1 X113.999 Y105.702 E0.81276
G1 X115.168 Y106.871 E0.88884
G1 X114.940 Y107.197 E0.90716
G1 X113.999 Y106.256 E0.96839
G1 X113.999 Y106.811 E0.99390
G1 X114.385 Y107.197 E1.01904
G92 E0
G1 X113.548 Y101.184 F7800.000
G1 X107.265 Y107.648 F7800.000
G1 X101.194 Y107.648 F7800.000
G1 X99.248 Y99.386 F7800.000
G1 X95.301 Y96.715 F7800.000
G1 X89.123 Y96.715 F7800.000
G1 X86.452 Y99.386 F7800.000
G1 X84.606 Y96.373 F7800.000
G1 X84.606 Y92.577 E0.17178 F378.000
G1 X96.170 Y92.577 E0.69505
G1 X96.170 Y93.819 E0.75125
G1 X86.227 Y93.819 E1.20116 F378.000
G1 X86.227 Y99.611 E1.46324
G1 X95.076 Y99.611 E1.86365
G1 X95.076 Y100.831 E1.91886
G1 X86.227 Y100.831 E2.31927
G1 X86.227 Y106.181 E2.56135
G1 X95.726 Y106.181 E2.99118
G1 X95.726 Y107.423 E3.04738
G1 X84.606 Y107.423 E3.55055
G1 X84.606 Y96.604 E4.04008
G1 X84.832 Y99.355 F7800.000
G1 X86.083 Y100.605 E4.12014 F540.000
G1 X86.001 Y101.069 E4.14148
G1 X84.832 Y99.900 E4.21633
G1 X84.832 Y100.446 E4.24103
G1 X86.001 Y101.615 E4.31589
G1 X86.001 Y102.161 E4.34059
G1 X84.832 Y100.992 E4.41544
G1 X84.832 Y101.537 E4.44014
G1 X86.001 Y102.706 E4.51499
G1 X86.001 Y103.252 E4.53970
G1 X84.832 Y102.083 E4.61455
G1 X84.832 Y102.628 E4.63925
G1 X86.001 Y103.798 E4.71410
G1 X86.001 Y104.343 E4.73881
G1 X84.832 Y103.174 E4.81366
G1 X84.832 Y103.720 E4.83836
G1 X86.001 Y104.889 E4.91321
G1 X86.001 Y105.434 E4.93791
G1 X84.832 Y104.265 E5.01277
G1 X84.832 Y104.811 E5.03747
G1 X86.001 Y105.980 E5.11232
G1 X85.883 Y106.407 E5.13238
G1 X86.673 Y107.197 E5.18297
G1 X86.127 Y107.197 E5.20767
G1 X84.832 Y105.902 E5.29057
G1 X84.832 Y105.357 E5.31527
G1 X86.001 Y106.526 E5.39012
G1 X86.428 Y106.407 E5.41019
G1 X87.218 Y107.197 E5.46077
G1 X87.764 Y107.197 E5.48547
G1 X86.974 Y106.407 E5.53606
G1 X87.519 Y106.407 E5.56076
G1 X88.310 Y107.197 E5.61135
G1 X88.855 Y107.197 E5.63605
G1 X88.065 Y106.407 E5.68664
G1 X88.611 Y106.407 E5.71134
G1 X89.401 Y107.197 E5.76192
G1 X89.946 Y107.197 E5.78663
G1 X89.156 Y106.407 E5.83721
G1 X89.702 Y106.407 E5.86191
G1 X90.492 Y107.197 E5.91250
G1 X91.038 Y107.197 E5.93720
G1 X90.248 Y106.407 E5.98779
G1 X90.793 Y106.407 E6.01249
G1 X91.583 Y107.197 E6.06308
G1 X92.129 Y107.197 E6.08778
G1 X91.339 Y106.407 E6.13836
G1 X91.884 Y106.407 E6.16307
G1 X92.675 Y107.197 E6.21365
G1 X93.220 Y107.197 E6.23835
G1 X92.430 Y106.407 E6.28894
G1 X92.976 Y106.407 E6.31364
G1 X93.766 Y107.197 E6.36423
G1 X94.311 Y107.197 E6.38893
G1 X93.521 Y106.407 E6.43952
G1 X94.067 Y106.407 E6.46422
G1 X94.857 Y107.197 E6.51480
G1 X94.613 Y106.407 F7800.000
G1 X95.403 Y107.197 E6.56539 F540.000
G1 X95.500 Y106.749 E6.58615
G1 X95.158 Y106.407 E6.60805
G92 E0
G1 X85.452 Y106.648 F7800.000
G1 X85.452 Y106.648 F7800.000
G1 X94.850 Y100.097 F7800.000
G1 X94.590 Y99.837 E0.01665 F540.000
G1 X94.045 Y99.837 E0.04135
G1 X94.813 Y100.605 E0.09053
G1 X94.267 Y100.605 E0.11523
G1 X93.499 Y99.837 E0.16441
G1 X92.953 Y99.837 E0.18911
G1 X93.721 Y100.605 E0.23829
G1 X93.176 Y100.605 E0.26299
G1 X92.408 Y99.837 E0.31217
G1 X91.862 Y99.837 E0.33687
G1 X92.630 Y100.605 E0.38605
G1 X92.084 Y100.605 E0.41075
G1 X91.316 Y99.837 E0.45993
G1 X90.771 Y99.837 E0.48463
G1 X91.539 Y100.605 E0.53381
G1 X90.993 Y100.605 E0.55851
G1 X90.225 Y99.837 E0.60769
G1 X89.680 Y99.837 E0.63239
G1 X90.448 Y100.605 E0.68157
G1 X89.902 Y100.605 E0.70627
G1 X89.134 Y99.837 E0.75545
G1 X88.588 Y99.837 E0.78015
G1 X89.356 Y100.605 E0.82932
G1 X88.811 Y100.605 E0.85403
G1 X88.043 Y99.837 E0.90320
G1 X87.497 Y99.837 E0.92791
G1 X88.265 Y100.605 E0.97708
G1 X87.719 Y100.605 E1.00179
G1 X86.951 Y99.837 E1.05096
G1 X86.406 Y99.837 E1.07567
G1 X87.174 Y100.605 E1.12484
G1 X86.628 Y100.605 E1.14954
G1 X84.832 Y98.809 E1.26454
G1 X84.832 Y98.263 E1.28924
G1 X86.001 Y99.432 E1.36409
G1 X86.001 Y98.887 E1.38879
G1 X84.832 Y97.718 E1.46364
G1 X84.832 Y97.172 E1.48835
G1 X86.001 Y98.341 E1.56320
G1 X86.001 Y97.796 E1.58790
G1 X84.832 Y96.626 E1.66275
G1 X84.832 Y96.081 E1.68746
G1 X86.001 Y97.250 E1.76231
G1 X86.001 Y96.704 E1.78701
G1 X84.832 Y95.535 E1.86186
G1 X84.832 Y94.990 E1.88656
G1 X86.001 Y96.159 E1.96142
G1 X86.001 Y95.613 E1.98612
G1 X84.832 Y94.444 E2.06097
G1 X84.832 Y93.898 E2.08567
G1 X86.001 Y95.067 E2.16052
G1 X86.001 Y94.522 E2.18523
G1 X84.832 Y93.353 E2.26008
G1 X84.850 Y92.825 E2.28398
G1 X86.001 Y93.976 E2.35768
G1 X86.164 Y93.593 F7800.000
G1 X85.374 Y92.803 E2.40827 F540.000
G1 X85.919 Y92.803 E2.43297
G1 X86.709 Y93.593 E2.48356
G1 X87.255 Y93.593 E2.50826
G1 X86.465 Y92.803 E2.55884
G1 X87.011 Y92.803 E2.58355
G1 X87.801 Y93.593 E2.63413
G1 X88.346 Y93.593 E2.65883
G1 X87.556 Y92.803 E2.70942
G1 X88.102 Y92.803 E2.73412
G1 X88.892 Y93.593 E2.78471
G1 X89.438 Y93.593 E2.80941
G1 X88.647 Y92.803 E2.85999
G1 X89.193 Y92.803 E2.88470
G1 X89.983 Y93.593 E2.93528
G1 X90.529 Y93.593 E2.95998
G1 X89.739 Y92.803 E3.01057
G1 X90.284 Y92.803 E3.03527
G1 X91.074 Y93.593 E3.08586
G1 X91.620 Y93.593 E3.11056
G1 X90.830 Y92.803 E3.16114
G1 X91.376 Y92.803 E3.18585
G1 X92.166 Y93.593 E3.23643
G1 X92.711 Y93.593 E3.26113
G1 X91.921 Y92.803 E3.31172
G1 X92.467 Y92.803 E3.33642
G1 X93.257 Y93.593 E3.38701
G1 X93.803 Y93.593 E3.41171
G1 X93.012 Y92.803 E3.46229
G1 X93.558 Y92.803 E3.48699
G1 X94.348 Y93.593 E3.53758
G1 X94.894 Y93.593 E3.56228
G1 X94.104 Y92.803 E3.61287
G1 X94.649 Y92.803 E3.63757
G1 X95.439 Y93.593 E3.68815
G1 X95.944 Y93.552 E3.71108
G1 X95.195 Y92.803 E3.75905
G1 X95.741 Y92.803 E3.78375
G1 X95.944 Y93.007 E3.79679
G1 X85.452 Y93.352 F7800.000
G1 X85.452 Y93.352 F7800.000
G1 X85.417 Y93.388 F7800.000
G1 X85.381 Y93.352 F7800.000
G1 X84.832 Y106.448 F7800.000
G1 X85.581 Y107.197 E3.84476 F540.000
G1 X85.036 Y107.197 E3.86946
G1 X84.832 Y106.993 E3.88249
M106 S255
G92 E0
G1 Z0.600 F7800.000
G1 X104.229 Y92.352 F7800.000
G1 X104.229 Y99.449 E2.12659 F600.000
G1 X105.140 Y103.796 E3.45730
G92 E0
G1 X114.548 Y106.648 F7800.000
G1 X114.548 Y106.648 F7800.000
G1 X114.583 Y107.648 F7800.000
G1 X114.583 Y101.184 E1.93691 F600.000
G1 X114.402 Y100.316 E2.20250
G1 X114.583 Y99.449 E2.46808
G1 X114.583 Y92.352 E4.59467
G92 E0
G1 X104.265 Y93.352 F7800.000
G1 X104.229 Y93.387 F7800.000
G1 X104.229 Y106.612 F7800.000
G1 X104.265 Y106.648 F7800.000
G1 X104.229 Y107.648 F7800.000
G1 X104.229 Y101.184 E1.93691 F600.000
G1 X104.411 Y100.316 E2.20250
G1 X115.619 Y100.316 E5.56087
G92 E0
G1 X105.265 Y99.449 F7800.000
G1 X105.265 Y99.449 F7800.000
G1 X109.406 Y95.307 F7800.000
G1 X109.406 Y94.493 F7800.000
G1 X107.265 Y92.352 F7800.000
G1 X105.265 Y91.352 F7800.000
G1 X103.194 Y91.352 F7800.000
G1 X101.194 Y92.352 F7800.000
G1 X99.795 Y93.751 F7800.000
G1 X99.795 Y94.044 F7800.000
G1 X96.395 Y94.044 F7800.000
G1 X96.395 Y93.198 F7800.000
G1 X86.452 Y93.198 E2.97938 F600.000
G1 X85.497 Y93.468 E3.27683
G1 X85.417 Y94.044 E3.45118
G1 X85.417 Y99.386 E5.05189
G1 X86.287 Y103.706 E6.37226
G1 X85.452 Y106.648 F7800.000
G1 X85.452 Y106.648 F7800.000
G1 X95.951 Y106.802 F7800.000
G1 X86.452 Y106.802 E9.21860 F600.000
G1 X85.497 Y106.532 E9.51604
G1 X85.417 Y105.956 E9.69040
G1 X85.417 Y101.056 E11.15866
G1 X85.585 Y100.221 E11.41390
G1 X95.301 Y100.221 E14.32532
G92 E0
G1 Z0.900 F7800.000
G1 X104.229 Y92.352 F7800.000
G1 X104.229 Y99.449 E2.12659 F600.000
G1 X105.140 Y103.796 E3.45730
G92 E0
G1 X114.548 Y106.648 F7800.000
G1 X114.548 Y106.648 F7800.000
G1 X114.583 Y107.648 F7800.000
G1 X114.583 Y101.184 E1.93691 F600.000
G1 X114.402 Y100.316 E2.20250
G1 X114.583 Y99.449 E2.46808
G1 X114.583 Y92.352 E4.59467
G92 E0
G1 X104.265 Y93.352 F7800.000
G1 X104.229 Y93.387 F7800.000
G1 X104.229 Y106.612 F7800.000
G1 X104.265 Y106.648 F7800.000
G1 X104.229 Y107.648 F7800.000
G1 X104.229 Y101.184 E1.93691 F600.000
G1 X104.411 Y100.316 E2.20250
G1 X115.619 Y100.316 E5.56087
G92 E0
G1 X105.265 Y99.449 F7800.000
G1 X105.265 Y99.449 F7800.000
G1 X109.406 Y95.307 F7800.000
G1 X109.406 Y94.493 F7800.000
G1 X107.265 Y92.352 F7800.000
G1 X105.265 Y91.352 F7800.000
G1 X103.194 Y91.352 F7800.000
G1 X101.194 Y92.352 F7800.000
G1 X99.795 Y93.751 F7800.000
G1 X99.795 Y94.044 F7800.000
G1 X96.395 Y94.044 F7800.000
G1 X96.395 Y93.198 F7800.000
G1 X86.452 Y93.198 E2.97938 F600.000
G1 X85.497 Y93.468 E3.27683
G1 X85.417 Y94.044 E3.45118
G1 X85.417 Y99.386 E5.05189
G1 X86.287 Y103.706 E6.37226
G1 X85.452 Y106.648 F7800.000
G1 X85.452 Y106.648 F7800.000
G1 X95.951 Y106.802 F7800.000
G1 X86.452 Y106.802 E9.21860 F600.000
G1 X85.497 Y106.532 E9.51604
G1 X85.417 Y105.956 E9.69040
G1 X85.417 Y101.056 E11.15866
G1 X85.585 Y100.221 E11.41390
G1 X95.301 Y100.221 E14.32532
G92 E0
G1 Z1.200 F7800.000
G1 X104.229 Y92.352 F7800.000
G1 X104.229 Y99.449 E2.12659 F600.000
G1 X105.140 Y103.796 E3.45730
G92 E0
G1 X114.548 Y106.648 F7800.000
G1 X114.548 Y106.648 F7800.000
G1 X114.583 Y107.648 F7800.000
G1 X114.583 Y101.184 E1.93691 F600.000
G1 X114.402 Y100.316 E2.20250
G1 X114.583 Y99.449 E2.46808
G1 X114.583 Y92.352 E4.59467
G92 E0
G1 X104.265 Y93.352 F7800.000
G1 X104.229 Y93.387 F7800.000
G1 X104.229 Y106.612 F7800.000
G1 X104.265 Y106.648 F7800.000
G1 X104.229 Y107.648 F7800.000
G1 X104.229 Y101.184 E1.93691 F600.000
G1 X104.411 Y100.316 E2.20250
G1 X115.619 Y100.316 E5.56087
G92 E0
G1 X105.265 Y99.449 F7800.000
G1 X105.265 Y99.449 F7800.000
G1 X109.406 Y95.307 F7800.000
G1 X109.406 Y94.493 F7800.000
G1 X107.265 Y92.352 F7800.000
G1 X105.265 Y91.352 F7800.000
G1 X103.194 Y91.352 F7800.000
G1 X101.194 Y92.352 F7800.000
G1 X99.795 Y93.751 F7800.000
G1 X99.795 Y94.044 F7800.000
G1 X96.395 Y94.044 F7800.000
G1 X96.395 Y93.198 F7800.000
G1 X86.452 Y93.198 E2.97938 F600.000
G1 X85.497 Y93.468 E3.27683
G1 X85.417 Y94.044 E3.45118
G1 X85.417 Y99.386 E5.05189
G1 X86.287 Y103.706 E6.37226
G1 X85.452 Y106.648 F7800.000
G1 X85.452 Y106.648 F7800.000
G1 X95.951 Y106.802 F7800.000
G1 X86.452 Y106.802 E9.21860 F600.000
G1 X85.497 Y106.532 E9.51604
G1 X85.417 Y105.956 E9.69040
G1 X85.417 Y101.056 E11.15866
G1 X85.585 Y100.221 E11.41390
G1 X95.301 Y100.221 E14.32532
G92 E0
G1 Z1.500 F7800.000
G1 X104.229 Y92.352 F7800.000
G1 X104.229 Y99.449 E2.12659 F600.000
G1 X105.140 Y103.796 E3.45730
G92 E0
G1 X114.548 Y106.648 F7800.000
G1 X114.548 Y106.648 F7800.000
G1 X114.583 Y107.648 F7800.000
G1 X114.583 Y101.184 E1.93691 F600.000
G1 X114.402 Y100.316 E2.20250
G1 X114.583 Y99.449 E2.46808
G1 X114.583 Y92.352 E4.59467
G92 E0
G1 X104.265 Y93.352 F7800.000
G1 X104.229 Y93.387 F7800.000
G1 X104.229 Y106.612 F7800.000
G1 X104.265 Y106.648 F7800.000
G1 X104.229 Y107.648 F7800.000
G1 X104.229 Y101.184 E1.93691 F600.000
G1 X104.411 Y100.316 E2.20250
G1 X115.619 Y100.316 E5.56087
G92 E0
G1 X105.265 Y99.449 F7800.000
G1 X105.265 Y99.449 F7800.000
G1 X109.406 Y95.307 F7800.000
G1 X109.406 Y94.493 F7800.000
G1 X107.265 Y92.352 F7800.000
G1 X105.265 Y91.352 F7800.000
G1 X103.194 Y91.352 F7800.000
G1 X101.194 Y92.352 F7800.000
G1 X99.795 Y93.751 F7800.000
G1 X99.795 Y94.044 F7800.000
G1 X96.395 Y94.044 F7800.000
G1 X96.395 Y93.198 F7800.000
G1 X86.452 Y93.198 E2.97938 F600.000
G1 X85.497 Y93.468 E3.27683
