; generated by Slic3r 1.2.9 on 2016-03-11 at 01:24:00

; external perimeters extrusion width = 1.54mm
; perimeters extrusion width = 2.62mm
; infill extrusion width = 6.27mm
; solid infill extrusion width = 2.62mm
; top infill extrusion width = 2.62mm

M107
M104 S30 ; set temperature
G28 ; home all axes
G1 Z5 F5000 ; lift nozzle
M302
M92 E10000
M500
M501
G1 E100
M109 S30 ; wait for temperature to be reached
G21 ; set units to millimeters
G90 ; use absolute coordinates
M82 ; use absolute distances for extrusion
G92 E0
G1 Z0.300 F7800.000
G1 X103.269 Y99.935 F7800.000
G1 X103.269 Y92.577 E0.33294 F378.000
G1 X104.890 Y92.577 E0.40628
G1 X104.890 Y98.325 E0.66639
G1 X107.140 Y100.044 E0.79450 F378.000
G1 X113.297 Y92.577 E1.23246
G1 X115.275 Y92.577 E1.32192
G1 X108.098 Y101.015 E1.82314
G1 X114.361 Y107.423 E2.22860
G1 X112.551 Y107.423 E2.31047
G1 X104.890 Y99.424 E2.81166
G1 X104.890 Y107.423 E3.17362
G1 X103.269 Y107.423 E3.24697
G1 X103.269 Y100.166 E3.57535
G1 X104.698 Y98.664 F7800.000
G1 X105.579 Y99.452 E3.69131 F540.000
G92 E0
G1 X104.115 Y93.352 F7800.000
G1 X104.115 Y93.352 F7800.000
G1 X104.664 Y93.007 F7800.000
G1 X104.461 Y92.803 E0.01341 F540.000
G1 X103.899 Y92.803 E0.03956
G1 X104.664 Y93.568 E0.08994
G1 X104.664 Y94.129 E0.11608
G1 X103.495 Y92.960 E0.19309
G1 X103.495 Y93.521 E0.21923
G1 X104.664 Y94.691 E0.29624
G1 X104.664 Y95.252 E0.32238
G1 X103.495 Y94.083 E0.39939
G1 X103.495 Y94.644 E0.42553
G1 X104.664 Y95.813 E0.50254
G1 X104.664 Y96.375 E0.52868
G1 X103.495 Y95.205 E0.60569
G1 X103.495 Y95.767 E0.63183
G1 X104.664 Y96.936 E0.70884
G1 X104.664 Y97.497 E0.73498
G1 X103.495 Y96.328 E0.81199
G1 X103.495 Y96.889 E0.83813
G1 X104.664 Y98.059 E0.91514
G1 X104.567 Y98.522 E0.93720
G1 X103.495 Y97.451 E1.00777
G1 X103.495 Y98.012 E1.03391
G1 X104.302 Y98.818 E1.08702
G1 X103.495 Y98.573 E1.12626
G1 X104.664 Y99.743 E1.20327
G1 X104.664 Y100.304 E1.22941
G1 X103.495 Y99.135 E1.30642
G1 X103.495 Y99.696 E1.33256
G1 X104.664 Y100.865 E1.40957
G1 X104.664 Y101.427 E1.43571
G1 X103.495 Y100.257 E1.51272
G1 X103.495 Y100.819 E1.53886
G1 X104.664 Y101.988 E1.61587
G1 X104.664 Y102.549 E1.64201
G1 X103.495 Y101.380 E1.71902
G1 X103.495 Y101.941 E1.74516
G1 X104.664 Y103.111 E1.82217
G1 X104.664 Y103.672 E1.84831
G1 X103.495 Y102.503 E1.92532
G1 X103.495 Y103.064 E1.95146
G1 X104.664 Y104.233 E2.02847
G1 X104.664 Y104.795 E2.05461
G1 X103.495 Y103.625 E2.13162
G1 X103.495 Y104.187 E2.15776
G1 X104.664 Y105.356 E2.23477
G1 X104.664 Y105.917 E2.26091
G1 X103.495 Y104.748 E2.33792
G1 X103.495 Y105.309 E2.36406
G1 X104.664 Y106.479 E2.44106
G1 X104.664 Y107.040 E2.46721
G1 X103.495 Y105.871 E2.54421
G1 X103.495 Y106.432 E2.57036
G1 X104.260 Y107.197 E2.62074
G1 X103.699 Y107.197 E2.64689
G1 X103.495 Y106.993 E2.66030
G92 E0
G1 X104.115 Y106.648 F7800.000
G1 X104.115 Y106.648 F7800.000
G1 X107.040 Y100.336 F7800.000
G1 X107.787 Y101.083 E0.04855 F540.000
G1 X108.042 Y100.784 E0.06662
G1 X107.350 Y100.092 E0.11156
G1 X107.600 Y99.789 E0.12965
G1 X108.296 Y100.484 E0.17488
G1 X108.551 Y100.185 E0.19294
G1 X107.851 Y99.485 E0.23844
G1 X108.101 Y99.181 E0.25653
G1 X108.805 Y99.886 E0.30231
G1 X109.060 Y99.586 E0.32037
G1 X108.352 Y98.878 E0.36642
G1 X108.602 Y98.574 E0.38451
G1 X109.315 Y99.287 E0.43084
G1 X109.569 Y98.988 E0.44891
G1 X108.852 Y98.271 E0.49552
G1 X109.103 Y97.967 E0.51360
G1 X109.824 Y98.688 E0.56049
G1 X110.079 Y98.389 E0.57855
G1 X109.353 Y97.663 E0.62572
G1 X109.603 Y97.360 E0.64380
G1 X110.333 Y98.090 E0.69124
G1 X110.588 Y97.790 E0.70931
G1 X109.854 Y97.056 E0.75703
G1 X110.104 Y96.753 E0.77511
G1 X110.842 Y97.491 E0.82311
G1 X111.097 Y97.192 E0.84117
G1 X110.354 Y96.449 E0.88944
G1 X110.605 Y96.145 E0.90753
G1 X111.352 Y96.892 E0.95608
G1 X111.606 Y96.593 E0.97414
G1 X110.855 Y95.842 E1.02297
G1 X111.105 Y95.538 E1.04106
G1 X111.861 Y96.294 E1.09016
G1 X112.115 Y95.994 E1.10822
G1 X111.356 Y95.235 E1.15760
G1 X111.606 Y94.931 E1.17569
G1 X112.370 Y95.695 E1.22535
G1 X112.625 Y95.396 E1.24341
G1 X111.856 Y94.627 E1.29334
G1 X112.107 Y94.324 E1.31143
G1 X112.879 Y95.096 E1.36164
G1 X113.134 Y94.797 E1.37971
G1 X112.357 Y94.020 E1.43020
G1 X112.607 Y93.716 E1.44828
G1 X113.388 Y94.497 E1.49905
G1 X113.643 Y94.198 E1.51711
G1 X112.858 Y93.413 E1.56815
G1 X113.108 Y93.109 E1.58624
G1 X113.898 Y93.899 E1.63756
G1 X114.152 Y93.599 E1.65562
G1 X113.358 Y92.806 E1.70722
G1 X113.910 Y92.803 E1.73256
G1 X114.407 Y93.300 E1.76487
G1 X114.464 Y92.803 E1.78787
G1 X114.661 Y93.001 E1.80073
G92 E0
G1 X104.115 Y93.352 F7800.000
G1 X104.115 Y93.352 F7800.000
G1 X105.733 Y99.583 F7800.000
G1 X113.347 Y107.197 E0.49490 F540.000
G1 X112.793 Y107.197 E0.52036
G1 X111.955 Y106.359 E0.57485
G92 E0
G1 X105.115 Y99.984 F7800.000
G1 X105.115 Y108.648 F7800.000
G1 X99.427 Y106.030 F7800.000
G1 X98.840 Y97.357 F7800.000
G1 X95.159 Y96.715 F7800.000
G1 X88.981 Y96.715 F7800.000
G1 X86.310 Y99.386 F7800.000
G1 X84.464 Y96.070 F7800.000
G1 X84.464 Y92.577 E0.15806 F378.000
G1 X96.028 Y92.577 E0.68132
G1 X96.028 Y93.819 E0.73752
G1 X86.085 Y93.819 E1.18743 F378.000
G1 X86.085 Y99.611 E1.44952
G1 X94.934 Y99.611 E1.84993
G1 X94.934 Y100.831 E1.90513
G1 X86.085 Y100.831 E2.30554
G1 X86.085 Y106.181 E2.54763
G1 X95.584 Y106.181 E2.97745
G1 X95.584 Y107.423 E3.03365
G1 X84.464 Y107.423 E3.53682
G1 X84.464 Y96.301 E4.04008
G1 X85.859 Y93.976 F7800.000
G1 X84.708 Y92.825 E4.11378 F540.000
G1 X84.690 Y93.353 E4.13769
G1 X85.859 Y94.522 E4.21254
G1 X85.859 Y95.067 E4.23724
G1 X84.690 Y93.898 E4.31209
G1 X84.690 Y94.444 E4.33680
G1 X85.859 Y95.613 E4.41165
G1 X85.859 Y96.159 E4.43635
G1 X84.690 Y94.990 E4.51120
G1 X84.690 Y95.535 E4.53591
G1 X85.859 Y96.704 E4.61076
G1 X85.859 Y97.250 E4.63546
G1 X84.690 Y96.081 E4.71031
G1 X84.690 Y96.626 E4.73501
G1 X85.859 Y97.796 E4.80987
G1 X85.859 Y98.341 E4.83457
G1 X84.690 Y97.172 E4.90942
G1 X84.690 Y97.718 E4.93412
G1 X85.859 Y98.887 E5.00897
G1 X85.859 Y99.432 E5.03368
G1 X84.690 Y98.263 E5.10853
G1 X84.690 Y98.809 E5.13323
G1 X86.486 Y100.605 E5.24822
G1 X87.031 Y100.605 E5.27292
G1 X86.263 Y99.837 E5.32210
G1 X86.809 Y99.837 E5.34680
G1 X87.577 Y100.605 E5.39598
G1 X88.123 Y100.605 E5.42068
G1 X87.354 Y99.837 E5.46986
G1 X87.900 Y99.837 E5.49456
G1 X88.668 Y100.605 E5.54374
G1 X89.214 Y100.605 E5.56844
G1 X88.446 Y99.837 E5.61762
G1 X88.991 Y99.837 E5.64232
G1 X89.759 Y100.605 E5.69150
G1 X90.305 Y100.605 E5.71620
G1 X89.537 Y99.837 E5.76538
G1 X90.083 Y99.837 E5.79008
G1 X90.851 Y100.605 E5.83926
G1 X91.396 Y100.605 E5.86396
G1 X90.628 Y99.837 E5.91314
G1 X91.174 Y99.837 E5.93784
G1 X91.942 Y100.605 E5.98702
G1 X92.488 Y100.605 E6.01172
G1 X91.720 Y99.837 E6.06090
G1 X92.265 Y99.837 E6.08560
G1 X93.033 Y100.605 E6.13478
G1 X93.579 Y100.605 E6.15948
G1 X92.811 Y99.837 E6.20865
G1 X93.356 Y99.837 E6.23336
G1 X94.125 Y100.605 E6.28253
G1 X94.670 Y100.605 E6.30724
G1 X93.902 Y99.837 E6.35641
G1 X94.448 Y99.837 E6.38112
G1 X94.708 Y100.097 E6.39777
G92 E0
G1 X85.310 Y106.648 F7800.000
G1 X85.310 Y106.648 F7800.000
G1 X94.470 Y106.407 F7800.000
G1 X95.260 Y107.197 E0.05059 F540.000
G1 X95.358 Y106.749 E0.07135
G1 X95.016 Y106.407 E0.09324
G1 X94.715 Y107.197 F7800.000
G1 X93.924 Y106.407 E0.14383 F540.000
G1 X93.379 Y106.407 E0.16853
G1 X94.169 Y107.197 E0.21912
G1 X93.623 Y107.197 E0.24382
G1 X92.833 Y106.407 E0.29441
G1 X92.288 Y106.407 E0.31911
G1 X93.078 Y107.197 E0.36969
G1 X92.532 Y107.197 E0.39440
G1 X91.742 Y106.407 E0.44498
G1 X91.196 Y106.407 E0.46968
G1 X91.986 Y107.197 E0.52027
G1 X91.441 Y107.197 E0.54497
G1 X90.651 Y106.407 E0.59556
G1 X90.105 Y106.407 E0.62026
G1 X90.895 Y107.197 E0.67085
G1 X90.350 Y107.197 E0.69555
G1 X89.559 Y106.407 E0.74613
G1 X89.014 Y106.407 E0.77084
G1 X89.804 Y107.197 E0.82142
G1 X89.258 Y107.197 E0.84612
G1 X88.468 Y106.407 E0.89671
G1 X87.923 Y106.407 E0.92141
G1 X88.713 Y107.197 E0.97200
G1 X88.167 Y107.197 E0.99670
G1 X87.377 Y106.407 E1.04729
G1 X86.831 Y106.407 E1.07199
G1 X87.621 Y107.197 E1.12257
G1 X87.076 Y107.197 E1.14728
G1 X86.286 Y106.407 E1.19786
G1 X85.859 Y106.526 E1.21792
G1 X84.690 Y105.357 E1.29277
G1 X84.690 Y105.902 E1.31748
G1 X85.984 Y107.197 E1.40038
G1 X86.530 Y107.197 E1.42508
G1 X85.740 Y106.407 E1.47567
G1 X85.859 Y105.980 E1.49573
G1 X84.690 Y104.811 E1.57058
G1 X84.690 Y104.265 E1.59528
G1 X85.859 Y105.434 E1.67013
G1 X85.859 Y104.889 E1.69484
G1 X84.690 Y103.720 E1.76969
G1 X84.690 Y103.174 E1.79439
G1 X85.859 Y104.343 E1.86924
G1 X85.859 Y103.798 E1.89394
G1 X84.690 Y102.628 E1.96880
G1 X84.690 Y102.083 E1.99350
G1 X85.859 Y103.252 E2.06835
G1 X85.859 Y102.706 E2.09305
G1 X84.690 Y101.537 E2.16790
G1 X84.690 Y100.992 E2.19261
G1 X85.859 Y102.161 E2.26746
G1 X85.859 Y101.615 E2.29216
G1 X84.690 Y100.446 E2.36701
G1 X84.690 Y99.900 E2.39172
G1 X85.859 Y101.069 E2.46657
G1 X85.940 Y100.605 E2.48791
G1 X84.690 Y99.355 E2.56797
G1 X86.021 Y93.593 F7800.000
G1 X85.231 Y92.803 E2.61855 F540.000
G1 X85.777 Y92.803 E2.64325
G1 X86.567 Y93.593 E2.69384
G1 X87.113 Y93.593 E2.71854
G1 X86.322 Y92.803 E2.76913
G1 X86.868 Y92.803 E2.79383
G1 X87.658 Y93.593 E2.84441
G1 X88.204 Y93.593 E2.86911
G1 X87.414 Y92.803 E2.91970
G1 X87.959 Y92.803 E2.94440
G1 X88.749 Y93.593 E2.99499
G1 X89.295 Y93.593 E3.01969
G1 X88.505 Y92.803 E3.07027
G1 X89.051 Y92.803 E3.09498
G1 X89.841 Y93.593 E3.14556
G1 X90.386 Y93.593 E3.17026
G1 X89.596 Y92.803 E3.22085
G1 X90.142 Y92.803 E3.24555
G1 X90.932 Y93.593 E3.29614
G1 X91.478 Y93.593 E3.32084
G1 X90.687 Y92.803 E3.37142
G1 X91.233 Y92.803 E3.39613
G1 X92.023 Y93.593 E3.44671
G1 X92.569 Y93.593 E3.47141
G1 X91.779 Y92.803 E3.52200
G1 X92.324 Y92.803 E3.54670
G1 X93.114 Y93.593 E3.59729
G1 X93.660 Y93.593 E3.62199
G1 X92.870 Y92.803 E3.67257
G1 X93.416 Y92.803 E3.69728
G1 X94.206 Y93.593 E3.74786
G1 X94.751 Y93.593 E3.77256
G1 X93.961 Y92.803 E3.82315
G1 X94.507 Y92.803 E3.84785
G1 X95.297 Y93.593 E3.89844
G1 X95.802 Y93.552 E3.92136
G1 X95.053 Y92.803 E3.96933
G1 X95.598 Y92.803 E3.99404
G1 X95.802 Y93.007 E4.00707
G1 X85.310 Y93.352 F7800.000
G1 X85.310 Y93.352 F7800.000
G1 X85.274 Y93.388 F7800.000
G1 X85.239 Y93.352 F7800.000
G1 X84.690 Y106.448 F7800.000
G1 X85.439 Y107.197 E4.05504 F540.000
G1 X84.893 Y107.197 E4.07974
G1 X84.690 Y106.993 E4.09278
M106 S255
G92 E0
G1 Z0.600 F7800.000
G1 X114.468 Y92.352 F7800.000
G1 X107.803 Y100.310 E3.11048 F600.000
G1 X107.356 Y100.775 E3.30375
G1 X107.806 Y101.587 E3.58188
G1 X113.669 Y107.648 E6.10884
G92 E0
G1 X104.115 Y106.648 F7800.000
G1 X104.115 Y106.648 F7800.000
G1 X105.012 Y102.575 F7800.000
G1 X104.080 Y98.214 E1.33630 F600.000
G1 X104.080 Y92.352 E3.09283
G1 X104.080 Y107.648 F7800.000
G1 X104.080 Y99.984 E5.38932 F600.000
G1 X104.269 Y99.099 E5.66049
G1 X104.439 Y99.099 E5.71145
G1 X105.626 Y99.495 E6.08643
G1 X106.613 Y100.377 E6.48307
G1 X109.081 Y101.699 E7.32204
G92 E0
G1 X105.115 Y98.214 F7800.000
G1 X105.115 Y98.214 F7800.000
G1 X106.832 Y97.365 F7800.000
G1 X108.232 Y93.468 F7800.000
G1 X107.115 Y92.352 F7800.000
G1 X105.115 Y91.352 F7800.000
G1 X103.044 Y91.352 F7800.000
G1 X101.044 Y92.352 F7800.000
G1 X99.649 Y93.748 F7800.000
G1 X99.649 Y94.044 F7800.000
G1 X96.253 Y94.044 F7800.000
G1 X96.253 Y93.198 F7800.000
G1 X86.310 Y93.198 E2.97938 F600.000
G1 X85.354 Y93.468 E3.27683
G1 X85.274 Y94.044 E3.45118
G1 X85.274 Y99.386 E5.05189
G1 X86.145 Y103.706 E6.37226
G1 X85.310 Y106.648 F7800.000
G1 X85.310 Y106.648 F7800.000
G1 X95.809 Y106.802 F7800.000
G1 X86.310 Y106.802 E9.21860 F600.000
G1 X85.354 Y106.532 E9.51604
G1 X85.274 Y105.956 E9.69040
G1 X85.274 Y101.056 E11.15866
G1 X85.443 Y100.221 E11.41390
G1 X95.159 Y100.221 E14.32532
G92 E0
G1 Z0.900 F7800.000
G1 X114.468 Y92.352 F7800.000
G1 X107.803 Y100.310 E3.11048 F600.000
G1 X107.356 Y100.775 E3.30375
G1 X107.806 Y101.587 E3.58188
G1 X113.669 Y107.648 E6.10884
G92 E0
G1 X104.115 Y106.648 F7800.000
G1 X104.115 Y106.648 F7800.000
G1 X105.012 Y102.575 F7800.000
G1 X104.080 Y98.214 E1.33630 F600.000
G1 X104.080 Y92.352 E3.09283
G1 X104.080 Y107.648 F7800.000
G1 X104.080 Y99.984 E5.38932 F600.000
G1 X104.269 Y99.099 E5.66049
G1 X104.439 Y99.099 E5.71145
G1 X105.626 Y99.495 E6.08643
G1 X106.613 Y100.377 E6.48307
G1 X109.081 Y101.699 E7.32204
G92 E0
G1 X105.115 Y98.214 F7800.000
G1 X105.115 Y98.214 F7800.000
G1 X106.832 Y97.365 F7800.000
G1 X108.232 Y93.468 F7800.000
G1 X107.115 Y92.352 F7800.000
G1 X105.115 Y91.352 F7800.000
G1 X103.044 Y91.352 F7800.000
G1 X101.044 Y92.352 F7800.000
G1 X99.649 Y93.748 F7800.000
G1 X99.649 Y94.044 F7800.000
G1 X96.253 Y94.044 F7800.000
G1 X96.253 Y93.198 F7800.000
G1 X86.310 Y93.198 E2.97938 F600.000
G1 X85.354 Y93.468 E3.27683
G1 X85.274 Y94.044 E3.45118
G1 X85.274 Y99.386 E5.05189
G1 X86.145 Y103.706 E6.37226
G1 X85.310 Y106.648 F7800.000
G1 X85.310 Y106.648 F7800.000
G1 X95.809 Y106.802 F7800.000
G1 X86.310 Y106.802 E9.21860 F600.000
G1 X85.354 Y106.532 E9.51604
G1 X85.274 Y105.956 E9.69040
G1 X85.274 Y101.056 E11.15866
G1 X85.443 Y100.221 E11.41390
G1 X95.159 Y100.221 E14.32532
G92 E0
G1 Z1.200 F7800.000
G1 X114.468 Y92.352 F7800.000
G1 X107.803 Y100.310 E3.11048 F600.000
G1 X107.356 Y100.775 E3.30375
G1 X107.806 Y101.587 E3.58188
G1 X113.669 Y107.648 E6.10884
G92 E0
G1 X104.115 Y106.648 F7800.000
G1 X104.115 Y106.648 F7800.000
G1 X105.012 Y102.575 F7800.000
G1 X104.080 Y98.214 E1.33630 F600.000
G1 X104.080 Y92.352 E3.09283
G1 X104.080 Y107.648 F7800.000
G1 X104.080 Y99.984 E5.38932 F600.000
G1 X104.269 Y99.099 E5.66049
G1 X104.439 Y99.099 E5.71145
G1 X105.626 Y99.495 E6.08643
G1 X106.613 Y100.377 E6.48307
G1 X109.081 Y101.699 E7.32204
G92 E0
G1 X105.115 Y98.214 F7800.000
G1 X105.115 Y98.214 F7800.000
G1 X106.832 Y97.365 F7800.000
G1 X108.232 Y93.468 F7800.000
G1 X107.115 Y92.352 F7800.000
G1 X105.115 Y91.352 F7800.000
G1 X103.044 Y91.352 F7800.000
G1 X101.044 Y92.352 F7800.000
G1 X99.649 Y93.748 F7800.000
G1 X99.649 Y94.044 F7800.000
G1 X96.253 Y94.044 F7800.000
G1 X96.253 Y93.198 F7800.000
G1 X86.310 Y93.198 E2.97938 F600.000
G1 X85.354 Y93.468 E3.27683
G1 X85.274 Y94.044 E3.45118
G1 X85.274 Y99.386 E5.05189
G1 X86.145 Y103.706 E6.37226
G1 X85.310 Y106.648 F7800.000
G1 X85.310 Y106.648 F7800.000
G1 X95.809 Y106.802 F7800.000
G1 X86.310 Y106.802 E9.21860 F600.000
G1 X85.354 Y106.532 E9.51604
G1 X85.274 Y105.956 E9.69040
G1 X85.274 Y101.056 E11.15866
G1 X85.443 Y100.221 E11.41390
G1 X95.159 Y100.221 E14.32532
G92 E0
G1 Z1.500 F7800.000
G1 X114.468 Y92.352 F7800.000
G1 X107.803 Y100.310 E3.11048 F600.000
G1 X107.356 Y100.775 E3.30375
G1 X107.806 Y101.587 E3.58188
G1 X113.669 Y107.648 E6.10884
G92 E0
G1 X104.115 Y106.648 F7800.000
G1 X104.115 Y106.648 F7800.000
G1 X105.012 Y102.575 F7800.000
G1 X104.080 Y98.214 E1.33630 F600.000
G1 X104.080 Y92.352 E3.09283
G1 X104.080 Y107.648 F7800.000
G1 X104.080 Y99.984 E5.38932 F600.000
G1 X104.269 Y99.099 E5.66049
G1 X104.439 Y99.099 E5.71145
G1 X105.626 Y99.495 E6.08643
G1 X106.613 Y100.377 E6.48307
G1 X109.081 Y101.699 E7.32204
G92 E0
G1 X105.115 Y98.214 F7800.000
G1 X105.115 Y98.214 F7800.000
G1 X106.832 Y97.365 F7800.000
G1 X108.232 Y93.468 F7800.000
G1 X107.115 Y92.352 F7800.000
G1 X105.115 Y91.352 F7800.000
G1 X103.044 Y91.352 F7800.000
G1 X101.044 Y92.352 F7800.000
G1 X99.649 Y93.748 F7800.000
G1 X99.649 Y94.044 F7800.000
G1 X96.253 Y94.044 F7800.000
G1 X96.253 Y93.198 F7800.000
G1 X86.310 Y93.198 E2.97938 F600.000
G1 X85.354 Y93.468 E3.27683
G1 X85.274 Y94.044 E3.45118
G1 X85.274 Y99.386 E5.05189
G1 X86.145 Y103.706 E6.37226
G1 X85.310 Y106.648 F7800.000
G1 X85.310 Y106.648 F7800.000
G1 X95.809 Y106.802 F7800.000
G1 X86.310 Y106.802 E9.21860 F600.000
G1 X85.354 Y106.532 E9.51604
G1 X85.274 Y105.956 E9.69040
G1 X85.274 Y101.056 E11.15866
G1 X85.443 Y100.221 E11.41390
G1 X95.159 Y100.221 E14.32532
G92 E0
G1 Z1.800 F7800.000
G1 X114.468 Y92.352 F7800.000
G1 X107.803 Y100.310 E3.11048 F600.000
G1 X107.356 Y100.775 E3.30375
G1 X107.806 Y101.587 E3.58188
G1 X113.669 Y107.648 E6.10884
G92 E0
G1 X104.115 Y106.648 F7800.000
G1 X104.115 Y106.648 F7800.000
G1 X105.012 Y102.575 F7800.000
G1 X104.080 Y98.214 E1.33630 F600.000
G1 X104.080 Y92.352 E3.09283
G1 X104.080 Y107.648 F7800.000
