; generated by Slic3r 1.2.9 on 2016-03-11 at 01:24:02

; external perimeters extrusion width = 1.54mm
; perimeters extrusion width = 2.62mm
; infill extrusion width = 6.27mm
; solid infill extrusion width = 2.62mm
; top infill extrusion width = 2.62mm

M107
M104 S30 ; set temperature
G28 ; home all axes
G1 Z5 F5000 ; lift nozzle
M302
M92 E10000
M500
M501
G1 E100
M109 S30 ; wait for temperature to be reached
G21 ; set units to millimeters
G90 ; use absolute coordinates
M82 ; use absolute distances for extrusion
G92 E0
G1 Z0.300 F7800.000
G1 X102.202 Y102.524 F7800.000
G1 X102.202 Y92.577 E0.45012 F378.000
G1 X103.595 Y92.577 E0.51315
G1 X103.595 Y102.555 E0.96467
G1 X103.524 Y105.674 E1.10581 F378.000
G1 X103.999 Y105.750 E1.12757
G1 X104.317 Y104.688 E1.17772
G1 X104.921 Y102.851 E1.26527
G1 X108.865 Y92.577 E1.76321
G1 X110.008 Y92.577 E1.81493
G1 X113.898 Y102.853 E2.31210
G1 X114.190 Y103.672 E2.35144
G1 X114.506 Y104.678 E2.39917
G1 X114.794 Y105.690 E2.44680
G1 X115.276 Y105.611 E2.46889
G1 X115.202 Y103.667 E2.55688
G1 X115.191 Y102.557 E2.60713
G1 X115.191 Y92.577 E3.05872
G1 X116.606 Y92.577 E3.12275
G1 X116.606 Y107.423 E3.79452
G1 X114.330 Y107.423 E3.89751
G1 X110.313 Y96.741 E4.41391
G1 X109.863 Y95.324 E4.48117
G1 X109.661 Y94.557 E4.51709
G1 X109.235 Y94.559 E4.53636
G1 X108.830 Y96.083 E4.60771
G1 X108.552 Y96.966 E4.64961
G1 X104.545 Y107.423 E5.15634
G1 X102.202 Y107.423 E5.26233
G1 X102.202 Y102.755 E5.47353
G1 X103.300 Y105.674 F7800.000
G1 X102.428 Y104.802 E5.52955 F540.000
G1 X102.428 Y104.254 E5.55446
G1 X103.312 Y105.138 E5.61127
G1 X103.324 Y104.603 E5.63562
G1 X102.428 Y103.707 E5.69322
G1 X102.428 Y103.159 E5.71812
G1 X103.337 Y104.067 E5.77651
G1 X103.349 Y103.531 E5.80086
G1 X102.428 Y102.611 E5.86004
G1 X102.428 Y102.063 E5.88494
G1 X103.361 Y102.996 E5.94490
G1 X103.369 Y102.456 E5.96943
G1 X102.428 Y101.515 E6.02992
G1 X102.428 Y100.967 E6.05482
G1 X103.369 Y101.909 E6.11532
G1 X103.369 Y101.361 E6.14022
G1 X102.428 Y100.420 E6.20072
G1 X102.428 Y99.872 E6.22562
G1 X103.369 Y100.813 E6.28611
G1 X103.369 Y100.265 E6.31102
G1 X102.428 Y99.324 E6.37151
G1 X102.428 Y98.776 E6.39641
G1 X103.369 Y99.717 E6.45691
G1 X103.369 Y99.169 E6.48181
G1 X102.428 Y98.228 E6.54231
G1 X102.428 Y97.680 E6.56721
G1 X103.369 Y98.622 E6.62770
G1 X103.369 Y98.074 E6.65260
G1 X102.428 Y97.133 E6.71310
G1 X102.428 Y96.585 E6.73800
G1 X103.369 Y97.526 E6.79850
G1 X103.369 Y96.978 E6.82340
G1 X102.428 Y96.037 E6.88389
G1 X102.428 Y95.489 E6.90880
G1 X103.369 Y96.430 E6.96929
G1 X103.369 Y95.882 E6.99419
G1 X102.428 Y94.941 E7.05469
G1 X102.428 Y94.394 E7.07959
G1 X103.369 Y95.335 E7.14009
G1 X103.369 Y94.787 E7.16499
G1 X102.428 Y93.846 E7.22548
G1 X102.428 Y93.298 E7.25038
G1 X103.369 Y94.239 E7.31088
G1 X103.369 Y93.691 E7.33578
G1 X102.481 Y92.803 E7.39288
G1 X103.029 Y92.803 E7.41778
G1 X103.369 Y93.143 E7.43966
G92 E0
G1 X109.232 Y93.784 F7800.000
G1 X109.232 Y93.784 F7800.000
G1 X109.488 Y94.332 F7800.000
G1 X108.707 Y93.551 E0.05020 F540.000
G1 X108.556 Y93.947 E0.06948
G1 X109.051 Y94.443 E0.10134
G1 X108.936 Y94.875 E0.12169
G1 X108.404 Y94.343 E0.15592
G1 X108.252 Y94.739 E0.17519
G1 X108.821 Y95.308 E0.21179
G1 X108.706 Y95.741 E0.23215
G1 X108.100 Y95.135 E0.27112
G1 X107.948 Y95.530 E0.29039
G1 X108.587 Y96.170 E0.33150
G1 X108.456 Y96.587 E0.35136
G1 X107.796 Y95.926 E0.39381
G1 X107.644 Y96.322 E0.41308
G1 X108.322 Y97.000 E0.45668
G1 X108.170 Y97.396 E0.47596
G1 X107.492 Y96.718 E0.51958
G1 X107.340 Y97.114 E0.53885
G1 X108.019 Y97.793 E0.58248
G1 X107.867 Y98.189 E0.60176
G1 X107.188 Y97.510 E0.64540
G1 X107.036 Y97.906 E0.66467
G1 X107.715 Y98.585 E0.70832
G1 X107.563 Y98.981 E0.72760
G1 X106.884 Y98.301 E0.77127
G1 X106.732 Y98.697 E0.79054
G1 X107.411 Y99.377 E0.83422
G1 X107.260 Y99.773 E0.85350
G1 X106.580 Y99.093 E0.89718
G1 X106.428 Y99.489 E0.91646
G1 X107.108 Y100.169 E0.96016
G1 X106.956 Y100.565 E0.97944
G1 X106.276 Y99.885 E1.02315
G1 X106.124 Y100.281 E1.04243
G1 X106.804 Y100.961 E1.08615
G1 X106.653 Y101.357 E1.10543
G1 X105.972 Y100.677 E1.14917
G1 X105.820 Y101.072 E1.16844
G1 X106.501 Y101.753 E1.21219
G1 X106.349 Y102.149 E1.23147
G1 X105.668 Y101.468 E1.27523
G1 X105.516 Y101.864 E1.29450
G1 X106.197 Y102.545 E1.33828
G1 X106.046 Y102.941 E1.35756
G1 X105.364 Y102.260 E1.40134
G1 X105.212 Y102.656 E1.42062
G1 X105.894 Y103.337 E1.46441
G1 X105.742 Y103.733 E1.48369
G1 X105.068 Y103.059 E1.52702
G1 X104.932 Y103.472 E1.54675
G1 X105.590 Y104.129 E1.58904
G1 X105.438 Y104.525 E1.60832
G1 X104.797 Y103.884 E1.64957
G1 X104.661 Y104.296 E1.66929
G1 X105.287 Y104.922 E1.70950
G1 X105.135 Y105.318 E1.72878
G1 X104.526 Y104.709 E1.76793
G1 X104.400 Y105.130 E1.78793
G1 X104.983 Y105.714 E1.82544
G1 X104.831 Y106.110 E1.84472
G1 X104.273 Y105.551 E1.88061
G1 X104.147 Y105.973 E1.90061
G1 X104.680 Y106.506 E1.93486
G1 X104.528 Y106.902 E1.95414
G1 X103.547 Y105.921 E2.01721
G1 X104.275 Y107.197 F7800.000
G1 X102.428 Y105.350 E2.13594 F540.000
G1 X102.428 Y105.898 E2.16084
G1 X103.727 Y107.197 E2.24436
G1 X103.180 Y107.197 E2.26926
G1 X102.428 Y106.446 E2.31756
G1 X102.428 Y106.993 E2.34246
G1 X102.632 Y107.197 E2.35555
G92 E0
G1 X104.012 Y106.648 F7800.000
G1 X104.012 Y106.648 F7800.000
G1 X103.972 Y106.590 F7800.000
G1 X104.052 Y106.544 F7800.000
G1 X113.105 Y103.427 F7800.000
G1 X114.186 Y104.508 E0.06949 F540.000
G1 X113.435 Y104.305 E0.10484
G1 X114.418 Y105.287 E0.16800
G1 X113.765 Y105.183 E0.19804
G1 X114.636 Y106.053 E0.25399
G1 X115.003 Y105.872 E0.27259
G1 X116.327 Y107.197 E0.35774
G1 X116.380 Y106.702 E0.38036
G1 X115.473 Y105.795 E0.43870
G1 X115.492 Y105.266 E0.46276
G1 X116.380 Y106.154 E0.51988
G1 X116.380 Y105.607 E0.54478
G1 X115.470 Y104.696 E0.60328
G1 X115.449 Y104.127 E0.62918
G1 X116.380 Y105.059 E0.68908
G1 X116.380 Y104.511 E0.71398
G1 X115.428 Y103.558 E0.77522
G1 X115.422 Y103.005 E0.80036
G1 X116.380 Y103.963 E0.86194
G1 X116.380 Y103.415 E0.88685
G1 X115.417 Y102.452 E0.94876
G1 X115.417 Y101.904 E0.97366
G1 X116.380 Y102.867 E1.03557
G1 X116.380 Y102.320 E1.06047
G1 X115.417 Y101.356 E1.12238
G1 X115.417 Y100.809 E1.14728
G1 X116.380 Y101.772 E1.20919
G1 X116.380 Y101.224 E1.23409
G1 X115.417 Y100.261 E1.29600
G1 X115.417 Y99.713 E1.32090
G1 X116.380 Y100.676 E1.38281
G1 X116.380 Y100.128 E1.40771
G1 X115.417 Y99.165 E1.46962
G1 X115.417 Y98.617 E1.49452
G1 X116.380 Y99.580 E1.55643
G1 X116.380 Y99.033 E1.58133
G1 X115.417 Y98.070 E1.64324
G1 X115.417 Y97.522 E1.66814
G1 X116.380 Y98.485 E1.73005
G1 X116.380 Y97.937 E1.75495
G1 X115.417 Y96.974 E1.81686
G1 X115.417 Y96.426 E1.84176
G1 X116.380 Y97.389 E1.90367
G1 X116.380 Y96.841 E1.92858
G1 X115.417 Y95.878 E1.99049
G1 X115.417 Y95.330 E2.01539
G1 X116.380 Y96.293 E2.07730
G1 X116.380 Y95.746 E2.10220
G1 X115.417 Y94.783 E2.16411
G1 X115.417 Y94.235 E2.18901
G1 X116.380 Y95.198 E2.25092
G1 X116.380 Y94.650 E2.27582
G1 X115.417 Y93.687 E2.33773
G1 X115.417 Y93.139 E2.36263
G1 X116.380 Y94.102 E2.42454
G1 X116.380 Y93.554 E2.44944
G1 X115.629 Y92.803 E2.49774
G1 X116.177 Y92.803 E2.52265
G1 X116.380 Y93.007 E2.53573
G92 E0
G1 X109.635 Y93.782 F7800.000
G1 X109.635 Y93.782 F7800.000
G1 X110.946 Y95.789 F7800.000
G1 X109.993 Y94.836 E0.06126 F540.000
G1 X110.612 Y94.908 E0.08959
G1 X108.859 Y93.155 E0.20226
G1 X109.055 Y92.803 E0.22057
G1 X110.278 Y94.026 E0.29921
G1 X109.945 Y93.145 F7800.000
G1 X109.603 Y92.803 E0.32117 F540.000
G1 X110.222 Y95.613 F7800.000
G1 X111.280 Y96.671 E0.38915 F540.000
G1 X110.793 Y97.280 F7800.000
G1 X111.947 Y98.434 E0.46333 F540.000
G1 X111.454 Y99.036 F7800.000
G1 X112.615 Y100.197 E0.53796 F540.000
G1 X112.114 Y100.792 F7800.000
G1 X113.282 Y101.960 E0.61305 F540.000
G1 X112.775 Y102.549 F7800.000
G1 X113.926 Y103.700 E0.68706 F540.000
G1 X113.616 Y102.842 F7800.000
G1 X112.444 Y101.670 E0.76237 F540.000
G1 X112.948 Y101.079 F7800.000
G1 X111.784 Y99.914 E0.83723 F540.000
G1 X112.281 Y99.316 F7800.000
G1 X111.123 Y98.158 E0.91164 F540.000
G1 X111.613 Y97.553 F7800.000
G1 X110.476 Y96.416 E0.98472 F540.000
G1 X114.096 Y106.061 F7800.000
G1 X115.232 Y107.197 E1.05776 F540.000
G1 X115.780 Y107.197 E1.08266
G1 X114.533 Y105.950 E1.16281
G1 X114.426 Y106.939 F7800.000
G1 X114.684 Y107.197 E1.17941 F540.000
G92 E0
G1 X110.100 Y96.815 F7800.000
G1 X109.474 Y97.312 F7800.000
G1 X106.075 Y108.175 F7800.000
G1 X99.977 Y107.648 F7800.000
G1 X98.033 Y99.386 F7800.000
G1 X94.089 Y96.715 F7800.000
G1 X87.911 Y96.715 F7800.000
G1 X85.240 Y99.386 F7800.000
G1 X83.394 Y101.695 F7800.000
G1 X83.394 Y92.577 E0.41257 F378.000
G1 X94.958 Y92.577 E0.93583
G1 X94.958 Y93.819 E0.99203
G1 X85.015 Y93.819 E1.44195 F378.000
G1 X85.015 Y99.611 E1.70403
G1 X93.864 Y99.611 E2.10444
G1 X93.864 Y100.831 E2.15965
G1 X85.015 Y100.831 E2.56006
G1 X85.015 Y106.181 E2.80214
G1 X94.514 Y106.181 E3.23196
G1 X94.514 Y107.423 E3.28816
G1 X83.394 Y107.423 E3.79133
G1 X83.394 Y101.926 E4.04008
G1 X83.620 Y99.355 F7800.000
G1 X84.870 Y100.605 E4.12014 F540.000
G1 X84.789 Y101.069 E4.14148
G1 X83.620 Y99.900 E4.21633
G1 X83.620 Y100.446 E4.24103
G1 X84.789 Y101.615 E4.31589
G1 X84.789 Y102.161 E4.34059
G1 X83.620 Y100.992 E4.41544
G1 X83.620 Y101.537 E4.44014
G1 X84.789 Y102.706 E4.51499
G1 X84.789 Y103.252 E4.53970
G1 X83.620 Y102.083 E4.61455
G1 X83.620 Y102.628 E4.63925
G1 X84.789 Y103.798 E4.71410
G1 X84.789 Y104.343 E4.73881
G1 X83.620 Y103.174 E4.81366
G1 X83.620 Y103.720 E4.83836
G1 X84.789 Y104.889 E4.91321
G1 X84.789 Y105.434 E4.93791
G1 X83.620 Y104.265 E5.01277
G1 X83.620 Y104.811 E5.03747
G1 X84.789 Y105.980 E5.11232
G1 X84.670 Y106.407 E5.13238
G1 X85.460 Y107.197 E5.18297
G1 X84.914 Y107.197 E5.20767
G1 X83.620 Y105.902 E5.29057
G1 X83.620 Y105.357 E5.31527
G1 X84.789 Y106.526 E5.39012
G1 X85.216 Y106.407 E5.41019
G1 X86.006 Y107.197 E5.46077
G1 X86.551 Y107.197 E5.48547
G1 X85.761 Y106.407 E5.53606
G1 X86.307 Y106.407 E5.56076
G1 X87.097 Y107.197 E5.61135
G1 X87.643 Y107.197 E5.63605
G1 X86.853 Y106.407 E5.68664
G1 X87.398 Y106.407 E5.71134
G1 X88.188 Y107.197 E5.76192
G1 X88.734 Y107.197 E5.78663
G1 X87.944 Y106.407 E5.83721
G1 X88.489 Y106.407 E5.86191
G1 X89.280 Y107.197 E5.91250
G1 X89.825 Y107.197 E5.93720
G1 X89.035 Y106.407 E5.98779
G1 X89.581 Y106.407 E6.01249
G1 X90.371 Y107.197 E6.06308
G1 X90.916 Y107.197 E6.08778
G1 X90.126 Y106.407 E6.13836
G1 X90.672 Y106.407 E6.16307
G1 X91.462 Y107.197 E6.21365
G1 X92.008 Y107.197 E6.23835
G1 X91.218 Y106.407 E6.28894
G1 X91.763 Y106.407 E6.31364
G1 X92.553 Y107.197 E6.36423
G1 X93.099 Y107.197 E6.38893
G1 X92.309 Y106.407 E6.43952
G1 X92.854 Y106.407 E6.46422
G1 X93.645 Y107.197 E6.51480
G1 X93.400 Y106.407 F7800.000
G1 X94.190 Y107.197 E6.56539 F540.000
G1 X94.288 Y106.749 E6.58615
G1 X93.946 Y106.407 E6.60805
G92 E0
G1 X84.240 Y106.648 F7800.000
G1 X84.240 Y106.648 F7800.000
G1 X93.638 Y100.097 F7800.000
G1 X93.378 Y99.837 E0.01665 F540.000
G1 X92.832 Y99.837 E0.04135
G1 X93.600 Y100.605 E0.09053
G1 X93.055 Y100.605 E0.11523
G1 X92.286 Y99.837 E0.16441
G1 X91.741 Y99.837 E0.18911
G1 X92.509 Y100.605 E0.23829
G1 X91.963 Y100.605 E0.26299
G1 X91.195 Y99.837 E0.31217
G1 X90.650 Y99.837 E0.33687
G1 X91.418 Y100.605 E0.38605
G1 X90.872 Y100.605 E0.41075
G1 X90.104 Y99.837 E0.45993
G1 X89.558 Y99.837 E0.48463
G1 X90.326 Y100.605 E0.53381
G1 X89.781 Y100.605 E0.55851
G1 X89.013 Y99.837 E0.60769
G1 X88.467 Y99.837 E0.63239
G1 X89.235 Y100.605 E0.68157
G1 X88.689 Y100.605 E0.70627
G1 X87.921 Y99.837 E0.75545
G1 X87.376 Y99.837 E0.78015
G1 X88.144 Y100.605 E0.82932
G1 X87.598 Y100.605 E0.85403
G1 X86.830 Y99.837 E0.90320
G1 X86.284 Y99.837 E0.92791
G1 X87.053 Y100.605 E0.97708
G1 X86.507 Y100.605 E1.00179
G1 X85.739 Y99.837 E1.05096
G1 X85.193 Y99.837 E1.07567
G1 X85.961 Y100.605 E1.12484
G1 X85.416 Y100.605 E1.14954
G1 X83.620 Y98.809 E1.26454
G1 X83.620 Y98.263 E1.28924
G1 X84.789 Y99.432 E1.36409
G1 X84.789 Y98.887 E1.38879
G1 X83.620 Y97.718 E1.46364
G1 X83.620 Y97.172 E1.48835
G1 X84.789 Y98.341 E1.56320
G1 X84.789 Y97.796 E1.58790
G1 X83.620 Y96.626 E1.66275
G1 X83.620 Y96.081 E1.68746
G1 X84.789 Y97.250 E1.76231
G1 X84.789 Y96.704 E1.78701
G1 X83.620 Y95.535 E1.86186
G1 X83.620 Y94.990 E1.88656
G1 X84.789 Y96.159 E1.96142
G1 X84.789 Y95.613 E1.98612
G1 X83.620 Y94.444 E2.06097
G1 X83.620 Y93.898 E2.08567
G1 X84.789 Y95.067 E2.16052
G1 X84.789 Y94.522 E2.18523
G1 X83.620 Y93.353 E2.26008
G1 X83.638 Y92.825 E2.28398
G1 X84.789 Y93.976 E2.35768
G1 X84.951 Y93.593 F7800.000
G1 X84.161 Y92.803 E2.40827 F540.000
G1 X84.707 Y92.803 E2.43297
G1 X85.497 Y93.593 E2.48356
G1 X86.043 Y93.593 E2.50826
G1 X85.252 Y92.803 E2.55884
G1 X85.798 Y92.803 E2.58355
G1 X86.588 Y93.593 E2.63413
G1 X87.134 Y93.593 E2.65883
G1 X86.344 Y92.803 E2.70942
G1 X86.889 Y92.803 E2.73412
G1 X87.679 Y93.593 E2.78471
G1 X88.225 Y93.593 E2.80941
G1 X87.435 Y92.803 E2.85999
G1 X87.981 Y92.803 E2.88470
G1 X88.771 Y93.593 E2.93528
G1 X89.316 Y93.593 E2.95998
G1 X88.526 Y92.803 E3.01057
G1 X89.072 Y92.803 E3.03527
G1 X89.862 Y93.593 E3.08586
G1 X90.408 Y93.593 E3.11056
G1 X89.617 Y92.803 E3.16114
G1 X90.163 Y92.803 E3.18585
G1 X90.953 Y93.593 E3.23643
G1 X91.499 Y93.593 E3.26113
G1 X90.709 Y92.803 E3.31172
G1 X91.254 Y92.803 E3.33642
G1 X92.044 Y93.593 E3.38701
G1 X92.590 Y93.593 E3.41171
G1 X91.800 Y92.803 E3.46229
G1 X92.346 Y92.803 E3.48699
G1 X93.136 Y93.593 E3.53758
G1 X93.681 Y93.593 E3.56228
G1 X92.891 Y92.803 E3.61287
G1 X93.437 Y92.803 E3.63757
G1 X94.227 Y93.593 E3.68815
G1 X94.732 Y93.552 E3.71108
G1 X93.983 Y92.803 E3.75905
G1 X94.528 Y92.803 E3.78375
G1 X94.732 Y93.007 E3.79679
G1 X84.240 Y93.352 F7800.000
G1 X84.240 Y93.352 F7800.000
G1 X84.204 Y93.388 F7800.000
G1 X84.169 Y93.352 F7800.000
G1 X83.620 Y106.448 F7800.000
G1 X84.369 Y107.197 E3.84476 F540.000
G1 X83.823 Y107.197 E3.86946
G1 X83.620 Y106.993 E3.88249
M106 S255
G92 E0
G1 Z0.600 F7800.000
G1 X115.899 Y92.352 F7800.000
G1 X115.899 Y102.554 E3.05685 F600.000
G1 X115.937 Y105.387 E3.90604
G1 X115.638 Y106.455 E4.23827
G1 X115.226 Y106.527 E4.36357
G1 X114.940 Y106.542 E4.44947
G1 X114.228 Y105.643 E4.79314
G1 X113.626 Y103.861 E5.35679
G1 X113.333 Y103.060 E5.61219
G1 X110.875 Y96.547 E7.69831
G1 X110.211 Y94.592 E8.31687
G1 X109.483 Y93.677 E8.66733
G1 X109.434 Y93.644 E8.68488
G1 X108.670 Y94.587 E9.04853
G1 X107.947 Y96.755 E9.73346
G1 X105.526 Y103.066 E11.75884
G1 X104.594 Y105.723 E12.60259
G1 X103.957 Y106.569 E12.91989
G1 X103.581 Y106.559 E13.03285
G1 X103.145 Y106.480 E13.16539
G1 X102.865 Y105.463 E13.48158
G1 X102.899 Y102.547 E14.35514
G1 X102.899 Y92.352 E17.41017
G92 E0
G1 X99.977 Y92.352 F7800.000
G1 X97.183 Y92.352 F7800.000
G1 X95.183 Y92.352 F7800.000
G1 X95.183 Y93.198 F7800.000
G1 X85.240 Y93.198 E2.97938 F600.000
G1 X84.284 Y93.468 E3.27683
G1 X84.204 Y94.044 E3.45118
G1 X84.204 Y99.386 E5.05189
G1 X85.075 Y103.706 E6.37226
G1 X84.240 Y106.648 F7800.000
G1 X84.240 Y106.648 F7800.000
G1 X94.739 Y106.802 F7800.000
G1 X85.240 Y106.802 E9.21860 F600.000
G1 X84.284 Y106.532 E9.51604
G1 X84.204 Y105.956 E9.69040
G1 X84.204 Y101.056 E11.15866
G1 X84.373 Y100.221 E11.41390
G1 X94.089 Y100.221 E14.32532
G92 E0
G1 Z0.900 F7800.000
G1 X115.899 Y92.352 F7800.000
G1 X115.899 Y102.554 E3.05685 F600.000
G1 X115.937 Y105.387 E3.90604
G1 X115.638 Y106.455 E4.23827
G1 X115.226 Y106.527 E4.36357
G1 X114.940 Y106.542 E4.44947
G1 X114.228 Y105.643 E4.79314
G1 X113.626 Y103.861 E5.35679
G1 X113.333 Y103.060 E5.61219
G1 X110.875 Y96.547 E7.69831
G1 X110.211 Y94.592 E8.31687
G1 X109.483 Y93.677 E8.66733
G1 X109.434 Y93.644 E8.68488
G1 X108.670 Y94.587 E9.04854
G1 X107.947 Y96.755 E9.73346
G1 X105.526 Y103.066 E11.75884
G1 X104.594 Y105.723 E12.60259
G1 X103.957 Y106.569 E12.91989
G1 X103.581 Y106.559 E13.03285
G1 X103.145 Y106.480 E13.16539
G1 X102.865 Y105.463 E13.48158
G1 X102.899 Y102.547 E14.35514
G1 X102.899 Y92.352 E17.41017
G92 E0
G1 X99.977 Y92.352 F7800.000
G1 X97.183 Y92.352 F7800.000
G1 X95.183 Y92.352 F7800.000
G1 X95.183 Y93.198 F7800.000
G1 X85.240 Y93.198 E2.97938 F600.000
G1 X84.284 Y93.468 E3.27683
G1 X84.204 Y94.044 E3.45118
G1 X84.204 Y99.386 E5.05189
G1 X85.075 Y103.706 E6.37226
