; generated by Slic3r 1.2.9 on 2016-03-11 at 01:24:04

; external perimeters extrusion width = 1.54mm
; perimeters extrusion width = 2.62mm
; infill extrusion width = 6.27mm
; solid infill extrusion width = 2.62mm
; top infill extrusion width = 2.62mm

M107
M104 S30 ; set temperature
G28 ; home all axes
G1 Z5 F5000 ; lift nozzle
M302
M92 E10000
M500
M501
G1 E100
M109 S30 ; wait for temperature to be reached
G21 ; set units to millimeters
G90 ; use absolute coordinates
M82 ; use absolute distances for extrusion
G92 E0
G1 Z0.300 F7800.000
G1 X102.099 Y102.895 F7800.000
G1 X101.882 Y102.275 E0.02974 F378.000
G1 X101.663 Y100.061 E0.13041
G1 X101.761 Y98.562 E0.19839
G1 X102.053 Y97.196 E0.26163
G1 X102.539 Y95.965 E0.32150
G1 X103.206 Y94.896 E0.37853
G1 X104.045 Y94.011 E0.43366
G1 X105.057 Y93.308 E0.48941
G1 X106.229 Y92.797 E0.54727
G1 X107.545 Y92.489 E0.60847
G1 X109.009 Y92.386 E0.67487
G1 X110.475 Y92.491 E0.74137
G1 X111.772 Y92.802 E0.80171 F378.000
G1 X112.945 Y93.319 E0.85971
G1 X113.962 Y94.028 E0.91583
G1 X114.808 Y94.915 E0.97127
G1 X115.484 Y95.983 E1.02849
G1 X115.979 Y97.209 E1.08832
G1 X116.277 Y98.570 E1.15133
G1 X116.377 Y100.065 E1.21915
G1 X116.278 Y101.563 E1.28709
G1 X115.984 Y102.916 E1.34972
G1 X115.496 Y104.124 E1.40870
G1 X114.825 Y105.169 E1.46488
G1 X113.984 Y106.032 E1.51940
G1 X112.969 Y106.716 E1.57481
G1 X111.796 Y107.214 E1.63246
G1 X110.484 Y107.514 E1.69336
G1 X109.034 Y107.614 E1.75911
G1 X106.870 Y107.390 E1.85755
G1 X105.066 Y106.725 E1.94456
G1 X103.607 Y105.621 E2.02734
G1 X102.531 Y104.124 E2.11076
G1 X102.176 Y103.113 E2.15924
G1 X103.712 Y102.623 F7800.000
G1 X103.479 Y101.890 E2.19404 F378.000
G1 X103.315 Y100.065 E2.27696
G1 X103.480 Y98.242 E2.35977
G1 X103.979 Y96.676 E2.43416
G1 X104.818 Y95.372 E2.50432
G1 X105.960 Y94.394 E2.57237
G1 X107.362 Y93.808 E2.64112
G1 X108.864 Y93.632 E2.70953
G1 X109.009 Y93.615 E2.71612 F378.000
G1 X110.692 Y93.801 E2.79278
G1 X112.108 Y94.368 E2.86179
G1 X113.243 Y95.317 E2.92873
G1 X114.065 Y96.605 E2.99788
G1 X114.553 Y98.190 E3.07291
G1 X114.714 Y100.065 E3.15809
G1 X114.552 Y101.868 E3.24000
G1 X114.059 Y103.408 E3.31315
G1 X113.231 Y104.678 E3.38175
G1 X112.096 Y105.623 E3.44856
G1 X110.692 Y106.188 E3.51707
G1 X109.032 Y106.374 E3.59267
G1 X107.359 Y106.191 E3.66882
G1 X105.945 Y105.634 E3.73756
G1 X104.804 Y104.701 E3.80424
G1 X103.973 Y103.438 E3.87268
G1 X103.783 Y102.843 E3.90095
G1 X103.787 Y103.673 F7800.000
G1 X102.087 Y101.973 E4.01126 F540.000
G1 X102.027 Y101.360 E4.03956
G1 X103.518 Y102.851 E4.13633
G1 X103.259 Y102.039 E4.17546
G1 X101.966 Y100.746 E4.25933
G1 X101.906 Y100.133 E4.28762
G1 X103.203 Y101.430 E4.37180
G1 X103.149 Y100.823 E4.39978
G1 X101.915 Y99.589 E4.47983
G1 X101.949 Y99.070 E4.50370
G1 X103.094 Y100.215 E4.57803
G1 X103.129 Y99.697 E4.60187
G1 X101.983 Y98.551 E4.67625
G1 X102.077 Y98.092 E4.69774
G1 X103.175 Y99.190 E4.76899
G1 X103.221 Y98.683 E4.79235
G1 X102.174 Y97.636 E4.86025
G1 X102.275 Y97.184 E4.88152
G1 X103.282 Y98.191 E4.94686
G1 X103.415 Y97.771 E4.96705
G1 X102.431 Y96.787 E5.03091
G1 X102.588 Y96.391 E5.05047
G1 X103.549 Y97.352 E5.11284
G1 X103.683 Y96.932 E5.13304
G1 X102.748 Y95.998 E5.19368
G1 X102.961 Y95.658 E5.21209
G1 X103.838 Y96.535 E5.26905
G1 X104.055 Y96.199 E5.28741
G1 X103.173 Y95.317 E5.34462
G1 X103.390 Y94.981 E5.36297
G1 X104.271 Y95.862 E5.42014
G1 X104.488 Y95.525 E5.43850
G1 X103.660 Y94.697 E5.49222
G1 X103.936 Y94.421 E5.51017
G1 X104.718 Y95.203 E5.56094
G1 X105.016 Y94.948 E5.57893
G1 X104.213 Y94.144 E5.63109
G1 X104.531 Y93.910 E5.64924
G1 X105.314 Y94.693 E5.70009
G1 X105.612 Y94.438 E5.71809
G1 X104.857 Y93.683 E5.76710
G1 X105.194 Y93.467 E5.78546
G1 X105.920 Y94.193 E5.83259
G1 X106.310 Y94.030 E5.85199
G1 X105.579 Y93.299 E5.89944
G1 X105.964 Y93.131 E5.91872
G1 X106.700 Y93.867 E5.96649
G1 X107.090 Y93.704 E5.98589
G1 X106.366 Y92.980 E6.03287
G1 X106.814 Y92.875 E6.05399
G1 X107.511 Y93.572 E6.09921
G1 X108.006 Y93.514 E6.12208
G1 X107.263 Y92.770 E6.17033
G1 X107.741 Y92.696 E6.19257
G1 X108.501 Y93.456 E6.24186
G1 X108.996 Y93.398 E6.26473
G1 X108.258 Y92.660 E6.31262
G1 X108.774 Y92.623 E6.33638
G1 X109.594 Y93.443 E6.38956
G1 X110.216 Y93.512 E6.41828
G1 X109.347 Y92.643 E6.47468
G1 X109.943 Y92.685 E6.50209
G1 X110.838 Y93.581 E6.56019
G1 X111.308 Y92.945 F7800.000
G1 X113.543 Y95.179 E6.70518 F540.000
G1 X113.400 Y95.037 F7800.000
G1 X115.771 Y97.408 E6.85905 F540.000
G1 X115.926 Y98.116 E6.89232
G1 X114.292 Y96.482 E6.99835
G1 X114.539 Y97.281 E7.03672
G1 X116.061 Y98.803 E7.13548
G1 X116.100 Y99.396 E7.16274
G1 X114.777 Y98.073 E7.24859
G1 X114.829 Y98.678 E7.27645
G1 X116.140 Y99.988 E7.36149
G1 X116.125 Y100.527 E7.38622
G1 X114.881 Y99.283 E7.46695
G1 X114.933 Y99.888 E7.49482
G1 X116.091 Y101.046 E7.56996
G1 X116.057 Y101.565 E7.59382
G1 X114.903 Y100.411 E7.66871
G1 X114.857 Y100.918 E7.69208
G1 X115.963 Y102.023 E7.76382
G1 X115.864 Y102.478 E7.78515
G1 X114.811 Y101.425 E7.85344
G1 X114.751 Y101.918 E7.87622
G1 X115.762 Y102.928 E7.94180
G1 X115.603 Y103.322 E7.96130
G1 X114.617 Y102.337 E8.02525
G1 X114.483 Y102.756 E8.04544
G1 X115.443 Y103.716 E8.10776
G1 X115.278 Y104.103 E8.12709
G1 X114.349 Y103.175 E8.18736
G1 X114.188 Y103.567 E8.20681
G1 X115.062 Y104.440 E8.26349
G1 X114.845 Y104.777 E8.28186
G1 X113.970 Y103.902 E8.33869
G1 X113.752 Y104.236 E8.35703
G1 X114.616 Y105.100 E8.41309
G1 X114.339 Y105.377 E8.43104
G1 X113.533 Y104.571 E8.48332
G1 X113.289 Y104.880 E8.50139
G1 X114.063 Y105.653 E8.55156
G1 X113.786 Y105.930 E8.56950
G1 X112.988 Y105.132 E8.62130
G1 X112.686 Y105.383 E8.63932
G1 X113.457 Y106.153 E8.68933
G1 X113.126 Y106.376 E8.70761
G1 X112.384 Y105.634 E8.75575
G1 X112.054 Y105.857 E8.77403
G1 X112.777 Y106.580 E8.82093
G1 X112.389 Y106.745 E8.84028
G1 X111.660 Y106.016 E8.88758
G1 X111.265 Y106.174 E8.90709
G1 X112.000 Y106.909 E8.95478
G1 X111.585 Y107.047 E8.97486
G1 X110.871 Y106.333 E9.02119
G1 X110.422 Y106.437 E9.04234
G1 X111.135 Y107.150 E9.08860
G1 X110.685 Y107.253 E9.10978
G1 X109.925 Y106.493 E9.15910
G1 X109.428 Y106.549 E9.18206
G1 X110.192 Y107.313 E9.23166
G1 X109.675 Y107.349 E9.25545
G1 X108.925 Y106.600 E9.30408
G1 X108.304 Y106.531 E9.33276
G1 X109.158 Y107.385 E9.38813
G1 X108.548 Y107.328 E9.41624
G1 X107.683 Y106.463 E9.47235
G1 X106.996 Y106.329 E9.50449
G1 X107.931 Y107.264 E9.56517
G1 X107.314 Y107.200 E9.59362
G1 X106.083 Y105.969 E9.67350
G1 X105.684 Y106.676 F7800.000
G1 X102.626 Y103.619 E9.87193 F540.000
G1 X102.327 Y102.766 F7800.000
G1 X106.560 Y107.000 E10.14664 F540.000
G1 X104.029 Y105.574 F7800.000
G1 X103.675 Y105.220 E10.16962 F540.000
G92 E0
G1 X103.272 Y96.343 F7800.000
G1 X103.253 Y96.331 F7800.000
G1 X103.847 Y95.391 F7800.000
G1 X104.051 Y95.131 F7800.000
G1 X111.754 Y93.944 F7800.000
G1 X110.581 Y92.771 E0.07614 F540.000
G1 X112.196 Y93.279 F7800.000
G1 X115.405 Y96.489 E0.28440 F540.000
G1 X114.424 Y94.955 F7800.000
G1 X113.585 Y94.116 E0.33882 F540.000
G92 E0
G1 X101.437 Y100.065 F7800.000
G1 X97.918 Y101.056 F7800.000
G1 X97.746 Y103.094 F7800.000
G1 X94.968 Y103.463 F7800.000
G1 X94.968 Y105.956 F7800.000
G1 X86.116 Y107.423 F7800.000
G1 X83.623 Y107.423 E0.11280 F378.000
G1 X83.623 Y92.577 E0.78457
G1 X95.187 Y92.577 E1.30784
G1 X95.187 Y93.819 E1.36403
G1 X85.244 Y93.819 E1.81395 F378.000
G1 X85.244 Y99.611 E2.07603
G1 X94.093 Y99.611 E2.47644
G1 X94.093 Y100.831 E2.53165
G1 X85.244 Y100.831 E2.93206
G1 X85.244 Y106.181 E3.17414
G1 X94.743 Y106.181 E3.60396
G1 X94.743 Y107.423 E3.66016
G1 X86.347 Y107.423 E4.04008
G1 X83.849 Y106.993 F7800.000
G1 X84.052 Y107.197 E4.05312 F540.000
G1 X84.598 Y107.197 E4.07782
G1 X83.849 Y106.448 E4.12579
G1 X83.849 Y99.355 F7800.000
G1 X85.099 Y100.605 E4.20584 F540.000
G1 X85.018 Y101.069 E4.22718
G1 X83.849 Y99.900 E4.30204
G1 X83.849 Y100.446 E4.32674
G1 X85.018 Y101.615 E4.40159
G1 X85.018 Y102.161 E4.42629
G1 X83.849 Y100.992 E4.50114
G1 X83.849 Y101.537 E4.52585
G1 X85.018 Y102.706 E4.60070
G1 X85.018 Y103.252 E4.62540
G1 X83.849 Y102.083 E4.70025
G1 X83.849 Y102.628 E4.72496
G1 X85.018 Y103.798 E4.79981
G1 X85.018 Y104.343 E4.82451
G1 X83.849 Y103.174 E4.89936
G1 X83.849 Y103.720 E4.92406
G1 X85.018 Y104.889 E4.99892
G1 X85.018 Y105.434 E5.02362
G1 X83.849 Y104.265 E5.09847
G1 X83.849 Y104.811 E5.12317
G1 X85.018 Y105.980 E5.19802
G1 X84.899 Y106.407 E5.21808
G1 X85.689 Y107.197 E5.26867
G1 X85.143 Y107.197 E5.29337
G1 X83.849 Y105.902 E5.37627
G1 X83.849 Y105.357 E5.40098
G1 X85.018 Y106.526 E5.47583
G1 X85.445 Y106.407 E5.49589
G1 X86.235 Y107.197 E5.54648
G1 X86.780 Y107.197 E5.57118
G1 X85.990 Y106.407 E5.62176
G1 X86.536 Y106.407 E5.64647
G1 X87.326 Y107.197 E5.69705
G1 X87.872 Y107.197 E5.72175
G1 X87.082 Y106.407 E5.77234
G1 X87.627 Y106.407 E5.79704
G1 X88.417 Y107.197 E5.84763
G1 X88.963 Y107.197 E5.87233
G1 X88.173 Y106.407 E5.92291
G1 X88.718 Y106.407 E5.94762
G1 X89.509 Y107.197 E5.99820
G1 X90.054 Y107.197 E6.02290
G1 X89.264 Y106.407 E6.07349
G1 X89.810 Y106.407 E6.09819
G1 X90.600 Y107.197 E6.14878
G1 X91.145 Y107.197 E6.17348
G1 X90.355 Y106.407 E6.22407
G1 X90.901 Y106.407 E6.24877
G1 X91.691 Y107.197 E6.29935
G1 X92.237 Y107.197 E6.32406
G1 X91.447 Y106.407 E6.37464
G1 X91.992 Y106.407 E6.39934
G1 X92.782 Y107.197 E6.44993
G1 X93.328 Y107.197 E6.47463
G1 X92.538 Y106.407 E6.52522
G1 X93.083 Y106.407 E6.54992
G1 X93.874 Y107.197 E6.60051
G1 X93.629 Y106.407 F7800.000
G1 X94.419 Y107.197 E6.65109 F540.000
G1 X94.517 Y106.749 E6.67185
G1 X94.175 Y106.407 E6.69375
G92 E0
G1 X84.469 Y106.648 F7800.000
G1 X84.469 Y106.648 F7800.000
G1 X93.867 Y100.097 F7800.000
G1 X93.607 Y99.837 E0.01665 F540.000
G1 X93.061 Y99.837 E0.04135
G1 X93.829 Y100.605 E0.09053
G1 X93.284 Y100.605 E0.11523
G1 X92.515 Y99.837 E0.16441
G1 X91.970 Y99.837 E0.18911
G1 X92.738 Y100.605 E0.23829
G1 X92.192 Y100.605 E0.26299
G1 X91.424 Y99.837 E0.31217
G1 X90.879 Y99.837 E0.33687
G1 X91.647 Y100.605 E0.38605
G1 X91.101 Y100.605 E0.41075
G1 X90.333 Y99.837 E0.45993
G1 X89.787 Y99.837 E0.48463
G1 X90.555 Y100.605 E0.53381
G1 X90.010 Y100.605 E0.55851
G1 X89.242 Y99.837 E0.60769
G1 X88.696 Y99.837 E0.63239
G1 X89.464 Y100.605 E0.68157
G1 X88.918 Y100.605 E0.70627
G1 X88.150 Y99.837 E0.75544
G1 X87.605 Y99.837 E0.78015
G1 X88.373 Y100.605 E0.82932
G1 X87.827 Y100.605 E0.85403
G1 X87.059 Y99.837 E0.90320
G1 X86.513 Y99.837 E0.92791
G1 X87.282 Y100.605 E0.97708
G1 X86.736 Y100.605 E1.00179
G1 X85.968 Y99.837 E1.05096
G1 X85.422 Y99.837 E1.07566
G1 X86.190 Y100.605 E1.12484
G1 X85.645 Y100.605 E1.14954
G1 X83.849 Y98.809 E1.26454
G1 X83.849 Y98.263 E1.28924
G1 X85.018 Y99.432 E1.36409
G1 X85.018 Y98.887 E1.38879
G1 X83.849 Y97.718 E1.46364
G1 X83.849 Y97.172 E1.48835
G1 X85.018 Y98.341 E1.56320
G1 X85.018 Y97.796 E1.58790
G1 X83.849 Y96.626 E1.66275
G1 X83.849 Y96.081 E1.68745
G1 X85.018 Y97.250 E1.76231
G1 X85.018 Y96.704 E1.78701
G1 X83.849 Y95.535 E1.86186
G1 X83.849 Y94.990 E1.88656
G1 X85.018 Y96.159 E1.96141
G1 X85.018 Y95.613 E1.98612
G1 X83.849 Y94.444 E2.06097
G1 X83.849 Y93.898 E2.08567
G1 X85.018 Y95.067 E2.16052
G1 X85.018 Y94.522 E2.18523
G1 X83.849 Y93.353 E2.26008
G1 X83.867 Y92.825 E2.28398
G1 X85.018 Y93.976 E2.35768
G1 X85.180 Y93.593 F7800.000
G1 X84.390 Y92.803 E2.40827 F540.000
G1 X84.936 Y92.803 E2.43297
G1 X85.726 Y93.593 E2.48356
G1 X86.272 Y93.593 E2.50826
G1 X85.481 Y92.803 E2.55884
G1 X86.027 Y92.803 E2.58355
G1 X86.817 Y93.593 E2.63413
G1 X87.363 Y93.593 E2.65883
G1 X86.573 Y92.803 E2.70942
G1 X87.118 Y92.803 E2.73412
G1 X87.908 Y93.593 E2.78471
G1 X88.454 Y93.593 E2.80941
G1 X87.664 Y92.803 E2.85999
G1 X88.210 Y92.803 E2.88470
G1 X89.000 Y93.593 E2.93528
G1 X89.545 Y93.593 E2.95998
G1 X88.755 Y92.803 E3.01057
G1 X89.301 Y92.803 E3.03527
G1 X90.091 Y93.593 E3.08586
G1 X90.637 Y93.593 E3.11056
G1 X89.846 Y92.803 E3.16114
G1 X90.392 Y92.803 E3.18584
G1 X91.182 Y93.593 E3.23643
G1 X91.728 Y93.593 E3.26113
G1 X90.938 Y92.803 E3.31172
G1 X91.483 Y92.803 E3.33642
G1 X92.273 Y93.593 E3.38700
G1 X92.819 Y93.593 E3.41171
G1 X92.029 Y92.803 E3.46229
G1 X92.575 Y92.803 E3.48699
G1 X93.365 Y93.593 E3.53758
G1 X93.910 Y93.593 E3.56228
G1 X93.120 Y92.803 E3.61287
G1 X93.666 Y92.803 E3.63757
G1 X94.456 Y93.593 E3.68815
G1 X94.961 Y93.552 E3.71108
G1 X94.212 Y92.803 E3.75905
G1 X94.757 Y92.803 E3.78375
G1 X94.961 Y93.007 E3.79679
M106 S255
G92 E0
G1 Z0.600 F7800.000
G1 X102.491 Y100.047 F7800.000
G1 X102.596 Y98.678 E0.41153 F600.000
G1 X102.716 Y97.973 E0.62586
G1 X102.858 Y97.439 E0.79152
G1 X103.259 Y96.327 E1.14548
G1 X103.847 Y95.391 E1.47684
G1 X104.162 Y94.989 E1.62985
G1 X104.354 Y94.779 E1.71523
G1 X104.546 Y94.596 E1.79480
G1 X105.405 Y93.933 E2.11989
G1 X105.732 Y93.754 E2.23137
G1 X106.445 Y93.449 E2.46387
G1 X107.091 Y93.240 E2.66725
G1 X107.642 Y93.127 E2.83582
G1 X109.009 Y93.002 E3.24710
G1 X110.364 Y93.123 E3.65472
G1 X110.950 Y93.240 E3.83385
G1 X111.559 Y93.433 E4.02546
G1 X112.316 Y93.752 E4.27153
G1 X112.612 Y93.910 E4.37211
G1 X113.489 Y94.580 E4.70267
G1 X113.671 Y94.750 E4.77748
G1 X113.865 Y94.962 E4.86333
G1 X114.200 Y95.390 E5.02623
G1 X114.792 Y96.339 E5.36129
G1 X115.189 Y97.454 E5.71594
G1 X115.358 Y98.145 E5.92928
G1 X115.441 Y98.688 E6.09399
G1 X115.544 Y100.065 E6.50779
G1 X115.439 Y101.445 E6.92233
G1 X115.319 Y102.140 E7.13364
G1 X115.178 Y102.667 E7.29724
G1 X114.780 Y103.754 E7.64414
G1 X114.195 Y104.668 E7.96932
G1 X113.880 Y105.061 E8.12003
G1 X113.683 Y105.273 E8.20698
G1 X113.495 Y105.446 E8.28337
G1 X112.631 Y106.094 E8.60707
G1 X112.315 Y106.261 E8.71416
G1 X111.585 Y106.563 E8.95086
G1 X110.955 Y106.761 E9.14865
G1 X110.389 Y106.873 E9.32169
G1 X109.045 Y106.992 E9.72602
G1 X107.321 Y106.812 E10.24540
G1 X107.097 Y106.773 E10.31347
G1 X105.735 Y106.264 E10.74920
G1 X105.407 Y106.101 E10.85885
G1 X104.371 Y105.287 E11.25388
G1 X104.154 Y105.088 E11.34188
G1 X103.244 Y103.753 E11.82617
G1 X102.708 Y102.162 E12.32903
G1 X102.666 Y101.938 E12.39747
G1 X102.491 Y100.047 E12.96633
G92 E0
G1 X101.837 Y97.130 F7800.000
G1 X98.983 Y94.540 F7800.000
G1 X99.113 Y94.044 F7800.000
G1 X95.412 Y94.044 F7800.000
G1 X95.412 Y93.198 F7800.000
G1 X85.469 Y93.198 E2.97938 F600.000
G1 X84.513 Y93.468 E3.27683
G1 X84.433 Y94.044 E3.45118
G1 X84.433 Y99.386 E5.05189
G1 X85.304 Y103.706 E6.37226
G1 X84.469 Y106.648 F7800.000
G1 X84.469 Y106.648 F7800.000
G1 X94.968 Y106.802 F7800.000
G1 X85.469 Y106.802 E9.21860 F600.000
G1 X84.513 Y106.532 E9.51604
G1 X84.433 Y105.956 E9.69040
G1 X84.433 Y101.056 E11.15866
G1 X84.602 Y100.221 E11.41390
G1 X94.318 Y100.221 E14.32532
G92 E0
G1 Z0.900 F7800.000
G1 X102.491 Y100.047 F7800.000
G1 X102.596 Y98.678 E0.41153 F600.000
G1 X102.716 Y97.973 E0.62586
G1 X102.858 Y97.439 E0.79152
G1 X103.259 Y96.327 E1.14548
G1 X103.847 Y95.391 E1.47685
G1 X104.162 Y94.989 E1.62985
G1 X104.354 Y94.779 E1.71523
G1 X104.546 Y94.596 E1.79480
G1 X105.405 Y93.933 E2.11989
G1 X105.732 Y93.754 E2.23137
G1 X106.445 Y93.449 E2.46387
G1 X107.091 Y93.240 E2.66725
G1 X107.642 Y93.127 E2.83582
G1 X109.009 Y93.002 E3.24710
G1 X110.364 Y93.123 E3.65472
G1 X110.950 Y93.240 E3.83385
G1 X111.559 Y93.433 E4.02546
G1 X112.316 Y93.752 E4.27153
G1 X112.612 Y93.910 E4.37211
G1 X113.489 Y94.580 E4.70267
G1 X113.671 Y94.750 E4.77748
G1 X113.865 Y94.962 E4.86333
G1 X114.200 Y95.390 E5.02623
G1 X114.792 Y96.339 E5.36129
G1 X115.189 Y97.454 E5.71594
G1 X115.358 Y98.145 E5.92928
G1 X115.441 Y98.688 E6.09399
G1 X115.544 Y100.065 E6.50779
G1 X115.439 Y101.445 E6.92233
G1 X115.319 Y102.140 E7.13364
G1 X115.178 Y102.667 E7.29724
G1 X114.780 Y103.754 E7.64414
G1 X114.195 Y104.668 E7.96932
G1 X113.880 Y105.061 E8.12004
G1 X113.683 Y105.273 E8.20698
G1 X113.495 Y105.446 E8.28337
G1 X112.631 Y106.094 E8.60707
G1 X112.315 Y106.261 E8.71416
G1 X111.585 Y106.563 E8.95086
G1 X110.955 Y106.761 E9.14865
G1 X110.389 Y106.873 E9.32169
G1 X109.045 Y106.992 E9.72602
G1 X107.321 Y106.812 E10.24540
G1 X107.097 Y106.773 E10.31347
G1 X105.735 Y106.264 E10.74920
G1 X105.407 Y106.101 E10.85885
G1 X104.371 Y105.287 E11.25388
G1 X104.154 Y105.088 E11.34188
G1 X103.244 Y103.753 E11.82618
G1 X102.708 Y102.162 E12.32903
