; generated by Slic3r 1.2.9 on 2016-03-11 at 01:24:05

; external perimeters extrusion width = 1.54mm
; perimeters extrusion width = 2.62mm
; infill extrusion width = 6.27mm
; solid infill extrusion width = 2.62mm
; top infill extrusion width = 2.62mm

M107
M104 S30 ; set temperature
G28 ; home all axes
G1 Z5 F5000 ; lift nozzle
M302
M92 E10000
M500
M501
G1 E100
M109 S30 ; wait for temperature to be reached
G21 ; set units to millimeters
G90 ; use absolute coordinates
M82 ; use absolute distances for extrusion
G92 E0
G1 Z0.300 F7800.000
G1 X105.350 Y96.721 F7800.000
G1 X105.350 Y98.556 E0.08303 F378.000
G1 X110.044 Y98.556 E0.29541 F378.000
G1 X111.511 Y98.695 E0.36207
G1 X112.735 Y99.103 E0.42049
G1 X113.736 Y99.777 E0.47512
G1 X114.478 Y100.677 E0.52789
G1 X114.924 Y101.766 E0.58112
G1 X115.075 Y103.055 E0.63986
G1 X114.925 Y104.347 E0.69871
G1 X114.482 Y105.415 E0.75102
G1 X113.746 Y106.273 E0.80216
G1 X112.734 Y106.907 E0.85621
G1 X111.461 Y107.292 E0.91638
G1 X109.913 Y107.423 E0.98668
G1 X103.729 Y107.423 E1.26648
G1 X103.729 Y92.577 E1.93825
G1 X105.350 Y92.577 E2.01160
G1 X105.350 Y96.490 E2.18866
G1 X105.350 Y99.743 F7800.000
G1 X109.779 Y99.743 E2.38906 F378.000
G1 X111.783 Y100.098 E2.48116
G1 X113.038 Y101.210 E2.55703
G1 X113.450 Y103.035 E2.64167
G1 X113.027 Y104.800 E2.72384
G1 X111.740 Y105.872 E2.79961
G1 X109.692 Y106.214 E2.89358
G1 X105.350 Y106.214 E3.09004
G1 X105.350 Y99.974 E3.37239
G1 X105.124 Y97.694 F7800.000
G1 X103.955 Y96.525 E3.44798 F540.000
G1 X103.955 Y95.974 E3.47317
G1 X105.124 Y97.143 E3.54875
G1 X105.124 Y96.592 E3.57394
G1 X103.955 Y95.423 E3.64953
G1 X103.955 Y94.872 E3.67472
G1 X105.124 Y96.041 E3.75030
G1 X105.124 Y95.490 E3.77549
G1 X103.955 Y94.321 E3.85108
G1 X103.955 Y93.770 E3.87627
G1 X105.124 Y94.939 E3.95185
G1 X105.124 Y94.388 E3.97704
G1 X103.955 Y93.219 E4.05263
G1 X104.090 Y92.803 E4.07262
G1 X105.124 Y93.837 E4.13947
G1 X105.124 Y93.286 E4.16466
G1 X104.641 Y92.803 E4.19589
G92 E0
G1 X104.575 Y93.352 F7800.000
G1 X104.575 Y93.352 F7800.000
G1 X112.102 Y99.161 F7800.000
G1 X114.594 Y101.654 E0.16116 F540.000
G1 X114.757 Y102.368 E0.19462
G1 X111.299 Y98.910 E0.41820
G1 X110.691 Y98.852 E0.44614
G1 X111.671 Y99.833 E0.50955
G1 X111.002 Y99.714 E0.54064
G1 X110.082 Y98.795 E0.60010
G1 X109.518 Y98.782 E0.62588
G1 X110.332 Y99.596 E0.67849
G1 X109.702 Y99.517 E0.70750
G1 X108.967 Y98.782 E0.75503
G1 X108.416 Y98.782 E0.78021
G1 X109.151 Y99.517 E0.82774
G1 X108.600 Y99.517 E0.85293
G1 X107.865 Y98.782 E0.90046
G1 X107.314 Y98.782 E0.92565
G1 X108.050 Y99.517 E0.97317
G1 X107.499 Y99.517 E0.99836
G1 X106.763 Y98.782 E1.04589
G1 X106.212 Y98.782 E1.07108
G1 X106.948 Y99.517 E1.11860
G1 X106.397 Y99.517 E1.14379
G1 X105.661 Y98.782 E1.19132
G1 X105.124 Y98.796 E1.21588
G1 X103.955 Y97.627 E1.29147
G1 X103.955 Y97.076 E1.31666
G1 X105.124 Y98.245 E1.39224
G1 X105.110 Y98.782 E1.41681
G1 X105.846 Y99.517 E1.46433
G1 X105.295 Y99.517 E1.48952
G1 X103.955 Y98.178 E1.57611
G1 X103.955 Y98.729 E1.60130
G1 X105.124 Y99.898 E1.67689
G1 X105.124 Y100.449 E1.70208
G1 X103.955 Y99.280 E1.77766
G1 X103.955 Y99.831 E1.80285
G1 X105.124 Y101.000 E1.87844
G1 X105.124 Y101.551 E1.90363
G1 X103.955 Y100.382 E1.97921
G1 X103.955 Y100.933 E2.00440
G1 X105.124 Y102.102 E2.07999
G1 X105.124 Y102.653 E2.10518
G1 X103.955 Y101.484 E2.18076
G1 X103.955 Y102.035 E2.20595
G1 X105.124 Y103.204 E2.28154
G1 X105.124 Y103.755 E2.30673
G1 X103.955 Y102.586 E2.38231
G1 X103.955 Y103.137 E2.40750
G1 X105.124 Y104.306 E2.48309
G1 X105.124 Y104.857 E2.50828
G1 X103.955 Y103.688 E2.58386
G1 X103.955 Y104.239 E2.60905
G1 X105.124 Y105.408 E2.68464
G1 X105.124 Y105.959 E2.70983
G1 X103.955 Y104.790 E2.78541
G1 X103.955 Y105.341 E2.81060
G1 X105.812 Y107.197 E2.93063
G1 X105.261 Y107.197 E2.95582
G1 X103.955 Y105.891 E3.04023
G1 X103.955 Y106.442 E3.06542
G1 X104.710 Y107.197 E3.11421
G1 X104.159 Y107.197 E3.13940
G1 X103.955 Y106.993 E3.15256
G1 X105.606 Y106.440 F7800.000
G1 X106.363 Y107.197 E3.20151 F540.000
G1 X106.914 Y107.197 E3.22670
G1 X106.157 Y106.440 E3.27564
G1 X106.708 Y106.440 E3.30083
G1 X107.465 Y107.197 E3.34978
G1 X108.016 Y107.197 E3.37497
G1 X107.259 Y106.440 E3.42392
G1 X107.810 Y106.440 E3.44911
G1 X108.567 Y107.197 E3.49806
G1 X109.118 Y107.197 E3.52325
G1 X108.361 Y106.440 E3.57220
G1 X108.912 Y106.440 E3.59739
G1 X109.669 Y107.197 E3.64633
G1 X110.201 Y107.178 E3.67069
G1 X109.463 Y106.440 E3.71844
G1 X109.960 Y106.386 E3.74129
G1 X110.709 Y107.136 E3.78976
G1 X111.217 Y107.093 E3.81306
G1 X110.432 Y106.307 E3.86384
G1 X110.904 Y106.228 E3.88573
G1 X111.685 Y107.009 E3.93621
G1 X112.108 Y106.881 E3.95642
G1 X111.376 Y106.150 E4.00371
G1 X111.828 Y106.050 E4.02485
G1 X112.531 Y106.753 E4.07029
G1 X112.901 Y106.572 E4.08912
G1 X112.128 Y105.800 E4.13905
G1 X112.429 Y105.549 E4.15693
G1 X113.239 Y106.360 E4.20933
G1 X113.572 Y106.142 E4.22753
G1 X112.729 Y105.299 E4.28204
G1 X113.030 Y105.048 E4.29992
G1 X113.844 Y105.863 E4.35257
G1 X114.098 Y105.566 E4.37043
G1 X113.259 Y104.727 E4.42468
G1 X113.366 Y104.283 E4.44558
G1 X114.333 Y105.250 E4.50810
G1 X114.495 Y104.860 E4.52737
G1 X113.473 Y103.838 E4.59344
G1 X113.579 Y103.394 E4.61433
G1 X114.656 Y104.471 E4.68396
G1 X114.746 Y104.009 E4.70546
G1 X113.683 Y102.946 E4.77419
G1 X113.522 Y102.234 E4.80755
G1 X114.803 Y103.516 E4.89037
G1 X114.830 Y102.991 E4.91436
G1 X113.361 Y101.523 E5.00931
G1 X113.743 Y100.252 F7800.000
G1 X113.358 Y99.867 E5.03423 F540.000
G92 E0
G1 X105.575 Y98.331 F7800.000
G1 X109.565 Y94.341 F7800.000
G1 X105.575 Y91.352 F7800.000
G1 X101.504 Y92.352 F7800.000
G1 X99.300 Y97.357 F7800.000
G1 X99.562 Y99.386 F7800.000
G1 X95.619 Y99.386 F7800.000
G1 X95.394 Y99.611 F7800.000
G1 X95.394 Y100.831 E0.05520 F378.000
G1 X86.545 Y100.831 E0.45561
G1 X86.545 Y106.181 E0.69770
G1 X96.044 Y106.181 E1.12752
G1 X96.044 Y107.423 E1.18372
G1 X84.924 Y107.423 E1.68689
G1 X84.924 Y92.577 E2.35866
G1 X96.488 Y92.577 E2.88193
G1 X96.488 Y93.819 E2.93813
G1 X86.545 Y93.819 E3.38804 F378.000
G1 X86.545 Y99.611 E3.65012
G1 X95.163 Y99.611 E4.04008
G1 X95.168 Y100.097 F7800.000
G1 X94.908 Y99.837 E4.05673 F540.000
G1 X94.362 Y99.837 E4.08143
G1 X95.130 Y100.605 E4.13061
G1 X94.585 Y100.605 E4.15531
G1 X93.816 Y99.837 E4.20449
G1 X93.271 Y99.837 E4.22919
G1 X94.039 Y100.605 E4.27837
G1 X93.493 Y100.605 E4.30307
G1 X92.725 Y99.837 E4.35225
G1 X92.180 Y99.837 E4.37695
G1 X92.948 Y100.605 E4.42613
G1 X92.402 Y100.605 E4.45083
G1 X91.634 Y99.837 E4.50001
G1 X91.088 Y99.837 E4.52471
G1 X91.856 Y100.605 E4.57389
G1 X91.311 Y100.605 E4.59859
G1 X90.543 Y99.837 E4.64777
G1 X89.997 Y99.837 E4.67247
G1 X90.765 Y100.605 E4.72165
G1 X90.219 Y100.605 E4.74635
G1 X89.451 Y99.837 E4.79553
G1 X88.906 Y99.837 E4.82023
G1 X89.674 Y100.605 E4.86941
G1 X89.128 Y100.605 E4.89411
G1 X88.360 Y99.837 E4.94329
G1 X87.814 Y99.837 E4.96799
G1 X88.583 Y100.605 E5.01717
G1 X88.037 Y100.605 E5.04187
G1 X87.269 Y99.837 E5.09104
G1 X86.723 Y99.837 E5.11575
G1 X87.491 Y100.605 E5.16492
G1 X86.946 Y100.605 E5.18963
G1 X85.150 Y98.809 E5.30462
G1 X85.150 Y98.263 E5.32932
G1 X86.319 Y99.432 E5.40417
G1 X86.319 Y98.887 E5.42887
G1 X85.150 Y97.718 E5.50373
G1 X85.150 Y97.172 E5.52843
G1 X86.319 Y98.341 E5.60328
G1 X86.319 Y97.796 E5.62798
G1 X85.150 Y96.626 E5.70283
G1 X85.150 Y96.081 E5.72754
G1 X86.319 Y97.250 E5.80239
G1 X86.319 Y96.704 E5.82709
G1 X85.150 Y95.535 E5.90194
G1 X85.150 Y94.990 E5.92665
G1 X86.319 Y96.159 E6.00150
G1 X86.319 Y95.613 E6.02620
G1 X85.150 Y94.444 E6.10105
G1 X85.150 Y93.898 E6.12575
G1 X86.319 Y95.067 E6.20061
G1 X86.319 Y94.522 E6.22531
G1 X85.150 Y93.353 E6.30016
G1 X85.168 Y92.825 E6.32406
G1 X86.319 Y93.976 E6.39777
G1 X86.481 Y93.593 F7800.000
G1 X85.691 Y92.803 E6.44835 F540.000
G1 X86.237 Y92.803 E6.47305
G1 X87.027 Y93.593 E6.52364
G1 X87.573 Y93.593 E6.54834
G1 X86.782 Y92.803 E6.59893
G1 X87.328 Y92.803 E6.62363
G1 X88.118 Y93.593 E6.67421
G1 X88.664 Y93.593 E6.69892
G1 X87.874 Y92.803 E6.74950
G1 X88.419 Y92.803 E6.77420
G1 X89.209 Y93.593 E6.82479
G1 X89.755 Y93.593 E6.84949
G1 X88.965 Y92.803 E6.90008
G1 X89.511 Y92.803 E6.92478
G1 X90.301 Y93.593 E6.97536
G1 X90.846 Y93.593 E7.00006
G1 X90.056 Y92.803 E7.05065
G1 X90.602 Y92.803 E7.07535
G1 X91.392 Y93.593 E7.12594
G1 X91.938 Y93.593 E7.15064
G1 X91.147 Y92.803 E7.20122
G1 X91.693 Y92.803 E7.22593
G1 X92.483 Y93.593 E7.27651
G1 X93.029 Y93.593 E7.30121
G1 X92.239 Y92.803 E7.35180
G1 X92.784 Y92.803 E7.37650
G1 X93.574 Y93.593 E7.42709
G1 X94.120 Y93.593 E7.45179
G1 X93.330 Y92.803 E7.50237
G1 X93.876 Y92.803 E7.52708
G1 X94.666 Y93.593 E7.57766
G1 X95.211 Y93.593 E7.60236
G1 X94.421 Y92.803 E7.65295
G1 X94.967 Y92.803 E7.67765
G1 X95.757 Y93.593 E7.72824
G1 X96.262 Y93.552 E7.75116
G1 X95.513 Y92.803 E7.79913
G1 X96.058 Y92.803 E7.82384
G1 X96.262 Y93.007 E7.83687
G1 X85.770 Y93.352 F7800.000
G1 X85.770 Y93.352 F7800.000
G1 X85.734 Y93.388 F7800.000
G1 X85.699 Y93.352 F7800.000
G1 X85.150 Y99.355 F7800.000
G1 X86.400 Y100.605 E7.91693 F540.000
G1 X86.319 Y101.069 E7.93827
G1 X85.150 Y99.900 E8.01312
G1 X85.150 Y100.446 E8.03782
G1 X86.319 Y101.615 E8.11268
G1 X86.319 Y102.161 E8.13738
G1 X85.150 Y100.992 E8.21223
G1 X85.150 Y101.537 E8.23693
G1 X86.319 Y102.706 E8.31178
G1 X86.319 Y103.252 E8.33649
G1 X85.150 Y102.083 E8.41134
G1 X85.150 Y102.628 E8.43604
G1 X86.319 Y103.798 E8.51089
G1 X86.319 Y104.343 E8.53560
G1 X85.150 Y103.174 E8.61045
G1 X85.150 Y103.720 E8.63515
G1 X86.319 Y104.889 E8.71000
G1 X86.319 Y105.434 E8.73470
G1 X85.150 Y104.265 E8.80956
G1 X85.150 Y104.811 E8.83426
G1 X86.319 Y105.980 E8.90911
G1 X86.200 Y106.407 E8.92917
G1 X86.990 Y107.197 E8.97976
G1 X86.444 Y107.197 E9.00446
G1 X85.150 Y105.902 E9.08736
G1 X85.150 Y105.357 E9.11206
G1 X86.319 Y106.526 E9.18691
G1 X86.746 Y106.407 E9.20698
G1 X87.536 Y107.197 E9.25756
G1 X88.081 Y107.197 E9.28226
G1 X87.291 Y106.407 E9.33285
G1 X87.837 Y106.407 E9.35755
G1 X88.627 Y107.197 E9.40814
G1 X89.173 Y107.197 E9.43284
G1 X88.383 Y106.407 E9.48343
G1 X88.928 Y106.407 E9.50813
G1 X89.718 Y107.197 E9.55871
G1 X90.264 Y107.197 E9.58342
G1 X89.474 Y106.407 E9.63400
G1 X90.019 Y106.407 E9.65870
G1 X90.810 Y107.197 E9.70929
G1 X91.355 Y107.197 E9.73399
G1 X90.565 Y106.407 E9.78458
G1 X91.111 Y106.407 E9.80928
G1 X91.901 Y107.197 E9.85987
G1 X92.446 Y107.197 E9.88457
G1 X91.656 Y106.407 E9.93515
G1 X92.202 Y106.407 E9.95986
G1 X92.992 Y107.197 E10.01044
G1 X93.538 Y107.197 E10.03514
G1 X92.748 Y106.407 E10.08573
G1 X93.293 Y106.407 E10.11043
G1 X94.083 Y107.197 E10.16102
G1 X94.629 Y107.197 E10.18572
G1 X93.839 Y106.407 E10.23631
G1 X94.384 Y106.407 E10.26101
G1 X95.175 Y107.197 E10.31159
G1 X94.930 Y106.407 F7800.000
G1 X95.720 Y107.197 E10.36218 F540.000
G1 X95.818 Y106.749 E10.38294
G1 X95.476 Y106.407 E10.40484
G1 X85.150 Y106.448 F7800.000
G1 X85.899 Y107.197 E10.45281 F540.000
G1 X85.353 Y107.197 E10.47751
G1 X85.150 Y106.993 E10.49054
M106 S255
G92 E0
G1 Z0.600 F7800.000
G1 X105.391 Y102.637 F7800.000
G1 X104.540 Y98.331 E1.31513 F600.000
G1 X104.540 Y92.352 E3.10672
G1 X104.702 Y99.149 F7800.000
G1 X109.903 Y99.156 E4.66536 F600.000
G1 X111.372 Y99.350 E5.10941
G1 X111.831 Y99.466 E5.25112
G1 X112.269 Y99.645 E5.39308
G1 X112.425 Y99.734 E5.44673
G1 X113.218 Y100.349 E5.74739
G1 X113.471 Y100.612 E5.85684
G1 X113.805 Y101.080 E6.02917
G1 X114.089 Y101.981 E6.31226
G1 X114.257 Y103.055 E6.63799
G1 X114.079 Y104.127 E6.96347
G1 X113.795 Y104.993 E7.23646
G1 X113.458 Y105.435 E7.40300
G1 X113.224 Y105.666 E7.50172
G1 X112.431 Y106.241 E7.79522
G1 X112.221 Y106.354 E7.86654
G1 X111.786 Y106.519 E8.00592
G1 X111.333 Y106.625 E8.14537
G1 X109.887 Y106.807 E8.58221
G1 X109.673 Y106.818 E8.64628
G1 X105.575 Y106.818 E9.87423
G1 X104.613 Y106.539 E10.17449
G1 X104.540 Y105.989 E10.34085
G1 X104.540 Y99.968 E12.14502
G1 X104.702 Y99.149 E12.39502
G92 E0
G1 X103.504 Y92.352 F7800.000
G1 X100.109 Y93.748 F7800.000
G1 X98.713 Y92.352 F7800.000
G1 X96.713 Y92.352 F7800.000
G1 X96.713 Y93.198 F7800.000
G1 X86.770 Y93.198 E2.97938 F600.000
G1 X85.814 Y93.468 E3.27683
G1 X85.734 Y94.044 E3.45118
G1 X85.734 Y99.386 E5.05189
G1 X86.605 Y103.706 E6.37226
G1 X85.770 Y106.648 F7800.000
G1 X85.770 Y106.648 F7800.000
G1 X96.269 Y106.802 F7800.000
G1 X86.770 Y106.802 E9.21860 F600.000
G1 X85.814 Y106.532 E9.51604
G1 X85.734 Y105.956 E9.69040
G1 X85.734 Y101.056 E11.15866
G1 X85.903 Y100.221 E11.41390
G1 X95.619 Y100.221 E14.32532
G92 E0
G1 Z0.900 F7800.000
G1 X105.391 Y102.637 F7800.000
G1 X104.540 Y98.331 E1.31513 F600.000
G1 X104.540 Y92.352 E3.10672
G1 X104.702 Y99.149 F7800.000
G1 X109.903 Y99.156 E4.66536 F600.000
G1 X111.372 Y99.350 E5.10941
G1 X111.831 Y99.466 E5.25112
G1 X112.269 Y99.645 E5.39308
G1 X112.425 Y99.734 E5.44673
G1 X113.218 Y100.349 E5.74739
G1 X113.471 Y100.612 E5.85684
G1 X113.805 Y101.080 E6.02917
G1 X114.089 Y101.981 E6.31226
G1 X114.257 Y103.055 E6.63799
G1 X114.079 Y104.127 E6.96347
G1 X113.795 Y104.993 E7.23646
G1 X113.458 Y105.435 E7.40300
G1 X113.224 Y105.666 E7.50172
G1 X112.431 Y106.241 E7.79522
G1 X112.221 Y106.354 E7.86654
G1 X111.786 Y106.519 E8.00592
G1 X111.333 Y106.625 E8.14537
G1 X109.887 Y106.807 E8.58221
G1 X109.673 Y106.818 E8.64628
G1 X105.575 Y106.818 E9.87423
G1 X104.613 Y106.539 E10.17449
G1 X104.540 Y105.989 E10.34085
G1 X104.540 Y99.968 E12.14502
G1 X104.702 Y99.149 E12.39502
G92 E0
G1 X103.504 Y92.352 F7800.000
G1 X100.109 Y93.748 F7800.000
G1 X98.713 Y92.352 F7800.000
G1 X96.713 Y92.352 F7800.000
G1 X96.713 Y93.198 F7800.000
G1 X86.770 Y93.198 E2.97938 F600.000
G1 X85.814 Y93.468 E3.27683
G1 X85.734 Y94.044 E3.45118
G1 X85.734 Y99.386 E5.05189
G1 X86.605 Y103.706 E6.37226
G1 X85.770 Y106.648 F7800.000
G1 X85.770 Y106.648 F7800.000
G1 X96.269 Y106.802 F7800.000
G1 X86.770 Y106.802 E9.21860 F600.000
G1 X85.814 Y106.532 E9.51604
G1 X85.734 Y105.956 E9.69040
G1 X85.734 Y101.056 E11.15866
G1 X85.903 Y100.221 E11.41390
G1 X95.619 Y100.221 E14.32532
G92 E0
G1 Z1.200 F7800.000
G1 X105.391 Y102.637 F7800.000
G1 X104.540 Y98.331 E1.31513 F600.000
G1 X104.540 Y92.352 E3.10672
G1 X104.702 Y99.149 F7800.000
G1 X109.903 Y99.156 E4.66536 F600.000
G1 X111.372 Y99.350 E5.10941
G1 X111.831 Y99.466 E5.25112
G1 X112.269 Y99.645 E5.39308
G1 X112.425 Y99.734 E5.44673
G1 X113.218 Y100.349 E5.74739
G1 X113.471 Y100.612 E5.85684
G1 X113.805 Y101.080 E6.02917
G1 X114.089 Y101.981 E6.31226
G1 X114.257 Y103.055 E6.63799
G1 X114.079 Y104.127 E6.96347
G1 X113.795 Y104.993 E7.23646
G1 X113.458 Y105.435 E7.40300
G1 X113.224 Y105.666 E7.50172
G1 X112.431 Y106.241 E7.79522
G1 X112.221 Y106.354 E7.86654
G1 X111.786 Y106.519 E8.00592
G1 X111.333 Y106.625 E8.14537
G1 X109.887 Y106.807 E8.58221
G1 X109.673 Y106.818 E8.64628
G1 X105.575 Y106.818 E9.87423
G1 X104.613 Y106.539 E10.17449
G1 X104.540 Y105.989 E10.34085
G1 X104.540 Y99.968 E12.14502
G1 X104.702 Y99.149 E12.39502
G92 E0
G1 X103.504 Y92.352 F7800.000
G1 X100.109 Y93.748 F7800.000
G1 X98.713 Y92.352 F7800.000
G1 X96.713 Y92.352 F7800.000
G1 X96.713 Y93.198 F7800.000
G1 X86.770 Y93.198 E2.97938 F600.000
G1 X85.814 Y93.468 E3.27683
G1 X85.734 Y94.044 E3.45118
G1 X85.734 Y99.386 E5.05189
G1 X86.605 Y103.706 E6.37226
G1 X85.770 Y106.648 F7800.000
G1 X85.770 Y106.648 F7800.000
G1 X96.269 Y106.802 F7800.000
G1 X86.770 Y106.802 E9.21860 F600.000
G1 X85.814 Y106.532 E9.51604
G1 X85.734 Y105.956 E9.69040
G1 X85.734 Y101.056 E11.15866
G1 X85.903 Y100.221 E11.41390
G1 X95.619 Y100.221 E14.32532
G92 E0
G1 Z1.500 F7800.000
G1 X105.391 Y102.637 F7800.000
G1 X104.540 Y98.331 E1.31513 F600.000
G1 X104.540 Y92.352 E3.10672
G1 X104.702 Y99.149 F7800.000
G1 X109.903 Y99.156 E4.66536 F600.000
G1 X111.372 Y99.350 E5.10941
G1 X111.831 Y99.466 E5.25112
G1 X112.269 Y99.645 E5.39308
G1 X112.425 Y99.734 E5.44673
G1 X113.218 Y100.349 E5.74739
G1 X113.471 Y100.612 E5.85684
G1 X113.805 Y101.080 E6.02917
G1 X114.089 Y101.981 E6.31226
G1 X114.257 Y103.055 E6.63799
G1 X114.079 Y104.127 E6.96347
G1 X113.795 Y104.993 E7.23646
G1 X113.458 Y105.435 E7.40300
G1 X113.224 Y105.666 E7.50172
G1 X112.431 Y106.241 E7.79522
G1 X112.221 Y106.354 E7.86654
G1 X111.786 Y106.519 E8.00592
