; generated by Slic3r 1.2.9 on 2016-03-11 at 01:24:07

; external perimeters extrusion width = 1.54mm
; perimeters extrusion width = 2.62mm
; infill extrusion width = 6.27mm
; solid infill extrusion width = 2.62mm
; top infill extrusion width = 2.62mm

M107
M104 S30 ; set temperature
G28 ; home all axes
G1 Z5 F5000 ; lift nozzle
M302
M92 E10000
M500
M501
G1 E100
M109 S30 ; wait for temperature to be reached
G21 ; set units to millimeters
G90 ; use absolute coordinates
M82 ; use absolute distances for extrusion
G92 E0
G1 Z0.300 F7800.000
G1 X104.649 Y96.148 F7800.000
G1 X104.649 Y98.940 E0.12631 F378.000
G1 X109.773 Y98.940 E0.35816 F378.000
G1 X113.749 Y92.577 E0.69767
G1 X115.592 Y92.577 E0.78110
G1 X111.307 Y99.088 E1.13380
G1 X112.663 Y99.461 E1.19746
G1 X113.531 Y99.924 E1.24196
G1 X114.236 Y100.565 E1.28506
G1 X114.757 Y101.351 E1.32775
G1 X115.070 Y102.254 E1.37098
G1 X115.175 Y103.277 E1.41752
G1 X115.026 Y104.492 E1.47290
G1 X114.585 Y105.500 E1.52269
G1 X113.850 Y106.318 E1.57245
G1 X112.836 Y106.927 E1.62599
G1 X111.555 Y107.297 E1.68630
G1 X109.995 Y107.423 E1.75714
G1 X103.028 Y107.423 E2.07239
G1 X103.028 Y92.577 E2.74416
G1 X104.649 Y92.577 E2.81751
G1 X104.649 Y95.917 E2.96867
G1 X104.649 Y100.127 F7800.000
G1 X109.894 Y100.127 E3.20602 F378.000
G1 X110.938 Y100.215 E3.25343
G1 X111.836 Y100.485 E3.29583
G1 X112.571 Y100.943 E3.33503
G1 X113.115 Y101.573 E3.37271
G1 X113.440 Y102.349 E3.41078
G1 X113.546 Y103.258 E3.45216
G1 X113.438 Y104.137 E3.49224
G1 X113.106 Y104.880 E3.52906
G1 X112.552 Y105.469 E3.56567
G1 X111.804 Y105.888 E3.60449
G1 X110.885 Y106.134 E3.64753
G1 X109.806 Y106.214 E3.69646
G1 X104.649 Y106.214 E3.92983
G1 X104.649 Y100.358 E4.19481
G1 X104.423 Y98.824 F7800.000
G1 X103.254 Y97.655 E4.27017 F540.000
G1 X103.254 Y97.105 E4.29521
G1 X104.423 Y98.274 E4.37057
G1 X104.423 Y97.725 E4.39561
G1 X103.254 Y96.556 E4.47097
G1 X103.254 Y96.007 E4.49601
G1 X104.423 Y97.176 E4.57137
G1 X104.423 Y96.626 E4.59641
G1 X103.254 Y95.457 E4.67177
G1 X103.254 Y94.908 E4.69681
G1 X104.423 Y96.077 E4.77217
G1 X104.423 Y95.528 E4.79721
G1 X103.254 Y94.359 E4.87257
G1 X103.254 Y93.809 E4.89761
G1 X104.423 Y94.978 E4.97297
G1 X104.423 Y94.429 E4.99801
G1 X103.254 Y93.260 E5.07337
G1 X103.346 Y92.803 E5.09462
G1 X104.423 Y93.880 E5.16402
G1 X104.423 Y93.330 E5.18906
G1 X103.896 Y92.803 E5.22305
G92 E0
G1 X103.874 Y93.352 F7800.000
G1 X103.874 Y93.352 F7800.000
G1 X111.874 Y100.232 F7800.000
G1 X110.869 Y99.227 E0.06477 F540.000
G1 X111.155 Y98.964 E0.08249
G1 X110.437 Y98.245 E0.12882
G1 X110.648 Y97.907 E0.14699
G1 X111.373 Y98.633 E0.19376
G1 X111.591 Y98.302 E0.21184
G1 X110.859 Y97.569 E0.25905
G1 X111.070 Y97.231 E0.27722
G1 X111.810 Y97.970 E0.32487
G1 X112.028 Y97.639 E0.34295
G1 X111.282 Y96.893 E0.39103
G1 X111.493 Y96.555 E0.40920
G1 X112.246 Y97.308 E0.45773
G1 X112.464 Y96.976 E0.47581
G1 X111.704 Y96.217 E0.52477
G1 X111.915 Y95.879 E0.54294
G1 X112.682 Y96.645 E0.59234
G1 X112.900 Y96.314 E0.61042
G1 X112.127 Y95.541 E0.66026
G1 X112.338 Y95.203 E0.67843
G1 X113.118 Y95.983 E0.72871
G1 X113.336 Y95.651 E0.74679
G1 X112.549 Y94.864 E0.79751
G1 X112.760 Y94.526 E0.81568
G1 X113.554 Y95.320 E0.86684
G1 X113.772 Y94.989 E0.88491
G1 X112.972 Y94.188 E0.93651
G1 X113.183 Y93.850 E0.95468
G1 X113.990 Y94.657 E1.00671
G1 X114.208 Y94.326 E1.02479
G1 X113.394 Y93.512 E1.07726
G1 X113.605 Y93.174 E1.09543
G1 X114.426 Y93.995 E1.14835
G1 X114.644 Y93.664 E1.16642
G1 X113.817 Y92.836 E1.21977
G1 X114.333 Y92.803 E1.24336
G1 X114.862 Y93.332 E1.27748
G1 X114.882 Y92.803 E1.30162
G1 X115.080 Y93.001 E1.31439
G92 E0
G1 X113.922 Y101.494 F7800.000
G1 X113.922 Y101.494 F7800.000
G1 X112.385 Y99.645 F7800.000
G1 X114.693 Y101.953 E0.14879 F540.000
G1 X114.879 Y102.688 E0.18333
G1 X111.627 Y99.436 E0.39294
G1 X110.937 Y99.295 E0.42503
G1 X110.225 Y98.583 E0.47092
G1 X110.014 Y98.921 E0.48909
G1 X111.088 Y99.995 E0.55832
G1 X110.486 Y99.943 E0.58587
G1 X109.709 Y99.166 E0.63594
G1 X109.160 Y99.166 E0.66098
G1 X109.895 Y99.901 E0.70837
G1 X109.346 Y99.901 E0.73341
G1 X108.610 Y99.166 E0.78079
G1 X108.061 Y99.166 E0.80583
G1 X108.796 Y99.901 E0.85322
G1 X108.247 Y99.901 E0.87826
G1 X107.512 Y99.166 E0.92564
G1 X106.962 Y99.166 E0.95068
G1 X107.698 Y99.901 E0.99807
G1 X107.148 Y99.901 E1.02310
G1 X106.413 Y99.166 E1.07049
G1 X105.864 Y99.166 E1.09553
G1 X106.599 Y99.901 E1.14291
G1 X106.050 Y99.901 E1.16795
G1 X105.314 Y99.166 E1.21534
G1 X104.765 Y99.166 E1.24038
G1 X105.500 Y99.901 E1.28776
G1 X104.951 Y99.901 E1.31280
G1 X103.254 Y98.204 E1.42220
G1 X103.254 Y98.753 E1.44724
G1 X104.423 Y99.922 E1.52260
G1 X104.423 Y100.472 E1.54764
G1 X103.254 Y99.303 E1.62300
G1 X103.254 Y99.852 E1.64804
G1 X104.423 Y101.021 E1.72340
G1 X104.423 Y101.570 E1.74844
G1 X103.254 Y100.401 E1.82380
G1 X103.254 Y100.951 E1.84884
G1 X104.423 Y102.120 E1.92420
G1 X104.423 Y102.669 E1.94924
G1 X103.254 Y101.500 E2.02460
G1 X103.254 Y102.049 E2.04964
G1 X104.423 Y103.218 E2.12500
G1 X104.423 Y103.768 E2.15004
G1 X103.254 Y102.599 E2.22540
G1 X103.254 Y103.148 E2.25044
G1 X104.423 Y104.317 E2.32580
G1 X104.423 Y104.866 E2.35084
G1 X103.254 Y103.697 E2.42620
G1 X103.254 Y104.247 E2.45124
G1 X104.423 Y105.416 E2.52660
G1 X104.423 Y105.965 E2.55164
G1 X103.254 Y104.796 E2.62700
G1 X103.254 Y105.345 E2.65204
G1 X105.105 Y107.197 E2.77140
G1 X105.655 Y107.197 E2.79644
G1 X104.898 Y106.440 E2.84524
G1 X105.447 Y106.440 E2.87028
G1 X106.204 Y107.197 E2.91908
G1 X106.753 Y107.197 E2.94412
G1 X105.996 Y106.440 E2.99292
G1 X106.546 Y106.440 E3.01796
G1 X107.303 Y107.197 E3.06677
G1 X107.852 Y107.197 E3.09180
G1 X107.095 Y106.440 E3.14061
G1 X107.644 Y106.440 E3.16565
G1 X108.401 Y107.197 E3.21445
G1 X108.951 Y107.197 E3.23949
G1 X108.194 Y106.440 E3.28829
G1 X108.743 Y106.440 E3.31333
G1 X109.500 Y107.197 E3.36214
G1 X110.049 Y107.197 E3.38717
G1 X109.292 Y106.440 E3.43598
G1 X109.834 Y106.433 E3.46069
G1 X110.559 Y107.157 E3.50739
G1 X111.067 Y107.116 E3.53064
G1 X110.346 Y106.395 E3.57714
G1 X110.857 Y106.356 E3.60050
G1 X111.576 Y107.075 E3.64684
G1 X112.003 Y106.953 E3.66708
G1 X111.290 Y106.241 E3.71300
G1 X111.724 Y106.125 E3.73345
G1 X112.429 Y106.830 E3.77890
G1 X112.843 Y106.694 E3.79875
G1 X112.097 Y105.949 E3.84680
G1 X112.450 Y105.752 E3.86520
G1 X113.186 Y106.488 E3.91267
G1 X113.529 Y106.282 E3.93092
G1 X112.768 Y105.520 E3.98001
G1 X113.034 Y105.237 E3.99773
G1 X113.831 Y106.034 E4.04908
G1 X114.099 Y105.753 E4.06679
G1 X113.294 Y104.948 E4.11866
G1 X113.464 Y104.569 E4.13761
G1 X114.359 Y105.464 E4.19530
G1 X114.542 Y105.098 E4.21395
G1 X113.634 Y104.189 E4.27254
G1 X113.708 Y103.714 E4.29443
G1 X114.710 Y104.716 E4.35898
G1 X114.833 Y104.289 E4.37920
G1 X113.769 Y103.225 E4.44779
G1 X113.709 Y102.616 E4.47569
G1 X114.893 Y103.800 E4.55201
G1 X114.942 Y103.300 E4.57493
G1 X113.535 Y101.893 E4.66563
G92 E0
G1 X103.874 Y106.648 F7800.000
G1 X103.874 Y106.648 F7800.000
G1 X103.838 Y106.612 F7800.000
G1 X103.803 Y106.648 F7800.000
G1 X103.254 Y105.895 F7800.000
G1 X104.556 Y107.197 E0.08395 F540.000
G1 X104.007 Y107.197 E0.10898
G1 X103.254 Y106.444 E0.15752
G1 X103.254 Y106.993 E0.18256
G1 X103.457 Y107.197 E0.19568
G92 E0
G1 X102.803 Y107.648 F7800.000
G1 X99.182 Y106.027 F7800.000
G1 X98.602 Y103.059 F7800.000
G1 X98.857 Y101.056 F7800.000
G1 X94.910 Y101.056 F7800.000
G1 X94.685 Y100.831 F7800.000
G1 X85.836 Y100.831 E0.40041 F378.000
G1 X85.836 Y106.181 E0.64249
G1 X95.335 Y106.181 E1.07232
G1 X95.335 Y107.423 E1.12852
G1 X84.215 Y107.423 E1.63169
G1 X84.215 Y92.577 E2.30346
G1 X95.779 Y92.577 E2.82672
G1 X95.779 Y93.819 E2.88292
G1 X85.836 Y93.819 E3.33284 F378.000
G1 X85.836 Y99.611 E3.59492
G1 X94.685 Y99.611 E3.99533
G1 X94.685 Y100.600 E4.04008
G1 X94.422 Y100.605 F7800.000
G1 X93.654 Y99.837 E4.08926 F540.000
G1 X94.199 Y99.837 E4.11396
G1 X94.459 Y100.097 E4.13061
G1 X93.876 Y100.605 F7800.000
G1 X93.108 Y99.837 E4.17979 F540.000
G1 X92.562 Y99.837 E4.20449
G1 X93.330 Y100.605 E4.25367
G1 X92.785 Y100.605 E4.27837
G1 X92.017 Y99.837 E4.32755
G1 X91.471 Y99.837 E4.35225
G1 X92.239 Y100.605 E4.40143
G1 X91.693 Y100.605 E4.42613
G1 X90.925 Y99.837 E4.47531
G1 X90.380 Y99.837 E4.50001
G1 X91.148 Y100.605 E4.54919
G1 X90.602 Y100.605 E4.57389
G1 X89.834 Y99.837 E4.62307
G1 X89.289 Y99.837 E4.64777
G1 X90.057 Y100.605 E4.69695
G1 X89.511 Y100.605 E4.72165
G1 X88.743 Y99.837 E4.77082
G1 X88.197 Y99.837 E4.79553
G1 X88.965 Y100.605 E4.84470
G1 X88.420 Y100.605 E4.86941
G1 X87.652 Y99.837 E4.91858
G1 X87.106 Y99.837 E4.94329
G1 X87.874 Y100.605 E4.99246
G1 X87.328 Y100.605 E5.01717
G1 X86.560 Y99.837 E5.06634
G1 X86.015 Y99.837 E5.09104
G1 X86.783 Y100.605 E5.14022
G92 E0
G1 X85.061 Y106.648 F7800.000
G1 X85.061 Y106.648 F7800.000
G1 X85.026 Y106.612 F7800.000
G1 X84.990 Y106.648 F7800.000
G1 X84.441 Y105.902 F7800.000
G1 X85.736 Y107.197 E0.08290 F540.000
G1 X85.190 Y107.197 E0.10760
G1 X84.441 Y106.448 E0.15557
G1 X84.441 Y106.993 E0.18027
G1 X84.645 Y107.197 E0.19331
G1 X94.767 Y106.407 F7800.000
G1 X95.109 Y106.749 E0.21521 F540.000
G1 X95.012 Y107.197 E0.23597
G1 X94.222 Y106.407 E0.28655
G1 X93.676 Y106.407 E0.31125
G1 X94.466 Y107.197 E0.36184
G1 X93.920 Y107.197 E0.38654
G1 X93.130 Y106.407 E0.43713
G1 X92.585 Y106.407 E0.46183
G1 X93.375 Y107.197 E0.51242
G1 X92.829 Y107.197 E0.53712
G1 X92.039 Y106.407 E0.58770
G1 X91.493 Y106.407 E0.61241
G1 X92.284 Y107.197 E0.66299
G1 X91.738 Y107.197 E0.68769
G1 X90.948 Y106.407 E0.73828
G1 X90.402 Y106.407 E0.76298
G1 X91.192 Y107.197 E0.81357
G1 X90.647 Y107.197 E0.83827
G1 X89.857 Y106.407 E0.88886
G1 X89.311 Y106.407 E0.91356
G1 X90.101 Y107.197 E0.96414
G1 X89.555 Y107.197 E0.98885
G1 X88.765 Y106.407 E1.03943
G1 X88.220 Y106.407 E1.06413
G1 X89.010 Y107.197 E1.11472
G1 X88.464 Y107.197 E1.13942
G1 X87.674 Y106.407 E1.19001
G1 X87.128 Y106.407 E1.21471
G1 X87.919 Y107.197 E1.26530
G1 X87.373 Y107.197 E1.29000
G1 X86.583 Y106.407 E1.34058
G1 X86.037 Y106.407 E1.36529
G1 X86.827 Y107.197 E1.41587
G1 X86.282 Y107.197 E1.44058
G1 X84.441 Y105.357 E1.55841
G1 X84.441 Y104.811 E1.58311
G1 X85.610 Y105.980 E1.65797
G1 X85.610 Y105.434 E1.68267
G1 X84.441 Y104.265 E1.75752
G1 X84.441 Y103.720 E1.78222
G1 X85.610 Y104.889 E1.85707
G1 X85.610 Y104.343 E1.88178
G1 X84.441 Y103.174 E1.95663
G1 X84.441 Y102.628 E1.98133
G1 X85.610 Y103.798 E2.05618
G1 X85.610 Y103.252 E2.08088
G1 X84.441 Y102.083 E2.15574
G1 X84.441 Y101.537 E2.18044
G1 X85.610 Y102.706 E2.25529
G1 X85.610 Y102.161 E2.27999
G1 X84.441 Y100.992 E2.35484
G1 X84.441 Y100.446 E2.37955
G1 X85.610 Y101.615 E2.45440
G1 X85.610 Y101.069 E2.47910
G1 X84.441 Y99.900 E2.55395
G1 X84.441 Y99.355 E2.57865
G1 X85.692 Y100.605 E2.65871
G1 X86.237 Y100.605 E2.68341
G1 X84.441 Y98.809 E2.79841
G1 X84.441 Y98.263 E2.82311
G1 X85.610 Y99.432 E2.89796
G1 X85.610 Y98.887 E2.92266
G1 X84.441 Y97.718 E2.99751
G1 X84.441 Y97.172 E3.02222
G1 X85.610 Y98.341 E3.09707
G1 X85.610 Y97.796 E3.12177
G1 X84.441 Y96.626 E3.19662
G1 X84.441 Y96.081 E3.22132
G1 X85.610 Y97.250 E3.29618
G1 X85.610 Y96.704 E3.32088
G1 X84.441 Y95.535 E3.39573
G1 X84.441 Y94.990 E3.42043
G1 X85.610 Y96.159 E3.49528
G1 X85.610 Y95.613 E3.51999
G1 X84.441 Y94.444 E3.59484
G1 X84.441 Y93.898 E3.61954
G1 X85.610 Y95.067 E3.69439
G1 X85.610 Y94.522 E3.71909
G1 X84.441 Y93.353 E3.79395
G1 X84.459 Y92.825 E3.81785
G1 X85.610 Y93.976 E3.89155
G1 X85.773 Y93.593 F7800.000
G1 X84.983 Y92.803 E3.94214 F540.000
G1 X85.528 Y92.803 E3.96684
G1 X86.318 Y93.593 E4.01743
G1 X86.864 Y93.593 E4.04213
G1 X86.074 Y92.803 E4.09271
G1 X86.620 Y92.803 E4.11742
G1 X87.410 Y93.593 E4.16800
G1 X87.955 Y93.593 E4.19270
G1 X87.165 Y92.803 E4.24329
G1 X87.711 Y92.803 E4.26799
G1 X88.501 Y93.593 E4.31857
G1 X89.047 Y93.593 E4.34328
G1 X88.256 Y92.803 E4.39386
G1 X88.802 Y92.803 E4.41856
G1 X89.592 Y93.593 E4.46915
G1 X90.138 Y93.593 E4.49385
G1 X89.348 Y92.803 E4.54444
G1 X89.893 Y92.803 E4.56914
G1 X90.683 Y93.593 E4.61972
G1 X91.229 Y93.593 E4.64443
G1 X90.439 Y92.803 E4.69501
G1 X90.985 Y92.803 E4.71971
G1 X91.775 Y93.593 E4.77030
G1 X92.320 Y93.593 E4.79500
G1 X91.530 Y92.803 E4.84559
G1 X92.076 Y92.803 E4.87029
G1 X92.866 Y93.593 E4.92087
G1 X93.412 Y93.593 E4.94558
G1 X92.621 Y92.803 E4.99616
G1 X93.167 Y92.803 E5.02086
G1 X93.957 Y93.593 E5.07145
G1 X94.503 Y93.593 E5.09615
G1 X93.713 Y92.803 E5.14674
G1 X94.258 Y92.803 E5.17144
G1 X95.048 Y93.593 E5.22202
G1 X95.553 Y93.552 E5.24495
G1 X94.804 Y92.803 E5.29292
G1 X95.350 Y92.803 E5.31762
G1 X95.553 Y93.007 E5.33066
M106 S255
G92 E0
G1 Z0.600 F7800.000
G1 X103.838 Y92.352 F7800.000
G1 X103.838 Y98.715 E1.90665 F600.000
G1 X104.689 Y103.021 E3.22178
G92 E0
G1 X103.874 Y106.648 F7800.000
G1 X103.874 Y106.648 F7800.000
G1 X109.669 Y98.681 F7800.000
G1 X110.972 Y99.535 E0.46678 F600.000
G1 X111.141 Y99.623 E0.52394
G1 X111.447 Y99.745 E0.62257
G1 X112.189 Y99.974 E0.85543
G1 X112.418 Y100.075 E0.93036
G1 X112.899 Y100.352 E1.09667
G1 X113.122 Y100.504 E1.17750
G1 X113.661 Y101.058 E1.40909
G1 X113.826 Y101.314 E1.50046
G1 X114.036 Y101.708 E1.63415
G1 X114.154 Y102.016 E1.73297
G1 X114.270 Y102.431 E1.86219
G1 X114.358 Y103.269 E2.11448
G1 X114.236 Y104.275 E2.41822
G1 X113.903 Y105.060 E2.67378
G1 X113.835 Y105.164 E2.71086
G1 X113.632 Y105.426 E2.81031
G1 X113.360 Y105.723 E2.93104
G1 X112.863 Y106.096 E3.11710
G1 X112.552 Y106.276 E3.22482
G1 X111.942 Y106.516 E3.42115
G1 X111.438 Y106.657 E3.57798
G1 X111.064 Y106.721 E3.69188
G1 X109.798 Y106.818 E4.07227
G1 X104.874 Y106.818 E5.54773
G1 X103.911 Y106.539 E5.84798
G1 X103.838 Y105.989 E6.01435
G1 X103.838 Y100.352 E7.70345
G1 X104.000 Y99.533 E7.95346
G1 X109.648 Y99.533 E9.64579
G1 X109.956 Y99.506 E9.73845
G1 X110.602 Y99.293 E9.94242
G1 X110.898 Y98.448 E10.21056
G1 X114.808 Y92.352 E12.38069
G92 E0
G1 X104.874 Y91.352 F7800.000
G1 X99.404 Y93.751 F7800.000
G1 X99.404 Y94.044 F7800.000
G1 X96.004 Y94.044 F7800.000
G1 X96.004 Y93.198 F7800.000
G1 X86.061 Y93.198 E2.97938 F600.000
G1 X85.106 Y93.468 E3.27683
G1 X85.026 Y94.044 E3.45118
G1 X85.026 Y99.386 E5.05189
G1 X85.896 Y103.706 E6.37226
G1 X85.061 Y106.648 F7800.000
G1 X85.061 Y106.648 F7800.000
G1 X95.560 Y106.802 F7800.000
G1 X86.061 Y106.802 E9.21860 F600.000
G1 X85.106 Y106.532 E9.51604
G1 X85.026 Y105.956 E9.69040
G1 X85.026 Y101.056 E11.15866
G1 X85.194 Y100.221 E11.41390
G1 X94.910 Y100.221 E14.32532
G92 E0
G1 Z0.900 F7800.000
G1 X103.838 Y92.352 F7800.000
G1 X103.838 Y98.715 E1.90665 F600.000
G1 X104.689 Y103.021 E3.22178
G92 E0
G1 X103.874 Y106.648 F7800.000
G1 X103.874 Y106.648 F7800.000
G1 X109.669 Y98.681 F7800.000
G1 X110.972 Y99.535 E0.46678 F600.000
G1 X111.141 Y99.623 E0.52394
G1 X111.447 Y99.745 E0.62257
G1 X112.189 Y99.974 E0.85543
G1 X112.418 Y100.075 E0.93036
G1 X112.899 Y100.352 E1.09667
G1 X113.122 Y100.504 E1.17750
G1 X113.661 Y101.058 E1.40909
G1 X113.826 Y101.314 E1.50046
G1 X114.036 Y101.708 E1.63415
G1 X114.154 Y102.016 E1.73297
G1 X114.270 Y102.431 E1.86219
G1 X114.358 Y103.269 E2.11448
G1 X114.236 Y104.275 E2.41822
G1 X113.903 Y105.060 E2.67378
G1 X113.835 Y105.164 E2.71086
G1 X113.632 Y105.426 E2.81031
G1 X113.360 Y105.723 E2.93104
G1 X112.863 Y106.096 E3.11710
G1 X112.552 Y106.276 E3.22482
G1 X111.942 Y106.516 E3.42115
G1 X111.438 Y106.657 E3.57798
G1 X111.064 Y106.721 E3.69188
G1 X109.798 Y106.818 E4.07227
G1 X104.874 Y106.818 E5.54773
G1 X103.911 Y106.539 E5.84798
G1 X103.838 Y105.989 E6.01435
G1 X103.838 Y100.352 E7.70345
G1 X104.000 Y99.533 E7.95346
G1 X109.648 Y99.533 E9.64579
G1 X109.956 Y99.506 E9.73845
G1 X110.602 Y99.293 E9.94242
G1 X110.898 Y98.448 E10.21056
G1 X114.808 Y92.352 E12.38069
G92 E0
G1 X104.874 Y91.352 F7800.000
G1 X99.404 Y93.751 F7800.000
G1 X99.404 Y94.044 F7800.000
G1 X96.004 Y94.044 F7800.000
G1 X96.004 Y93.198 F7800.000
G1 X86.061 Y93.198 E2.97938 F600.000
G1 X85.106 Y93.468 E3.27683
G1 X85.026 Y94.044 E3.45118
G1 X85.026 Y99.386 E5.05189
G1 X85.896 Y103.706 E6.37226
G1 X85.061 Y106.648 F7800.000
G1 X85.061 Y106.648 F7800.000
G1 X95.560 Y106.802 F7800.000
G1 X86.061 Y106.802 E9.21860 F600.000
G1 X85.106 Y106.532 E9.51604
G1 X85.026 Y105.956 E9.69040
