; generated by Slic3r 1.2.9 on 2016-03-11 at 01:24:10

; external perimeters extrusion width = 1.54mm
; perimeters extrusion width = 2.62mm
; infill extrusion width = 6.27mm
; solid infill extrusion width = 2.62mm
; top infill extrusion width = 2.62mm

M107
M104 S30 ; set temperature
G28 ; home all axes
G1 Z5 F5000 ; lift nozzle
M302
M92 E10000
M500
M501
G1 E100
M109 S30 ; wait for temperature to be reached
G21 ; set units to millimeters
G90 ; use absolute coordinates
M82 ; use absolute distances for extrusion
G92 E0
G1 Z0.300 F7800.000
G1 X112.805 Y95.147 F7800.000
G1 X112.620 Y94.896 E0.01414 F378.000
G1 X111.698 Y94.234 E0.06549
G1 X110.572 Y93.840 E0.11949
G1 X109.248 Y93.711 E0.17968
G1 X107.963 Y93.836 E0.23808
G1 X106.880 Y94.218 E0.29003
G1 X106.009 Y94.861 E0.33905
G1 X105.377 Y95.753 E0.38847
G1 X105.003 Y96.867 E0.44167
G1 X104.882 Y98.186 E0.50159
G1 X104.882 Y107.519 E0.92391
G1 X103.261 Y107.519 E0.99726
G1 X103.261 Y98.030 E1.42662
G1 X103.344 Y96.914 E1.47728
G1 X103.592 Y95.920 E1.52363
G1 X104.002 Y95.037 E1.56768
G1 X104.559 Y94.275 E1.61040
G1 X105.250 Y93.644 E1.65275
G1 X106.078 Y93.142 E1.69657
G1 X107.030 Y92.776 E1.74271
G1 X108.090 Y92.555 E1.79171
G1 X109.260 Y92.481 E1.84473
G1 X110.351 Y92.551 E1.89422
G1 X110.476 Y92.558 E1.89985 F378.000
G1 X111.573 Y92.788 E1.95059
G1 X112.553 Y93.168 E1.99818
G1 X113.404 Y93.690 E2.04333
G1 X114.113 Y94.345 E2.08700
G1 X114.685 Y95.134 E2.13109
G1 X115.104 Y96.047 E2.17656
G1 X115.357 Y97.074 E2.22441
G1 X115.443 Y98.225 E2.27666
G1 X115.443 Y107.519 E2.69719
G1 X113.832 Y107.519 E2.77009
G1 X113.832 Y98.326 E3.18605
G1 X113.701 Y96.965 E3.24792
G1 X113.298 Y95.815 E3.30308
G1 X112.943 Y95.333 E3.33016
G1 X113.619 Y95.951 F7800.000
G1 X115.155 Y97.487 E3.42849 F540.000
G1 X115.199 Y98.076 E3.45522
G1 X113.912 Y96.790 E3.53757
G1 X113.978 Y97.401 E3.56539
G1 X115.217 Y98.640 E3.64468
G1 X115.217 Y99.185 E3.66937
G1 X114.036 Y98.004 E3.74493
G1 X114.058 Y98.572 E3.77061
G1 X115.217 Y99.731 E3.84479
G1 X115.217 Y100.276 E3.86947
G1 X114.058 Y99.117 E3.94365
G1 X114.058 Y99.662 E3.96833
G1 X115.217 Y100.821 E4.04251
G1 X115.217 Y101.367 E4.06720
G1 X114.058 Y100.208 E4.14137
G1 X114.058 Y100.753 E4.16606
G1 X115.217 Y101.912 E4.24023
G1 X115.217 Y102.458 E4.26492
G1 X114.058 Y101.299 E4.33909
G1 X114.058 Y101.844 E4.36378
G1 X115.217 Y103.003 E4.43795
G1 X115.217 Y103.548 E4.46264
G1 X114.058 Y102.389 E4.53681
G1 X114.058 Y102.935 E4.56150
G1 X115.217 Y104.094 E4.63567
G1 X115.217 Y104.639 E4.66036
G1 X114.058 Y103.480 E4.73453
G1 X114.058 Y104.026 E4.75922
G1 X115.217 Y105.185 E4.83339
G1 X115.217 Y105.730 E4.85808
G1 X114.058 Y104.571 E4.93225
G1 X114.058 Y105.116 E4.95694
G1 X115.217 Y106.275 E5.03111
G1 X115.217 Y106.821 E5.05580
G1 X114.058 Y105.662 E5.12997
G1 X114.058 Y106.207 E5.15466
G1 X115.144 Y107.293 E5.22415
G1 X114.598 Y107.293 E5.24883
G1 X114.058 Y106.753 E5.28342
G92 E0
G1 X104.107 Y106.744 F7800.000
G1 X104.107 Y106.744 F7800.000
G1 X104.071 Y106.708 F7800.000
G1 X104.036 Y106.744 F7800.000
G1 X103.487 Y107.089 F7800.000
G1 X103.690 Y107.293 E0.01303 F540.000
G1 X104.236 Y107.293 E0.03771
G1 X103.487 Y106.544 E0.08564
G1 X103.487 Y105.999 E0.11032
G1 X104.656 Y107.168 E0.18514
G1 X104.656 Y106.622 E0.20982
G1 X103.487 Y105.453 E0.28464
G1 X103.487 Y104.908 E0.30932
G1 X104.656 Y106.077 E0.38414
G1 X104.656 Y105.532 E0.40882
G1 X103.487 Y104.362 E0.48364
G1 X103.487 Y103.817 E0.50832
G1 X104.656 Y104.986 E0.58314
G1 X104.656 Y104.441 E0.60782
G1 X103.487 Y103.272 E0.68264
G1 X103.487 Y102.726 E0.70732
G1 X104.656 Y103.895 E0.78214
G1 X104.656 Y103.350 E0.80682
G1 X103.487 Y102.181 E0.88164
G1 X103.487 Y101.635 E0.90632
G1 X104.656 Y102.805 E0.98114
G1 X104.656 Y102.259 E1.00582
G1 X103.487 Y101.090 E1.08064
G1 X103.487 Y100.545 E1.10532
G1 X104.656 Y101.714 E1.18014
G1 X104.656 Y101.168 E1.20482
G1 X103.487 Y99.999 E1.27964
G1 X103.487 Y99.454 E1.30432
G1 X104.656 Y100.623 E1.37914
G1 X104.656 Y100.078 E1.40382
G1 X103.487 Y98.909 E1.47864
G1 X103.487 Y98.363 E1.50332
G1 X104.656 Y99.532 E1.57814
G1 X104.656 Y98.987 E1.60282
G1 X103.497 Y97.828 E1.67701
G1 X103.535 Y97.320 E1.70004
G1 X104.656 Y98.441 E1.77179
G1 X104.686 Y97.926 E1.79515
G1 X103.582 Y96.822 E1.86579
G1 X103.691 Y96.386 E1.88616
G1 X104.732 Y97.427 E1.95281
G1 X104.778 Y96.928 E1.97550
G1 X103.799 Y95.949 E2.03814
G1 X103.971 Y95.575 E2.05675
G1 X104.907 Y96.511 E2.11667
G1 X105.044 Y96.103 E2.13616
G1 X104.144 Y95.203 E2.19378
G1 X104.361 Y94.874 E2.21160
G1 X105.181 Y95.695 E2.26413
G1 X105.407 Y95.375 E2.28184
G1 X104.591 Y94.559 E2.33408
G1 X104.857 Y94.279 E2.35154
G1 X105.634 Y95.056 E2.40127
G1 X105.860 Y94.737 E2.41898
G1 X105.134 Y94.011 E2.46546
G1 X105.431 Y93.763 E2.48298
G1 X106.170 Y94.502 E2.53029
G1 X106.484 Y94.270 E2.54794
G1 X105.771 Y93.557 E2.59359
G1 X106.110 Y93.351 E2.61156
G1 X106.798 Y94.038 E2.65556
G1 X107.196 Y93.891 E2.67476
G1 X106.501 Y93.196 E2.71924
G1 X106.895 Y93.045 E2.73834
G1 X107.599 Y93.749 E2.78341
G1 X108.008 Y93.612 E2.80292
G1 X107.326 Y92.930 E2.84658
G1 X107.777 Y92.836 E2.86744
G1 X108.505 Y93.564 E2.91402
G1 X109.002 Y93.515 E2.93661
G1 X108.253 Y92.767 E2.98454
G1 X108.766 Y92.734 E3.00780
G1 X109.535 Y93.504 E3.05705
G1 X110.140 Y93.563 E3.08453
G1 X109.292 Y92.715 E3.13876
G1 X109.874 Y92.752 E3.16516
G1 X110.753 Y93.631 E3.22140
G1 X111.591 Y93.923 F7800.000
G1 X110.476 Y92.808 E3.29276 F540.000
G1 X111.166 Y92.953 E3.32465
G1 X115.041 Y96.828 E3.57268
G1 X114.813 Y96.055 E3.60919
G1 X111.987 Y93.229 E3.79003
G1 X113.433 Y94.129 F7800.000
G1 X114.038 Y94.734 E3.82875 F540.000
G92 E0
G1 X105.979 Y92.939 F7800.000
G1 X103.798 Y92.129 F7800.000
G1 X100.829 Y93.539 F7800.000
G1 X98.538 Y92.448 F7800.000
G1 X96.346 Y92.448 F7800.000
G1 X88.739 Y92.673 F7800.000
G1 X96.121 Y92.673 E0.33406 F378.000
G1 X96.121 Y93.915 E0.39026
G1 X86.178 Y93.915 E0.84017 F378.000
G1 X86.178 Y99.707 E1.10226
G1 X95.027 Y99.707 E1.50267
G1 X95.027 Y100.927 E1.55787
G1 X86.178 Y100.927 E1.95828
G1 X86.178 Y106.277 E2.20037
G1 X95.677 Y106.277 E2.63019
G1 X95.677 Y107.519 E2.68639
G1 X84.557 Y107.519 E3.18956
G1 X84.557 Y92.673 E3.86133
G1 X88.508 Y92.673 E4.04008
G1 X86.115 Y93.689 F7800.000
G1 X85.325 Y92.899 E4.09067 F540.000
G1 X85.870 Y92.899 E4.11537
G1 X86.660 Y93.689 E4.16595
G1 X87.206 Y93.689 E4.19066
G1 X86.416 Y92.899 E4.24124
G1 X86.962 Y92.899 E4.26594
G1 X87.752 Y93.689 E4.31653
G1 X88.297 Y93.689 E4.34123
G1 X87.507 Y92.899 E4.39182
G1 X88.053 Y92.899 E4.41652
G1 X88.843 Y93.689 E4.46710
G1 X89.389 Y93.689 E4.49181
G1 X88.598 Y92.899 E4.54239
G1 X89.144 Y92.899 E4.56709
G1 X89.934 Y93.689 E4.61768
G1 X90.480 Y93.689 E4.64238
G1 X89.690 Y92.899 E4.69297
G1 X90.235 Y92.899 E4.71767
G1 X91.025 Y93.689 E4.76825
G1 X91.571 Y93.689 E4.79296
G1 X90.781 Y92.899 E4.84354
G1 X91.327 Y92.899 E4.86824
G1 X92.117 Y93.689 E4.91883
G1 X92.662 Y93.689 E4.94353
G1 X91.872 Y92.899 E4.99411
G1 X92.418 Y92.899 E5.01882
G1 X93.208 Y93.689 E5.06940
G1 X93.754 Y93.689 E5.09410
G1 X92.963 Y92.899 E5.14469
G1 X93.509 Y92.899 E5.16939
G1 X94.299 Y93.689 E5.21998
G1 X94.845 Y93.689 E5.24468
G1 X94.055 Y92.899 E5.29526
G1 X94.600 Y92.899 E5.31997
G1 X95.390 Y93.689 E5.37055
G1 X95.895 Y93.648 E5.39348
G1 X95.146 Y92.899 E5.44145
G1 X95.692 Y92.899 E5.46615
G1 X95.895 Y93.103 E5.47919
G92 E0
G1 X85.403 Y93.448 F7800.000
G1 X85.403 Y93.448 F7800.000
G1 X94.801 Y100.193 F7800.000
G1 X94.541 Y99.933 E0.01665 F540.000
G1 X93.996 Y99.933 E0.04135
G1 X94.764 Y100.701 E0.09053
G1 X94.218 Y100.701 E0.11523
G1 X93.450 Y99.933 E0.16441
G1 X92.904 Y99.933 E0.18911
G1 X93.672 Y100.701 E0.23829
G1 X93.127 Y100.701 E0.26299
G1 X92.359 Y99.933 E0.31217
G1 X91.813 Y99.933 E0.33687
G1 X92.581 Y100.701 E0.38605
G1 X92.035 Y100.701 E0.41075
G1 X91.267 Y99.933 E0.45993
G1 X90.722 Y99.933 E0.48463
G1 X91.490 Y100.701 E0.53381
G1 X90.944 Y100.701 E0.55851
G1 X90.176 Y99.933 E0.60769
G1 X89.631 Y99.933 E0.63239
G1 X90.399 Y100.701 E0.68157
G1 X89.853 Y100.701 E0.70627
G1 X89.085 Y99.933 E0.75545
G1 X88.539 Y99.933 E0.78015
G1 X89.307 Y100.701 E0.82932
G1 X88.762 Y100.701 E0.85403
G1 X87.994 Y99.933 E0.90320
G1 X87.448 Y99.933 E0.92791
G1 X88.216 Y100.701 E0.97708
G1 X87.670 Y100.701 E1.00179
G1 X86.902 Y99.933 E1.05096
G1 X86.357 Y99.933 E1.07567
G1 X87.125 Y100.701 E1.12484
G1 X86.579 Y100.701 E1.14955
G1 X84.783 Y98.905 E1.26454
G1 X84.783 Y98.359 E1.28924
G1 X85.952 Y99.528 E1.36409
G1 X85.952 Y98.983 E1.38879
G1 X84.783 Y97.814 E1.46365
G1 X84.783 Y97.268 E1.48835
G1 X85.952 Y98.437 E1.56320
G1 X85.952 Y97.892 E1.58790
G1 X84.783 Y96.722 E1.66275
G1 X84.783 Y96.177 E1.68746
G1 X85.952 Y97.346 E1.76231
G1 X85.952 Y96.800 E1.78701
G1 X84.783 Y95.631 E1.86186
G1 X84.783 Y95.086 E1.88656
G1 X85.952 Y96.255 E1.96142
G1 X85.952 Y95.709 E1.98612
G1 X84.783 Y94.540 E2.06097
G1 X84.783 Y93.994 E2.08567
G1 X85.952 Y95.163 E2.16052
G1 X85.952 Y94.618 E2.18523
G1 X84.783 Y93.449 E2.26008
G1 X84.801 Y92.921 E2.28398
G1 X85.952 Y94.072 E2.35769
G1 X84.783 Y99.451 F7800.000
G1 X86.034 Y100.701 E2.43774 F540.000
G1 X85.952 Y101.165 E2.45908
G1 X84.783 Y99.996 E2.53394
G1 X84.783 Y100.542 E2.55864
G1 X85.952 Y101.711 E2.63349
G1 X85.952 Y102.257 E2.65819
G1 X84.783 Y101.088 E2.73304
G1 X84.783 Y101.633 E2.75775
G1 X85.952 Y102.802 E2.83260
G1 X85.952 Y103.348 E2.85730
G1 X84.783 Y102.179 E2.93215
G1 X84.783 Y102.724 E2.95686
G1 X85.952 Y103.894 E3.03171
G1 X85.952 Y104.439 E3.05641
G1 X84.783 Y103.270 E3.13126
G1 X84.783 Y103.816 E3.15596
G1 X85.952 Y104.985 E3.23082
G1 X85.952 Y105.530 E3.25552
G1 X84.783 Y104.361 E3.33037
G1 X84.783 Y104.907 E3.35507
G1 X85.952 Y106.076 E3.42992
G1 X85.834 Y106.503 E3.44998
G1 X86.624 Y107.293 E3.50057
G1 X86.078 Y107.293 E3.52527
G1 X84.783 Y105.998 E3.60817
G1 X84.783 Y105.453 E3.63288
G1 X85.952 Y106.622 E3.70773
G1 X86.379 Y106.503 E3.72779
G1 X87.169 Y107.293 E3.77838
G1 X87.715 Y107.293 E3.80308
G1 X86.925 Y106.503 E3.85366
G1 X87.470 Y106.503 E3.87837
G1 X88.261 Y107.293 E3.92895
G1 X88.806 Y107.293 E3.95365
G1 X88.016 Y106.503 E4.00424
G1 X88.562 Y106.503 E4.02894
G1 X89.352 Y107.293 E4.07953
G1 X89.897 Y107.293 E4.10423
G1 X89.107 Y106.503 E4.15481
G1 X89.653 Y106.503 E4.17952
G1 X90.443 Y107.293 E4.23010
G1 X90.989 Y107.293 E4.25481
G1 X90.199 Y106.503 E4.30539
G1 X90.744 Y106.503 E4.33009
G1 X91.534 Y107.293 E4.38068
G1 X92.080 Y107.293 E4.40538
G1 X91.290 Y106.503 E4.45597
G1 X91.835 Y106.503 E4.48067
G1 X92.626 Y107.293 E4.53125
G1 X93.171 Y107.293 E4.55596
G1 X92.381 Y106.503 E4.60654
G1 X92.927 Y106.503 E4.63124
G1 X93.717 Y107.293 E4.68183
G1 X94.262 Y107.293 E4.70653
G1 X93.472 Y106.503 E4.75712
G1 X94.018 Y106.503 E4.78182
G1 X94.808 Y107.293 E4.83241
G1 X94.564 Y106.503 F7800.000
G1 X95.354 Y107.293 E4.88299 F540.000
G1 X95.451 Y106.845 E4.90375
G1 X95.109 Y106.503 E4.92565
G1 X84.783 Y106.544 F7800.000
G1 X85.532 Y107.293 E4.97362 F540.000
G1 X84.987 Y107.293 E4.99832
G1 X84.783 Y107.089 E5.01135
M106 S255
G92 E0
G1 Z0.600 F7800.000
G1 X114.637 Y107.744 F7800.000
G1 X114.636 Y98.255 E2.84325 F600.000
G1 X114.546 Y97.203 E3.15974
G1 X114.441 Y96.677 E3.32027
G1 X114.334 Y96.316 E3.43319
G1 X114.014 Y95.526 E3.68878
G1 X113.539 Y94.854 E3.93514
G1 X113.219 Y94.497 E4.07880
G1 X113.008 Y94.296 E4.16632
G1 X112.248 Y93.785 E4.44066
G1 X111.882 Y93.607 E4.56244
G1 X111.384 Y93.424 E4.72146
G1 X110.802 Y93.262 E4.90262
G1 X110.392 Y93.187 E5.02756
G1 X109.260 Y93.097 E5.36783
G1 X108.175 Y93.182 E5.69391
G1 X107.732 Y93.262 E5.82880
G1 X107.215 Y93.406 E5.98948
G1 X106.697 Y93.597 E6.15492
G1 X106.377 Y93.750 E6.26142
G1 X105.617 Y94.270 E6.53725
G1 X105.403 Y94.476 E6.62624
G1 X105.129 Y94.786 E6.75028
G1 X104.673 Y95.433 E6.98748
G1 X104.367 Y96.193 E7.23306
G1 X104.252 Y96.587 E7.35604
G1 X104.160 Y97.045 E7.49583
G1 X104.073 Y98.101 E7.81328
G1 X104.071 Y107.744 E10.70287
G92 E0
G1 X103.036 Y98.022 F7800.000
G1 X103.036 Y98.022 F7800.000
G1 X98.950 Y97.716 F7800.000
G1 X98.894 Y97.445 F7800.000
G1 X96.346 Y96.923 F7800.000
G1 X96.346 Y94.140 F7800.000
G1 X96.346 Y93.294 F7800.000
G1 X86.403 Y93.294 E2.97938 F600.000
G1 X85.448 Y93.564 E3.27683
G1 X85.368 Y94.140 E3.45118
G1 X85.368 Y99.482 E5.05189
G1 X86.238 Y103.802 E6.37226
G1 X85.403 Y106.744 F7800.000
G1 X85.403 Y106.744 F7800.000
G1 X95.902 Y106.898 F7800.000
G1 X86.403 Y106.898 E9.21860 F600.000
G1 X85.448 Y106.628 E9.51604
G1 X85.368 Y106.052 E9.69040
G1 X85.368 Y101.152 E11.15866
G1 X85.536 Y100.317 E11.41390
G1 X95.252 Y100.317 E14.32532
G92 E0
G1 Z0.900 F7800.000
G1 X114.637 Y107.744 F7800.000
G1 X114.636 Y98.255 E2.84325 F600.000
G1 X114.546 Y97.203 E3.15974
G1 X114.441 Y96.677 E3.32027
G1 X114.334 Y96.316 E3.43319
G1 X114.014 Y95.526 E3.68879
G1 X113.539 Y94.854 E3.93514
G1 X113.219 Y94.497 E4.07880
G1 X113.008 Y94.296 E4.16632
G1 X112.248 Y93.785 E4.44066
G1 X111.882 Y93.607 E4.56244
G1 X111.384 Y93.424 E4.72146
G1 X110.802 Y93.262 E4.90262
G1 X110.390 Y93.187 E5.02800
G1 X109.260 Y93.097 E5.36783
G1 X108.175 Y93.182 E5.69390
G1 X107.732 Y93.262 E5.82880
G1 X107.215 Y93.406 E5.98948
G1 X106.697 Y93.597 E6.15492
G1 X106.377 Y93.750 E6.26142
G1 X105.617 Y94.270 E6.53724
G1 X105.403 Y94.476 E6.62623
G1 X105.129 Y94.786 E6.75028
G1 X104.673 Y95.433 E6.98748
G1 X104.367 Y96.193 E7.23306
G1 X104.252 Y96.587 E7.35604
G1 X104.160 Y97.045 E7.49583
G1 X104.073 Y98.101 E7.81327
G1 X104.071 Y107.744 E10.70286
G92 E0
G1 X103.036 Y98.022 F7800.000
G1 X103.036 Y98.022 F7800.000
G1 X98.950 Y97.716 F7800.000
G1 X98.894 Y97.445 F7800.000
G1 X96.346 Y96.923 F7800.000
G1 X96.346 Y94.140 F7800.000
G1 X96.346 Y93.294 F7800.000
G1 X86.403 Y93.294 E2.97938 F600.000
G1 X85.448 Y93.564 E3.27683
G1 X85.368 Y94.140 E3.45118
G1 X85.368 Y99.482 E5.05189
G1 X86.238 Y103.802 E6.37226
G1 X85.403 Y106.744 F7800.000
G1 X85.403 Y106.744 F7800.000
G1 X95.902 Y106.898 F7800.000
G1 X86.403 Y106.898 E9.21860 F600.000
G1 X85.448 Y106.628 E9.51604
G1 X85.368 Y106.052 E9.69040
G1 X85.368 Y101.152 E11.15866
G1 X85.536 Y100.317 E11.41390
G1 X95.252 Y100.317 E14.32532
G92 E0
G1 Z1.200 F7800.000
G1 X114.637 Y107.744 F7800.000
G1 X114.636 Y98.255 E2.84325 F600.000
G1 X114.546 Y97.203 E3.15974
G1 X114.441 Y96.677 E3.32028
G1 X114.334 Y96.316 E3.43319
G1 X114.014 Y95.526 E3.68878
G1 X113.539 Y94.854 E3.93514
G1 X113.219 Y94.497 E4.07880
G1 X113.008 Y94.296 E4.16632
G1 X112.248 Y93.785 E4.44066
G1 X111.882 Y93.607 E4.56244
G1 X111.384 Y93.424 E4.72146
G1 X110.802 Y93.262 E4.90262
G1 X110.390 Y93.187 E5.02800
G1 X109.260 Y93.097 E5.36783
G1 X108.175 Y93.182 E5.69391
G1 X107.732 Y93.262 E5.82880
G1 X107.215 Y93.406 E5.98948
G1 X106.697 Y93.597 E6.15492
G1 X106.377 Y93.750 E6.26142
G1 X105.617 Y94.270 E6.53725
G1 X105.403 Y94.476 E6.62623
G1 X105.129 Y94.786 E6.75027
G1 X104.673 Y95.433 E6.98748
G1 X104.367 Y96.193 E7.23306
G1 X104.252 Y96.587 E7.35604
G1 X104.160 Y97.045 E7.49583
G1 X104.073 Y98.101 E7.81327
G1 X104.071 Y107.744 E10.70286
G92 E0
G1 X103.036 Y98.022 F7800.000
G1 X103.036 Y98.022 F7800.000
G1 X98.950 Y97.716 F7800.000
G1 X98.894 Y97.445 F7800.000
G1 X96.346 Y96.923 F7800.000
G1 X96.346 Y94.140 F7800.000
G1 X96.346 Y93.294 F7800.000
G1 X86.403 Y93.294 E2.97938 F600.000
G1 X85.448 Y93.564 E3.27683
G1 X85.368 Y94.140 E3.45118
G1 X85.368 Y99.482 E5.05189
G1 X86.238 Y103.802 E6.37226
G1 X85.403 Y106.744 F7800.000
G1 X85.403 Y106.744 F7800.000
G1 X95.902 Y106.898 F7800.000
G1 X86.403 Y106.898 E9.21860 F600.000
G1 X85.448 Y106.628 E9.51604
G1 X85.368 Y106.052 E9.69040
G1 X85.368 Y101.152 E11.15866
G1 X85.536 Y100.317 E11.41390
G1 X95.252 Y100.317 E14.32532
G92 E0
G1 Z1.500 F7800.000
G1 X114.637 Y107.744 F7800.000
G1 X114.636 Y98.255 E2.84325 F600.000
G1 X114.546 Y97.203 E3.15974
G1 X114.441 Y96.677 E3.32028
G1 X114.334 Y96.316 E3.43319
G1 X114.014 Y95.526 E3.68878
G1 X113.539 Y94.854 E3.93514
G1 X113.219 Y94.497 E4.07880
G1 X113.008 Y94.296 E4.16632
G1 X112.248 Y93.785 E4.44066
G1 X111.882 Y93.607 E4.56244
G1 X111.384 Y93.424 E4.72146
G1 X110.802 Y93.262 E4.90262
G1 X110.390 Y93.187 E5.02800
G1 X109.260 Y93.097 E5.36783
G1 X108.175 Y93.182 E5.69391
G1 X107.732 Y93.262 E5.82880
