; generated by Slic3r 1.2.9 on 2016-03-11 at 01:24:11

; external perimeters extrusion width = 1.54mm
; perimeters extrusion width = 2.62mm
; infill extrusion width = 6.27mm
; solid infill extrusion width = 2.62mm
; top infill extrusion width = 2.62mm

M107
M104 S30 ; set temperature
G28 ; home all axes
G1 Z5 F5000 ; lift nozzle
M302
M92 E10000
M500
M501
G1 E100
M109 S30 ; wait for temperature to be reached
G21 ; set units to millimeters
G90 ; use absolute coordinates
M82 ; use absolute distances for extrusion
G92 E0
G1 Z0.300 F7800.000
G1 X112.782 Y100.732 F7800.000
G1 X115.162 Y106.586 E0.28593 F378.000
G1 X115.503 Y107.423 E0.32684 F378.000
G1 X113.811 Y107.423 E0.40339
G1 X109.673 Y96.800 E0.91924
G1 X108.751 Y94.056 E1.05025
G1 X108.356 Y94.056 E1.06813
G1 X107.433 Y96.800 E1.19915
G1 X103.273 Y107.423 E1.71537
G1 X101.582 Y107.423 E1.79189
G1 X107.621 Y92.577 E2.51711
G1 X109.465 Y92.577 E2.60056
G1 X112.695 Y100.518 E2.98848
G1 X112.367 Y100.410 F7800.000
G1 X110.717 Y98.760 E3.09458 F540.000
G1 X111.616 Y98.563 F7800.000
G1 X110.017 Y96.965 E3.19735 F540.000
G1 X110.865 Y96.717 F7800.000
G1 X109.435 Y95.286 E3.28928 F540.000
G1 X110.114 Y94.870 F7800.000
G1 X108.047 Y92.803 E3.42215 F540.000
G1 X107.675 Y92.978 E3.44086
G1 X108.526 Y93.830 E3.49558
G1 X108.156 Y94.008 F7800.000
G1 X107.516 Y93.368 E3.53674 F540.000
G1 X107.358 Y93.757 E3.55585
G1 X108.018 Y94.418 E3.59832
G1 X107.881 Y94.828 E3.61799
G1 X107.199 Y94.147 E3.66178
G1 X107.041 Y94.536 E3.68089
G1 X107.743 Y95.238 E3.72601
G1 X107.605 Y95.648 E3.74567
G1 X106.882 Y94.926 E3.79211
G1 X106.724 Y95.315 E3.81122
G1 X107.467 Y96.058 E3.85897
G1 X107.329 Y96.468 E3.87864
G1 X106.566 Y95.704 E3.92771
G1 X106.407 Y96.094 E3.94682
G1 X107.187 Y96.874 E3.99696
G1 X107.033 Y97.268 E4.01618
G1 X106.249 Y96.483 E4.06659
G1 X106.090 Y96.873 E4.08571
G1 X106.879 Y97.661 E4.13639
G1 X106.725 Y98.055 E4.15561
G1 X105.932 Y97.262 E4.20657
G1 X105.774 Y97.652 E4.22568
G1 X106.571 Y98.449 E4.27691
G1 X106.416 Y98.842 E4.29613
G1 X105.615 Y98.041 E4.34763
G1 X105.457 Y98.431 E4.36674
G1 X106.262 Y99.236 E4.41852
G1 X106.108 Y99.630 E4.43774
G1 X105.298 Y98.820 E4.48979
G1 X105.140 Y99.209 E4.50890
G1 X105.954 Y100.023 E4.56122
G1 X105.800 Y100.417 E4.58044
G1 X104.982 Y99.599 E4.63303
G1 X104.823 Y99.988 E4.65214
G1 X105.646 Y100.811 E4.70501
G1 X105.491 Y101.204 E4.72423
G1 X104.665 Y100.378 E4.77737
G1 X104.506 Y100.767 E4.79648
G1 X105.337 Y101.598 E4.84989
G1 X105.183 Y101.992 E4.86911
G1 X104.348 Y101.157 E4.92280
G1 X104.189 Y101.546 E4.94191
G1 X105.029 Y102.385 E4.99587
G1 X104.875 Y102.779 E5.01509
G1 X104.031 Y101.935 E5.06932
G1 X103.873 Y102.325 E5.08843
G1 X104.721 Y103.173 E5.14293
G1 X104.566 Y103.566 E5.16215
G1 X103.714 Y102.714 E5.21693
G1 X103.556 Y103.104 E5.23604
G1 X104.412 Y103.960 E5.29109
G1 X104.258 Y104.354 E5.31031
G1 X103.397 Y103.493 E5.36563
G1 X103.239 Y103.883 E5.38474
G1 X104.104 Y104.747 E5.44034
G1 X103.950 Y105.141 E5.45956
G1 X103.081 Y104.272 E5.51543
G1 X102.922 Y104.662 E5.53454
G1 X103.796 Y105.535 E5.59068
G1 X103.641 Y105.929 E5.60990
G1 X102.764 Y105.051 E5.66631
G1 X102.605 Y105.440 E5.68542
G1 X103.487 Y106.322 E5.74211
G1 X103.333 Y106.716 E5.76133
G1 X102.447 Y105.830 E5.81829
G1 X102.289 Y106.219 E5.83740
G1 X103.179 Y107.110 E5.89463
G1 X102.719 Y107.197 E5.91593
G1 X102.130 Y106.609 E5.95376
G1 X101.972 Y106.998 E5.97287
G1 X102.171 Y107.197 E5.98566
G92 E0
G1 X103.011 Y105.966 F7800.000
G1 X103.011 Y105.966 F7800.000
G1 X112.465 Y103.247 F7800.000
G1 X114.245 Y105.027 E0.11444 F540.000
G1 X114.620 Y105.951 F7800.000
G1 X112.814 Y104.145 E0.23054 F540.000
G1 X113.164 Y105.042 F7800.000
G1 X114.996 Y106.874 E0.34831 F540.000
G1 X114.771 Y107.197 E0.36620
G1 X113.514 Y105.939 E0.44704
G1 X113.863 Y106.837 F7800.000
G1 X114.223 Y107.197 E0.47019 F540.000
G1 X113.869 Y104.104 F7800.000
G1 X112.115 Y102.350 E0.58296 F540.000
G1 X111.765 Y101.452 F7800.000
G1 X113.494 Y103.180 E0.69406 F540.000
G1 X113.118 Y102.257 F7800.000
G1 X111.416 Y100.555 E0.80350 F540.000
G1 X111.066 Y99.657 F7800.000
G1 X112.743 Y101.334 E0.91127 F540.000
G1 X111.991 Y99.487 F7800.000
G1 X110.367 Y97.862 E1.01570 F540.000
G1 X111.240 Y97.640 F7800.000
G1 X109.712 Y96.111 E1.11396 F540.000
G1 X110.489 Y95.793 F7800.000
G1 X109.158 Y94.461 E1.19957 F540.000
G1 X109.738 Y93.946 F7800.000
G1 X108.595 Y92.803 E1.27307 F540.000
G1 X109.143 Y92.803 E1.29798
G1 X109.363 Y93.023 E1.31212
G92 E0
G1 X107.469 Y92.352 F7800.000
G1 X100.951 Y95.285 F7800.000
G1 X98.177 Y92.352 F7800.000
G1 X96.177 Y92.352 F7800.000
G1 X92.590 Y93.819 F7800.000
G1 X86.009 Y93.819 E0.29781 F378.000
G1 X86.009 Y99.611 E0.55990
G1 X94.858 Y99.611 E0.96031
G1 X94.858 Y100.831 E1.01551
G1 X86.009 Y100.831 E1.41592
G1 X86.009 Y106.181 E1.65800
G1 X95.508 Y106.181 E2.08783
G1 X95.508 Y107.423 E2.14403
G1 X84.388 Y107.423 E2.64720
G1 X84.388 Y92.577 E3.31897
G1 X95.952 Y92.577 E3.84223
G1 X95.952 Y93.819 E3.89843
G1 X92.821 Y93.819 E4.04008 F378.000
G1 X95.726 Y93.007 F7800.000
G1 X95.522 Y92.803 E4.05312 F540.000
G1 X94.977 Y92.803 E4.07782
G1 X95.726 Y93.552 E4.12579
G1 X95.221 Y93.593 E4.14872
G1 X94.431 Y92.803 E4.19930
G1 X93.885 Y92.803 E4.22400
G1 X94.675 Y93.593 E4.27459
G1 X94.130 Y93.593 E4.29929
G1 X93.340 Y92.803 E4.34988
G1 X92.794 Y92.803 E4.37458
G1 X93.584 Y93.593 E4.42516
G1 X93.038 Y93.593 E4.44987
G1 X92.248 Y92.803 E4.50045
G1 X91.703 Y92.803 E4.52515
G1 X92.493 Y93.593 E4.57574
G1 X91.947 Y93.593 E4.60044
G1 X91.157 Y92.803 E4.65103
G1 X90.611 Y92.803 E4.67573
G1 X91.402 Y93.593 E4.72631
G1 X90.856 Y93.593 E4.75102
G1 X90.066 Y92.803 E4.80160
G1 X89.520 Y92.803 E4.82630
G1 X90.310 Y93.593 E4.87689
G1 X89.765 Y93.593 E4.90159
G1 X88.975 Y92.803 E4.95218
G1 X88.429 Y92.803 E4.97688
G1 X89.219 Y93.593 E5.02746
G1 X88.673 Y93.593 E5.05217
G1 X87.883 Y92.803 E5.10275
G1 X87.338 Y92.803 E5.12745
G1 X88.128 Y93.593 E5.17804
G1 X87.582 Y93.593 E5.20274
G1 X86.792 Y92.803 E5.25333
G1 X86.246 Y92.803 E5.27803
G1 X87.037 Y93.593 E5.32861
G1 X86.491 Y93.593 E5.35331
G1 X85.701 Y92.803 E5.40390
G1 X85.155 Y92.803 E5.42860
G1 X85.945 Y93.593 E5.47919
G1 X85.783 Y93.976 F7800.000
G1 X84.632 Y92.825 E5.55289 F540.000
G1 X84.614 Y93.353 E5.57679
G1 X85.783 Y94.522 E5.65165
G1 X85.783 Y95.067 E5.67635
G1 X84.614 Y93.898 E5.75120
G1 X84.614 Y94.444 E5.77590
G1 X85.783 Y95.613 E5.85075
G1 X85.783 Y96.159 E5.87546
G1 X84.614 Y94.990 E5.95031
G1 X84.614 Y95.535 E5.97501
G1 X85.783 Y96.704 E6.04986
G1 X85.783 Y97.250 E6.07457
G1 X84.614 Y96.081 E6.14942
G1 X84.614 Y96.626 E6.17412
G1 X85.783 Y97.796 E6.24897
G1 X85.783 Y98.341 E6.27367
G1 X84.614 Y97.172 E6.34853
G1 X84.614 Y97.718 E6.37323
G1 X85.783 Y98.887 E6.44808
G1 X85.783 Y99.432 E6.47278
G1 X84.614 Y98.263 E6.54763
G1 X84.614 Y98.809 E6.57234
G1 X86.410 Y100.605 E6.68733
G1 X86.955 Y100.605 E6.71203
G1 X86.187 Y99.837 E6.76121
G1 X86.733 Y99.837 E6.78591
G1 X87.501 Y100.605 E6.83509
G1 X88.047 Y100.605 E6.85979
G1 X87.278 Y99.837 E6.90897
G1 X87.824 Y99.837 E6.93367
G1 X88.592 Y100.605 E6.98285
G1 X89.138 Y100.605 E7.00755
G1 X88.370 Y99.837 E7.05673
G1 X88.915 Y99.837 E7.08143
G1 X89.683 Y100.605 E7.13060
G1 X90.229 Y100.605 E7.15531
G1 X89.461 Y99.837 E7.20448
G1 X90.007 Y99.837 E7.22919
G1 X90.775 Y100.605 E7.27836
G1 X91.320 Y100.605 E7.30307
G1 X90.552 Y99.837 E7.35224
G1 X91.098 Y99.837 E7.37695
G1 X91.866 Y100.605 E7.42612
G1 X92.412 Y100.605 E7.45082
G1 X91.644 Y99.837 E7.50000
G1 X92.189 Y99.837 E7.52470
G1 X92.957 Y100.605 E7.57388
G1 X93.503 Y100.605 E7.59858
G1 X92.735 Y99.837 E7.64776
G1 X93.280 Y99.837 E7.67246
G1 X94.049 Y100.605 E7.72164
G1 X94.594 Y100.605 E7.74634
G1 X93.826 Y99.837 E7.79552
G1 X94.372 Y99.837 E7.82022
G1 X94.632 Y100.097 E7.83687
G92 E0
G1 X85.234 Y106.648 F7800.000
G1 X85.234 Y106.648 F7800.000
G1 X94.394 Y106.407 F7800.000
G1 X95.184 Y107.197 E0.05059 F540.000
G1 X95.282 Y106.749 E0.07135
G1 X94.940 Y106.407 E0.09324
G1 X94.639 Y107.197 F7800.000
G1 X93.848 Y106.407 E0.14383 F540.000
G1 X93.303 Y106.407 E0.16853
G1 X94.093 Y107.197 E0.21912
G1 X93.547 Y107.197 E0.24382
G1 X92.757 Y106.407 E0.29441
G1 X92.212 Y106.407 E0.31911
G1 X93.002 Y107.197 E0.36969
G1 X92.456 Y107.197 E0.39440
G1 X91.666 Y106.407 E0.44498
G1 X91.120 Y106.407 E0.46968
G1 X91.910 Y107.197 E0.52027
G1 X91.365 Y107.197 E0.54497
G1 X90.575 Y106.407 E0.59556
G1 X90.029 Y106.407 E0.62026
G1 X90.819 Y107.197 E0.67085
G1 X90.274 Y107.197 E0.69555
G1 X89.483 Y106.407 E0.74613
G1 X88.938 Y106.407 E0.77084
G1 X89.728 Y107.197 E0.82142
G1 X89.182 Y107.197 E0.84612
G1 X88.392 Y106.407 E0.89671
G1 X87.847 Y106.407 E0.92141
G1 X88.637 Y107.197 E0.97200
G1 X88.091 Y107.197 E0.99670
G1 X87.301 Y106.407 E1.04729
G1 X86.755 Y106.407 E1.07199
G1 X87.545 Y107.197 E1.12257
G1 X87.000 Y107.197 E1.14728
G1 X86.210 Y106.407 E1.19786
G1 X85.783 Y106.526 E1.21792
G1 X84.614 Y105.357 E1.29277
G1 X84.614 Y105.902 E1.31748
G1 X85.908 Y107.197 E1.40038
G1 X86.454 Y107.197 E1.42508
G1 X85.664 Y106.407 E1.47567
G1 X85.783 Y105.980 E1.49573
G1 X84.614 Y104.811 E1.57058
G1 X84.614 Y104.265 E1.59528
G1 X85.783 Y105.434 E1.67013
G1 X85.783 Y104.889 E1.69484
G1 X84.614 Y103.720 E1.76969
G1 X84.614 Y103.174 E1.79439
G1 X85.783 Y104.343 E1.86924
G1 X85.783 Y103.798 E1.89394
G1 X84.614 Y102.628 E1.96880
G1 X84.614 Y102.083 E1.99350
G1 X85.783 Y103.252 E2.06835
G1 X85.783 Y102.706 E2.09305
G1 X84.614 Y101.537 E2.16790
G1 X84.614 Y100.992 E2.19261
G1 X85.783 Y102.161 E2.26746
G1 X85.783 Y101.615 E2.29216
G1 X84.614 Y100.446 E2.36701
G1 X84.614 Y99.900 E2.39171
G1 X85.783 Y101.069 E2.46657
G1 X85.864 Y100.605 E2.48791
G1 X84.614 Y99.355 E2.56797
G1 X84.614 Y106.448 F7800.000
G1 X85.363 Y107.197 E2.61593 F540.000
G1 X84.817 Y107.197 E2.64064
G1 X84.614 Y106.993 E2.65367
M106 S255
G92 E0
G1 Z0.600 F7800.000
G1 X114.744 Y107.648 F7800.000
G1 X110.331 Y96.562 E3.57549 F600.000
G1 X109.385 Y94.013 E4.39000
G1 X108.945 Y93.349 E4.62869
G1 X108.518 Y93.316 E4.75724
G1 X108.143 Y93.353 E4.87012
G1 X107.712 Y94.010 E5.10552
G1 X106.767 Y96.558 E5.91986
G1 X102.340 Y107.648 E9.49798
G92 E0
G1 X101.247 Y107.648 F7800.000
G1 X99.336 Y101.056 F7800.000
G1 X99.845 Y97.578 F7800.000
G1 X96.177 Y96.827 F7800.000
G1 X96.177 Y94.044 F7800.000
G1 X96.177 Y93.198 F7800.000
G1 X86.234 Y93.198 E2.97938 F600.000
G1 X85.278 Y93.468 E3.27683
G1 X85.198 Y94.044 E3.45118
G1 X85.198 Y99.386 E5.05189
G1 X86.069 Y103.706 E6.37226
G1 X85.234 Y106.648 F7800.000
G1 X85.234 Y106.648 F7800.000
G1 X95.733 Y106.802 F7800.000
G1 X86.234 Y106.802 E9.21860 F600.000
G1 X85.278 Y106.532 E9.51604
G1 X85.198 Y105.956 E9.69040
G1 X85.198 Y101.056 E11.15866
G1 X85.367 Y100.221 E11.41390
G1 X95.083 Y100.221 E14.32532
G92 E0
G1 Z0.900 F7800.000
G1 X114.744 Y107.648 F7800.000
G1 X110.331 Y96.562 E3.57549 F600.000
G1 X109.385 Y94.013 E4.39000
G1 X108.945 Y93.349 E4.62869
G1 X108.518 Y93.316 E4.75724
G1 X108.143 Y93.353 E4.87012
G1 X107.712 Y94.010 E5.10552
G1 X106.767 Y96.558 E5.91986
G1 X102.340 Y107.648 E9.49798
G92 E0
G1 X101.247 Y107.648 F7800.000
G1 X99.336 Y101.056 F7800.000
G1 X99.845 Y97.578 F7800.000
G1 X96.177 Y96.827 F7800.000
G1 X96.177 Y94.044 F7800.000
G1 X96.177 Y93.198 F7800.000
G1 X86.234 Y93.198 E2.97938 F600.000
G1 X85.278 Y93.468 E3.27683
G1 X85.198 Y94.044 E3.45118
G1 X85.198 Y99.386 E5.05189
G1 X86.069 Y103.706 E6.37226
G1 X85.234 Y106.648 F7800.000
G1 X85.234 Y106.648 F7800.000
G1 X95.733 Y106.802 F7800.000
G1 X86.234 Y106.802 E9.21860 F600.000
G1 X85.278 Y106.532 E9.51604
G1 X85.198 Y105.956 E9.69040
G1 X85.198 Y101.056 E11.15866
G1 X85.367 Y100.221 E11.41390
G1 X95.083 Y100.221 E14.32532
G92 E0
G1 Z1.200 F7800.000
G1 X114.744 Y107.648 F7800.000
G1 X110.331 Y96.562 E3.57549 F600.000
G1 X109.385 Y94.013 E4.39000
G1 X108.945 Y93.349 E4.62869
G1 X108.518 Y93.316 E4.75724
G1 X108.143 Y93.353 E4.87012
G1 X107.712 Y94.010 E5.10552
G1 X106.767 Y96.558 E5.91986
G1 X102.340 Y107.648 E9.49798
G92 E0
G1 X101.247 Y107.648 F7800.000
G1 X99.336 Y101.056 F7800.000
G1 X99.845 Y97.578 F7800.000
G1 X96.177 Y96.827 F7800.000
G1 X96.177 Y94.044 F7800.000
G1 X96.177 Y93.198 F7800.000
G1 X86.234 Y93.198 E2.97938 F600.000
G1 X85.278 Y93.468 E3.27683
G1 X85.198 Y94.044 E3.45118
G1 X85.198 Y99.386 E5.05189
G1 X86.069 Y103.706 E6.37226
G1 X85.234 Y106.648 F7800.000
G1 X85.234 Y106.648 F7800.000
G1 X95.733 Y106.802 F7800.000
G1 X86.234 Y106.802 E9.21860 F600.000
G1 X85.278 Y106.532 E9.51604
G1 X85.198 Y105.956 E9.69040
G1 X85.198 Y101.056 E11.15866
G1 X85.367 Y100.221 E11.41390
G1 X95.083 Y100.221 E14.32532
G92 E0
G1 Z1.500 F7800.000
G1 X114.744 Y107.648 F7800.000
G1 X110.331 Y96.562 E3.57549 F600.000
G1 X109.385 Y94.013 E4.39000
G1 X108.945 Y93.349 E4.62869
G1 X108.518 Y93.316 E4.75724
G1 X108.143 Y93.353 E4.87012
G1 X107.712 Y94.010 E5.10552
G1 X106.767 Y96.558 E5.91986
G1 X102.340 Y107.648 E9.49798
G92 E0
G1 X101.247 Y107.648 F7800.000
G1 X99.336 Y101.056 F7800.000
G1 X99.845 Y97.578 F7800.000
G1 X96.177 Y96.827 F7800.000
G1 X96.177 Y94.044 F7800.000
G1 X96.177 Y93.198 F7800.000
G1 X86.234 Y93.198 E2.97938 F600.000
G1 X85.278 Y93.468 E3.27683
G1 X85.198 Y94.044 E3.45118
G1 X85.198 Y99.386 E5.05189
G1 X86.069 Y103.706 E6.37226
G1 X85.234 Y106.648 F7800.000
G1 X85.234 Y106.648 F7800.000
G1 X95.733 Y106.802 F7800.000
G1 X86.234 Y106.802 E9.21860 F600.000
G1 X85.278 Y106.532 E9.51604
G1 X85.198 Y105.956 E9.69040
G1 X85.198 Y101.056 E11.15866
G1 X85.367 Y100.221 E11.41390
G1 X95.083 Y100.221 E14.32532
G92 E0
G1 Z1.800 F7800.000
G1 X114.744 Y107.648 F7800.000
G1 X110.331 Y96.562 E3.57549 F600.000
G1 X109.385 Y94.013 E4.39000
G1 X108.945 Y93.349 E4.62869
G1 X108.518 Y93.316 E4.75724
G1 X108.143 Y93.353 E4.87012
G1 X107.712 Y94.010 E5.10552
G1 X106.767 Y96.558 E5.91986
G1 X102.340 Y107.648 E9.49798
G92 E0
G1 X101.247 Y107.648 F7800.000
G1 X99.336 Y101.056 F7800.000
G1 X99.845 Y97.578 F7800.000
G1 X96.177 Y96.827 F7800.000
G1 X96.177 Y94.044 F7800.000
G1 X96.177 Y93.198 F7800.000
G1 X86.234 Y93.198 E2.97938 F600.000
G1 X85.278 Y93.468 E3.27683
G1 X85.198 Y94.044 E3.45118
G1 X85.198 Y99.386 E5.05189
G1 X86.069 Y103.706 E6.37226
G1 X85.234 Y106.648 F7800.000
G1 X85.234 Y106.648 F7800.000
G1 X95.733 Y106.802 F7800.000
G1 X86.234 Y106.802 E9.21860 F600.000
G1 X85.278 Y106.532 E9.51604
G1 X85.198 Y105.956 E9.69040
G1 X85.198 Y101.056 E11.15866
G1 X85.367 Y100.221 E11.41390
G1 X95.083 Y100.221 E14.32532
G92 E0
G1 Z2.100 F7800.000
G1 X114.744 Y107.648 F7800.000
G1 X110.331 Y96.562 E3.57549 F600.000
G1 X109.385 Y94.013 E4.39000
G1 X108.945 Y93.349 E4.62869
G1 X108.518 Y93.316 E4.75724
G1 X108.143 Y93.353 E4.87012
G1 X107.712 Y94.010 E5.10552
G1 X106.767 Y96.558 E5.91986
G1 X102.340 Y107.648 E9.49798
G92 E0
G1 X101.247 Y107.648 F7800.000
G1 X99.336 Y101.056 F7800.000
G1 X99.845 Y97.578 F7800.000
G1 X96.177 Y96.827 F7800.000
G1 X96.177 Y94.044 F7800.000
G1 X96.177 Y93.198 F7800.000
G1 X86.234 Y93.198 E2.97938 F600.000
G1 X85.278 Y93.468 E3.27683
G1 X85.198 Y94.044 E3.45118
G1 X85.198 Y99.386 E5.05189
G1 X86.069 Y103.706 E6.37226
G92 E0
G1 X85.234 Y106.648 F7800.000
G1 X85.234 Y106.648 F7800.000
G1 X95.733 Y106.802 F7800.000
G1 X86.234 Y106.802 E2.84634 F600.000
G1 X85.278 Y106.532 E3.14379
G1 X85.198 Y105.956 E3.31814
G1 X85.198 Y101.056 E4.78640
G1 X85.367 Y100.221 E5.04164
G1 X95.083 Y100.221 E7.95306
G92 E0
M107
M104 S0 ; turn off temperature
G28 X0  ; home X axis
M84     ; disable motors

; filament used = 160.7mm (1.2cm3)

; avoid_crossing_perimeters = 1
; bed_shape = 0x0,250x0,250x250,0x250
; bed_temperature = 0
; before_layer_gcode = 
; bridge_acceleration = 0
; bridge_fan_speed = 100
; brim_width = 0
; complete_objects = 0
; cooling = 1
; default_acceleration = 0
; disable_fan_first_layers = 1
; duplicate_distance = 6
; end_gcode = M104 S0 ; turn off temperature\nG28 X0  ; home X axis\nM84     ; disable motors\n
; extruder_clearance_height = 20
; extruder_clearance_radius = 20
; extruder_offset = 0x0
; extrusion_axis = E
; extrusion_multiplier = 3
; fan_always_on = 0
; fan_below_layer_time = 60
; filament_colour = #FFFFFF
; filament_diameter = 3.125
; first_layer_acceleration = 0
