; generated by Slic3r 1.2.9 on 2016-03-11 at 01:24:13

; external perimeters extrusion width = 1.54mm
; perimeters extrusion width = 2.62mm
; infill extrusion width = 6.27mm
; solid infill extrusion width = 2.62mm
; top infill extrusion width = 2.62mm

M107
M104 S30 ; set temperature
G28 ; home all axes
G1 Z5 F5000 ; lift nozzle
M302
M92 E10000
M500
M501
G1 E100
M109 S30 ; wait for temperature to be reached
G21 ; set units to millimeters
G90 ; use absolute coordinates
M82 ; use absolute distances for extrusion
G92 E0
G1 Z0.300 F7800.000
G1 X111.829 Y105.658 F7800.000
G1 X108.805 Y101.251 E0.24183 F378.000
G1 X104.448 Y107.423 E0.58368
G1 X102.719 Y107.423 E0.66192
G1 X107.912 Y100.299 E1.06083
G1 X102.275 Y92.577 E1.49343
G1 X104.003 Y92.577 E1.57162
G1 X108.257 Y98.666 E1.90772
G1 X108.793 Y99.435 E1.95013 F378.000
G1 X113.484 Y92.577 E2.32608
G1 X115.219 Y92.577 E2.40460
G1 X109.716 Y100.376 E2.83651
G1 X114.771 Y107.423 E3.22892
G1 X113.040 Y107.423 E3.30726
G1 X111.959 Y105.848 E3.39367
G1 X111.637 Y104.872 F7800.000
G1 X113.962 Y107.197 E3.54443 F540.000
G1 X113.410 Y107.197 E3.56975
G1 X112.845 Y106.632 E3.60638
G1 X113.590 Y106.273 F7800.000
G1 X110.429 Y103.111 E3.81134 F540.000
G1 X110.787 Y102.364 F7800.000
G1 X107.052 Y98.630 E4.05341 F540.000
G1 X107.238 Y97.711 F7800.000
G1 X104.066 Y94.538 E4.25910 F540.000
G1 X104.678 Y94.046 F7800.000
G1 X103.435 Y92.803 E4.33968 F540.000
G1 X102.883 Y92.803 E4.36501
G1 X105.958 Y95.878 E4.56439
G1 X105.559 Y96.584 F7800.000
G1 X109.426 Y100.451 E4.81508 F540.000
G1 X109.655 Y100.127 E4.83326
G1 X109.001 Y99.474 E4.87560
G1 X109.226 Y99.146 E4.89382
G1 X109.883 Y99.803 E4.93644
G1 X110.112 Y99.479 E4.95461
G1 X109.450 Y98.818 E4.99750
G1 X109.675 Y98.490 E5.01572
G1 X110.340 Y99.155 E5.05887
G1 X110.569 Y98.831 E5.07704
G1 X109.899 Y98.162 E5.12046
G1 X110.124 Y97.834 E5.13868
G1 X110.797 Y98.508 E5.18238
G1 X111.026 Y98.184 E5.20055
G1 X110.348 Y97.506 E5.24451
G1 X110.572 Y97.177 E5.26273
G1 X111.255 Y97.860 E5.30696
G1 X111.483 Y97.536 E5.32513
G1 X110.797 Y96.849 E5.36963
G1 X111.021 Y96.521 E5.38785
G1 X111.712 Y97.212 E5.43262
G1 X111.940 Y96.888 E5.45079
G1 X111.246 Y96.193 E5.49583
G1 X111.470 Y95.865 E5.51405
G1 X112.169 Y96.564 E5.55935
G1 X112.397 Y96.240 E5.57753
G1 X111.694 Y95.537 E5.62310
G1 X111.919 Y95.209 E5.64132
G1 X112.626 Y95.916 E5.68717
G1 X112.854 Y95.592 E5.70534
G1 X112.143 Y94.881 E5.75145
G1 X112.368 Y94.553 E5.76967
G1 X113.083 Y95.268 E5.81606
G1 X113.312 Y94.944 E5.83423
G1 X112.592 Y94.225 E5.88088
G1 X112.816 Y93.897 E5.89910
G1 X113.540 Y94.621 E5.94602
G1 X113.769 Y94.297 E5.96420
G1 X113.041 Y93.569 E6.01139
G1 X113.265 Y93.241 E6.02961
G1 X113.997 Y93.973 E6.07707
G1 X114.226 Y93.649 E6.09524
G1 X113.490 Y92.913 E6.14297
G1 X113.932 Y92.803 E6.16388
G1 X114.454 Y93.325 E6.19771
G1 X114.485 Y92.803 E6.22168
G1 X114.683 Y93.001 E6.23451
G92 E0
G1 X112.188 Y104.318 F7800.000
G1 X108.159 Y100.289 E0.26124 F540.000
G1 X107.926 Y100.608 E0.27937
G1 X108.568 Y101.251 E0.32101
G1 X108.340 Y101.574 E0.33919
G1 X107.693 Y100.928 E0.38111
G1 X107.460 Y101.247 E0.39924
G1 X108.111 Y101.898 E0.44144
G1 X107.882 Y102.222 E0.45961
G1 X107.227 Y101.567 E0.50210
G1 X106.994 Y101.886 E0.52022
G1 X107.654 Y102.546 E0.56298
G1 X107.425 Y102.870 E0.58116
G1 X106.761 Y102.206 E0.62420
G1 X106.528 Y102.525 E0.64232
G1 X107.196 Y103.194 E0.68564
G1 X106.968 Y103.518 E0.70381
G1 X106.295 Y102.845 E0.74741
G1 X106.062 Y103.165 E0.76554
G1 X106.739 Y103.841 E0.80942
G1 X106.510 Y104.165 E0.82759
G1 X105.829 Y103.484 E0.87174
G1 X105.596 Y103.804 E0.88987
G1 X106.282 Y104.489 E0.93430
G1 X106.053 Y104.813 E0.95248
G1 X105.364 Y104.123 E0.99719
G1 X105.131 Y104.443 E1.01532
G1 X105.825 Y105.137 E1.06031
G1 X105.596 Y105.461 E1.07848
G1 X104.898 Y104.762 E1.12375
G1 X104.665 Y105.082 E1.14188
G1 X105.367 Y105.784 E1.18743
G1 X105.139 Y106.108 E1.20560
G1 X104.432 Y105.401 E1.25143
G1 X104.199 Y105.721 E1.26956
G1 X104.910 Y106.432 E1.31566
G1 X104.681 Y106.756 E1.33383
G1 X103.966 Y106.040 E1.38022
G1 X103.733 Y106.360 E1.39835
G1 X104.453 Y107.080 E1.44501
G1 X104.018 Y107.197 E1.46568
G1 X103.500 Y106.680 E1.49922
G1 X103.267 Y106.999 E1.51735
G1 X103.465 Y107.197 E1.53018
G92 E0
G1 X102.276 Y107.648 F7800.000
G1 X100.547 Y101.056 F7800.000
G1 X99.667 Y97.504 F7800.000
G1 X96.361 Y96.827 F7800.000
G1 X96.361 Y94.044 F7800.000
G1 X89.573 Y92.577 F7800.000
G1 X96.136 Y92.577 E0.29695 F378.000
G1 X96.136 Y93.819 E0.35315
G1 X86.193 Y93.819 E0.80307 F378.000
G1 X86.193 Y99.611 E1.06515
G1 X95.042 Y99.611 E1.46556
G1 X95.042 Y100.831 E1.52076
G1 X86.193 Y100.831 E1.92118
G1 X86.193 Y106.181 E2.16326
G1 X95.692 Y106.181 E2.59308
G1 X95.692 Y107.423 E2.64928
G1 X84.572 Y107.423 E3.15245
G1 X84.572 Y92.577 E3.82422
G1 X89.342 Y92.577 E4.04008
G1 X86.129 Y93.593 F7800.000
G1 X85.339 Y92.803 E4.09067 F540.000
G1 X85.885 Y92.803 E4.11537
G1 X86.675 Y93.593 E4.16595
G1 X87.221 Y93.593 E4.19066
G1 X86.430 Y92.803 E4.24124
G1 X86.976 Y92.803 E4.26594
G1 X87.766 Y93.593 E4.31653
G1 X88.312 Y93.593 E4.34123
G1 X87.522 Y92.803 E4.39182
G1 X88.067 Y92.803 E4.41652
G1 X88.857 Y93.593 E4.46710
G1 X89.403 Y93.593 E4.49181
G1 X88.613 Y92.803 E4.54239
G1 X89.159 Y92.803 E4.56709
G1 X89.949 Y93.593 E4.61768
G1 X90.494 Y93.593 E4.64238
G1 X89.704 Y92.803 E4.69297
G1 X90.250 Y92.803 E4.71767
G1 X91.040 Y93.593 E4.76825
G1 X91.586 Y93.593 E4.79295
G1 X90.795 Y92.803 E4.84354
G1 X91.341 Y92.803 E4.86824
G1 X92.131 Y93.593 E4.91883
G1 X92.677 Y93.593 E4.94353
G1 X91.887 Y92.803 E4.99411
G1 X92.432 Y92.803 E5.01882
G1 X93.222 Y93.593 E5.06940
G1 X93.768 Y93.593 E5.09410
G1 X92.978 Y92.803 E5.14469
G1 X93.524 Y92.803 E5.16939
G1 X94.314 Y93.593 E5.21998
G1 X94.859 Y93.593 E5.24468
G1 X94.069 Y92.803 E5.29526
G1 X94.615 Y92.803 E5.31997
G1 X95.405 Y93.593 E5.37055
G1 X95.910 Y93.552 E5.39348
G1 X95.161 Y92.803 E5.44145
G1 X95.706 Y92.803 E5.46615
G1 X95.910 Y93.007 E5.47919
G92 E0
G1 X85.418 Y93.352 F7800.000
G1 X85.418 Y93.352 F7800.000
G1 X94.816 Y100.097 F7800.000
G1 X94.556 Y99.837 E0.01665 F540.000
G1 X94.010 Y99.837 E0.04135
G1 X94.778 Y100.605 E0.09053
G1 X94.233 Y100.605 E0.11523
G1 X93.464 Y99.837 E0.16441
G1 X92.919 Y99.837 E0.18911
G1 X93.687 Y100.605 E0.23829
G1 X93.141 Y100.605 E0.26299
G1 X92.373 Y99.837 E0.31217
G1 X91.828 Y99.837 E0.33687
G1 X92.596 Y100.605 E0.38605
G1 X92.050 Y100.605 E0.41075
G1 X91.282 Y99.837 E0.45993
G1 X90.736 Y99.837 E0.48463
G1 X91.504 Y100.605 E0.53381
G1 X90.959 Y100.605 E0.55851
G1 X90.191 Y99.837 E0.60769
G1 X89.645 Y99.837 E0.63239
G1 X90.413 Y100.605 E0.68157
G1 X89.867 Y100.605 E0.70627
G1 X89.099 Y99.837 E0.75545
G1 X88.554 Y99.837 E0.78015
G1 X89.322 Y100.605 E0.82933
G1 X88.776 Y100.605 E0.85403
G1 X88.008 Y99.837 E0.90320
G1 X87.462 Y99.837 E0.92791
G1 X88.231 Y100.605 E0.97708
G1 X87.685 Y100.605 E1.00179
G1 X86.917 Y99.837 E1.05096
G1 X86.371 Y99.837 E1.07567
G1 X87.139 Y100.605 E1.12484
G1 X86.594 Y100.605 E1.14955
G1 X84.798 Y98.809 E1.26454
G1 X84.798 Y98.263 E1.28924
G1 X85.967 Y99.432 E1.36409
G1 X85.967 Y98.887 E1.38879
G1 X84.798 Y97.718 E1.46365
G1 X84.798 Y97.172 E1.48835
G1 X85.967 Y98.341 E1.56320
G1 X85.967 Y97.796 E1.58790
G1 X84.798 Y96.626 E1.66275
G1 X84.798 Y96.081 E1.68746
G1 X85.967 Y97.250 E1.76231
G1 X85.967 Y96.704 E1.78701
G1 X84.798 Y95.535 E1.86186
G1 X84.798 Y94.990 E1.88656
G1 X85.967 Y96.159 E1.96142
G1 X85.967 Y95.613 E1.98612
G1 X84.798 Y94.444 E2.06097
G1 X84.798 Y93.898 E2.08567
G1 X85.967 Y95.067 E2.16052
G1 X85.967 Y94.522 E2.18523
G1 X84.798 Y93.353 E2.26008
G1 X84.816 Y92.825 E2.28398
G1 X85.967 Y93.976 E2.35769
G1 X84.798 Y99.355 F7800.000
G1 X86.048 Y100.605 E2.43774 F540.000
G1 X85.967 Y101.069 E2.45908
G1 X84.798 Y99.900 E2.53394
G1 X84.798 Y100.446 E2.55864
G1 X85.967 Y101.615 E2.63349
G1 X85.967 Y102.161 E2.65819
G1 X84.798 Y100.992 E2.73304
G1 X84.798 Y101.537 E2.75775
G1 X85.967 Y102.706 E2.83260
G1 X85.967 Y103.252 E2.85730
G1 X84.798 Y102.083 E2.93215
G1 X84.798 Y102.628 E2.95686
G1 X85.967 Y103.798 E3.03171
G1 X85.967 Y104.343 E3.05641
G1 X84.798 Y103.174 E3.13126
G1 X84.798 Y103.720 E3.15596
G1 X85.967 Y104.889 E3.23082
G1 X85.967 Y105.434 E3.25552
G1 X84.798 Y104.265 E3.33037
G1 X84.798 Y104.811 E3.35507
G1 X85.967 Y105.980 E3.42992
G1 X85.848 Y106.407 E3.44998
G1 X86.638 Y107.197 E3.50057
G1 X86.092 Y107.197 E3.52527
G1 X84.798 Y105.902 E3.60817
G1 X84.798 Y105.357 E3.63288
G1 X85.967 Y106.526 E3.70773
G1 X86.394 Y106.407 E3.72779
G1 X87.184 Y107.197 E3.77837
G1 X87.729 Y107.197 E3.80308
G1 X86.939 Y106.407 E3.85366
G1 X87.485 Y106.407 E3.87837
G1 X88.275 Y107.197 E3.92895
G1 X88.821 Y107.197 E3.95365
G1 X88.031 Y106.407 E4.00424
G1 X88.576 Y106.407 E4.02894
G1 X89.366 Y107.197 E4.07953
G1 X89.912 Y107.197 E4.10423
G1 X89.122 Y106.407 E4.15481
G1 X89.667 Y106.407 E4.17952
G1 X90.458 Y107.197 E4.23010
G1 X91.003 Y107.197 E4.25481
G1 X90.213 Y106.407 E4.30539
G1 X90.759 Y106.407 E4.33009
G1 X91.549 Y107.197 E4.38068
G1 X92.094 Y107.197 E4.40538
G1 X91.304 Y106.407 E4.45597
G1 X91.850 Y106.407 E4.48067
G1 X92.640 Y107.197 E4.53126
G1 X93.186 Y107.197 E4.55596
G1 X92.396 Y106.407 E4.60654
G1 X92.941 Y106.407 E4.63125
G1 X93.731 Y107.197 E4.68183
G1 X94.277 Y107.197 E4.70653
G1 X93.487 Y106.407 E4.75712
G1 X94.032 Y106.407 E4.78182
G1 X94.823 Y107.197 E4.83241
G1 X94.578 Y106.407 F7800.000
G1 X95.368 Y107.197 E4.88299 F540.000
G1 X95.466 Y106.749 E4.90375
G1 X95.124 Y106.407 E4.92565
G1 X84.798 Y106.448 F7800.000
G1 X85.547 Y107.197 E4.97362 F540.000
G1 X85.001 Y107.197 E4.99832
G1 X84.798 Y106.993 E5.01136
M106 S255
G92 E0
G1 Z0.600 F7800.000
G1 X114.504 Y92.352 F7800.000
G1 X109.514 Y99.533 E2.62027 F600.000
G1 X109.240 Y99.844 E2.74446
G1 X108.816 Y100.224 E2.91494
G1 X108.809 Y100.459 E2.98522
G1 X109.271 Y100.892 E3.17516
G1 X109.506 Y101.162 E3.28236
G1 X114.057 Y107.648 E5.65652
G1 X111.434 Y102.630 F7800.000
G1 X108.338 Y99.785 E6.91634 F600.000
G1 X108.103 Y99.520 E7.02241
G1 X102.985 Y92.352 E9.66157
G92 E0
G1 X103.427 Y107.648 F7800.000
G1 X108.093 Y101.144 E2.39857 F600.000
G1 X108.372 Y100.838 E2.52286
G1 X111.493 Y98.128 E3.76123
G92 E0
G1 X108.791 Y99.039 F7800.000
G1 X104.120 Y91.352 F7800.000
G1 X101.832 Y91.352 F7800.000
G1 X99.387 Y94.137 F7800.000
G1 X99.358 Y94.044 F7800.000
G1 X96.361 Y94.044 F7800.000
G1 X96.361 Y93.198 F7800.000
G1 X86.418 Y93.198 E2.97938 F600.000
G1 X85.462 Y93.468 E3.27683
G1 X85.382 Y94.044 E3.45118
G1 X85.382 Y99.386 E5.05189
G1 X86.253 Y103.706 E6.37226
G1 X85.418 Y106.648 F7800.000
G1 X85.418 Y106.648 F7800.000
G1 X95.917 Y106.802 F7800.000
G1 X86.418 Y106.802 E9.21860 F600.000
G1 X85.462 Y106.532 E9.51604
G1 X85.382 Y105.956 E9.69040
G1 X85.382 Y101.056 E11.15866
G1 X85.551 Y100.221 E11.41390
G1 X95.267 Y100.221 E14.32532
G92 E0
G1 Z0.900 F7800.000
G1 X114.504 Y92.352 F7800.000
G1 X109.514 Y99.533 E2.62027 F600.000
G1 X109.240 Y99.844 E2.74446
G1 X108.816 Y100.224 E2.91494
G1 X108.809 Y100.459 E2.98522
G1 X109.271 Y100.892 E3.17516
G1 X109.506 Y101.162 E3.28236
G1 X114.057 Y107.648 E5.65652
G1 X111.434 Y102.630 F7800.000
G1 X108.338 Y99.785 E6.91634 F600.000
G1 X108.103 Y99.520 E7.02241
G1 X102.985 Y92.352 E9.66157
G92 E0
G1 X103.427 Y107.648 F7800.000
G1 X108.093 Y101.144 E2.39857 F600.000
G1 X108.372 Y100.838 E2.52286
G1 X111.493 Y98.128 E3.76123
G92 E0
G1 X108.791 Y99.039 F7800.000
G1 X104.120 Y91.352 F7800.000
G1 X101.832 Y91.352 F7800.000
G1 X99.387 Y94.137 F7800.000
G1 X99.358 Y94.044 F7800.000
G1 X96.361 Y94.044 F7800.000
G1 X96.361 Y93.198 F7800.000
G1 X86.418 Y93.198 E2.97938 F600.000
G1 X85.462 Y93.468 E3.27683
G1 X85.382 Y94.044 E3.45118
G1 X85.382 Y99.386 E5.05189
G1 X86.253 Y103.706 E6.37226
G1 X85.418 Y106.648 F7800.000
G1 X85.418 Y106.648 F7800.000
G1 X95.917 Y106.802 F7800.000
G1 X86.418 Y106.802 E9.21860 F600.000
G1 X85.462 Y106.532 E9.51604
G1 X85.382 Y105.956 E9.69040
G1 X85.382 Y101.056 E11.15866
G1 X85.551 Y100.221 E11.41390
G1 X95.267 Y100.221 E14.32532
G92 E0
G1 Z1.200 F7800.000
G1 X114.504 Y92.352 F7800.000
G1 X109.514 Y99.533 E2.62027 F600.000
G1 X109.240 Y99.844 E2.74446
G1 X108.816 Y100.224 E2.91494
G1 X108.809 Y100.459 E2.98522
G1 X109.271 Y100.892 E3.17516
G1 X109.506 Y101.162 E3.28236
G1 X114.057 Y107.648 E5.65652
G1 X111.434 Y102.630 F7800.000
G1 X108.338 Y99.785 E6.91634 F600.000
G1 X108.103 Y99.520 E7.02241
G1 X102.985 Y92.352 E9.66156
G92 E0
G1 X103.427 Y107.648 F7800.000
G1 X108.093 Y101.144 E2.39857 F600.000
G1 X108.372 Y100.838 E2.52286
G1 X111.493 Y98.128 E3.76123
G92 E0
G1 X108.791 Y99.039 F7800.000
G1 X104.120 Y91.352 F7800.000
G1 X101.832 Y91.352 F7800.000
G1 X99.387 Y94.137 F7800.000
G1 X99.358 Y94.044 F7800.000
G1 X96.361 Y94.044 F7800.000
G1 X96.361 Y93.198 F7800.000
G1 X86.418 Y93.198 E2.97938 F600.000
G1 X85.462 Y93.468 E3.27683
G1 X85.382 Y94.044 E3.45118
G1 X85.382 Y99.386 E5.05189
G1 X86.253 Y103.706 E6.37226
G1 X85.418 Y106.648 F7800.000
G1 X85.418 Y106.648 F7800.000
G1 X95.917 Y106.802 F7800.000
G1 X86.418 Y106.802 E9.21860 F600.000
G1 X85.462 Y106.532 E9.51604
G1 X85.382 Y105.956 E9.69040
G1 X85.382 Y101.056 E11.15866
G1 X85.551 Y100.221 E11.41390
G1 X95.267 Y100.221 E14.32532
G92 E0
G1 Z1.500 F7800.000
G1 X114.504 Y92.352 F7800.000
G1 X109.514 Y99.533 E2.62027 F600.000
G1 X109.240 Y99.844 E2.74446
G1 X108.816 Y100.224 E2.91494
G1 X108.809 Y100.459 E2.98522
G1 X109.271 Y100.892 E3.17516
G1 X109.506 Y101.162 E3.28236
G1 X114.057 Y107.648 E5.65652
G1 X111.434 Y102.630 F7800.000
G1 X108.338 Y99.785 E6.91634 F600.000
G1 X108.103 Y99.520 E7.02241
G1 X102.985 Y92.352 E9.66157
G92 E0
G1 X103.427 Y107.648 F7800.000
G1 X108.093 Y101.144 E2.39857 F600.000
G1 X108.372 Y100.838 E2.52286
G1 X111.493 Y98.128 E3.76123
G92 E0
G1 X108.791 Y99.039 F7800.000
G1 X104.120 Y91.352 F7800.000
G1 X101.832 Y91.352 F7800.000
G1 X99.387 Y94.137 F7800.000
G1 X99.358 Y94.044 F7800.000
G1 X96.361 Y94.044 F7800.000
G1 X96.361 Y93.198 F7800.000
G1 X86.418 Y93.198 E2.97938 F600.000
G1 X85.462 Y93.468 E3.27683
G1 X85.382 Y94.044 E3.45118
G1 X85.382 Y99.386 E5.05189
G1 X86.253 Y103.706 E6.37226
G1 X85.418 Y106.648 F7800.000
G1 X85.418 Y106.648 F7800.000
G1 X95.917 Y106.802 F7800.000
G1 X86.418 Y106.802 E9.21860 F600.000
G1 X85.462 Y106.532 E9.51604
G1 X85.382 Y105.956 E9.69040
G1 X85.382 Y101.056 E11.15866
G1 X85.551 Y100.221 E11.41390
G1 X95.267 Y100.221 E14.32532
G92 E0
G1 Z1.800 F7800.000
G1 X114.504 Y92.352 F7800.000
G1 X109.514 Y99.533 E2.62027 F600.000
G1 X109.240 Y99.844 E2.74446
G1 X108.816 Y100.224 E2.91494
G1 X108.809 Y100.459 E2.98522
G1 X109.271 Y100.892 E3.17516
G1 X109.506 Y101.162 E3.28236
G1 X114.057 Y107.648 E5.65652
G1 X111.434 Y102.630 F7800.000
G1 X108.338 Y99.785 E6.91634 F600.000
G1 X108.103 Y99.520 E7.02241
G1 X102.985 Y92.352 E9.66157
G92 E0
G1 X103.427 Y107.648 F7800.000
G1 X108.093 Y101.144 E2.39857 F600.000
G1 X108.372 Y100.838 E2.52286
G1 X111.493 Y98.128 E3.76123
G92 E0
G1 X108.791 Y99.039 F7800.000
G1 X104.120 Y91.352 F7800.000
G1 X101.832 Y91.352 F7800.000
G1 X99.387 Y94.137 F7800.000
G1 X99.358 Y94.044 F7800.000
G1 X96.361 Y94.044 F7800.000
G1 X96.361 Y93.198 F7800.000
G1 X86.418 Y93.198 E2.97938 F600.000
G1 X85.462 Y93.468 E3.27683
G1 X85.382 Y94.044 E3.45118
G1 X85.382 Y99.386 E5.05189
G1 X86.253 Y103.706 E6.37226
G1 X85.418 Y106.648 F7800.000
G1 X85.418 Y106.648 F7800.000
G1 X95.917 Y106.802 F7800.000
G1 X86.418 Y106.802 E9.21860 F600.000
G1 X85.462 Y106.532 E9.51604
G1 X85.382 Y105.956 E9.69040
G1 X85.382 Y101.056 E11.15866
G1 X85.551 Y100.221 E11.41390
G1 X95.267 Y100.221 E14.32532
G92 E0
G1 Z2.100 F7800.000
G1 X114.504 Y92.352 F7800.000
G1 X109.514 Y99.533 E2.62027 F600.000
G1 X109.240 Y99.844 E2.74446
G1 X108.816 Y100.224 E2.91494
G1 X108.809 Y100.459 E2.98522
G1 X109.271 Y100.892 E3.17516
G1 X109.506 Y101.162 E3.28236
G1 X114.057 Y107.648 E5.65652
G92 E0
G1 X111.434 Y102.630 F7800.000
G1 X108.338 Y99.785 E1.25982 F600.000
G1 X108.103 Y99.520 E1.36589
G1 X102.985 Y92.352 E4.00505
G92 E0
G1 X103.427 Y107.648 F7800.000
G1 X108.093 Y101.144 E2.39857 F600.000
G1 X108.372 Y100.838 E2.52286
G1 X111.493 Y98.128 E3.76123
G92 E0
G1 X108.791 Y99.039 F7800.000
