; generated by Slic3r 1.2.9 on 2016-03-11 at 01:24:14

; external perimeters extrusion width = 1.54mm
; perimeters extrusion width = 2.62mm
; infill extrusion width = 6.27mm
; solid infill extrusion width = 2.62mm
; top infill extrusion width = 2.62mm

M107
M104 S30 ; set temperature
G28 ; home all axes
G1 Z5 F5000 ; lift nozzle
M302
M92 E10000
M500
M501
G1 E100
M109 S30 ; wait for temperature to be reached
G21 ; set units to millimeters
G90 ; use absolute coordinates
M82 ; use absolute distances for extrusion
G92 E0
G1 Z0.300 F7800.000
G1 X112.801 Y106.338 F7800.000
G1 X108.751 Y99.942 E0.34252 F378.000
G1 X103.986 Y107.423 E0.74386
G1 X102.249 Y107.423 E0.82246
G1 X107.923 Y98.759 E1.29110
G1 X107.923 Y92.577 E1.57084
G1 X109.534 Y92.577 E1.64374
G1 X109.534 Y98.759 E1.92348
G1 X115.225 Y107.423 E2.39252 F378.000
G1 X113.488 Y107.423 E2.47113
G1 X112.924 Y106.533 E2.51881
G1 X113.021 Y106.157 F7800.000
G1 X114.061 Y107.197 E2.58655 F540.000
G1 X114.616 Y107.197 E2.61212
G1 X112.062 Y104.643 E2.77849
G1 X112.842 Y104.313 F7800.000
G1 X110.145 Y101.616 E2.95423 F540.000
G1 X110.717 Y101.077 F7800.000
G1 X108.149 Y98.510 E3.12150 F540.000
G1 X108.032 Y98.948 E3.14239
G1 X108.717 Y99.633 E3.18700
G1 X108.501 Y99.972 E3.20553
G1 X107.812 Y99.283 E3.25038
G1 X107.593 Y99.619 E3.26886
G1 X108.285 Y100.311 E3.31396
G1 X108.069 Y100.650 E3.33248
G1 X107.373 Y99.954 E3.37782
G1 X107.153 Y100.290 E3.39629
G1 X107.853 Y100.989 E3.44187
G1 X107.637 Y101.329 E3.46039
G1 X106.934 Y100.625 E3.50621
G1 X106.714 Y100.961 E3.52469
G1 X107.421 Y101.668 E3.57075
G1 X107.205 Y102.007 E3.58927
G1 X106.494 Y101.296 E3.63557
G1 X106.274 Y101.632 E3.65404
G1 X106.989 Y102.346 E3.70058
G1 X106.773 Y102.685 E3.71911
G1 X106.055 Y101.967 E3.76589
G1 X105.835 Y102.303 E3.78436
G1 X106.557 Y103.024 E3.83138
G1 X106.341 Y103.363 E3.84991
G1 X105.615 Y102.638 E3.89717
G1 X105.396 Y102.973 E3.91564
G1 X106.125 Y103.703 E3.96314
G1 X105.909 Y104.042 E3.98167
G1 X105.176 Y103.309 E4.02941
G1 X104.956 Y103.644 E4.04788
G1 X105.693 Y104.381 E4.09586
G1 X105.477 Y104.720 E4.11439
G1 X104.736 Y103.980 E4.16261
G1 X104.517 Y104.315 E4.18108
G1 X105.261 Y105.059 E4.22955
G1 X105.045 Y105.398 E4.24807
G1 X104.297 Y104.651 E4.29677
G1 X104.077 Y104.986 E4.31525
G1 X104.828 Y105.738 E4.36419
G1 X104.612 Y106.077 E4.38272
G1 X103.857 Y105.322 E4.43190
G1 X103.638 Y105.657 E4.45037
G1 X104.396 Y106.416 E4.49980
G1 X104.180 Y106.755 E4.51832
G1 X103.418 Y105.993 E4.56799
G1 X103.198 Y106.328 E4.58646
G1 X103.964 Y107.094 E4.63637
G1 X103.512 Y107.197 E4.65773
G1 X102.979 Y106.664 E4.69249
G1 X102.759 Y106.999 E4.71096
G1 X102.957 Y107.197 E4.72386
G1 X108.698 Y98.582 F7800.000
G1 X108.698 Y98.582 F7800.000
G1 X111.103 Y103.129 F7800.000
G1 X113.905 Y105.931 E4.90639 F540.000
G1 X111.780 Y102.695 F7800.000
G1 X109.186 Y100.102 E5.07535 F540.000
G1 X109.654 Y99.459 F7800.000
G1 X108.149 Y97.955 E5.17338 F540.000
G1 X108.149 Y97.399 E5.19895
G1 X109.308 Y98.558 E5.27446
G1 X109.308 Y98.003 E5.30004
G1 X108.149 Y96.844 E5.37555
G1 X108.149 Y96.289 E5.40112
G1 X109.308 Y97.448 E5.47663
G1 X109.308 Y96.893 E5.50221
G1 X108.149 Y95.734 E5.57772
G1 X108.149 Y95.179 E5.60330
G1 X109.308 Y96.338 E5.67881
G1 X109.308 Y95.782 E5.70438
G1 X108.149 Y94.623 E5.77989
G1 X108.149 Y94.068 E5.80547
G1 X109.308 Y95.227 E5.88098
G1 X109.308 Y94.672 E5.90655
G1 X108.149 Y93.513 E5.98207
G1 X108.149 Y92.958 E6.00764
G1 X109.308 Y94.117 E6.08315
G1 X109.308 Y93.562 E6.10873
G1 X108.550 Y92.803 E6.15816
G1 X109.105 Y92.803 E6.18373
G1 X109.308 Y93.007 E6.19700
G92 E0
G1 X107.698 Y92.352 F7800.000
G1 X101.825 Y96.225 F7800.000
G1 X98.372 Y92.352 F7800.000
G1 X96.372 Y92.352 F7800.000
G1 X95.332 Y93.819 F7800.000
G1 X86.204 Y93.819 E0.41303 F378.000
G1 X86.204 Y99.611 E0.67512
G1 X95.053 Y99.611 E1.07553
G1 X95.053 Y100.831 E1.13073
G1 X86.204 Y100.831 E1.53114
G1 X86.204 Y106.181 E1.77323
G1 X95.703 Y106.181 E2.20305
G1 X95.703 Y107.423 E2.25925
G1 X84.583 Y107.423 E2.76242
G1 X84.583 Y92.577 E3.43419
G1 X96.147 Y92.577 E3.95745
G1 X96.147 Y93.819 E4.01365
G1 X95.563 Y93.819 E4.04008 F378.000
G1 X95.921 Y93.007 F7800.000
G1 X95.717 Y92.803 E4.05312 F540.000
G1 X95.172 Y92.803 E4.07782
G1 X95.921 Y93.552 E4.12579
G1 X95.416 Y93.593 E4.14872
G1 X94.626 Y92.803 E4.19930
G1 X94.080 Y92.803 E4.22400
G1 X94.870 Y93.593 E4.27459
G1 X94.325 Y93.593 E4.29929
G1 X93.535 Y92.803 E4.34988
G1 X92.989 Y92.803 E4.37458
G1 X93.779 Y93.593 E4.42516
G1 X93.233 Y93.593 E4.44987
G1 X92.443 Y92.803 E4.50045
G1 X91.898 Y92.803 E4.52515
G1 X92.688 Y93.593 E4.57574
G1 X92.142 Y93.593 E4.60044
G1 X91.352 Y92.803 E4.65103
G1 X90.806 Y92.803 E4.67573
G1 X91.597 Y93.593 E4.72631
G1 X91.051 Y93.593 E4.75102
G1 X90.261 Y92.803 E4.80160
G1 X89.715 Y92.803 E4.82630
G1 X90.505 Y93.593 E4.87689
G1 X89.960 Y93.593 E4.90159
G1 X89.170 Y92.803 E4.95218
G1 X88.624 Y92.803 E4.97688
G1 X89.414 Y93.593 E5.02746
G1 X88.868 Y93.593 E5.05217
G1 X88.078 Y92.803 E5.10275
G1 X87.533 Y92.803 E5.12745
G1 X88.323 Y93.593 E5.17804
G1 X87.777 Y93.593 E5.20274
G1 X86.987 Y92.803 E5.25333
G1 X86.441 Y92.803 E5.27803
G1 X87.232 Y93.593 E5.32861
G1 X86.686 Y93.593 E5.35331
G1 X85.896 Y92.803 E5.40390
G1 X85.350 Y92.803 E5.42860
G1 X86.140 Y93.593 E5.47919
G1 X85.978 Y93.976 F7800.000
G1 X84.827 Y92.825 E5.55289 F540.000
G1 X84.809 Y93.353 E5.57679
G1 X85.978 Y94.522 E5.65165
G1 X85.978 Y95.067 E5.67635
G1 X84.809 Y93.898 E5.75120
G1 X84.809 Y94.444 E5.77590
G1 X85.978 Y95.613 E5.85075
G1 X85.978 Y96.159 E5.87546
G1 X84.809 Y94.990 E5.95031
G1 X84.809 Y95.535 E5.97501
G1 X85.978 Y96.704 E6.04986
G1 X85.978 Y97.250 E6.07456
G1 X84.809 Y96.081 E6.14942
G1 X84.809 Y96.626 E6.17412
G1 X85.978 Y97.796 E6.24897
G1 X85.978 Y98.341 E6.27367
G1 X84.809 Y97.172 E6.34852
G1 X84.809 Y97.718 E6.37323
G1 X85.978 Y98.887 E6.44808
G1 X85.978 Y99.432 E6.47278
G1 X84.809 Y98.263 E6.54763
G1 X84.809 Y98.809 E6.57234
G1 X86.605 Y100.605 E6.68733
G1 X87.150 Y100.605 E6.71203
G1 X86.382 Y99.837 E6.76121
G1 X86.928 Y99.837 E6.78591
G1 X87.696 Y100.605 E6.83509
G1 X88.242 Y100.605 E6.85979
G1 X87.473 Y99.837 E6.90897
G1 X88.019 Y99.837 E6.93367
G1 X88.787 Y100.605 E6.98284
G1 X89.333 Y100.605 E7.00755
G1 X88.565 Y99.837 E7.05672
G1 X89.110 Y99.837 E7.08143
G1 X89.878 Y100.605 E7.13060
G1 X90.424 Y100.605 E7.15531
G1 X89.656 Y99.837 E7.20448
G1 X90.202 Y99.837 E7.22919
G1 X90.970 Y100.605 E7.27836
G1 X91.515 Y100.605 E7.30306
G1 X90.747 Y99.837 E7.35224
G1 X91.293 Y99.837 E7.37694
G1 X92.061 Y100.605 E7.42612
G1 X92.607 Y100.605 E7.45082
G1 X91.839 Y99.837 E7.50000
G1 X92.384 Y99.837 E7.52470
G1 X93.152 Y100.605 E7.57388
G1 X93.698 Y100.605 E7.59858
G1 X92.930 Y99.837 E7.64776
G1 X93.475 Y99.837 E7.67246
G1 X94.244 Y100.605 E7.72164
G1 X94.789 Y100.605 E7.74634
G1 X94.021 Y99.837 E7.79552
G1 X94.567 Y99.837 E7.82022
G1 X94.827 Y100.097 E7.83687
G92 E0
G1 X85.429 Y106.648 F7800.000
G1 X85.429 Y106.648 F7800.000
G1 X94.589 Y106.407 F7800.000
G1 X95.379 Y107.197 E0.05059 F540.000
G1 X95.477 Y106.749 E0.07135
G1 X95.135 Y106.407 E0.09324
G1 X94.834 Y107.197 F7800.000
G1 X94.043 Y106.407 E0.14383 F540.000
G1 X93.498 Y106.407 E0.16853
G1 X94.288 Y107.197 E0.21912
G1 X93.742 Y107.197 E0.24382
G1 X92.952 Y106.407 E0.29441
G1 X92.407 Y106.407 E0.31911
G1 X93.197 Y107.197 E0.36969
G1 X92.651 Y107.197 E0.39440
G1 X91.861 Y106.407 E0.44498
G1 X91.315 Y106.407 E0.46968
G1 X92.105 Y107.197 E0.52027
G1 X91.560 Y107.197 E0.54497
G1 X90.770 Y106.407 E0.59556
G1 X90.224 Y106.407 E0.62026
G1 X91.014 Y107.197 E0.67085
G1 X90.469 Y107.197 E0.69555
G1 X89.678 Y106.407 E0.74613
G1 X89.133 Y106.407 E0.77084
G1 X89.923 Y107.197 E0.82142
G1 X89.377 Y107.197 E0.84612
G1 X88.587 Y106.407 E0.89671
G1 X88.042 Y106.407 E0.92141
G1 X88.832 Y107.197 E0.97200
G1 X88.286 Y107.197 E0.99670
G1 X87.496 Y106.407 E1.04729
G1 X86.950 Y106.407 E1.07199
G1 X87.740 Y107.197 E1.12257
G1 X87.195 Y107.197 E1.14728
G1 X86.405 Y106.407 E1.19786
G1 X85.978 Y106.526 E1.21792
G1 X84.809 Y105.357 E1.29277
G1 X84.809 Y105.902 E1.31748
G1 X86.103 Y107.197 E1.40038
G1 X86.649 Y107.197 E1.42508
G1 X85.859 Y106.407 E1.47567
G1 X85.978 Y105.980 E1.49573
G1 X84.809 Y104.811 E1.57058
G1 X84.809 Y104.265 E1.59528
G1 X85.978 Y105.434 E1.67013
G1 X85.978 Y104.889 E1.69484
G1 X84.809 Y103.720 E1.76969
G1 X84.809 Y103.174 E1.79439
G1 X85.978 Y104.343 E1.86924
G1 X85.978 Y103.798 E1.89394
G1 X84.809 Y102.628 E1.96880
G1 X84.809 Y102.083 E1.99350
G1 X85.978 Y103.252 E2.06835
G1 X85.978 Y102.706 E2.09305
G1 X84.809 Y101.537 E2.16790
G1 X84.809 Y100.992 E2.19261
G1 X85.978 Y102.161 E2.26746
G1 X85.978 Y101.615 E2.29216
G1 X84.809 Y100.446 E2.36701
G1 X84.809 Y99.900 E2.39172
G1 X85.978 Y101.069 E2.46657
G1 X86.059 Y100.605 E2.48791
G1 X84.809 Y99.355 E2.56797
G1 X84.809 Y106.448 F7800.000
G1 X85.558 Y107.197 E2.61593 F540.000
G1 X85.012 Y107.197 E2.64064
G1 X84.809 Y106.993 E2.65367
M106 S255
G92 E0
G1 Z0.600 F7800.000
G1 X108.729 Y92.352 F7800.000
G1 X108.729 Y99.209 E2.05473 F600.000
G1 X108.855 Y99.286 E2.09907
G1 X109.494 Y99.891 E2.36271
G1 X114.497 Y107.648 E5.12860
G1 X108.698 Y98.582 F7800.000
G1 X108.698 Y98.582 F7800.000
G1 X102.975 Y107.648 F7800.000
G1 X107.993 Y99.880 E7.89969 F600.000
G1 X108.606 Y99.287 E8.15525
G1 X109.759 Y98.560 E8.56368
G92 E0
G1 X107.698 Y98.692 F7800.000
G1 X107.698 Y98.692 F7800.000
G1 X101.676 Y96.895 F7800.000
G1 X101.825 Y96.225 F7800.000
G1 X100.064 Y94.044 F7800.000
G1 X96.372 Y94.044 F7800.000
G1 X96.372 Y93.198 F7800.000
G1 X86.429 Y93.198 E2.97938 F600.000
G1 X85.473 Y93.468 E3.27683
G1 X85.393 Y94.044 E3.45118
G1 X85.393 Y99.386 E5.05189
G1 X86.264 Y103.706 E6.37226
G1 X85.429 Y106.648 F7800.000
G1 X85.429 Y106.648 F7800.000
G1 X95.928 Y106.802 F7800.000
G1 X86.429 Y106.802 E9.21860 F600.000
G1 X85.473 Y106.532 E9.51604
G1 X85.393 Y105.956 E9.69040
G1 X85.393 Y101.056 E11.15866
G1 X85.562 Y100.221 E11.41390
G1 X95.278 Y100.221 E14.32532
G92 E0
G1 Z0.900 F7800.000
G1 X108.729 Y92.352 F7800.000
G1 X108.729 Y99.209 E2.05473 F600.000
G1 X108.855 Y99.286 E2.09907
G1 X109.494 Y99.891 E2.36271
G1 X114.497 Y107.648 E5.12860
G1 X108.698 Y98.582 F7800.000
G1 X108.698 Y98.582 F7800.000
G1 X102.975 Y107.648 F7800.000
G1 X107.993 Y99.880 E7.89969 F600.000
G1 X108.606 Y99.287 E8.15525
G1 X109.759 Y98.560 E8.56368
G92 E0
G1 X107.698 Y98.692 F7800.000
G1 X107.698 Y98.692 F7800.000
G1 X101.676 Y96.895 F7800.000
G1 X101.825 Y96.225 F7800.000
G1 X100.064 Y94.044 F7800.000
G1 X96.372 Y94.044 F7800.000
G1 X96.372 Y93.198 F7800.000
G1 X86.429 Y93.198 E2.97938 F600.000
G1 X85.473 Y93.468 E3.27683
G1 X85.393 Y94.044 E3.45118
G1 X85.393 Y99.386 E5.05189
G1 X86.264 Y103.706 E6.37226
G1 X85.429 Y106.648 F7800.000
G1 X85.429 Y106.648 F7800.000
G1 X95.928 Y106.802 F7800.000
G1 X86.429 Y106.802 E9.21860 F600.000
G1 X85.473 Y106.532 E9.51604
G1 X85.393 Y105.956 E9.69040
G1 X85.393 Y101.056 E11.15866
G1 X85.562 Y100.221 E11.41390
G1 X95.278 Y100.221 E14.32532
G92 E0
G1 Z1.200 F7800.000
G1 X108.729 Y92.352 F7800.000
G1 X108.729 Y99.209 E2.05473 F600.000
G1 X108.855 Y99.286 E2.09907
G1 X109.494 Y99.891 E2.36271
G1 X114.497 Y107.648 E5.12860
G1 X108.698 Y98.582 F7800.000
G1 X108.698 Y98.582 F7800.000
G1 X102.975 Y107.648 F7800.000
G1 X107.993 Y99.880 E7.89969 F600.000
G1 X108.606 Y99.287 E8.15525
G1 X109.759 Y98.560 E8.56368
G92 E0
G1 X107.698 Y98.692 F7800.000
G1 X107.698 Y98.692 F7800.000
G1 X101.676 Y96.895 F7800.000
G1 X101.825 Y96.225 F7800.000
G1 X100.064 Y94.044 F7800.000
G1 X96.372 Y94.044 F7800.000
G1 X96.372 Y93.198 F7800.000
G1 X86.429 Y93.198 E2.97938 F600.000
G1 X85.473 Y93.468 E3.27683
G1 X85.393 Y94.044 E3.45118
G1 X85.393 Y99.386 E5.05189
G1 X86.264 Y103.706 E6.37226
G1 X85.429 Y106.648 F7800.000
G1 X85.429 Y106.648 F7800.000
G1 X95.928 Y106.802 F7800.000
G1 X86.429 Y106.802 E9.21860 F600.000
G1 X85.473 Y106.532 E9.51604
G1 X85.393 Y105.956 E9.69040
G1 X85.393 Y101.056 E11.15866
G1 X85.562 Y100.221 E11.41390
G1 X95.278 Y100.221 E14.32532
G92 E0
G1 Z1.500 F7800.000
G1 X108.729 Y92.352 F7800.000
G1 X108.729 Y99.209 E2.05473 F600.000
G1 X108.855 Y99.286 E2.09907
G1 X109.494 Y99.891 E2.36271
G1 X114.497 Y107.648 E5.12860
G1 X108.698 Y98.582 F7800.000
G1 X108.698 Y98.582 F7800.000
G1 X102.975 Y107.648 F7800.000
G1 X107.993 Y99.880 E7.89969 F600.000
G1 X108.606 Y99.287 E8.15525
G1 X109.759 Y98.560 E8.56368
G92 E0
G1 X107.698 Y98.692 F7800.000
G1 X107.698 Y98.692 F7800.000
G1 X101.676 Y96.895 F7800.000
G1 X101.825 Y96.225 F7800.000
G1 X100.064 Y94.044 F7800.000
G1 X96.372 Y94.044 F7800.000
G1 X96.372 Y93.198 F7800.000
G1 X86.429 Y93.198 E2.97938 F600.000
G1 X85.473 Y93.468 E3.27683
G1 X85.393 Y94.044 E3.45118
G1 X85.393 Y99.386 E5.05189
G1 X86.264 Y103.706 E6.37226
G1 X85.429 Y106.648 F7800.000
G1 X85.429 Y106.648 F7800.000
G1 X95.928 Y106.802 F7800.000
G1 X86.429 Y106.802 E9.21860 F600.000
G1 X85.473 Y106.532 E9.51604
G1 X85.393 Y105.956 E9.69040
G1 X85.393 Y101.056 E11.15866
G1 X85.562 Y100.221 E11.41390
G1 X95.278 Y100.221 E14.32532
G92 E0
G1 Z1.800 F7800.000
G1 X108.729 Y92.352 F7800.000
G1 X108.729 Y99.209 E2.05473 F600.000
G1 X108.855 Y99.286 E2.09907
G1 X109.494 Y99.891 E2.36271
G1 X114.497 Y107.648 E5.12860
G1 X108.698 Y98.582 F7800.000
G1 X108.698 Y98.582 F7800.000
G1 X102.975 Y107.648 F7800.000
G1 X107.993 Y99.880 E7.89969 F600.000
G1 X108.606 Y99.287 E8.15525
G1 X109.759 Y98.560 E8.56368
G92 E0
G1 X107.698 Y98.692 F7800.000
G1 X107.698 Y98.692 F7800.000
G1 X101.676 Y96.895 F7800.000
G1 X101.825 Y96.225 F7800.000
G1 X100.064 Y94.044 F7800.000
G1 X96.372 Y94.044 F7800.000
G1 X96.372 Y93.198 F7800.000
G1 X86.429 Y93.198 E2.97938 F600.000
G1 X85.473 Y93.468 E3.27683
G1 X85.393 Y94.044 E3.45118
G1 X85.393 Y99.386 E5.05189
G1 X86.264 Y103.706 E6.37226
G1 X85.429 Y106.648 F7800.000
G1 X85.429 Y106.648 F7800.000
G1 X95.928 Y106.802 F7800.000
G1 X86.429 Y106.802 E9.21860 F600.000
G1 X85.473 Y106.532 E9.51604
G1 X85.393 Y105.956 E9.69040
G1 X85.393 Y101.056 E11.15866
G1 X85.562 Y100.221 E11.41390
G1 X95.278 Y100.221 E14.32532
G92 E0
G1 Z2.100 F7800.000
G1 X108.729 Y92.352 F7800.000
G1 X108.729 Y99.209 E2.05473 F600.000
G1 X108.855 Y99.286 E2.09907
G1 X109.494 Y99.891 E2.36271
G1 X114.497 Y107.648 E5.12860
G92 E0
G1 X108.698 Y98.582 F7800.000
G1 X108.698 Y98.582 F7800.000
G1 X102.975 Y107.648 F7800.000
G1 X107.993 Y99.880 E2.77109 F600.000
G1 X108.606 Y99.287 E3.02666
G1 X109.759 Y98.560 E3.43508
G92 E0
G1 X107.698 Y98.692 F7800.000
G1 X107.698 Y98.692 F7800.000
G1 X101.676 Y96.895 F7800.000
G1 X101.825 Y96.225 F7800.000
G1 X100.064 Y94.044 F7800.000
G1 X96.372 Y94.044 F7800.000
G1 X96.372 Y93.198 F7800.000
G1 X86.429 Y93.198 E2.97938 F600.000
G1 X85.473 Y93.468 E3.27683
G1 X85.393 Y94.044 E3.45118
G1 X85.393 Y99.386 E5.05189
G1 X86.264 Y103.706 E6.37226
G92 E0
G1 X85.429 Y106.648 F7800.000
G1 X85.429 Y106.648 F7800.000
G1 X95.928 Y106.802 F7800.000
G1 X86.429 Y106.802 E2.84634 F600.000
G1 X85.473 Y106.532 E3.14379
G1 X85.393 Y105.956 E3.31814
G1 X85.393 Y101.056 E4.78640
G1 X85.562 Y100.221 E5.04164
G1 X95.278 Y100.221 E7.95306
G92 E0
M107
M104 S0 ; turn off temperature
G28 X0  ; home X axis
M84     ; disable motors

; filament used = 154.0mm (1.2cm3)

; avoid_crossing_perimeters = 1
; bed_shape = 0x0,250x0,250x250,0x250
; bed_temperature = 0
; before_layer_gcode = 
; bridge_acceleration = 0
; bridge_fan_speed = 100
; brim_width = 0
; complete_objects = 0
; cooling = 1
; default_acceleration = 0
; disable_fan_first_layers = 1
; duplicate_distance = 6
; end_gcode = M104 S0 ; turn off temperature\nG28 X0  ; home X axis\nM84     ; disable motors\n
; extruder_clearance_height = 20
; extruder_clearance_radius = 20
; extruder_offset = 0x0
; extrusion_axis = E
; extrusion_multiplier = 3
; fan_always_on = 0
; fan_below_layer_time = 60
; filament_colour = #FFFFFF
; filament_diameter = 3.125
; first_layer_acceleration = 0
; first_layer_bed_temperature = 0
; first_layer_extrusion_width = 150%
; first_layer_speed = 90%
; first_layer_temperature = 30
; gcode_arcs = 0
; gcode_comments = 0
; gcode_flavor = reprap
; infill_acceleration = 0
; infill_first = 0
; layer_gcode = 
; max_fan_speed = 100
