; generated by Slic3r 1.2.9 on 2016-03-11 at 01:24:14

; external perimeters extrusion width = 1.54mm
; perimeters extrusion width = 2.62mm
; infill extrusion width = 6.27mm
; solid infill extrusion width = 2.62mm
; top infill extrusion width = 2.62mm

M107
M104 S30 ; set temperature
G28 ; home all axes
G1 Z5 F5000 ; lift nozzle
M302
M92 E10000
M500
M501
G1 E100
M109 S30 ; wait for temperature to be reached
G21 ; set units to millimeters
G90 ; use absolute coordinates
M82 ; use absolute distances for extrusion
G92 E0
G1 Z0.300 F7800.000
G1 X109.455 Y106.181 F7800.000
G1 X112.526 Y106.181 E0.13896 F378.000
G1 X102.987 Y93.826 E0.84524
G1 X102.987 Y92.577 E0.90177
G1 X114.706 Y92.577 E1.43205
G1 X114.706 Y93.819 E1.48825
G1 X104.658 Y93.819 E1.94291 F378.000
G1 X114.196 Y106.218 E2.65073
G1 X114.196 Y107.423 E2.70528
G1 X103.779 Y107.423 E3.17664
G1 X103.779 Y106.181 E3.23284
G1 X109.224 Y106.181 E3.47922
G92 E0
G1 X111.868 Y104.849 F7800.000
G1 X113.970 Y106.951 E0.13714 F540.000
G1 X113.941 Y106.367 E0.16413
G1 X109.984 Y102.410 E0.42227
G1 X110.234 Y101.547 F7800.000
G1 X106.218 Y97.531 E0.68428 F540.000
G1 X106.526 Y96.728 F7800.000
G1 X103.213 Y93.415 E0.90045 F540.000
G1 X103.213 Y92.859 E0.92609
G1 X104.673 Y94.318 E1.02133
G1 X104.503 Y93.593 F7800.000
G1 X103.713 Y92.803 E1.07287 F540.000
G1 X104.269 Y92.803 E1.09852
G1 X105.059 Y93.593 E1.15006
G1 X105.615 Y93.593 E1.17571
G1 X104.825 Y92.803 E1.22725
G1 X105.381 Y92.803 E1.25289
G1 X106.171 Y93.593 E1.30444
G1 X106.727 Y93.593 E1.33008
G1 X105.937 Y92.803 E1.38163
G1 X106.493 Y92.803 E1.40727
G1 X107.283 Y93.593 E1.45881
G1 X107.839 Y93.593 E1.48446
G1 X107.049 Y92.803 E1.53600
G1 X107.605 Y92.803 E1.56165
G1 X108.395 Y93.593 E1.61319
G1 X108.951 Y93.593 E1.63883
G1 X108.161 Y92.803 E1.69038
G1 X108.717 Y92.803 E1.71602
G1 X109.507 Y93.593 E1.76757
G1 X110.063 Y93.593 E1.79321
G1 X109.273 Y92.803 E1.84475
G1 X109.829 Y92.803 E1.87040
G1 X110.619 Y93.593 E1.92194
G1 X111.175 Y93.593 E1.94759
G1 X110.385 Y92.803 E1.99913
G1 X110.941 Y92.803 E2.02478
G1 X111.731 Y93.593 E2.07632
G1 X112.287 Y93.593 E2.10196
G1 X111.496 Y92.803 E2.15351
G1 X112.052 Y92.803 E2.17915
G1 X112.843 Y93.593 E2.23069
G1 X113.398 Y93.593 E2.25634
G1 X112.608 Y92.803 E2.30788
G1 X113.164 Y92.803 E2.33353
G1 X113.954 Y93.593 E2.38507
G1 X114.480 Y93.563 E2.40935
G1 X113.720 Y92.803 E2.45890
G1 X114.276 Y92.803 E2.48455
G1 X114.480 Y93.007 E2.49783
G92 E0
G1 X108.380 Y99.138 F7800.000
G1 X104.334 Y95.092 E0.26394 F540.000
G1 X108.101 Y99.971 F7800.000
G1 X112.088 Y103.957 E0.52402 F540.000
G1 X112.869 Y106.407 F7800.000
G1 X113.660 Y107.197 E0.57556 F540.000
G1 X113.104 Y107.197 E0.60120
G1 X112.314 Y106.407 E0.65275
G1 X111.758 Y106.407 E0.67839
G1 X112.548 Y107.197 E0.72994
G1 X111.992 Y107.197 E0.75558
G1 X111.202 Y106.407 E0.80712
G1 X110.646 Y106.407 E0.83277
G1 X111.436 Y107.197 E0.88431
G1 X110.880 Y107.197 E0.90996
G1 X110.090 Y106.407 E0.96150
G1 X109.534 Y106.407 E0.98715
G1 X110.324 Y107.197 E1.03869
G1 X109.768 Y107.197 E1.06434
G1 X108.978 Y106.407 E1.11588
G1 X108.422 Y106.407 E1.14152
G1 X109.212 Y107.197 E1.19307
G1 X108.656 Y107.197 E1.21871
G1 X107.866 Y106.407 E1.27026
G1 X107.310 Y106.407 E1.29590
G1 X108.100 Y107.197 E1.34745
G1 X107.544 Y107.197 E1.37309
G1 X106.754 Y106.407 E1.42463
G1 X106.198 Y106.407 E1.45028
G1 X106.988 Y107.197 E1.50182
G1 X106.432 Y107.197 E1.52747
G1 X105.642 Y106.407 E1.57901
G1 X105.086 Y106.407 E1.60466
G1 X105.876 Y107.197 E1.65620
G1 X105.320 Y107.197 E1.68185
G1 X104.530 Y106.407 E1.73339
G1 X104.764 Y107.197 F7800.000
G1 X104.005 Y106.438 E1.78294 F540.000
G1 X104.005 Y106.993 E1.80858
G1 X104.208 Y107.197 E1.82186
G92 E0
G1 X103.554 Y105.956 F7800.000
G1 X96.639 Y105.956 F7800.000
G1 X95.989 Y103.506 F7800.000
G1 X89.590 Y103.506 F7800.000
G1 X87.140 Y101.056 F7800.000
G1 X85.294 Y95.188 F7800.000
G1 X85.294 Y92.577 E0.11816 F378.000
G1 X96.858 Y92.577 E0.64142
G1 X96.858 Y93.819 E0.69762
G1 X86.915 Y93.819 E1.14753 F378.000
G1 X86.915 Y99.611 E1.40962
G1 X95.764 Y99.611 E1.81003
G1 X95.764 Y100.831 E1.86523
G1 X86.915 Y100.831 E2.26564
G1 X86.915 Y106.181 E2.50773
G1 X96.414 Y106.181 E2.93755
G1 X96.414 Y107.423 E2.99375
G1 X85.294 Y107.423 E3.49692
G1 X85.294 Y95.419 E4.04008
G1 X86.689 Y93.976 F7800.000
G1 X85.538 Y92.825 E4.11378 F540.000
G1 X85.520 Y93.353 E4.13769
G1 X86.689 Y94.522 E4.21254
G1 X86.689 Y95.067 E4.23724
G1 X85.520 Y93.898 E4.31209
G1 X85.520 Y94.444 E4.33680
G1 X86.689 Y95.613 E4.41165
G1 X86.689 Y96.159 E4.43635
G1 X85.520 Y94.990 E4.51120
G1 X85.520 Y95.535 E4.53591
G1 X86.689 Y96.704 E4.61076
G1 X86.689 Y97.250 E4.63546
G1 X85.520 Y96.081 E4.71031
G1 X85.520 Y96.626 E4.73501
G1 X86.689 Y97.796 E4.80987
G1 X86.689 Y98.341 E4.83457
G1 X85.520 Y97.172 E4.90942
G1 X85.520 Y97.718 E4.93412
G1 X86.689 Y98.887 E5.00897
G1 X86.689 Y99.432 E5.03368
G1 X85.520 Y98.263 E5.10853
G1 X85.520 Y98.809 E5.13323
G1 X87.316 Y100.605 E5.24822
G1 X86.771 Y100.605 E5.27292
G1 X85.520 Y99.355 E5.35298
G1 X85.520 Y99.900 E5.37768
G1 X86.689 Y101.069 E5.45254
G1 X86.689 Y101.615 E5.47724
G1 X85.520 Y100.446 E5.55209
G1 X85.520 Y100.992 E5.57679
G1 X86.689 Y102.161 E5.65164
G1 X86.689 Y102.706 E5.67635
G1 X85.520 Y101.537 E5.75120
G1 X85.520 Y102.083 E5.77590
G1 X86.689 Y103.252 E5.85075
G1 X86.689 Y103.798 E5.87545
G1 X85.520 Y102.628 E5.95031
G1 X85.520 Y103.174 E5.97501
G1 X86.689 Y104.343 E6.04986
G1 X86.689 Y104.889 E6.07456
G1 X85.520 Y103.720 E6.14941
G1 X85.520 Y104.265 E6.17412
G1 X86.689 Y105.434 E6.24897
G1 X86.689 Y105.980 E6.27367
G1 X85.520 Y104.811 E6.34852
G1 X85.520 Y105.357 E6.37323
G1 X87.361 Y107.197 E6.49106
G1 X87.906 Y107.197 E6.51576
G1 X87.116 Y106.407 E6.56635
G1 X87.662 Y106.407 E6.59105
G1 X88.452 Y107.197 E6.64164
G1 X88.998 Y107.197 E6.66634
G1 X88.207 Y106.407 E6.71693
G1 X88.753 Y106.407 E6.74163
G1 X89.543 Y107.197 E6.79221
G1 X90.089 Y107.197 E6.81692
G1 X89.299 Y106.407 E6.86750
G1 X89.844 Y106.407 E6.89220
G1 X90.634 Y107.197 E6.94279
G1 X91.180 Y107.197 E6.96749
G1 X90.390 Y106.407 E7.01808
G1 X90.936 Y106.407 E7.04278
G1 X91.726 Y107.197 E7.09337
G1 X92.271 Y107.197 E7.11807
G1 X91.481 Y106.407 E7.16865
G1 X92.027 Y106.407 E7.19336
G1 X92.817 Y107.197 E7.24394
G1 X93.363 Y107.197 E7.26864
G1 X92.572 Y106.407 E7.31923
G1 X93.118 Y106.407 E7.34393
G1 X93.908 Y107.197 E7.39452
G1 X94.454 Y107.197 E7.41922
G1 X93.664 Y106.407 E7.46981
G1 X94.209 Y106.407 E7.49451
G1 X94.999 Y107.197 E7.54509
G1 X95.545 Y107.197 E7.56980
G1 X94.755 Y106.407 E7.62038
G1 X95.301 Y106.407 E7.64508
G1 X96.091 Y107.197 E7.69567
G1 X96.188 Y106.749 E7.71643
G1 X95.846 Y106.407 E7.73833
G92 E0
G1 X86.140 Y106.648 F7800.000
G1 X86.140 Y106.648 F7800.000
G1 X95.501 Y100.605 F7800.000
G1 X94.733 Y99.837 E0.04918 F540.000
G1 X95.278 Y99.837 E0.07388
G1 X95.538 Y100.097 E0.09053
G1 X94.955 Y100.605 F7800.000
G1 X94.187 Y99.837 E0.13971 F540.000
G1 X93.641 Y99.837 E0.16441
G1 X94.409 Y100.605 E0.21359
G1 X93.864 Y100.605 E0.23829
G1 X93.096 Y99.837 E0.28747
G1 X92.550 Y99.837 E0.31217
G1 X93.318 Y100.605 E0.36135
G1 X92.772 Y100.605 E0.38605
G1 X92.004 Y99.837 E0.43523
G1 X91.459 Y99.837 E0.45993
G1 X92.227 Y100.605 E0.50910
G1 X91.681 Y100.605 E0.53381
G1 X90.913 Y99.837 E0.58298
G1 X90.368 Y99.837 E0.60769
G1 X91.136 Y100.605 E0.65686
G1 X90.590 Y100.605 E0.68157
G1 X89.822 Y99.837 E0.73074
G1 X89.276 Y99.837 E0.75545
G1 X90.044 Y100.605 E0.80462
G1 X89.499 Y100.605 E0.82932
G1 X88.731 Y99.837 E0.87850
G1 X88.185 Y99.837 E0.90320
G1 X88.953 Y100.605 E0.95238
G1 X88.407 Y100.605 E0.97708
G1 X87.639 Y99.837 E1.02626
G1 X87.094 Y99.837 E1.05096
G1 X87.862 Y100.605 E1.10014
G92 E0
G1 X86.140 Y106.648 F7800.000
G1 X86.140 Y106.648 F7800.000
G1 X86.105 Y106.612 F7800.000
G1 X86.069 Y106.648 F7800.000
G1 X85.520 Y105.902 F7800.000
G1 X86.815 Y107.197 E0.08290 F540.000
G1 X86.269 Y107.197 E0.10760
G1 X85.520 Y106.448 E0.15557
G1 X85.520 Y106.993 E0.18027
G1 X85.724 Y107.197 E0.19331
G1 X86.852 Y93.593 F7800.000
G1 X86.062 Y92.803 E0.24389 F540.000
G1 X86.607 Y92.803 E0.26860
G1 X87.397 Y93.593 E0.31918
G1 X87.943 Y93.593 E0.34388
G1 X87.153 Y92.803 E0.39447
G1 X87.699 Y92.803 E0.41917
G1 X88.489 Y93.593 E0.46976
G1 X89.034 Y93.593 E0.49446
G1 X88.244 Y92.803 E0.54504
G1 X88.790 Y92.803 E0.56974
G1 X89.580 Y93.593 E0.62033
G1 X90.126 Y93.593 E0.64503
G1 X89.335 Y92.803 E0.69562
G1 X89.881 Y92.803 E0.72032
G1 X90.671 Y93.593 E0.77090
G1 X91.217 Y93.593 E0.79561
G1 X90.427 Y92.803 E0.84619
G1 X90.972 Y92.803 E0.87089
G1 X91.762 Y93.593 E0.92148
G1 X92.308 Y93.593 E0.94618
G1 X91.518 Y92.803 E0.99677
G1 X92.064 Y92.803 E1.02147
G1 X92.854 Y93.593 E1.07205
G1 X93.399 Y93.593 E1.09676
G1 X92.609 Y92.803 E1.14734
G1 X93.155 Y92.803 E1.17204
G1 X93.945 Y93.593 E1.22263
G1 X94.491 Y93.593 E1.24733
G1 X93.700 Y92.803 E1.29792
G1 X94.246 Y92.803 E1.32262
G1 X95.036 Y93.593 E1.37320
G1 X95.582 Y93.593 E1.39790
G1 X94.792 Y92.803 E1.44849
G1 X95.337 Y92.803 E1.47319
G1 X96.127 Y93.593 E1.52378
G1 X96.632 Y93.552 E1.54671
G1 X95.883 Y92.803 E1.59468
G1 X96.429 Y92.803 E1.61938
G1 X96.632 Y93.007 E1.63241
M106 S255
G92 E0
G1 Z0.600 F7800.000
G1 X114.931 Y93.198 F7800.000
G1 X105.115 Y93.198 E2.94133 F600.000
G1 X104.015 Y93.556 E3.28802
G1 X104.411 Y94.586 E3.61865
G1 X112.761 Y105.421 E7.71765
G1 X113.154 Y106.453 E8.04874
G1 X112.068 Y106.802 E8.39055
G1 X103.554 Y106.802 E10.94174
G92 E0
G1 X101.400 Y100.993 F7800.000
G1 X99.914 Y97.407 F7800.000
G1 X97.083 Y96.827 F7800.000
G1 X97.083 Y94.044 F7800.000
G1 X97.083 Y93.198 F7800.000
G1 X87.140 Y93.198 E2.97938 F600.000
G1 X86.185 Y93.468 E3.27683
G1 X86.105 Y94.044 E3.45118
G1 X86.105 Y99.386 E5.05189
G1 X86.975 Y103.706 E6.37226
G1 X86.140 Y106.648 F7800.000
G1 X86.140 Y106.648 F7800.000
G1 X96.639 Y106.802 F7800.000
G1 X87.140 Y106.802 E9.21860 F600.000
G1 X86.185 Y106.532 E9.51604
G1 X86.105 Y105.956 E9.69040
G1 X86.105 Y101.056 E11.15866
G1 X86.273 Y100.221 E11.41390
G1 X95.989 Y100.221 E14.32532
G92 E0
G1 Z0.900 F7800.000
G1 X114.931 Y93.198 F7800.000
G1 X105.115 Y93.198 E2.94133 F600.000
G1 X104.015 Y93.556 E3.28802
G1 X104.411 Y94.586 E3.61865
G1 X112.761 Y105.421 E7.71765
G1 X113.154 Y106.453 E8.04874
G1 X112.068 Y106.802 E8.39055
G1 X103.554 Y106.802 E10.94174
G92 E0
G1 X101.400 Y100.993 F7800.000
G1 X99.914 Y97.407 F7800.000
G1 X97.083 Y96.827 F7800.000
G1 X97.083 Y94.044 F7800.000
G1 X97.083 Y93.198 F7800.000
G1 X87.140 Y93.198 E2.97938 F600.000
G1 X86.185 Y93.468 E3.27683
G1 X86.105 Y94.044 E3.45118
G1 X86.105 Y99.386 E5.05189
G1 X86.975 Y103.706 E6.37226
G1 X86.140 Y106.648 F7800.000
G1 X86.140 Y106.648 F7800.000
G1 X96.639 Y106.802 F7800.000
G1 X87.140 Y106.802 E9.21860 F600.000
G1 X86.185 Y106.532 E9.51604
G1 X86.105 Y105.956 E9.69040
G1 X86.105 Y101.056 E11.15866
G1 X86.273 Y100.221 E11.41390
G1 X95.989 Y100.221 E14.32532
G92 E0
G1 Z1.200 F7800.000
G1 X114.931 Y93.198 F7800.000
G1 X105.115 Y93.198 E2.94133 F600.000
G1 X104.015 Y93.556 E3.28802
G1 X104.411 Y94.586 E3.61865
G1 X112.761 Y105.421 E7.71765
G1 X113.154 Y106.453 E8.04874
G1 X112.068 Y106.802 E8.39055
G1 X103.554 Y106.802 E10.94174
G92 E0
G1 X101.400 Y100.993 F7800.000
G1 X99.914 Y97.407 F7800.000
G1 X97.083 Y96.827 F7800.000
G1 X97.083 Y94.044 F7800.000
G1 X97.083 Y93.198 F7800.000
G1 X87.140 Y93.198 E2.97938 F600.000
G1 X86.185 Y93.468 E3.27683
G1 X86.105 Y94.044 E3.45118
G1 X86.105 Y99.386 E5.05189
G1 X86.975 Y103.706 E6.37226
G1 X86.140 Y106.648 F7800.000
G1 X86.140 Y106.648 F7800.000
G1 X96.639 Y106.802 F7800.000
G1 X87.140 Y106.802 E9.21860 F600.000
G1 X86.185 Y106.532 E9.51604
G1 X86.105 Y105.956 E9.69040
G1 X86.105 Y101.056 E11.15866
G1 X86.273 Y100.221 E11.41390
G1 X95.989 Y100.221 E14.32532
G92 E0
G1 Z1.500 F7800.000
G1 X114.931 Y93.198 F7800.000
G1 X105.115 Y93.198 E2.94133 F600.000
G1 X104.015 Y93.556 E3.28802
G1 X104.411 Y94.586 E3.61865
G1 X112.761 Y105.421 E7.71765
G1 X113.154 Y106.453 E8.04874
G1 X112.068 Y106.802 E8.39055
G1 X103.554 Y106.802 E10.94174
G92 E0
G1 X101.400 Y100.993 F7800.000
G1 X99.914 Y97.407 F7800.000
G1 X97.083 Y96.827 F7800.000
G1 X97.083 Y94.044 F7800.000
G1 X97.083 Y93.198 F7800.000
G1 X87.140 Y93.198 E2.97938 F600.000
G1 X86.185 Y93.468 E3.27683
G1 X86.105 Y94.044 E3.45118
G1 X86.105 Y99.386 E5.05189
G1 X86.975 Y103.706 E6.37226
G1 X86.140 Y106.648 F7800.000
G1 X86.140 Y106.648 F7800.000
G1 X96.639 Y106.802 F7800.000
G1 X87.140 Y106.802 E9.21860 F600.000
G1 X86.185 Y106.532 E9.51604
G1 X86.105 Y105.956 E9.69040
G1 X86.105 Y101.056 E11.15866
G1 X86.273 Y100.221 E11.41390
G1 X95.989 Y100.221 E14.32532
G92 E0
G1 Z1.800 F7800.000
G1 X114.931 Y93.198 F7800.000
G1 X105.115 Y93.198 E2.94133 F600.000
G1 X104.015 Y93.556 E3.28802
G1 X104.411 Y94.586 E3.61865
G1 X112.761 Y105.421 E7.71765
G1 X113.154 Y106.453 E8.04874
G1 X112.068 Y106.802 E8.39055
G1 X103.554 Y106.802 E10.94174
G92 E0
G1 X101.400 Y100.993 F7800.000
G1 X99.914 Y97.407 F7800.000
G1 X97.083 Y96.827 F7800.000
G1 X97.083 Y94.044 F7800.000
G1 X97.083 Y93.198 F7800.000
G1 X87.140 Y93.198 E2.97938 F600.000
G1 X86.185 Y93.468 E3.27683
G1 X86.105 Y94.044 E3.45118
G1 X86.105 Y99.386 E5.05189
G1 X86.975 Y103.706 E6.37226
G1 X86.140 Y106.648 F7800.000
G1 X86.140 Y106.648 F7800.000
G1 X96.639 Y106.802 F7800.000
G1 X87.140 Y106.802 E9.21860 F600.000
G1 X86.185 Y106.532 E9.51604
G1 X86.105 Y105.956 E9.69040
G1 X86.105 Y101.056 E11.15866
G1 X86.273 Y100.221 E11.41390
G1 X95.989 Y100.221 E14.32532
G92 E0
G1 Z2.100 F7800.000
G1 X114.931 Y93.198 F7800.000
G1 X105.115 Y93.198 E2.94133 F600.000
G1 X104.015 Y93.556 E3.28802
G1 X104.411 Y94.586 E3.61865
G1 X112.761 Y105.421 E7.71765
G1 X113.154 Y106.453 E8.04874
G1 X112.068 Y106.802 E8.39055
G1 X103.554 Y106.802 E10.94174
G92 E0
G1 X101.400 Y100.993 F7800.000
G1 X99.914 Y97.407 F7800.000
G1 X97.083 Y96.827 F7800.000
G1 X97.083 Y94.044 F7800.000
G1 X97.083 Y93.198 F7800.000
G1 X87.140 Y93.198 E2.97938 F600.000
G1 X86.185 Y93.468 E3.27683
G1 X86.105 Y94.044 E3.45118
G1 X86.105 Y99.386 E5.05189
G1 X86.975 Y103.706 E6.37226
G92 E0
G1 X86.140 Y106.648 F7800.000
G1 X86.140 Y106.648 F7800.000
G1 X96.639 Y106.802 F7800.000
G1 X87.140 Y106.802 E2.84634 F600.000
G1 X86.185 Y106.532 E3.14379
G1 X86.105 Y105.956 E3.31814
G1 X86.105 Y101.056 E4.78640
G1 X86.273 Y100.221 E5.04164
G1 X95.989 Y100.221 E7.95306
G92 E0
M107
M104 S0 ; turn off temperature
G28 X0  ; home X axis
M84     ; disable motors

; filament used = 169.9mm (1.3cm3)

; avoid_crossing_perimeters = 1
; bed_shape = 0x0,250x0,250x250,0x250
; bed_temperature = 0
; before_layer_gcode = 
; bridge_acceleration = 0
; bridge_fan_speed = 100
; brim_width = 0
; complete_objects = 0
; cooling = 1
; default_acceleration = 0
; disable_fan_first_layers = 1
; duplicate_distance = 6
; end_gcode = M104 S0 ; turn off temperature\nG28 X0  ; home X axis\nM84     ; disable motors\n
; extruder_clearance_height = 20
; extruder_clearance_radius = 20
; extruder_offset = 0x0
; extrusion_axis = E
; extrusion_multiplier = 3
; fan_always_on = 0
; fan_below_layer_time = 60
; filament_colour = #FFFFFF
; filament_diameter = 3.125
; first_layer_acceleration = 0
; first_layer_bed_temperature = 0
; first_layer_extrusion_width = 150%
; first_layer_speed = 90%
; first_layer_temperature = 30
; gcode_arcs = 0
; gcode_comments = 0
; gcode_flavor = reprap
; infill_acceleration = 0
; infill_first = 0
; layer_gcode = 
; max_fan_speed = 100
; max_print_speed = 80
; max_volumetric_speed = 0
; min_fan_speed = 35
; min_print_speed = 10
; min_skirt_length = 0
; notes = 
; nozzle_diameter = 1.54
; only_retract_when_crossing_perimeters = 1
; ooze_prevention = 0
; output_filename_format = [input_filename_base].gcode
; perimeter_acceleration = 0
; post_process = 
; pressure_advance = 0
; resolution = 0
; retract_before_travel = 2
; retract_layer_change = 1
; retract_length = 0
; retract_length_toolchange = 10
; retract_lift = 0
; retract_restart_extra = 0
; retract_restart_extra_toolchange = 0
; retract_speed = 0
; skirt_distance = 6
; skirt_height = 1
; skirts = 0
; slowdown_below_layer_time = 30
; spiral_vase = 0
; standby_temperature_delta = -5
