; generated by Slic3r 1.2.9 on 2016-03-10 at 20:34:08

; external perimeters extrusion width = 1.54mm
; perimeters extrusion width = 2.62mm
; infill extrusion width = 6.27mm
; solid infill extrusion width = 2.62mm
; top infill extrusion width = 2.62mm

M107
M104 S30 ; set temperature
G28 ; home all axes
G1 Z5 F5000 ; lift nozzle
M302
M92 E10000
M500
M501
G1 E100
M109 S30 ; wait for temperature to be reached
G21 ; set units to millimeters
G90 ; use absolute coordinates
M82 ; use absolute distances for extrusion
G92 E0
G1 Z0.300 F7800.000
G1 X119.796 Y120.307 F7800.000
G1 X119.796 Y117.577 E0.12353 F600.000
G1 X121.418 Y117.577 E0.19688
G1 X121.418 Y123.800 E0.47847
G1 X129.943 Y123.800 E0.86422 F600.000
G1 X129.943 Y125.063 E0.92137
G1 X121.418 Y125.063 E1.30712
G1 X121.418 Y131.181 E1.58395
G1 X130.204 Y131.181 E1.98151
G1 X130.204 Y132.423 E2.03771
G1 X119.796 Y132.423 E2.50862
G1 X119.796 Y120.538 E3.04641
G1 X120.562 Y117.803 F7800.000
G1 X121.192 Y118.432 E3.08670 F600.000
G1 X121.192 Y118.978 E3.11140
G1 X120.040 Y117.826 E3.18515
G1 X120.022 Y118.354 E3.20908
G1 X121.192 Y119.524 E3.28393
G1 X121.192 Y120.069 E3.30862
G1 X120.022 Y118.900 E3.38347
G1 X120.022 Y119.446 E3.40816
G1 X121.192 Y120.615 E3.48300
G1 X121.192 Y121.160 E3.50770
G1 X120.022 Y119.991 E3.58254
G1 X120.022 Y120.537 E3.60724
G1 X121.192 Y121.706 E3.68208
G1 X121.192 Y122.251 E3.70678
G1 X120.022 Y121.082 E3.78162
G1 X120.022 Y121.628 E3.80632
G1 X121.192 Y122.797 E3.88116
G1 X121.192 Y123.342 E3.90585
G1 X120.022 Y122.173 E3.98070
G1 X120.022 Y122.719 E4.00539
G1 X121.192 Y123.888 E4.08024
G1 X120.022 Y131.993 F7800.000
G1 X120.226 Y132.197 E4.09327 F600.000
G1 X120.772 Y132.197 E4.11796
G1 X120.022 Y131.448 E4.16592
G1 X120.022 Y130.902 E4.19062
G1 X121.317 Y132.197 E4.27350
G1 X129.978 Y131.583 F7800.000
G1 X129.802 Y131.407 E4.28476 F600.000
G1 X129.256 Y131.407 E4.30946
G1 X129.978 Y132.128 E4.35565
G1 X129.501 Y132.197 E4.37746
G1 X128.711 Y131.407 E4.42804
G1 X128.165 Y131.407 E4.45274
G1 X128.955 Y132.197 E4.50332
G1 X128.409 Y132.197 E4.52801
G1 X127.619 Y131.407 E4.57859
G1 X127.074 Y131.407 E4.60329
G1 X127.864 Y132.197 E4.65387
G1 X127.318 Y132.197 E4.67856
G1 X126.528 Y131.407 E4.72914
G1 X125.983 Y131.407 E4.75384
G1 X126.773 Y132.197 E4.80442
G1 X126.227 Y132.197 E4.82911
G1 X125.437 Y131.407 E4.87969
G1 X124.892 Y131.407 E4.90439
G1 X125.682 Y132.197 E4.95497
G1 X125.136 Y132.197 E4.97967
G1 X124.346 Y131.407 E5.03024
G1 X123.800 Y131.407 E5.05494
G1 X124.591 Y132.197 E5.10552
G1 X124.045 Y132.197 E5.13022
G1 X123.255 Y131.407 E5.18080
G1 X122.709 Y131.407 E5.20549
G1 X123.499 Y132.197 E5.25607
G1 X122.954 Y132.197 E5.28077
G1 X122.164 Y131.407 E5.33135
G1 X121.618 Y131.407 E5.35604
G1 X122.408 Y132.197 E5.40662
G1 X121.863 Y132.197 E5.43132
G1 X120.022 Y130.357 E5.54913
G1 X120.022 Y129.811 E5.57382
G1 X121.192 Y130.980 E5.64867
G1 X121.192 Y130.435 E5.67336
G1 X120.022 Y129.266 E5.74821
G1 X120.022 Y128.720 E5.77290
G1 X121.192 Y129.889 E5.84774
G1 X121.192 Y129.344 E5.87244
G1 X120.022 Y128.175 E5.94728
G1 X120.022 Y127.629 E5.97198
G1 X121.192 Y128.798 E6.04682
G1 X121.192 Y128.253 E6.07152
G1 X120.022 Y127.083 E6.14636
G1 X120.022 Y126.538 E6.17106
G1 X121.192 Y127.707 E6.24590
G1 X121.192 Y127.161 E6.27059
G1 X120.022 Y125.992 E6.34544
G1 X120.022 Y125.447 E6.37013
G1 X121.192 Y126.616 E6.44498
G1 X121.192 Y126.070 E6.46967
G1 X120.022 Y124.901 E6.54451
G1 X120.022 Y124.356 E6.56921
G1 X121.192 Y125.525 E6.64405
G1 X121.192 Y124.979 E6.66875
G1 X120.022 Y123.810 E6.74359
G1 X120.022 Y123.264 E6.76829
G1 X121.595 Y124.837 E6.86896
G1 X122.141 Y124.837 E6.89366
G1 X121.330 Y124.026 E6.94558
G1 X121.875 Y124.026 E6.97028
G1 X122.686 Y124.837 E7.02220
G1 X123.232 Y124.837 E7.04690
G1 X122.421 Y124.026 E7.09882
G1 X122.966 Y124.026 E7.12352
G1 X123.777 Y124.837 E7.17544
G1 X124.323 Y124.837 E7.20014
G1 X123.512 Y124.026 E7.25206
G1 X124.057 Y124.026 E7.27676
G1 X124.868 Y124.837 E7.32868
G1 X125.414 Y124.837 E7.35338
G1 X124.603 Y124.026 E7.40530
G1 X125.148 Y124.026 E7.43000
G1 X125.960 Y124.837 E7.48192
G1 X126.505 Y124.837 E7.50662
G1 X125.694 Y124.026 E7.55854
G1 X126.240 Y124.026 E7.58324
G1 X127.051 Y124.837 E7.63516
G1 X127.596 Y124.837 E7.65986
G1 X126.785 Y124.026 E7.71178
G1 X127.331 Y124.026 E7.73648
G1 X128.142 Y124.837 E7.78840
G1 X128.687 Y124.837 E7.81310
G1 X127.876 Y124.026 E7.86502
G1 X128.422 Y124.026 E7.88972
G1 X129.233 Y124.837 E7.94164
G1 X129.717 Y124.775 E7.96371
G1 X128.967 Y124.026 E8.01167
G1 X129.513 Y124.026 E8.03637
G1 X129.717 Y124.230 E8.04940
M106 S255
G92 E0
G1 Z0.600 F7800.000
G1 X121.504 Y127.912 F7800.000
G1 X120.607 Y123.575 E1.32720 F600.000
G1 X120.607 Y117.352 E3.19190
G92 E0
G1 X120.643 Y118.352 F7800.000
G1 X120.607 Y118.388 F7800.000
G1 X120.607 Y131.613 F7800.000
G1 X120.643 Y131.648 F7800.000
G1 X130.429 Y131.802 F7800.000
G1 X121.643 Y131.802 E2.63269 F600.000
G1 X120.687 Y131.532 E2.93014
G1 X120.607 Y130.956 E3.10449
G1 X120.607 Y125.288 E4.80289
G1 X120.784 Y124.432 E5.06496
G1 X130.168 Y124.432 E7.87666
G92 E0
G1 Z0.900 F7800.000
G1 X121.504 Y127.912 F7800.000
G1 X120.607 Y123.575 E1.32720 F600.000
G1 X120.607 Y117.352 E3.19190
G92 E0
G1 X120.643 Y118.352 F7800.000
G1 X120.607 Y118.388 F7800.000
G1 X120.607 Y131.613 F7800.000
G1 X120.643 Y131.648 F7800.000
G1 X130.429 Y131.802 F7800.000
G1 X121.643 Y131.802 E2.63269 F600.000
G1 X120.687 Y131.532 E2.93014
G1 X120.607 Y130.956 E3.10449
G1 X120.607 Y125.288 E4.80289
G1 X120.784 Y124.432 E5.06496
G1 X130.168 Y124.432 E7.87666
G92 E0
G1 Z1.200 F7800.000
G1 X121.504 Y127.912 F7800.000
G1 X120.607 Y123.575 E1.32720 F600.000
G1 X120.607 Y117.352 E3.19190
G1 X120.643 Y118.352 F7800.000
G1 X120.607 Y118.388 F7800.000
G1 X120.607 Y131.613 F7800.000
G1 X120.643 Y131.648 F7800.000
G1 X130.429 Y131.802 F7800.000
G1 X121.643 Y131.802 E5.82460 F600.000
G1 X120.687 Y131.532 E6.12204
G1 X120.607 Y130.956 E6.29639
G1 X120.607 Y125.288 E7.99479
G1 X120.784 Y124.432 E8.25686
G1 X130.168 Y124.432 E11.06856
G92 E0
G1 Z1.500 F7800.000
G1 X121.504 Y127.912 F7800.000
G1 X120.607 Y123.575 E1.32720 F600.000
G1 X120.607 Y117.352 E3.19190
G1 X120.643 Y118.352 F7800.000
G1 X120.607 Y118.388 F7800.000
G1 X120.607 Y131.613 F7800.000
G1 X120.643 Y131.648 F7800.000
G1 X130.429 Y131.802 F7800.000
G1 X121.643 Y131.802 E5.82460 F600.000
G1 X120.687 Y131.532 E6.12204
G1 X120.607 Y130.956 E6.29639
G1 X120.607 Y125.288 E7.99479
G1 X120.784 Y124.432 E8.25686
G1 X130.168 Y124.432 E11.06856
G92 E0
G1 Z1.800 F7800.000
G1 X121.504 Y127.912 F7800.000
G1 X120.607 Y123.575 E1.32720 F600.000
G1 X120.607 Y117.352 E3.19190
G1 X120.643 Y118.352 F7800.000
G1 X120.607 Y118.388 F7800.000
G1 X120.607 Y131.613 F7800.000
G1 X120.643 Y131.648 F7800.000
G1 X130.429 Y131.802 F7800.000
G1 X121.643 Y131.802 E5.82460 F600.000
G1 X120.687 Y131.532 E6.12204
G1 X120.607 Y130.956 E6.29639
G1 X120.607 Y125.288 E7.99479
G1 X120.784 Y124.432 E8.25686
G1 X130.168 Y124.432 E11.06856
G92 E0
G1 Z2.100 F7800.000
G1 X121.504 Y127.912 F7800.000
G1 X120.607 Y123.575 E1.32720 F600.000
G1 X120.607 Y117.352 E3.19190
G92 E0
G1 X120.643 Y118.352 F7800.000
G1 X120.607 Y118.388 F7800.000
G1 X120.607 Y131.613 F7800.000
G1 X120.643 Y131.648 F7800.000
G1 X130.429 Y131.802 F7800.000
G1 X121.643 Y131.802 E2.63269 F600.000
G1 X120.687 Y131.532 E2.93014
G1 X120.607 Y130.956 E3.10449
G1 X120.607 Y125.288 E4.80289
G1 X120.784 Y124.432 E5.06496
G1 X130.168 Y124.432 E7.87666
G92 E0
M107
M104 S0 ; turn off temperature
G28 X0  ; home X axis
M84     ; disable motors

; filament used = 74.5mm (0.6cm3)

; avoid_crossing_perimeters = 1
; bed_shape = 0x0,250x0,250x250,0x250
; bed_temperature = 0
; before_layer_gcode = 
; bridge_acceleration = 0
; bridge_fan_speed = 100
; brim_width = 0
; complete_objects = 0
; cooling = 1
; default_acceleration = 0
; disable_fan_first_layers = 1
; duplicate_distance = 6
; end_gcode = M104 S0 ; turn off temperature\nG28 X0  ; home X axis\nM84     ; disable motors\n
; extruder_clearance_height = 20
; extruder_clearance_radius = 20
; extruder_offset = 0x0
; extrusion_axis = E
; extrusion_multiplier = 3
; fan_always_on = 0
; fan_below_layer_time = 60
; filament_colour = #FFFFFF
; filament_diameter = 3.125
; first_layer_acceleration = 0
; first_layer_bed_temperature = 0
; first_layer_extrusion_width = 150%
; first_layer_speed = 90%
; first_layer_temperature = 30
; gcode_arcs = 0
; gcode_comments = 0
; gcode_flavor = reprap
; infill_acceleration = 0
; infill_first = 0
; layer_gcode = 
; max_fan_speed = 100
; max_print_speed = 80
; max_volumetric_speed = 0
; min_fan_speed = 35
; min_print_speed = 10
; min_skirt_length = 0
; notes = 
; nozzle_diameter = 1.54
; only_retract_when_crossing_perimeters = 1
; ooze_prevention = 0
; output_filename_format = [input_filename_base].gcode
; perimeter_acceleration = 0
; post_process = 
; pressure_advance = 0
; resolution = 0
; retract_before_travel = 2
; retract_layer_change = 1
; retract_length = 0
; retract_length_toolchange = 10
; retract_lift = 0
; retract_restart_extra = 0
; retract_restart_extra_toolchange = 0
; retract_speed = 0
; skirt_distance = 6
; skirt_height = 1
; skirts = 0
; slowdown_below_layer_time = 30
; spiral_vase = 0
; standby_temperature_delta = -5
; start_gcode = G28 ; home all axes\nG1 Z5 F5000 ; lift nozzle\nM302\nM92 E10000\nM500\nM501\nG1 E100
; temperature = 30
; threads = 2
; toolchange_gcode = 
; travel_speed = 130
; use_firmware_retraction = 0
; use_relative_e_distances = 0
; use_volumetric_e = 0
; vibration_limit = 0
; wipe = 0
; z_offset = 0
; dont_support_bridges = 1
; extrusion_width = 0
; first_layer_height = 100%
; infill_only_where_needed = 0
; interface_shells = 0
; layer_height = 0.3
; raft_layers = 0
; seam_position = random
; support_material = 0
; support_material_angle = 0
; support_material_contact_distance = 0.2
; support_material_enforce_layers = 0
; support_material_extruder = 1
; support_material_extrusion_width = 0
; support_material_interface_extruder = 1
; support_material_interface_layers = 3
; support_material_interface_spacing = 0
; support_material_interface_speed = 100%
; support_material_pattern = pillars
; support_material_spacing = 2.5
; support_material_speed = 7
; support_material_threshold = 0
; xy_size_compensation = 0
; bottom_solid_layers = 3
; bridge_flow_ratio = 1
; bridge_speed = 10
; external_fill_pattern = rectilinear
; external_perimeter_extrusion_width = 0
; external_perimeter_speed = 70%
; external_perimeters_first = 1
; extra_perimeters = 1
; fill_angle = 45
; fill_density = 60%
; fill_pattern = rectilinear
; gap_fill_speed = 10
; infill_every_layers = 1
; infill_extruder = 1
; infill_extrusion_width = 0
; infill_overlap = 15%
; infill_speed = 10
; overhangs = 1
; perimeter_extruder = 1
; perimeter_extrusion_width = 0
; perimeter_speed = 10
; perimeters = 1
; small_perimeter_speed = 70%
; solid_infill_below_area = 70
; solid_infill_every_layers = 0
; solid_infill_extruder = 1
; solid_infill_extrusion_width = 0
; solid_infill_speed = 10
; thin_walls = 1
; top_infill_extrusion_width = 0
; top_solid_infill_speed = 10
; top_solid_layers = 3
