; generated by Slic3r 1.2.9 on 2016-03-11 at 01:24:16

; external perimeters extrusion width = 1.54mm
; perimeters extrusion width = 2.62mm
; infill extrusion width = 6.27mm
; solid infill extrusion width = 2.62mm
; top infill extrusion width = 2.62mm

M107
M104 S30 ; set temperature
G28 ; home all axes
G1 Z5 F5000 ; lift nozzle
M302
M92 E10000
M500
M501
G1 E100
M109 S30 ; wait for temperature to be reached
G21 ; set units to millimeters
G90 ; use absolute coordinates
M82 ; use absolute distances for extrusion
G92 E0
G1 Z0.300 F7800.000
G1 X107.930 Y107.423 F7800.000
G1 X102.936 Y107.423 E0.22600 F378.000
G1 X102.936 Y92.577 E0.89777
G1 X108.893 Y92.577 E1.16733
G1 X110.394 Y92.693 E1.23544
G1 X110.495 Y92.700 E1.24002 F378.000
G1 X111.822 Y93.064 E1.30229
G1 X112.886 Y93.663 E1.35752
G1 X113.661 Y94.467 E1.40804
G1 X114.124 Y95.456 E1.45749
G1 X114.281 Y96.650 E1.51197
G1 X114.178 Y97.552 E1.55308
G1 X113.872 Y98.339 E1.59126
G1 X113.361 Y99.016 E1.62962
G1 X112.659 Y99.561 E1.66986
G1 X111.772 Y99.946 E1.71360
G1 X110.653 Y100.177 E1.76530
G1 X110.630 Y100.600 E1.78443
G1 X111.483 Y100.878 E1.82505
G1 X112.153 Y101.267 E1.86010
G1 X112.688 Y101.778 E1.89361
G1 X113.079 Y102.398 E1.92674
G1 X113.315 Y103.110 E1.96070
G1 X113.393 Y103.901 E1.99667
G1 X112.830 Y105.853 E2.08858
G1 X111.151 Y107.019 E2.18108
G1 X108.161 Y107.423 E2.31759
G1 X112.073 Y105.435 F7800.000
G1 X112.471 Y103.026 F7800.000
G1 X108.161 Y99.729 F7800.000
G1 X104.557 Y99.729 E2.48069 F378.000
G1 X104.557 Y93.786 E2.74961
G1 X108.801 Y93.786 E2.94167 F378.000
G1 X109.977 Y93.866 E2.99498
G1 X110.945 Y94.113 E3.04018
G1 X111.694 Y94.537 E3.07915
G1 X112.225 Y95.139 E3.11547
G1 X112.540 Y95.902 E3.15283
G1 X112.644 Y96.831 E3.19509
G1 X112.190 Y98.445 E3.27098
G1 X110.819 Y99.420 E3.34710
G1 X108.647 Y99.729 E3.44641
G1 X108.392 Y99.729 E3.45791
G1 X108.312 Y100.899 F7800.000
G1 X109.298 Y100.967 E3.50263 F378.000
G1 X110.168 Y101.188 E3.54329
G1 X110.863 Y101.567 E3.57912
G1 X111.368 Y102.117 E3.61288
G1 X111.668 Y102.825 E3.64769
G1 X111.765 Y103.676 E3.68645
G1 X111.664 Y104.489 E3.72353
G1 X111.348 Y105.154 E3.75682
G1 X110.822 Y105.643 E3.78935
G1 X110.121 Y105.966 E3.82427
G1 X109.265 Y106.153 E3.86388
G1 X108.259 Y106.214 E3.90952
G1 X104.557 Y106.214 E4.07702
G1 X104.557 Y100.895 E4.31770
G1 X108.081 Y100.895 E4.47716 F378.000
G1 X110.419 Y100.912 F7800.000
G1 X111.148 Y101.227 E4.55497 F540.000
G1 X110.479 Y99.839 F7800.000
G1 X110.915 Y99.763 E4.59841 F540.000
G1 X111.336 Y99.589 E4.64302
G1 X111.541 Y99.394 F7800.000
G1 X111.843 Y99.697 E4.66260 F540.000
G1 X112.227 Y99.530 E4.68174
G1 X111.717 Y99.019 E4.71475
G1 X112.039 Y98.790 E4.73281
G1 X112.606 Y99.357 E4.76946
G1 X112.916 Y99.117 E4.78742
G1 X112.361 Y98.561 E4.82331
G1 X112.491 Y98.141 E4.84345
G1 X113.225 Y98.875 E4.89094
G1 X113.462 Y98.561 E4.90892
G1 X112.612 Y97.710 E4.96390
G1 X112.733 Y97.280 E4.98432
G1 X113.693 Y98.241 E5.04641
G1 X113.848 Y97.844 E5.06587
G1 X112.854 Y96.850 E5.13013
G1 X112.817 Y96.263 E5.15702
G1 X113.975 Y97.420 E5.23183
G1 X114.031 Y96.926 E5.25458
G1 X112.696 Y95.591 E5.34088
G1 X113.487 Y94.729 F7800.000
G1 X112.549 Y93.791 E5.40157 F540.000
G1 X111.421 Y93.214 F7800.000
G1 X113.919 Y95.712 E5.56302 F540.000
G1 X114.002 Y96.346 E5.59226
G1 X110.662 Y93.006 E5.80818
G1 X110.001 Y92.895 E5.83884
G1 X110.967 Y93.862 E5.90132
G1 X110.227 Y93.673 E5.93621
G1 X109.404 Y92.849 E5.98947
G1 X108.807 Y92.804 E6.01684
G1 X109.612 Y93.609 E6.06892
G1 X109.021 Y93.569 E6.09601
G1 X108.255 Y92.803 E6.14552
G1 X107.704 Y92.803 E6.17070
G1 X108.461 Y93.560 E6.21965
G1 X107.910 Y93.560 E6.24484
G1 X107.153 Y92.803 E6.29379
G1 X106.602 Y92.803 E6.31897
G1 X107.359 Y93.560 E6.36792
G1 X106.808 Y93.560 E6.39311
G1 X106.051 Y92.803 E6.44206
G1 X105.500 Y92.803 E6.46724
G1 X106.257 Y93.560 E6.51619
G1 X105.706 Y93.560 E6.54138
G1 X104.949 Y92.803 E6.59033
G1 X104.398 Y92.803 E6.61552
G1 X105.155 Y93.560 E6.66446
G1 X104.605 Y93.560 E6.68965
G1 X103.847 Y92.803 E6.73860
G1 X103.296 Y92.803 E6.76379
G1 X104.331 Y93.837 E6.83066
G1 X104.331 Y94.388 E6.85585
G1 X103.162 Y93.219 E6.93143
G1 X103.162 Y93.770 E6.95662
G1 X104.331 Y94.939 E7.03220
G1 X104.331 Y95.490 E7.05739
G1 X103.162 Y94.321 E7.13298
G1 X103.162 Y94.872 E7.15816
G1 X104.331 Y96.041 E7.23375
G1 X104.331 Y96.592 E7.25894
G1 X103.162 Y95.423 E7.33452
G1 X103.162 Y95.974 E7.35971
G1 X104.331 Y97.143 E7.43529
G1 X104.331 Y97.694 E7.46048
G1 X103.162 Y96.525 E7.53606
G1 X103.162 Y97.076 E7.56125
G1 X104.331 Y98.245 E7.63683
G1 X104.331 Y98.796 E7.66202
G1 X103.162 Y97.627 E7.73761
G1 X103.162 Y98.178 E7.76279
G1 X104.331 Y99.347 E7.83838
G1 X104.331 Y99.898 E7.86357
G1 X103.162 Y98.729 E7.93915
G1 X103.162 Y99.280 E7.96434
G1 X104.551 Y100.669 E8.05415
G1 X104.331 Y101.000 F7800.000
G1 X103.162 Y99.831 E8.12973 F540.000
G1 X103.162 Y100.382 E8.15492
G1 X104.331 Y101.551 E8.23050
G1 X104.331 Y102.102 E8.25569
G1 X103.162 Y100.933 E8.33127
G1 X103.162 Y101.484 E8.35646
G1 X104.331 Y102.653 E8.43205
G1 X104.331 Y103.204 E8.45723
G1 X103.162 Y102.035 E8.53282
G1 X103.162 Y102.586 E8.55801
G1 X104.331 Y103.755 E8.63359
G1 X104.331 Y104.306 E8.65878
G1 X103.162 Y103.137 E8.73436
G1 X103.162 Y103.688 E8.75955
G1 X104.331 Y104.857 E8.83513
G1 X104.331 Y105.408 E8.86032
G1 X103.162 Y104.239 E8.93590
G1 X103.162 Y104.790 E8.96109
G1 X104.331 Y105.959 E9.03668
G1 X104.261 Y106.440 E9.05891
G1 X105.018 Y107.197 E9.10785
G1 X105.569 Y107.197 E9.13304
G1 X104.812 Y106.440 E9.18199
G1 X104.331 Y106.510 E9.20422
G1 X103.162 Y105.341 E9.27980
G1 X103.162 Y105.892 E9.30499
G1 X104.467 Y107.197 E9.38940
G1 X103.916 Y107.197 E9.41458
G1 X103.162 Y106.442 E9.46337
G1 X103.162 Y106.993 E9.48855
G1 X103.365 Y107.197 E9.50172
G1 X105.363 Y106.440 F7800.000
G1 X106.120 Y107.197 E9.55066 F540.000
G1 X106.671 Y107.197 E9.57585
G1 X105.914 Y106.440 E9.62480
G1 X106.465 Y106.440 E9.64999
G1 X107.222 Y107.197 E9.69893
G1 X107.773 Y107.197 E9.72412
G1 X107.016 Y106.440 E9.77307
G1 X107.567 Y106.440 E9.79826
G1 X108.321 Y107.194 E9.84700
G1 X108.805 Y107.127 E9.86933
G1 X108.118 Y106.440 E9.91373
G1 X108.641 Y106.412 E9.93769
G1 X109.288 Y107.060 E9.97952
G1 X109.772 Y106.992 E10.00185
G1 X109.161 Y106.381 E10.04138
G1 X109.621 Y106.290 E10.06284
G1 X110.256 Y106.925 E10.10388
G1 X110.740 Y106.858 E10.12621
G1 X110.073 Y106.191 E10.16930
G1 X110.461 Y106.028 E10.18854
G1 X111.189 Y106.756 E10.23558
G1 X111.514 Y106.530 E10.25368
G1 X110.839 Y105.855 E10.29735
G1 X111.142 Y105.608 E10.31526
G1 X111.839 Y106.305 E10.36032
G1 X112.165 Y106.079 E10.37842
G1 X111.428 Y105.342 E10.42604
G1 X111.640 Y105.003 E10.44431
G1 X112.490 Y105.853 E10.49926
G1 X112.710 Y105.523 E10.51742
G1 X111.817 Y104.630 E10.57517
G1 X111.920 Y104.182 E10.59618
G1 X112.834 Y105.095 E10.65523
G1 X112.957 Y104.667 E10.67558
G1 X111.982 Y103.692 E10.73864
G1 X111.936 Y103.096 E10.76597
G1 X113.080 Y104.240 E10.83993
G1 X113.143 Y103.751 E10.86245
G1 X111.763 Y102.371 E10.95165
G1 X111.306 Y101.364 F7800.000
G1 X113.042 Y103.100 E11.06388 F540.000
G1 X110.232 Y100.840 F7800.000
G1 X109.252 Y99.860 E11.12724 F540.000
G1 X108.770 Y99.929 E11.14952
G1 X109.637 Y100.796 E11.20559
G1 X109.004 Y100.714 E11.23478
G1 X108.245 Y99.955 E11.28385
G1 X107.694 Y99.955 E11.30904
G1 X108.412 Y100.673 E11.35547
G1 X107.857 Y100.669 E11.38085
G1 X107.143 Y99.955 E11.42702
G1 X106.592 Y99.955 E11.45221
G1 X107.306 Y100.669 E11.49837
G1 X106.755 Y100.669 E11.52356
G1 X106.041 Y99.955 E11.56973
G1 X105.490 Y99.955 E11.59492
G1 X106.204 Y100.669 E11.64109
G1 X105.653 Y100.669 E11.66627
G1 X104.939 Y99.955 E11.71244
G1 X104.388 Y99.955 E11.73763
G1 X105.102 Y100.669 E11.78380
G1 X109.734 Y99.792 F7800.000
G1 X110.330 Y100.387 E11.82229 F540.000
G92 E0
G1 X102.711 Y92.352 F7800.000
G1 X98.301 Y94.761 F7800.000
G1 X91.675 Y94.463 F7800.000
G1 X89.563 Y92.352 F7800.000
G1 X87.563 Y92.352 F7800.000
G1 X85.717 Y97.468 F7800.000
G1 X85.717 Y92.577 E0.22133 F378.000
G1 X87.338 Y92.577 E0.29467
G1 X87.338 Y98.800 E0.57626
G1 X95.863 Y98.800 E0.96201 F378.000
G1 X95.863 Y100.063 E1.01916
G1 X87.338 Y100.063 E1.40491
G1 X87.338 Y106.181 E1.68175
G1 X96.124 Y106.181 E2.07931
G1 X96.124 Y107.423 E2.13551
G1 X85.717 Y107.423 E2.60642
G1 X85.717 Y97.699 E3.04641
G1 X87.112 Y98.888 F7800.000
G1 X85.943 Y97.719 E3.12125 F540.000
G1 X85.943 Y97.173 E3.14595
G1 X87.112 Y98.342 E3.22079
G1 X87.112 Y97.797 E3.24548
G1 X85.943 Y96.628 E3.32033
G1 X85.943 Y96.082 E3.34502
G1 X87.112 Y97.251 E3.41987
G1 X87.112 Y96.706 E3.44456
G1 X85.943 Y95.537 E3.51940
G1 X85.943 Y94.991 E3.54410
G1 X87.112 Y96.160 E3.61894
G1 X87.112 Y95.615 E3.64364
G1 X85.943 Y94.446 E3.71848
G1 X85.943 Y93.900 E3.74318
G1 X87.112 Y95.069 E3.81802
G1 X87.112 Y94.523 E3.84272
G1 X85.943 Y93.354 E3.91756
G1 X85.960 Y92.826 E3.94150
G1 X87.112 Y93.978 E4.01525
G1 X87.112 Y93.432 E4.03994
G1 X86.483 Y92.803 E4.08024
G92 E0
G1 X86.563 Y93.352 F7800.000
G1 X86.563 Y93.352 F7800.000
G1 X95.637 Y99.230 F7800.000
G1 X95.434 Y99.026 E0.01303 F540.000
G1 X94.888 Y99.026 E0.03773
G1 X95.637 Y99.775 E0.08569
G1 X95.154 Y99.837 E0.10776
G1 X94.343 Y99.026 E0.15969
G1 X93.797 Y99.026 E0.18438
G1 X94.608 Y99.837 E0.23631
G1 X94.063 Y99.837 E0.26100
G1 X93.251 Y99.026 E0.31293
G1 X92.706 Y99.026 E0.33762
G1 X93.517 Y99.837 E0.38954
G1 X92.971 Y99.837 E0.41424
G1 X92.160 Y99.026 E0.46616
G1 X91.615 Y99.026 E0.49086
G1 X92.426 Y99.837 E0.54278
G1 X91.880 Y99.837 E0.56748
G1 X91.069 Y99.026 E0.61940
G1 X90.524 Y99.026 E0.64410
G1 X91.335 Y99.837 E0.69602
G1 X90.789 Y99.837 E0.72072
G1 X89.978 Y99.026 E0.77264
G1 X89.433 Y99.026 E0.79734
G1 X90.244 Y99.837 E0.84926
G1 X89.698 Y99.837 E0.87396
G1 X88.887 Y99.026 E0.92588
G1 X88.341 Y99.026 E0.95058
G1 X89.153 Y99.837 E1.00250
G1 X88.607 Y99.837 E1.02720
G1 X87.796 Y99.026 E1.07912
G1 X87.250 Y99.026 E1.10382
G1 X88.061 Y99.837 E1.15574
G1 X87.516 Y99.837 E1.18044
G1 X85.943 Y98.264 E1.28111
G1 X85.943 Y98.810 E1.30581
G1 X87.112 Y99.979 E1.38065
G1 X87.112 Y100.525 E1.40535
G1 X85.943 Y99.356 E1.48019
G1 X85.943 Y99.901 E1.50489
G1 X87.112 Y101.070 E1.57973
G1 X87.112 Y101.616 E1.60442
G1 X85.943 Y100.447 E1.67927
G1 X85.943 Y100.992 E1.70396
G1 X87.112 Y102.161 E1.77881
G1 X87.112 Y102.707 E1.80350
G1 X85.943 Y101.538 E1.87834
G1 X85.943 Y102.083 E1.90304
G1 X87.112 Y103.252 E1.97788
G1 X87.112 Y103.798 E2.00258
G1 X85.943 Y102.629 E2.07742
G1 X85.943 Y103.175 E2.10212
G1 X87.112 Y104.344 E2.17696
G1 X87.112 Y104.889 E2.20166
G1 X85.943 Y103.720 E2.27650
G1 X85.943 Y104.266 E2.30119
G1 X87.112 Y105.435 E2.37604
G1 X87.112 Y105.980 E2.40073
G1 X85.943 Y104.811 E2.47558
G1 X85.943 Y105.357 E2.50027
G1 X87.784 Y107.197 E2.61808
G1 X88.329 Y107.197 E2.64278
G1 X87.539 Y106.407 E2.69336
G1 X88.085 Y106.407 E2.71805
G1 X88.875 Y107.197 E2.76863
G1 X89.420 Y107.197 E2.79333
G1 X88.630 Y106.407 E2.84391
G1 X89.176 Y106.407 E2.86860
G1 X89.966 Y107.197 E2.91918
G1 X90.511 Y107.197 E2.94388
G1 X89.721 Y106.407 E2.99446
G1 X90.267 Y106.407 E3.01916
G1 X91.057 Y107.197 E3.06973
G1 X91.602 Y107.197 E3.09443
G1 X90.812 Y106.407 E3.14501
G1 X91.358 Y106.407 E3.16971
G1 X92.148 Y107.197 E3.22029
G1 X92.694 Y107.197 E3.24498
G1 X91.903 Y106.407 E3.29556
G1 X92.449 Y106.407 E3.32026
G1 X93.239 Y107.197 E3.37084
G1 X93.785 Y107.197 E3.39553
G1 X92.995 Y106.407 E3.44611
G1 X93.540 Y106.407 E3.47081
G1 X94.330 Y107.197 E3.52139
G1 X94.876 Y107.197 E3.54608
G1 X94.086 Y106.407 E3.59666
G1 X94.631 Y106.407 E3.62136
G1 X95.421 Y107.197 E3.67194
G1 X95.898 Y107.128 E3.69375
G1 X95.177 Y106.407 E3.73994
G1 X95.722 Y106.407 E3.76464
G1 X95.898 Y106.583 E3.77590
G1 X87.238 Y107.197 F7800.000
G1 X85.943 Y105.902 E3.85878 F540.000
G1 X85.943 Y106.448 E3.88348
G1 X86.692 Y107.197 E3.93144
G1 X86.147 Y107.197 E3.95613
G1 X85.943 Y106.993 E3.96916
M106 S255
G92 E0
G1 Z0.600 F7800.000
G1 X104.585 Y103.801 F7800.000
G1 X103.746 Y99.504 E1.31181 F600.000
G1 X103.746 Y94.011 E2.95776
G1 X103.819 Y93.461 E3.12413
G1 X104.782 Y93.181 E3.42438
G1 X108.850 Y93.182 E4.64347
G1 X110.147 Y93.283 E5.03309
G1 X110.387 Y93.322 E5.10598
G1 X111.283 Y93.575 E5.38512
G1 X111.564 Y93.691 E5.47618
G1 X111.993 Y93.932 E5.62357
G1 X112.429 Y94.254 E5.78594
G1 X112.763 Y94.615 E5.93338
G1 X112.965 Y94.875 E6.03191
G1 X113.329 Y95.689 E6.29909
G1 X113.452 Y96.695 E6.60290
G1 X113.414 Y97.093 E6.72257
G1 X113.363 Y97.351 E6.80141
G1 X113.164 Y97.944 E6.98888
G1 X112.872 Y98.533 E7.18599
G1 X112.465 Y98.969 E7.36453
G1 X112.356 Y99.050 E7.40537
G1 X111.620 Y99.466 E7.65870
G1 X111.085 Y99.699 E7.83357
G1 X110.750 Y99.792 E7.93764
G1 X109.895 Y100.308 E8.23699
G1 X109.097 Y101.178 E8.59080
G92 E0
G1 X103.904 Y100.312 F7800.000
G1 X108.747 Y100.324 E1.45131 F600.000
G1 X109.323 Y100.303 E1.62395
G1 X109.879 Y100.326 E1.79078
G1 X110.253 Y100.739 E1.95771
G1 X110.387 Y100.848 E2.00934
G1 X110.674 Y101.022 E2.11002
G1 X111.229 Y101.282 E2.29370
G1 X111.802 Y101.734 E2.51240
G1 X112.154 Y102.215 E2.69113
G1 X112.402 Y102.718 E2.85898
G1 X112.526 Y103.277 E3.03066
G1 X112.567 Y103.825 E3.19546
G1 X112.419 Y104.547 E3.41627
G1 X112.332 Y104.847 E3.50965
G1 X112.139 Y105.357 E3.67318
G1 X111.800 Y105.704 E3.81848
G1 X111.300 Y106.106 E4.01069
G1 X110.895 Y106.363 E4.15458
G1 X110.223 Y106.549 E4.36338
G1 X109.402 Y106.696 E4.61335
G1 X108.196 Y106.818 E4.97678
G1 X104.782 Y106.818 E5.99968
G1 X103.819 Y106.539 E6.29994
G1 X103.746 Y105.989 E6.46630
G1 X103.746 Y101.120 E7.92528
G1 X103.904 Y100.312 E8.17196
G92 E0
G1 X102.711 Y92.352 F7800.000
G1 X96.088 Y94.463 F7800.000
G1 X89.563 Y92.352 F7800.000
G1 X87.563 Y92.352 F7800.000
G1 X86.528 Y92.352 F7800.000
G1 X86.528 Y98.575 E1.86470 F600.000
G1 X86.705 Y99.431 E2.12677
G1 X96.088 Y99.431 E4.93847
G92 E0
G1 X86.563 Y106.648 F7800.000
G1 X86.563 Y106.648 F7800.000
G1 X96.349 Y106.802 F7800.000
G1 X87.563 Y106.802 E2.63269 F600.000
G1 X86.608 Y106.532 E2.93014
G1 X86.528 Y105.956 E3.10449
G1 X86.528 Y100.288 E4.80289
G1 X87.425 Y95.951 E6.13009
G92 E0
G1 Z0.900 F7800.000
G1 X104.585 Y103.801 F7800.000
G1 X103.746 Y99.504 E1.31181 F600.000
G1 X103.746 Y94.011 E2.95776
G1 X103.819 Y93.461 E3.12413
G1 X104.782 Y93.181 E3.42438
G1 X108.850 Y93.182 E4.64347
G1 X110.147 Y93.283 E5.03309
G1 X110.387 Y93.322 E5.10598
G1 X111.283 Y93.575 E5.38512
G1 X111.564 Y93.691 E5.47618
G1 X111.993 Y93.932 E5.62357
G1 X112.429 Y94.254 E5.78594
G1 X112.763 Y94.615 E5.93338
G1 X112.965 Y94.875 E6.03191
G1 X113.329 Y95.689 E6.29909
G1 X113.452 Y96.695 E6.60290
G1 X113.414 Y97.093 E6.72257
G1 X113.363 Y97.351 E6.80141
G1 X113.164 Y97.944 E6.98888
G1 X112.872 Y98.533 E7.18599
G1 X112.465 Y98.969 E7.36453
G1 X112.356 Y99.050 E7.40537
G1 X111.620 Y99.466 E7.65870
G1 X111.085 Y99.699 E7.83357
G1 X110.750 Y99.792 E7.93764
G1 X109.895 Y100.308 E8.23699
G1 X109.097 Y101.178 E8.59080
G92 E0
G1 X103.904 Y100.312 F7800.000
G1 X108.747 Y100.324 E1.45131 F600.000
G1 X109.323 Y100.303 E1.62395
G1 X109.879 Y100.326 E1.79078
G1 X110.253 Y100.739 E1.95771
G1 X110.387 Y100.848 E2.00934
G1 X110.674 Y101.022 E2.11002
G1 X111.229 Y101.282 E2.29370
G1 X111.802 Y101.734 E2.51240
G1 X112.154 Y102.215 E2.69113
G1 X112.402 Y102.718 E2.85898
G1 X112.526 Y103.277 E3.03066
G1 X112.567 Y103.825 E3.19546
G1 X112.419 Y104.547 E3.41627
G1 X112.332 Y104.847 E3.50965
G1 X112.139 Y105.357 E3.67318
G1 X111.800 Y105.704 E3.81848
G1 X111.300 Y106.106 E4.01069
G1 X110.895 Y106.363 E4.15458
G1 X110.223 Y106.549 E4.36338
G1 X109.402 Y106.696 E4.61335
G1 X108.196 Y106.818 E4.97678
G1 X104.782 Y106.818 E5.99968
G1 X103.819 Y106.539 E6.29994
G1 X103.746 Y105.989 E6.46630
G1 X103.746 Y101.120 E7.92528
G1 X103.904 Y100.312 E8.17196
G92 E0
G1 X102.711 Y92.352 F7800.000
G1 X96.088 Y94.463 F7800.000
G1 X89.563 Y92.352 F7800.000
G1 X87.563 Y92.352 F7800.000
G1 X86.528 Y92.352 F7800.000
G1 X86.528 Y98.575 E1.86470 F600.000
G1 X86.705 Y99.431 E2.12677
G1 X96.088 Y99.431 E4.93847
G92 E0
G1 X86.563 Y106.648 F7800.000
G1 X86.563 Y106.648 F7800.000
G1 X96.349 Y106.802 F7800.000
G1 X87.563 Y106.802 E2.63269 F600.000
G1 X86.608 Y106.532 E2.93014
G1 X86.528 Y105.956 E3.10449
