; generated by Slic3r 1.2.9 on 2016-03-11 at 01:24:17

; external perimeters extrusion width = 1.54mm
; perimeters extrusion width = 2.62mm
; infill extrusion width = 6.27mm
; solid infill extrusion width = 2.62mm
; top infill extrusion width = 2.62mm

M107
M104 S30 ; set temperature
G28 ; home all axes
G1 Z5 F5000 ; lift nozzle
M302
M92 E10000
M500
M501
G1 E100
M109 S30 ; wait for temperature to be reached
G21 ; set units to millimeters
G90 ; use absolute coordinates
M82 ; use absolute distances for extrusion
G92 E0
G1 Z0.300 F7800.000
G1 X101.831 Y97.176 F7800.000
G1 X102.309 Y95.954 E0.05937 F378.000
G1 X102.965 Y94.896 E0.11571
G1 X103.792 Y94.017 E0.17031
G1 X104.792 Y93.314 E0.22564
G1 X105.949 Y92.799 E0.28291
G1 X107.245 Y92.489 E0.34322
G1 X108.683 Y92.386 E0.40846
G1 X110.003 Y92.490 E0.46836
G1 X110.091 Y92.497 E0.47239 F378.000
G1 X111.375 Y92.829 E0.53236
G1 X112.536 Y93.381 E0.59054
G1 X113.555 Y94.143 E0.64812
G1 X114.411 Y95.107 E0.70648
G1 X114.992 Y96.088 E0.75803
G1 X113.688 Y96.737 E0.82394
G1 X112.518 Y95.102 E0.91491
G1 X110.833 Y94.000 E1.00604
G1 X108.787 Y93.635 E1.10006
G1 X107.163 Y93.832 E1.17409
G1 X105.774 Y94.425 E1.24246
G1 X104.626 Y95.414 E1.31103
G1 X103.774 Y96.722 E1.38165
G1 X103.267 Y98.274 E1.45553
G1 X103.099 Y100.064 E1.53685
G1 X103.260 Y101.863 E1.61858
G1 X103.747 Y103.401 E1.69159
G1 X104.567 Y104.672 E1.76003
G1 X105.687 Y105.620 E1.82643
G1 X107.067 Y106.187 E1.89396
G1 X108.689 Y106.374 E1.96783
G1 X109.761 Y106.293 E2.01646
G1 X110.733 Y106.050 E2.06182
G1 X111.609 Y105.642 E2.10553
G1 X112.362 Y105.077 E2.14815
G1 X112.965 Y104.364 E2.19040
G1 X113.315 Y103.697 E2.22446
G1 X114.843 Y104.202 E2.29727
G1 X114.370 Y105.088 E2.34271
G1 X113.599 Y105.989 E2.39638
G1 X112.643 Y106.694 E2.45016
G1 X111.502 Y107.204 E2.50668
G1 X110.179 Y107.511 E2.56813
G1 X108.677 Y107.614 E2.63627
G1 X106.563 Y107.390 E2.73248
G1 X104.796 Y106.723 E2.81790
G1 X103.363 Y105.616 E2.89985
G1 X102.303 Y104.118 E2.98291
G1 X101.663 Y102.270 E3.07138
G1 X101.447 Y100.061 E3.17183
G1 X101.544 Y98.546 E3.24052
G1 X101.784 Y97.402 E3.29341
G1 X103.333 Y102.936 F7800.000
G1 X101.815 Y101.418 E3.39060 F540.000
G1 X101.756 Y100.813 E3.41809
G1 X103.080 Y102.137 E3.50284
G1 X102.993 Y101.505 E3.53172
G1 X101.697 Y100.209 E3.61470
G1 X101.694 Y99.660 E3.63953
G1 X102.940 Y100.906 E3.71927
G1 X102.886 Y100.306 E3.74650
G1 X101.727 Y99.147 E3.82072
G1 X101.759 Y98.634 E3.84399
G1 X102.906 Y99.780 E3.91737
G1 X102.952 Y99.282 E3.94005
G1 X101.839 Y98.168 E4.01137
G1 X101.933 Y97.717 E4.03222
G1 X102.999 Y98.783 E4.10047
G1 X103.048 Y98.286 E4.12308
G1 X102.028 Y97.266 E4.18836
G1 X102.170 Y96.863 E4.20771
G1 X103.182 Y97.875 E4.27248
G1 X103.317 Y97.463 E4.29206
G1 X102.324 Y96.471 E4.35562
G1 X102.477 Y96.078 E4.37469
G1 X103.451 Y97.052 E4.43705
G1 X103.591 Y96.647 E4.45647
G1 X102.676 Y95.732 E4.51505
G1 X102.885 Y95.395 E4.53298
G1 X103.806 Y96.316 E4.59196
G1 X104.021 Y95.986 E4.60981
G1 X103.094 Y95.059 E4.66917
G1 X103.349 Y94.768 E4.68667
G1 X104.237 Y95.656 E4.74347
G1 X104.452 Y95.325 E4.76132
G1 X103.619 Y94.492 E4.81465
G1 X103.891 Y94.219 E4.83212
G1 X104.737 Y95.065 E4.88624
G1 X105.030 Y94.812 E4.90376
G1 X104.191 Y93.973 E4.95745
G1 X104.511 Y93.748 E4.97518
G1 X105.323 Y94.560 E5.02713
G1 X105.616 Y94.307 E5.04464
G1 X104.832 Y93.523 E5.09485
G1 X105.204 Y93.349 E5.11343
G1 X105.976 Y94.121 E5.16284
G1 X106.358 Y93.958 E5.18166
G1 X105.581 Y93.181 E5.23137
G1 X105.959 Y93.013 E5.25007
G1 X106.740 Y93.794 E5.30008
G1 X107.122 Y93.631 E5.31890
G1 X106.398 Y92.907 E5.36526
G1 X106.839 Y92.802 E5.38575
G1 X107.597 Y93.561 E5.43434
G1 X108.084 Y93.502 E5.45653
G1 X107.289 Y92.707 E5.50739
G1 X107.798 Y92.670 E5.53048
G1 X108.571 Y93.443 E5.57992
G1 X109.123 Y93.449 E5.60491
G1 X108.307 Y92.634 E5.65712
G1 X108.851 Y92.632 E5.68176
G1 X109.787 Y93.568 E5.74164
G1 X110.451 Y93.686 E5.77218
G1 X109.444 Y92.679 E5.83666
G1 X110.055 Y92.745 E5.86449
G1 X111.232 Y93.922 E5.93984
G1 X111.667 Y93.266 F7800.000
G1 X114.509 Y96.107 E6.12174 F540.000
G1 X114.144 Y96.288 E6.14016
G1 X112.661 Y94.805 E6.23514
G1 X112.808 Y94.952 F7800.000
G1 X110.791 Y92.935 E6.36427 F540.000
G1 X113.151 Y94.204 F7800.000
G1 X113.651 Y94.704 E6.39624 F540.000
G92 E0
G1 X113.696 Y104.639 F7800.000
G1 X113.696 Y104.639 F7800.000
G1 X113.798 Y104.126 F7800.000
G1 X114.360 Y104.688 E0.03597 F540.000
G1 X114.162 Y105.035 E0.05407
G1 X113.292 Y104.166 E0.10974
G1 X113.092 Y104.511 E0.12782
G1 X113.910 Y105.329 E0.18018
G1 X113.659 Y105.623 E0.19770
G1 X112.842 Y104.807 E0.24995
G1 X112.592 Y105.103 E0.26748
G1 X113.388 Y105.898 E0.31838
G1 X113.078 Y106.133 E0.33601
G1 X112.305 Y105.361 E0.38545
G1 X111.994 Y105.595 E0.40309
G1 X112.764 Y106.365 E0.45239
G1 X112.426 Y106.573 E0.47034
G1 X111.681 Y105.828 E0.51801
G1 X111.309 Y106.001 E0.53660
G1 X112.049 Y106.741 E0.58395
G1 X111.671 Y106.909 E0.60265
G1 X110.937 Y106.175 E0.64967
G1 X110.532 Y106.315 E0.66908
G1 X111.261 Y107.044 E0.71576
G1 X110.818 Y107.147 E0.73633
G1 X110.095 Y106.424 E0.78262
G1 X109.648 Y106.522 E0.80336
G1 X110.376 Y107.250 E0.84997
G1 X109.890 Y107.310 E0.87214
G1 X109.140 Y106.561 E0.92011
G1 X108.633 Y106.599 E0.94314
G1 X109.379 Y107.345 E0.99090
G1 X108.868 Y107.380 E1.01407
G1 X108.023 Y106.535 E1.06819
G1 X107.407 Y106.464 E1.09628
G1 X108.278 Y107.335 E1.15209
G1 X107.668 Y107.271 E1.17988
G1 X106.731 Y106.334 E1.23987
G1 X105.805 Y105.953 F7800.000
G1 X107.058 Y107.206 E1.32009 F540.000
G1 X106.330 Y107.024 E1.35404
G1 X102.125 Y102.819 E1.62327
G1 X101.874 Y102.022 E1.66106
G1 X103.697 Y103.845 E1.77775
G1 X102.414 Y103.653 F7800.000
G1 X105.454 Y106.693 E1.97238 F540.000
G1 X103.795 Y105.580 F7800.000
G1 X103.437 Y105.222 E1.99530 F540.000
G92 E0
G1 X101.441 Y102.319 F7800.000
G1 X97.916 Y102.663 F7800.000
G1 X98.259 Y100.288 F7800.000
G1 X95.287 Y100.288 F7800.000
G1 X92.931 Y98.800 F7800.000
G1 X95.062 Y98.800 E0.09644 F378.000
G1 X95.062 Y100.063 E0.15359
G1 X86.537 Y100.063 E0.53934
G1 X86.537 Y106.181 E0.81618
G1 X95.323 Y106.181 E1.21374
G1 X95.323 Y107.423 E1.26994
G1 X84.916 Y107.423 E1.74085
G1 X84.916 Y92.577 E2.41262
G1 X86.537 Y92.577 E2.48597
G1 X86.537 Y98.800 E2.76755
G1 X92.700 Y98.800 E3.04641 F378.000
G1 X94.836 Y99.230 F7800.000
G1 X94.633 Y99.026 E3.05944 F540.000
G1 X94.087 Y99.026 E3.08414
G1 X94.836 Y99.775 E3.13210
G1 X94.353 Y99.837 E3.15417
G1 X93.542 Y99.026 E3.20609
G1 X92.996 Y99.026 E3.23079
G1 X93.807 Y99.837 E3.28271
G1 X93.262 Y99.837 E3.30741
G1 X92.450 Y99.026 E3.35933
G1 X91.905 Y99.026 E3.38403
G1 X92.716 Y99.837 E3.43595
G1 X92.170 Y99.837 E3.46065
G1 X91.359 Y99.026 E3.51257
G1 X90.814 Y99.026 E3.53727
G1 X91.625 Y99.837 E3.58919
G1 X91.079 Y99.837 E3.61389
G1 X90.268 Y99.026 E3.66581
G1 X89.723 Y99.026 E3.69051
G1 X90.534 Y99.837 E3.74243
G1 X89.988 Y99.837 E3.76713
G1 X89.177 Y99.026 E3.81905
G1 X88.632 Y99.026 E3.84375
G1 X89.443 Y99.837 E3.89567
G1 X88.897 Y99.837 E3.92037
G1 X88.086 Y99.026 E3.97229
G1 X87.540 Y99.026 E3.99699
G1 X88.351 Y99.837 E4.04891
G1 X87.806 Y99.837 E4.07361
G1 X86.995 Y99.026 E4.12553
G1 X86.449 Y99.026 E4.15023
G1 X87.260 Y99.837 E4.20215
G1 X86.715 Y99.837 E4.22685
G1 X85.142 Y98.264 E4.32752
G1 X85.142 Y98.810 E4.35222
G1 X86.311 Y99.979 E4.42706
G1 X86.311 Y100.525 E4.45175
G1 X85.142 Y99.356 E4.52660
G1 X85.142 Y99.901 E4.55129
G1 X86.311 Y101.070 E4.62614
G1 X86.311 Y101.616 E4.65083
G1 X85.142 Y100.447 E4.72567
G1 X85.142 Y100.992 E4.75037
G1 X86.311 Y102.161 E4.82521
G1 X86.311 Y102.707 E4.84991
G1 X85.142 Y101.538 E4.92475
G1 X85.142 Y102.083 E4.94945
G1 X86.311 Y103.252 E5.02429
G1 X86.311 Y103.798 E5.04899
G1 X85.142 Y102.629 E5.12383
G1 X85.142 Y103.175 E5.14852
G1 X86.311 Y104.344 E5.22337
G1 X86.311 Y104.889 E5.24806
G1 X85.142 Y103.720 E5.32291
G1 X85.142 Y104.266 E5.34760
G1 X86.311 Y105.435 E5.42244
G1 X86.311 Y105.980 E5.44714
G1 X85.142 Y104.811 E5.52198
G1 X85.142 Y105.357 E5.54668
G1 X86.982 Y107.197 E5.66449
G1 X87.528 Y107.197 E5.68918
G1 X86.738 Y106.407 E5.73976
G1 X87.284 Y106.407 E5.76446
G1 X88.074 Y107.197 E5.81504
G1 X88.619 Y107.197 E5.83974
G1 X87.829 Y106.407 E5.89031
G1 X88.375 Y106.407 E5.91501
G1 X89.165 Y107.197 E5.96559
G1 X89.710 Y107.197 E5.99029
G1 X88.920 Y106.407 E6.04087
G1 X89.466 Y106.407 E6.06556
G1 X90.256 Y107.197 E6.11614
G1 X90.801 Y107.197 E6.14084
G1 X90.011 Y106.407 E6.19142
G1 X90.557 Y106.407 E6.21611
G1 X91.347 Y107.197 E6.26669
G1 X91.893 Y107.197 E6.29139
G1 X91.102 Y106.407 E6.34197
G1 X91.648 Y106.407 E6.36666
G1 X92.438 Y107.197 E6.41724
G1 X92.984 Y107.197 E6.44194
G1 X92.194 Y106.407 E6.49252
G1 X92.739 Y106.407 E6.51721
G1 X93.529 Y107.197 E6.56779
G1 X94.075 Y107.197 E6.59249
G1 X93.285 Y106.407 E6.64307
G1 X93.830 Y106.407 E6.66777
G1 X94.620 Y107.197 E6.71835
G1 X95.097 Y107.128 E6.74016
G1 X94.376 Y106.407 E6.78635
G1 X94.921 Y106.407 E6.81104
G1 X95.097 Y106.583 E6.82230
G1 X86.437 Y107.197 F7800.000
G1 X85.142 Y105.902 E6.90519 F540.000
G1 X85.142 Y106.448 E6.92988
G1 X85.891 Y107.197 E6.97784
G1 X85.346 Y107.197 E7.00254
G1 X85.142 Y106.993 E7.01557
G1 X86.311 Y98.888 F7800.000
G1 X85.142 Y97.719 E7.09041 F540.000
G1 X85.142 Y97.173 E7.11511
G1 X86.311 Y98.342 E7.18995
G1 X86.311 Y97.797 E7.21465
G1 X85.142 Y96.628 E7.28949
G1 X85.142 Y96.082 E7.31419
G1 X86.311 Y97.251 E7.38903
G1 X86.311 Y96.706 E7.41372
G1 X85.142 Y95.537 E7.48857
G1 X85.142 Y94.991 E7.51326
G1 X86.311 Y96.160 E7.58811
G1 X86.311 Y95.615 E7.61280
G1 X85.142 Y94.446 E7.68764
G1 X85.142 Y93.900 E7.71234
G1 X86.311 Y95.069 E7.78718
G1 X86.311 Y94.523 E7.81188
G1 X85.142 Y93.354 E7.88672
G1 X85.159 Y92.826 E7.91066
G1 X86.311 Y93.978 E7.98441
G1 X86.311 Y93.432 E8.00910
G1 X85.682 Y92.803 E8.04940
M106 S255
G92 E0
G1 Z0.600 F7800.000
G1 X114.294 Y103.783 F7800.000
G1 X113.537 Y104.879 E0.39907 F600.000
G1 X113.073 Y105.424 E0.61328
G1 X112.949 Y105.540 E0.66419
G1 X112.272 Y106.059 E0.91979
G1 X111.880 Y106.278 E1.05464
G1 X111.283 Y106.551 E1.25120
G1 X110.870 Y106.685 E1.38129
G1 X110.084 Y106.874 E1.62346
G1 X109.788 Y106.915 E1.71287
G1 X108.689 Y106.992 E2.04327
G1 X107.027 Y106.811 E2.54417
G1 X106.715 Y106.749 E2.63945
G1 X105.464 Y106.256 E3.04239
G1 X105.147 Y106.095 E3.14885
G1 X104.114 Y105.260 E3.54706
G1 X103.921 Y105.081 E3.62573
G1 X103.094 Y103.857 E4.06829
G1 X103.024 Y103.747 E4.10738
G1 X102.975 Y103.614 E4.14995
G1 X102.472 Y102.094 E4.62982
G1 X102.275 Y100.047 E5.24585
G1 X102.382 Y98.660 E5.66269
G1 X102.496 Y97.996 E5.86469
G1 X102.650 Y97.420 E6.04322
G1 X103.051 Y96.325 E6.39258
G1 X103.632 Y95.408 E6.71789
G1 X103.945 Y95.010 E6.86978
G1 X104.319 Y94.624 E7.03067
G1 X105.162 Y93.966 E7.35119
G1 X105.528 Y93.761 E7.47682
G1 X106.178 Y93.477 E7.68947
G1 X106.878 Y93.246 E7.91034
G1 X107.346 Y93.144 E8.05386
G1 X108.681 Y93.015 E8.45567
G1 X108.930 Y93.029 E8.53031
G1 X109.980 Y93.164 E8.84757
G1 X110.899 Y93.364 E9.12966
G1 X111.153 Y93.440 E9.20883
G1 X112.160 Y94.003 E9.55473
G1 X112.864 Y94.496 E9.81218
G1 X113.073 Y94.666 E9.89305
G1 X113.789 Y95.561 E10.23633
G1 X114.467 Y96.600 E10.60816
G92 E0
G1 X108.684 Y92.160 F7800.000
G1 X108.684 Y92.160 F7800.000
G1 X108.612 Y91.161 F7800.000
G1 X107.135 Y91.215 F7800.000
G1 X106.962 Y91.228 F7800.000
G1 X105.590 Y91.389 F7800.000
G1 X105.361 Y91.427 F7800.000
G1 X104.053 Y91.705 F7800.000
G1 X103.745 Y91.787 F7800.000
G1 X102.477 Y92.188 F7800.000
G1 X102.051 Y92.347 F7800.000
G1 X100.799 Y92.889 F7800.000
G1 X100.228 Y93.171 F7800.000
G1 X98.940 Y93.888 F7800.000
G1 X98.219 Y94.334 F7800.000
G1 X97.674 Y94.706 F7800.000
G1 X95.287 Y94.367 F7800.000
G1 X90.970 Y94.367 F7800.000
G1 X88.954 Y92.352 F7800.000
G1 X86.762 Y92.352 F7800.000
G1 X85.727 Y92.352 F7800.000
G1 X85.727 Y98.575 E1.86470 F600.000
G1 X85.904 Y99.431 E2.12677
G1 X95.287 Y99.431 E4.93847
G92 E0
G1 X85.762 Y106.648 F7800.000
G1 X85.762 Y106.648 F7800.000
G1 X95.548 Y106.802 F7800.000
G1 X86.762 Y106.802 E2.63269 F600.000
G1 X85.807 Y106.532 E2.93014
G1 X85.727 Y105.956 E3.10449
G1 X85.727 Y100.288 E4.80289
G1 X86.624 Y95.951 E6.13009
G92 E0
G1 Z0.900 F7800.000
G1 X114.294 Y103.783 F7800.000
G1 X113.537 Y104.879 E0.39907 F600.000
G1 X113.073 Y105.424 E0.61328
G1 X112.949 Y105.540 E0.66419
G1 X112.272 Y106.059 E0.91979
G1 X111.880 Y106.278 E1.05464
G1 X111.283 Y106.551 E1.25120
G1 X110.870 Y106.685 E1.38129
G1 X110.084 Y106.874 E1.62347
G1 X109.788 Y106.915 E1.71287
G1 X108.689 Y106.992 E2.04327
G1 X107.027 Y106.811 E2.54417
G1 X106.715 Y106.749 E2.63945
G1 X105.464 Y106.256 E3.04239
G1 X105.147 Y106.095 E3.14885
G1 X104.114 Y105.260 E3.54706
G1 X103.921 Y105.081 E3.62573
G1 X103.094 Y103.857 E4.06829
G1 X103.024 Y103.747 E4.10738
G1 X102.975 Y103.614 E4.14995
G1 X102.472 Y102.094 E4.62982
G1 X102.275 Y100.047 E5.24585
G1 X102.382 Y98.660 E5.66269
G1 X102.496 Y97.996 E5.86469
G1 X102.650 Y97.420 E6.04322
G1 X103.051 Y96.325 E6.39258
G1 X103.632 Y95.408 E6.71789
G1 X103.945 Y95.010 E6.86978
G1 X104.319 Y94.624 E7.03067
G1 X105.162 Y93.966 E7.35119
G1 X105.528 Y93.761 E7.47682
G1 X106.178 Y93.477 E7.68947
G1 X106.878 Y93.246 E7.91034
G1 X107.346 Y93.144 E8.05386
G1 X108.681 Y93.015 E8.45567
G1 X108.930 Y93.029 E8.53031
G1 X109.980 Y93.164 E8.84757
G1 X110.899 Y93.364 E9.12966
G1 X111.153 Y93.440 E9.20883
G1 X112.160 Y94.003 E9.55473
G1 X112.864 Y94.496 E9.81218
G1 X113.073 Y94.666 E9.89305
G1 X113.789 Y95.561 E10.23633
G1 X114.467 Y96.600 E10.60816
G92 E0
G1 X108.684 Y92.160 F7800.000
G1 X108.684 Y92.160 F7800.000
G1 X108.612 Y91.161 F7800.000
G1 X107.135 Y91.215 F7800.000
G1 X106.962 Y91.228 F7800.000
G1 X105.590 Y91.389 F7800.000
G1 X105.361 Y91.427 F7800.000
G1 X104.053 Y91.705 F7800.000
G1 X103.745 Y91.787 F7800.000
G1 X102.477 Y92.188 F7800.000
G1 X102.051 Y92.347 F7800.000
G1 X100.799 Y92.889 F7800.000
G1 X100.228 Y93.171 F7800.000
G1 X98.940 Y93.888 F7800.000
G1 X98.219 Y94.334 F7800.000
G1 X97.674 Y94.706 F7800.000
G1 X95.287 Y94.367 F7800.000
G1 X90.970 Y94.367 F7800.000
G1 X88.954 Y92.352 F7800.000
G1 X86.762 Y92.352 F7800.000
G1 X85.727 Y92.352 F7800.000
G1 X85.727 Y98.575 E1.86470 F600.000
G1 X85.904 Y99.431 E2.12677
G1 X95.287 Y99.431 E4.93847
G92 E0
G1 X85.762 Y106.648 F7800.000
G1 X85.762 Y106.648 F7800.000
G1 X95.548 Y106.802 F7800.000
G1 X86.762 Y106.802 E2.63269 F600.000
G1 X85.807 Y106.532 E2.93014
G1 X85.727 Y105.956 E3.10449
G1 X85.727 Y100.288 E4.80289
G1 X86.624 Y95.951 E6.13009
G92 E0
G1 Z1.200 F7800.000
G1 X114.294 Y103.783 F7800.000
G1 X113.537 Y104.879 E0.39907 F600.000
G1 X113.073 Y105.424 E0.61328
G1 X112.949 Y105.540 E0.66419
G1 X112.272 Y106.059 E0.91979
G1 X111.880 Y106.278 E1.05465
G1 X111.283 Y106.551 E1.25120
G1 X110.870 Y106.685 E1.38129
G1 X110.084 Y106.874 E1.62346
G1 X109.788 Y106.915 E1.71287
G1 X108.689 Y106.992 E2.04327
G1 X107.027 Y106.811 E2.54417
G1 X106.715 Y106.749 E2.63945
G1 X105.464 Y106.256 E3.04239
G1 X105.147 Y106.095 E3.14885
G1 X104.114 Y105.260 E3.54706
G1 X103.921 Y105.081 E3.62573
G1 X103.094 Y103.857 E4.06829
G1 X103.024 Y103.747 E4.10738
G1 X102.975 Y103.614 E4.14995
G1 X102.472 Y102.094 E4.62982
G1 X102.275 Y100.047 E5.24585
G1 X102.382 Y98.660 E5.66269
G1 X102.496 Y97.996 E5.86469
G1 X102.650 Y97.420 E6.04322
G1 X103.051 Y96.325 E6.39258
G1 X103.632 Y95.408 E6.71789
G1 X103.945 Y95.010 E6.86979
G1 X104.319 Y94.624 E7.03067
G1 X105.162 Y93.966 E7.35119
G1 X105.528 Y93.761 E7.47682
G1 X106.178 Y93.477 E7.68947
G1 X106.878 Y93.246 E7.91034
G1 X107.346 Y93.144 E8.05386
G1 X108.681 Y93.015 E8.45567
G1 X108.930 Y93.029 E8.53031
G1 X109.980 Y93.164 E8.84757
G1 X110.899 Y93.364 E9.12966
G1 X111.153 Y93.440 E9.20883
G1 X112.160 Y94.003 E9.55473
G1 X112.864 Y94.496 E9.81218
G1 X113.073 Y94.666 E9.89305
G1 X113.789 Y95.561 E10.23633
G1 X114.467 Y96.600 E10.60816
G92 E0
G1 X108.684 Y92.160 F7800.000
G1 X108.684 Y92.160 F7800.000
G1 X108.612 Y91.161 F7800.000
G1 X107.135 Y91.215 F7800.000
G1 X106.962 Y91.228 F7800.000
G1 X105.590 Y91.389 F7800.000
G1 X105.361 Y91.427 F7800.000
G1 X104.053 Y91.705 F7800.000
G1 X103.745 Y91.787 F7800.000
G1 X102.477 Y92.188 F7800.000
G1 X102.051 Y92.347 F7800.000
G1 X100.799 Y92.889 F7800.000
