; generated by Slic3r 1.2.9 on 2016-03-11 at 01:24:18

; external perimeters extrusion width = 1.54mm
; perimeters extrusion width = 2.62mm
; infill extrusion width = 6.27mm
; solid infill extrusion width = 2.62mm
; top infill extrusion width = 2.62mm

M107
M104 S30 ; set temperature
G28 ; home all axes
G1 Z5 F5000 ; lift nozzle
M302
M92 E10000
M500
M501
G1 E100
M109 S30 ; wait for temperature to be reached
G21 ; set units to millimeters
G90 ; use absolute coordinates
M82 ; use absolute distances for extrusion
G92 E0
G1 Z0.300 F7800.000
G1 X112.283 Y94.001 F7800.000
G1 X112.557 Y94.190 E0.01507 F378.000
G1 X113.399 Y95.065 E0.06999
G1 X114.077 Y96.120 E0.12676
G1 X114.575 Y97.333 E0.18605
G1 X114.874 Y98.678 E0.24840
G1 X114.974 Y100.153 E0.31530
G1 X114.745 Y102.317 E0.41380
G1 X114.063 Y104.105 E0.50037
G1 X112.933 Y105.532 E0.58275
G1 X111.382 Y106.578 E0.66737
G1 X109.436 Y107.210 E0.75996
G1 X107.076 Y107.423 E0.86718
G1 X102.250 Y107.423 E1.08554
G1 X102.250 Y92.577 E1.75731
G1 X107.741 Y92.577 E2.00576
G1 X109.046 Y92.673 E2.06496
G1 X109.134 Y92.680 E2.06895 F378.000
G1 X110.399 Y92.986 E2.12788
G1 X111.549 Y93.493 E2.18473
G1 X112.093 Y93.870 E2.21468
G1 X111.255 Y95.035 F7800.000
G1 X111.407 Y95.145 E2.22315 F378.000
G1 X112.091 Y95.887 E2.26886
G1 X112.636 Y96.778 E2.31608
G1 X113.030 Y97.796 E2.36549
G1 X113.266 Y98.923 E2.41758
G1 X113.344 Y100.161 E2.47372
G1 X113.166 Y101.954 E2.55525
G1 X112.625 Y103.459 E2.62760
G1 X111.716 Y104.660 E2.69578
G1 X110.465 Y105.529 E2.76471
G1 X108.904 Y106.045 E2.83909
G1 X107.053 Y106.214 E2.92321
G1 X103.871 Y106.214 E3.06716
G1 X103.871 Y93.786 E3.62952
G1 X107.518 Y93.786 E3.79452 F378.000
G1 X108.623 Y93.870 E3.84469
G1 X109.649 Y94.126 E3.89253
G1 X110.585 Y94.553 E3.93908
G1 X111.067 Y94.900 E3.96597
G1 X110.468 Y94.206 F7800.000
G1 X109.216 Y92.954 E4.04627 F540.000
G1 X109.937 Y93.128 E4.07992
G1 X114.375 Y97.566 E4.36468
G1 X114.013 Y96.658 F7800.000
G1 X110.815 Y93.460 E4.56985 F540.000
G1 X109.564 Y93.849 F7800.000
G1 X108.587 Y92.872 E4.63249 F540.000
G1 X107.997 Y92.829 E4.65935
G1 X108.835 Y93.667 E4.71315
G1 X108.228 Y93.607 E4.74082
G1 X107.424 Y92.803 E4.79241
G1 X106.877 Y92.803 E4.81722
G1 X107.636 Y93.562 E4.86592
G1 X107.088 Y93.560 E4.89082
G1 X106.331 Y92.803 E4.93940
G1 X105.784 Y92.803 E4.96421
G1 X106.541 Y93.560 E5.01279
G1 X105.994 Y93.560 E5.03760
G1 X105.237 Y92.803 E5.08617
G1 X104.690 Y92.803 E5.11098
G1 X105.447 Y93.560 E5.15956
G1 X104.900 Y93.560 E5.18437
G1 X104.143 Y92.803 E5.23295
G1 X103.597 Y92.803 E5.25776
G1 X104.354 Y93.560 E5.30634
G1 X103.807 Y93.560 E5.33115
G1 X103.050 Y92.803 E5.37972
G1 X102.510 Y92.810 E5.40423
G1 X103.645 Y93.945 E5.47711
G1 X103.645 Y94.492 E5.50192
G1 X102.476 Y93.323 E5.57693
G1 X102.476 Y93.870 E5.60174
G1 X103.645 Y95.039 E5.67676
G1 X103.645 Y95.586 E5.70157
G1 X102.476 Y94.417 E5.77658
G1 X102.476 Y94.964 E5.80139
G1 X103.645 Y96.133 E5.87640
G1 X103.645 Y96.679 E5.90121
G1 X102.476 Y95.510 E5.97623
G1 X102.476 Y96.057 E6.00104
G1 X103.645 Y97.226 E6.07605
G1 X103.645 Y97.773 E6.10086
G1 X102.476 Y96.604 E6.17587
G1 X102.476 Y97.151 E6.20068
G1 X103.645 Y98.320 E6.27570
G1 X103.645 Y98.867 E6.30051
G1 X102.476 Y97.698 E6.37552
G1 X102.476 Y98.244 E6.40033
G1 X103.645 Y99.414 E6.47534
G1 X103.645 Y99.960 E6.50015
G1 X102.476 Y98.791 E6.57517
G1 X102.476 Y99.338 E6.59998
G1 X103.645 Y100.507 E6.67499
G1 X103.645 Y101.054 E6.69980
G1 X102.476 Y99.885 E6.77481
G1 X102.476 Y100.432 E6.79962
G1 X103.645 Y101.601 E6.87464
G1 X103.645 Y102.148 E6.89945
G1 X102.476 Y100.978 E6.97446
G1 X102.476 Y101.525 E6.99927
G1 X103.645 Y102.694 E7.07428
G1 X103.645 Y103.241 E7.09909
G1 X102.476 Y102.072 E7.17411
G1 X102.476 Y102.619 E7.19892
G1 X103.645 Y103.788 E7.27393
G1 X103.645 Y104.335 E7.29874
G1 X102.476 Y103.166 E7.37375
G1 X102.476 Y103.713 E7.39856
G1 X103.645 Y104.882 E7.47358
G1 X103.645 Y105.428 E7.49839
G1 X102.476 Y104.259 E7.57340
G1 X102.476 Y104.806 E7.59821
G1 X103.645 Y105.975 E7.67322
G1 X103.563 Y106.440 E7.69463
G1 X104.320 Y107.197 E7.74321
G1 X104.867 Y107.197 E7.76802
G1 X104.110 Y106.440 E7.81660
G1 X103.645 Y106.522 E7.83801
G1 X102.476 Y105.353 E7.91302
G1 X102.476 Y105.900 E7.93783
G1 X103.773 Y107.197 E8.02107
G1 X103.227 Y107.197 E8.04588
G1 X102.476 Y106.447 E8.09402
G1 X102.476 Y106.993 E8.11883
G1 X102.680 Y107.197 E8.13190
G1 X104.657 Y106.440 F7800.000
G1 X105.414 Y107.197 E8.18047 F540.000
G1 X105.961 Y107.197 E8.20528
G1 X105.204 Y106.440 E8.25386
G1 X105.750 Y106.440 E8.27867
G1 X106.507 Y107.197 E8.32725
G1 X107.054 Y107.197 E8.35206
G1 X106.297 Y106.440 E8.40064
G1 X106.844 Y106.440 E8.42545
G1 X107.563 Y107.159 E8.47159
G1 X108.065 Y107.114 E8.49444
G1 X107.357 Y106.406 E8.53986
G1 X107.858 Y106.360 E8.56268
G1 X108.566 Y107.068 E8.60813
G1 X109.068 Y107.023 E8.63097
G1 X108.359 Y106.314 E8.67645
G1 X108.860 Y106.269 E8.69927
G1 X109.549 Y106.958 E8.74349
G1 X109.962 Y106.824 E8.76318
G1 X109.275 Y106.137 E8.80722
G1 X109.686 Y106.001 E8.82686
G1 X110.375 Y106.690 E8.87101
G1 X110.787 Y106.556 E8.89070
G1 X110.097 Y105.866 E8.93498
G1 X110.508 Y105.730 E8.95461
G1 X111.200 Y106.421 E8.99900
G1 X111.553 Y106.228 E9.01728
G1 X110.834 Y105.509 E9.06344
G1 X111.157 Y105.285 E9.08127
G1 X111.880 Y106.008 E9.12767
G1 X112.206 Y105.787 E9.14554
G1 X111.480 Y105.061 E9.19218
G1 X111.802 Y104.836 E9.21001
G1 X112.533 Y105.567 E9.25689
G1 X112.836 Y105.323 E9.27453
G1 X112.051 Y104.538 E9.32492
G1 X112.286 Y104.227 E9.34263
G1 X113.087 Y105.027 E9.39398
G1 X113.328 Y104.722 E9.41164
G1 X112.522 Y103.915 E9.46339
G1 X112.757 Y103.604 E9.48110
G1 X113.570 Y104.417 E9.53325
G1 X113.812 Y104.112 E9.55091
G1 X112.925 Y103.225 E9.60782
G1 X113.069 Y102.823 E9.62721
G1 X113.986 Y103.739 E9.68603
G1 X114.137 Y103.344 E9.70525
G1 X113.214 Y102.421 E9.76447
G1 X113.359 Y102.018 E9.78386
G1 X114.288 Y102.948 E9.84350
G1 X114.439 Y102.552 E9.86272
G1 X113.427 Y101.539 E9.92768
G1 X113.476 Y101.042 E9.95036
G1 X114.547 Y102.113 E10.01912
G1 X114.600 Y101.619 E10.04167
G1 X113.525 Y100.544 E10.11063
G1 X113.568 Y100.040 E10.13358
G1 X114.652 Y101.125 E10.20315
G1 X114.705 Y100.630 E10.22570
G1 X113.531 Y99.457 E10.30101
G1 X113.494 Y98.873 E10.32755
G1 X114.740 Y100.119 E10.40748
G1 X114.700 Y99.532 E10.43416
G1 X113.363 Y98.195 E10.51993
G1 X113.183 Y97.468 E10.55391
G1 X114.660 Y98.945 E10.64869
G1 X114.532 Y98.270 E10.67988
G1 X112.837 Y96.576 E10.78860
G1 X113.164 Y95.262 F7800.000
G1 X112.183 Y94.281 E10.85156 F540.000
G92 E0
G1 X102.025 Y107.648 F7800.000
G1 X100.025 Y107.648 F7800.000
G1 X97.657 Y107.648 F7800.000
G1 X95.657 Y107.648 F7800.000
G1 X90.098 Y107.423 F7800.000
G1 X85.025 Y107.423 E0.22954 F378.000
G1 X85.025 Y92.577 E0.90131
G1 X86.646 Y92.577 E0.97466
G1 X86.646 Y98.800 E1.25625
G1 X95.171 Y98.800 E1.64200 F378.000
G1 X95.171 Y100.063 E1.69915
G1 X86.646 Y100.063 E2.08490
G1 X86.646 Y106.181 E2.36173
G1 X95.432 Y106.181 E2.75929
G1 X95.432 Y107.423 E2.81549
G1 X90.329 Y107.423 E3.04641
G1 X86.545 Y107.197 F7800.000
G1 X85.251 Y105.902 E3.12929 F540.000
G1 X85.251 Y106.448 E3.15399
G1 X86.000 Y107.197 E3.20195
G1 X85.454 Y107.197 E3.22664
G1 X85.251 Y106.993 E3.23967
G1 X86.420 Y98.888 F7800.000
G1 X85.251 Y97.719 E3.31452 F540.000
G1 X85.251 Y97.173 E3.33921
G1 X86.420 Y98.342 E3.41406
G1 X86.420 Y97.797 E3.43875
G1 X85.251 Y96.628 E3.51359
G1 X85.251 Y96.082 E3.53829
G1 X86.420 Y97.251 E3.61313
G1 X86.420 Y96.706 E3.63783
G1 X85.251 Y95.537 E3.71267
G1 X85.251 Y94.991 E3.73737
G1 X86.420 Y96.160 E3.81221
G1 X86.420 Y95.615 E3.83691
G1 X85.251 Y94.446 E3.91175
G1 X85.251 Y93.900 E3.93645
G1 X86.420 Y95.069 E4.01129
G1 X86.420 Y94.523 E4.03598
G1 X85.251 Y93.354 E4.11083
G1 X85.268 Y92.826 E4.13476
G1 X86.420 Y93.978 E4.20851
G1 X86.420 Y93.432 E4.23321
G1 X85.790 Y92.803 E4.27350
G92 E0
G1 X85.871 Y93.352 F7800.000
G1 X85.871 Y93.352 F7800.000
G1 X94.945 Y99.230 F7800.000
G1 X94.741 Y99.026 E0.01303 F540.000
G1 X94.196 Y99.026 E0.03773
G1 X94.945 Y99.775 E0.08569
G1 X94.461 Y99.837 E0.10776
G1 X93.650 Y99.026 E0.15969
G1 X93.105 Y99.026 E0.18438
G1 X93.916 Y99.837 E0.23631
G1 X93.370 Y99.837 E0.26100
G1 X92.559 Y99.026 E0.31293
G1 X92.013 Y99.026 E0.33762
G1 X92.824 Y99.837 E0.38955
G1 X92.279 Y99.837 E0.41424
G1 X91.468 Y99.026 E0.46617
G1 X90.922 Y99.026 E0.49086
G1 X91.733 Y99.837 E0.54279
G1 X91.188 Y99.837 E0.56748
G1 X90.377 Y99.026 E0.61940
G1 X89.831 Y99.026 E0.64410
G1 X90.642 Y99.837 E0.69602
G1 X90.097 Y99.837 E0.72072
G1 X89.286 Y99.026 E0.77264
G1 X88.740 Y99.026 E0.79734
G1 X89.551 Y99.837 E0.84926
G1 X89.006 Y99.837 E0.87396
G1 X88.194 Y99.026 E0.92588
G1 X87.649 Y99.026 E0.95058
G1 X88.460 Y99.837 E1.00250
G1 X87.914 Y99.837 E1.02720
G1 X87.103 Y99.026 E1.07912
G1 X86.558 Y99.026 E1.10382
G1 X87.369 Y99.837 E1.15574
G1 X86.823 Y99.837 E1.18044
G1 X85.251 Y98.264 E1.28111
G1 X85.251 Y98.810 E1.30581
G1 X86.420 Y99.979 E1.38065
G1 X86.420 Y100.525 E1.40535
G1 X85.251 Y99.356 E1.48019
G1 X85.251 Y99.901 E1.50489
G1 X86.420 Y101.070 E1.57973
G1 X86.420 Y101.616 E1.60442
G1 X85.251 Y100.447 E1.67927
G1 X85.251 Y100.992 E1.70396
G1 X86.420 Y102.161 E1.77881
G1 X86.420 Y102.707 E1.80350
G1 X85.251 Y101.538 E1.87834
G1 X85.251 Y102.083 E1.90304
G1 X86.420 Y103.252 E1.97788
G1 X86.420 Y103.798 E2.00258
G1 X85.251 Y102.629 E2.07742
G1 X85.251 Y103.175 E2.10212
G1 X86.420 Y104.344 E2.17696
G1 X86.420 Y104.889 E2.20166
G1 X85.251 Y103.720 E2.27650
G1 X85.251 Y104.266 E2.30119
G1 X86.420 Y105.435 E2.37604
G1 X86.420 Y105.980 E2.40073
G1 X85.251 Y104.811 E2.47558
G1 X85.251 Y105.357 E2.50027
G1 X87.091 Y107.197 E2.61808
G1 X87.637 Y107.197 E2.64278
G1 X86.846 Y106.407 E2.69336
G1 X87.392 Y106.407 E2.71805
G1 X88.182 Y107.197 E2.76863
G1 X88.728 Y107.197 E2.79333
G1 X87.938 Y106.407 E2.84391
G1 X88.483 Y106.407 E2.86860
G1 X89.273 Y107.197 E2.91918
G1 X89.819 Y107.197 E2.94388
G1 X89.029 Y106.407 E2.99446
G1 X89.574 Y106.407 E3.01916
G1 X90.364 Y107.197 E3.06973
G1 X90.910 Y107.197 E3.09443
G1 X90.120 Y106.407 E3.14501
G1 X90.665 Y106.407 E3.16971
G1 X91.455 Y107.197 E3.22029
G1 X92.001 Y107.197 E3.24498
G1 X91.211 Y106.407 E3.29556
G1 X91.757 Y106.407 E3.32026
G1 X92.547 Y107.197 E3.37084
G1 X93.092 Y107.197 E3.39553
G1 X92.302 Y106.407 E3.44611
G1 X92.848 Y106.407 E3.47081
G1 X93.638 Y107.197 E3.52139
G1 X94.183 Y107.197 E3.54608
G1 X93.393 Y106.407 E3.59666
G1 X93.939 Y106.407 E3.62136
G1 X94.729 Y107.197 E3.67194
G1 X95.206 Y107.128 E3.69375
G1 X94.484 Y106.407 E3.73994
G1 X95.030 Y106.407 E3.76464
G1 X95.206 Y106.583 E3.77590
M106 S255
G92 E0
G1 Z0.600 F7800.000
G1 X103.134 Y93.461 F7800.000
G1 X104.096 Y93.181 E0.30025 F600.000
G1 X107.572 Y93.183 E1.34179
G1 X108.651 Y93.258 E1.66578
G1 X109.034 Y93.314 E1.78193
G1 X109.784 Y93.498 E2.01328
G1 X110.182 Y93.627 E2.13870
G1 X110.847 Y93.926 E2.35724
G1 X111.199 Y94.118 E2.47721
G1 X111.808 Y94.547 E2.70057
G1 X112.070 Y94.762 E2.80221
G1 X112.789 Y95.547 E3.12096
G1 X113.372 Y96.488 E3.45263
G1 X113.804 Y97.575 E3.80314
G1 X114.068 Y98.794 E4.17696
G1 X114.157 Y100.137 E4.58029
G1 X113.953 Y102.128 E5.17986
G1 X113.371 Y103.711 E5.68535
G1 X113.214 Y103.947 E5.77028
G1 X112.417 Y104.976 E6.16009
G1 X112.086 Y105.257 E6.29025
G1 X111.075 Y105.948 E6.65726
G1 X110.867 Y106.052 E6.72693
G1 X110.635 Y106.147 E6.80219
G1 X109.307 Y106.582 E7.22072
G1 X108.933 Y106.649 E7.33462
G1 X107.049 Y106.818 E7.90155
G1 X104.096 Y106.818 E8.78628
G1 X103.134 Y106.539 E9.08653
G1 X103.061 Y105.989 E9.25290
G1 X103.061 Y94.011 E12.84206
G1 X103.134 Y93.461 E13.00843
G92 E0
G1 X102.025 Y92.352 F7800.000
G1 X95.396 Y94.463 F7800.000
G1 X88.871 Y92.352 F7800.000
G1 X86.871 Y92.352 F7800.000
G1 X85.835 Y92.352 F7800.000
G1 X85.835 Y98.575 E1.86470 F600.000
G1 X86.012 Y99.431 E2.12677
G1 X95.396 Y99.431 E4.93847
G92 E0
G1 X85.871 Y106.648 F7800.000
G1 X85.871 Y106.648 F7800.000
G1 X95.657 Y106.802 F7800.000
G1 X86.871 Y106.802 E2.63269 F600.000
G1 X85.915 Y106.532 E2.93014
G1 X85.835 Y105.956 E3.10449
G1 X85.835 Y100.288 E4.80289
G1 X86.732 Y95.951 E6.13009
G92 E0
G1 Z0.900 F7800.000
G1 X103.134 Y93.461 F7800.000
G1 X104.096 Y93.181 E0.30025 F600.000
G1 X107.572 Y93.183 E1.34180
G1 X108.651 Y93.258 E1.66578
G1 X109.034 Y93.314 E1.78193
G1 X109.784 Y93.498 E2.01328
G1 X110.182 Y93.627 E2.13870
G1 X110.847 Y93.926 E2.35724
G1 X111.199 Y94.118 E2.47721
G1 X111.808 Y94.547 E2.70057
G1 X112.070 Y94.762 E2.80221
G1 X112.789 Y95.547 E3.12096
G1 X113.372 Y96.488 E3.45263
G1 X113.804 Y97.575 E3.80314
G1 X114.068 Y98.794 E4.17696
G1 X114.157 Y100.137 E4.58029
G1 X113.953 Y102.128 E5.17986
G1 X113.371 Y103.711 E5.68535
G1 X113.214 Y103.947 E5.77028
G1 X112.417 Y104.976 E6.16009
G1 X112.086 Y105.257 E6.29025
G1 X111.075 Y105.948 E6.65726
G1 X110.867 Y106.052 E6.72693
G1 X110.635 Y106.147 E6.80219
G1 X109.307 Y106.582 E7.22072
G1 X108.933 Y106.649 E7.33462
G1 X107.049 Y106.818 E7.90155
G1 X104.096 Y106.818 E8.78628
G1 X103.134 Y106.539 E9.08653
G1 X103.061 Y105.989 E9.25290
G1 X103.061 Y94.011 E12.84206
G1 X103.134 Y93.461 E13.00843
G92 E0
G1 X102.025 Y92.352 F7800.000
G1 X95.396 Y94.463 F7800.000
G1 X88.871 Y92.352 F7800.000
G1 X86.871 Y92.352 F7800.000
G1 X85.835 Y92.352 F7800.000
G1 X85.835 Y98.575 E1.86470 F600.000
G1 X86.012 Y99.431 E2.12677
G1 X95.396 Y99.431 E4.93847
G92 E0
G1 X85.871 Y106.648 F7800.000
G1 X85.871 Y106.648 F7800.000
G1 X95.657 Y106.802 F7800.000
G1 X86.871 Y106.802 E2.63269 F600.000
G1 X85.915 Y106.532 E2.93014
G1 X85.835 Y105.956 E3.10449
G1 X85.835 Y100.288 E4.80289
G1 X86.732 Y95.951 E6.13009
G92 E0
G1 Z1.200 F7800.000
G1 X103.134 Y93.461 F7800.000
G1 X104.096 Y93.181 E0.30025 F600.000
G1 X107.572 Y93.183 E1.34180
G1 X108.651 Y93.258 E1.66578
G1 X109.034 Y93.314 E1.78193
G1 X109.784 Y93.498 E2.01328
G1 X110.182 Y93.627 E2.13870
G1 X110.847 Y93.926 E2.35724
G1 X111.199 Y94.118 E2.47721
G1 X111.808 Y94.547 E2.70057
G1 X112.070 Y94.762 E2.80221
G1 X112.789 Y95.547 E3.12095
G1 X113.372 Y96.488 E3.45263
G1 X113.804 Y97.575 E3.80314
G1 X114.068 Y98.794 E4.17696
G1 X114.157 Y100.137 E4.58029
G1 X113.953 Y102.128 E5.17986
G1 X113.371 Y103.711 E5.68535
G1 X113.214 Y103.947 E5.77028
G1 X112.417 Y104.976 E6.16009
G1 X112.086 Y105.257 E6.29025
G1 X111.075 Y105.948 E6.65726
G1 X110.867 Y106.052 E6.72693
G1 X110.635 Y106.147 E6.80219
G1 X109.307 Y106.582 E7.22072
G1 X108.933 Y106.649 E7.33462
G1 X107.049 Y106.818 E7.90155
G1 X104.096 Y106.818 E8.78628
G1 X103.134 Y106.539 E9.08653
G1 X103.061 Y105.989 E9.25290
G1 X103.061 Y94.011 E12.84206
G1 X103.134 Y93.461 E13.00843
G92 E0
G1 X102.025 Y92.352 F7800.000
G1 X95.396 Y94.463 F7800.000
G1 X88.871 Y92.352 F7800.000
G1 X86.871 Y92.352 F7800.000
G1 X85.835 Y92.352 F7800.000
G1 X85.835 Y98.575 E1.86470 F600.000
G1 X86.012 Y99.431 E2.12677
G1 X95.396 Y99.431 E4.93847
G92 E0
G1 X85.871 Y106.648 F7800.000
G1 X85.871 Y106.648 F7800.000
G1 X95.657 Y106.802 F7800.000
G1 X86.871 Y106.802 E2.63269 F600.000
G1 X85.915 Y106.532 E2.93014
G1 X85.835 Y105.956 E3.10449
G1 X85.835 Y100.288 E4.80289
G1 X86.732 Y95.951 E6.13009
G92 E0
G1 Z1.500 F7800.000
G1 X103.134 Y93.461 F7800.000
G1 X104.096 Y93.181 E0.30025 F600.000
G1 X107.572 Y93.183 E1.34180
G1 X108.651 Y93.258 E1.66578
G1 X109.034 Y93.314 E1.78193
G1 X109.784 Y93.498 E2.01328
G1 X110.182 Y93.627 E2.13870
G1 X110.847 Y93.926 E2.35724
G1 X111.199 Y94.118 E2.47721
G1 X111.808 Y94.547 E2.70057
G1 X112.070 Y94.762 E2.80221
G1 X112.789 Y95.547 E3.12096
G1 X113.372 Y96.488 E3.45263
G1 X113.804 Y97.575 E3.80314
G1 X114.068 Y98.794 E4.17696
G1 X114.157 Y100.137 E4.58029
G1 X113.953 Y102.128 E5.17986
G1 X113.371 Y103.711 E5.68535
G1 X113.214 Y103.947 E5.77028
G1 X112.417 Y104.976 E6.16009
G1 X112.086 Y105.257 E6.29025
G1 X111.075 Y105.948 E6.65726
G1 X110.867 Y106.052 E6.72693
G1 X110.635 Y106.147 E6.80219
G1 X109.307 Y106.582 E7.22072
G1 X108.933 Y106.649 E7.33462
G1 X107.049 Y106.818 E7.90155
G1 X104.096 Y106.818 E8.78628
G1 X103.134 Y106.539 E9.08653
G1 X103.061 Y105.989 E9.25290
G1 X103.061 Y94.011 E12.84206
G1 X103.134 Y93.461 E13.00843
G92 E0
G1 X102.025 Y92.352 F7800.000
G1 X95.396 Y94.463 F7800.000
G1 X88.871 Y92.352 F7800.000
