; generated by Slic3r 1.2.9 on 2016-03-11 at 01:24:19

; external perimeters extrusion width = 1.54mm
; perimeters extrusion width = 2.62mm
; infill extrusion width = 6.27mm
; solid infill extrusion width = 2.62mm
; top infill extrusion width = 2.62mm

M107
M104 S30 ; set temperature
G28 ; home all axes
G1 Z5 F5000 ; lift nozzle
M302
M92 E10000
M500
M501
G1 E100
M109 S30 ; wait for temperature to be reached
G21 ; set units to millimeters
G90 ; use absolute coordinates
M82 ; use absolute distances for extrusion
G92 E0
G1 Z0.300 F7800.000
G1 X102.827 Y105.017 F7800.000
G1 X102.827 Y92.577 E0.56288 F378.000
G1 X114.391 Y92.577 E1.08615
G1 X114.391 Y93.819 E1.14235
G1 X104.448 Y93.819 E1.59226 F378.000
G1 X104.448 Y99.611 E1.85434
G1 X113.297 Y99.611 E2.25475
G1 X113.297 Y100.831 E2.30995
G1 X104.448 Y100.831 E2.71036
G1 X104.448 Y106.181 E2.95244
G1 X113.947 Y106.181 E3.38227
G1 X113.947 Y107.423 E3.43847
G1 X102.827 Y107.423 E3.94164
G1 X102.827 Y105.248 E4.04007
G1 X103.053 Y106.448 F7800.000
G1 X103.802 Y107.197 E4.08804 F540.000
G1 X103.257 Y107.197 E4.11274
G1 X103.053 Y106.993 E4.12578
G1 X103.053 Y99.355 F7800.000
G1 X104.304 Y100.605 E4.20583 F540.000
G1 X104.222 Y101.069 E4.22717
G1 X103.053 Y99.900 E4.30202
G1 X103.053 Y100.446 E4.32673
G1 X104.222 Y101.615 E4.40158
G1 X104.222 Y102.161 E4.42628
G1 X103.053 Y100.992 E4.50113
G1 X103.053 Y101.537 E4.52583
G1 X104.222 Y102.706 E4.60068
G1 X104.222 Y103.252 E4.62539
G1 X103.053 Y102.083 E4.70024
G1 X103.053 Y102.628 E4.72494
G1 X104.222 Y103.798 E4.79979
G1 X104.222 Y104.343 E4.82449
G1 X103.053 Y103.174 E4.89934
G1 X103.053 Y103.720 E4.92405
G1 X104.222 Y104.889 E4.99890
G1 X104.222 Y105.434 E5.02360
G1 X103.053 Y104.265 E5.09845
G1 X103.053 Y104.811 E5.12315
G1 X104.222 Y105.980 E5.19800
G1 X104.104 Y106.407 E5.21807
G1 X104.894 Y107.197 E5.26865
G1 X104.348 Y107.197 E5.29335
G1 X103.053 Y105.902 E5.37626
G1 X103.053 Y105.357 E5.40096
G1 X104.222 Y106.526 E5.47581
G1 X104.649 Y106.407 E5.49587
G1 X105.439 Y107.197 E5.54646
G1 X105.985 Y107.197 E5.57116
G1 X105.195 Y106.407 E5.62174
G1 X105.740 Y106.407 E5.64645
G1 X106.531 Y107.197 E5.69703
G1 X107.076 Y107.197 E5.72173
G1 X106.286 Y106.407 E5.77232
G1 X106.832 Y106.407 E5.79702
G1 X107.622 Y107.197 E5.84761
G1 X108.167 Y107.197 E5.87231
G1 X107.377 Y106.407 E5.92290
G1 X107.923 Y106.407 E5.94760
G1 X108.713 Y107.197 E5.99818
G1 X109.259 Y107.197 E6.02289
G1 X108.469 Y106.407 E6.07347
G1 X109.014 Y106.407 E6.09817
G1 X109.804 Y107.197 E6.14876
G1 X110.350 Y107.197 E6.17346
G1 X109.560 Y106.407 E6.22405
G1 X110.106 Y106.407 E6.24875
G1 X110.896 Y107.197 E6.29934
G1 X111.441 Y107.197 E6.32404
G1 X110.651 Y106.407 E6.37462
G1 X111.197 Y106.407 E6.39933
G1 X111.987 Y107.197 E6.44991
G1 X112.533 Y107.197 E6.47461
G1 X111.742 Y106.407 E6.52520
G1 X112.288 Y106.407 E6.54990
G1 X113.078 Y107.197 E6.60049
G1 X112.834 Y106.407 F7800.000
G1 X113.624 Y107.197 E6.65107 F540.000
G1 X113.721 Y106.749 E6.67183
G1 X113.379 Y106.407 E6.69373
G92 E0
G1 X103.673 Y106.648 F7800.000
G1 X103.673 Y106.648 F7800.000
G1 X113.071 Y100.097 F7800.000
G1 X112.811 Y99.837 E0.01664 F540.000
G1 X112.266 Y99.837 E0.04135
G1 X113.034 Y100.605 E0.09052
G1 X112.488 Y100.605 E0.11523
G1 X111.720 Y99.837 E0.16440
G1 X111.174 Y99.837 E0.18910
G1 X111.942 Y100.605 E0.23828
G1 X111.397 Y100.605 E0.26298
G1 X110.629 Y99.837 E0.31216
G1 X110.083 Y99.837 E0.33686
G1 X110.851 Y100.605 E0.38604
G1 X110.306 Y100.605 E0.41074
G1 X109.537 Y99.837 E0.45992
G1 X108.992 Y99.837 E0.48462
G1 X109.760 Y100.605 E0.53380
G1 X109.214 Y100.605 E0.55850
G1 X108.446 Y99.837 E0.60768
G1 X107.901 Y99.837 E0.63238
G1 X108.669 Y100.605 E0.68156
G1 X108.123 Y100.605 E0.70626
G1 X107.355 Y99.837 E0.75544
G1 X106.809 Y99.837 E0.78014
G1 X107.577 Y100.605 E0.82932
G1 X107.032 Y100.605 E0.85402
G1 X106.264 Y99.837 E0.90320
G1 X105.718 Y99.837 E0.92790
G1 X106.486 Y100.605 E0.97708
G1 X105.941 Y100.605 E1.00178
G1 X105.172 Y99.837 E1.05096
G1 X104.627 Y99.837 E1.07566
G1 X105.395 Y100.605 E1.12483
G1 X104.849 Y100.605 E1.14954
G1 X103.053 Y98.809 E1.26453
G1 X103.053 Y98.263 E1.28923
G1 X104.222 Y99.432 E1.36408
G1 X104.222 Y98.887 E1.38878
G1 X103.053 Y97.718 E1.46364
G1 X103.053 Y97.172 E1.48834
G1 X104.222 Y98.341 E1.56319
G1 X104.222 Y97.796 E1.58789
G1 X103.053 Y96.626 E1.66274
G1 X103.053 Y96.081 E1.68744
G1 X104.222 Y97.250 E1.76230
G1 X104.222 Y96.704 E1.78700
G1 X103.053 Y95.535 E1.86185
G1 X103.053 Y94.990 E1.88655
G1 X104.222 Y96.159 E1.96140
G1 X104.222 Y95.613 E1.98610
G1 X103.053 Y94.444 E2.06096
G1 X103.053 Y93.898 E2.08566
G1 X104.222 Y95.067 E2.16051
G1 X104.222 Y94.522 E2.18521
G1 X103.053 Y93.353 E2.26006
G1 X103.071 Y92.825 E2.28397
G1 X104.222 Y93.976 E2.35767
G1 X104.385 Y93.593 F7800.000
G1 X103.595 Y92.803 E2.40825 F540.000
G1 X104.140 Y92.803 E2.43296
G1 X104.930 Y93.593 E2.48354
G1 X105.476 Y93.593 E2.50824
G1 X104.686 Y92.803 E2.55883
G1 X105.232 Y92.803 E2.58353
G1 X106.022 Y93.593 E2.63412
G1 X106.567 Y93.593 E2.65882
G1 X105.777 Y92.803 E2.70940
G1 X106.323 Y92.803 E2.73411
G1 X107.113 Y93.593 E2.78469
G1 X107.659 Y93.593 E2.80939
G1 X106.868 Y92.803 E2.85998
G1 X107.414 Y92.803 E2.88468
G1 X108.204 Y93.593 E2.93526
G1 X108.750 Y93.593 E2.95997
G1 X107.960 Y92.803 E3.01055
G1 X108.505 Y92.803 E3.03525
G1 X109.295 Y93.593 E3.08584
G1 X109.841 Y93.593 E3.11054
G1 X109.051 Y92.803 E3.16113
G1 X109.597 Y92.803 E3.18583
G1 X110.387 Y93.593 E3.23641
G1 X110.932 Y93.593 E3.26112
G1 X110.142 Y92.803 E3.31170
G1 X110.688 Y92.803 E3.33640
G1 X111.478 Y93.593 E3.38699
G1 X112.024 Y93.593 E3.41169
G1 X111.234 Y92.803 E3.46228
G1 X111.779 Y92.803 E3.48698
G1 X112.569 Y93.593 E3.53756
G1 X113.115 Y93.593 E3.56227
G1 X112.325 Y92.803 E3.61285
G1 X112.870 Y92.803 E3.63755
G1 X113.661 Y93.593 E3.68814
G1 X114.165 Y93.552 E3.71107
G1 X113.416 Y92.803 E3.75904
G1 X113.962 Y92.803 E3.78374
G1 X114.165 Y93.007 E3.79677
G92 E0
G1 X104.673 Y94.044 F7800.000
G1 X113.522 Y96.715 F7800.000
G1 X115.616 Y94.044 F7800.000
G1 X115.445 Y91.524 F7800.000
G1 X100.602 Y92.352 F7800.000
G1 X95.980 Y94.463 F7800.000
G1 X95.980 Y98.575 F7800.000
G1 X95.755 Y100.063 F7800.000
G1 X87.230 Y100.063 E0.38575 F378.000
G1 X87.230 Y106.181 E0.66259
G1 X96.016 Y106.181 E1.06015
G1 X96.016 Y107.423 E1.11634
G1 X85.609 Y107.423 E1.58725
G1 X85.609 Y92.577 E2.25902
G1 X87.230 Y92.577 E2.33237
G1 X87.230 Y98.800 E2.61396
G1 X95.755 Y98.800 E2.99971 F378.000
G1 X95.755 Y99.832 E3.04641
G1 X95.529 Y99.230 F7800.000
G1 X95.325 Y99.026 E3.05944 F540.000
G1 X94.780 Y99.026 E3.08414
G1 X95.529 Y99.775 E3.13210
G1 X95.045 Y99.837 E3.15417
G1 X94.234 Y99.026 E3.20609
G1 X93.689 Y99.026 E3.23079
G1 X94.500 Y99.837 E3.28271
G1 X93.954 Y99.837 E3.30741
G1 X93.143 Y99.026 E3.35933
G1 X92.597 Y99.026 E3.38403
G1 X93.408 Y99.837 E3.43595
G1 X92.863 Y99.837 E3.46065
G1 X92.052 Y99.026 E3.51257
G1 X91.506 Y99.026 E3.53727
G1 X92.317 Y99.837 E3.58919
G1 X91.772 Y99.837 E3.61389
G1 X90.961 Y99.026 E3.66581
G1 X90.415 Y99.026 E3.69051
G1 X91.226 Y99.837 E3.74243
G1 X90.681 Y99.837 E3.76713
G1 X89.870 Y99.026 E3.81905
G1 X89.324 Y99.026 E3.84375
G1 X90.135 Y99.837 E3.89567
G1 X89.590 Y99.837 E3.92037
G1 X88.778 Y99.026 E3.97229
G1 X88.233 Y99.026 E3.99699
G1 X89.044 Y99.837 E4.04891
G1 X88.498 Y99.837 E4.07361
G1 X87.687 Y99.026 E4.12553
G1 X87.142 Y99.026 E4.15023
G1 X87.953 Y99.837 E4.20215
G1 X87.407 Y99.837 E4.22685
G1 X85.835 Y98.264 E4.32752
G1 X85.835 Y98.810 E4.35222
G1 X87.004 Y99.979 E4.42706
G1 X87.004 Y100.525 E4.45175
G1 X85.835 Y99.356 E4.52660
G1 X85.835 Y99.901 E4.55129
G1 X87.004 Y101.070 E4.62614
G1 X87.004 Y101.616 E4.65083
G1 X85.835 Y100.447 E4.72567
G1 X85.835 Y100.992 E4.75037
G1 X87.004 Y102.161 E4.82521
G1 X87.004 Y102.707 E4.84991
G1 X85.835 Y101.538 E4.92475
G1 X85.835 Y102.083 E4.94945
G1 X87.004 Y103.252 E5.02429
G1 X87.004 Y103.798 E5.04899
G1 X85.835 Y102.629 E5.12383
G1 X85.835 Y103.175 E5.14853
G1 X87.004 Y104.344 E5.22337
G1 X87.004 Y104.889 E5.24806
G1 X85.835 Y103.720 E5.32291
G1 X85.835 Y104.266 E5.34760
G1 X87.004 Y105.435 E5.42245
G1 X87.004 Y105.980 E5.44714
G1 X85.835 Y104.811 E5.52198
G1 X85.835 Y105.357 E5.54668
G1 X87.675 Y107.197 E5.66449
G1 X88.221 Y107.197 E5.68919
G1 X87.430 Y106.407 E5.73977
G1 X87.976 Y106.407 E5.76446
G1 X88.766 Y107.197 E5.81504
G1 X89.312 Y107.197 E5.83974
G1 X88.522 Y106.407 E5.89032
G1 X89.067 Y106.407 E5.91501
G1 X89.857 Y107.197 E5.96559
G1 X90.403 Y107.197 E5.99029
G1 X89.613 Y106.407 E6.04087
G1 X90.158 Y106.407 E6.06556
G1 X90.948 Y107.197 E6.11614
G1 X91.494 Y107.197 E6.14084
G1 X90.704 Y106.407 E6.19142
G1 X91.249 Y106.407 E6.21611
G1 X92.039 Y107.197 E6.26669
G1 X92.585 Y107.197 E6.29139
G1 X91.795 Y106.407 E6.34197
G1 X92.341 Y106.407 E6.36667
G1 X93.131 Y107.197 E6.41725
G1 X93.676 Y107.197 E6.44194
G1 X92.886 Y106.407 E6.49252
G1 X93.432 Y106.407 E6.51722
G1 X94.222 Y107.197 E6.56780
G1 X94.767 Y107.197 E6.59249
G1 X93.977 Y106.407 E6.64307
G1 X94.523 Y106.407 E6.66777
G1 X95.313 Y107.197 E6.71835
G1 X95.790 Y107.128 E6.74016
G1 X95.068 Y106.407 E6.78635
G1 X95.614 Y106.407 E6.81104
G1 X95.790 Y106.583 E6.82231
G1 X87.129 Y107.197 F7800.000
G1 X85.835 Y105.902 E6.90519 F540.000
G1 X85.835 Y106.448 E6.92988
G1 X86.584 Y107.197 E6.97784
G1 X86.038 Y107.197 E7.00254
G1 X85.835 Y106.993 E7.01557
G1 X87.004 Y98.888 F7800.000
G1 X85.835 Y97.719 E7.09041 F540.000
G1 X85.835 Y97.173 E7.11511
G1 X87.004 Y98.342 E7.18995
G1 X87.004 Y97.797 E7.21465
G1 X85.835 Y96.628 E7.28949
G1 X85.835 Y96.082 E7.31419
G1 X87.004 Y97.251 E7.38903
G1 X87.004 Y96.706 E7.41373
G1 X85.835 Y95.537 E7.48857
G1 X85.835 Y94.991 E7.51327
G1 X87.004 Y96.160 E7.58811
G1 X87.004 Y95.615 E7.61280
G1 X85.835 Y94.446 E7.68765
G1 X85.835 Y93.900 E7.71234
G1 X87.004 Y95.069 E7.78719
G1 X87.004 Y94.523 E7.81188
G1 X85.835 Y93.354 E7.88672
G1 X85.852 Y92.826 E7.91066
G1 X87.004 Y93.978 E7.98441
G1 X87.004 Y93.432 E8.00911
G1 X86.374 Y92.803 E8.04940
M106 S255
G92 E0
G1 Z0.600 F7800.000
G1 X114.616 Y93.198 F7800.000
G1 X104.673 Y93.198 E2.97938 F600.000
G1 X103.718 Y93.468 E3.27683
G1 X103.638 Y94.044 E3.45118
G1 X103.638 Y99.386 E5.05189
G1 X104.509 Y103.706 E6.37226
G1 X103.673 Y106.648 F7800.000
G1 X103.673 Y106.648 F7800.000
G1 X114.172 Y106.802 F7800.000
G1 X104.673 Y106.802 E9.21860 F600.000
G1 X103.718 Y106.532 E9.51604
G1 X103.638 Y105.956 E9.69039
G1 X103.638 Y101.056 E11.15866
G1 X103.806 Y100.221 E11.41390
G1 X113.522 Y100.221 E14.32528
G92 E0
G1 X115.616 Y92.352 F7800.000
G1 X100.602 Y92.352 F7800.000
G1 X95.980 Y94.463 F7800.000
G1 X91.566 Y94.463 F7800.000
G1 X87.455 Y98.575 F7800.000
G1 X86.419 Y92.352 F7800.000
G1 X86.419 Y98.575 E1.86470 F600.000
G1 X86.596 Y99.431 E2.12677
G1 X95.980 Y99.431 E4.93847
G92 E0
G1 X86.455 Y106.648 F7800.000
G1 X86.455 Y106.648 F7800.000
G1 X96.241 Y106.802 F7800.000
G1 X87.455 Y106.802 E2.63269 F600.000
G1 X86.499 Y106.532 E2.93014
G1 X86.419 Y105.956 E3.10449
G1 X86.419 Y100.288 E4.80289
G1 X87.316 Y95.951 E6.13009
G92 E0
G1 Z0.900 F7800.000
G1 X114.616 Y93.198 F7800.000
G1 X104.673 Y93.198 E2.97938 F600.000
G1 X103.718 Y93.468 E3.27683
G1 X103.638 Y94.044 E3.45118
G1 X103.638 Y99.386 E5.05189
G1 X104.509 Y103.706 E6.37226
G1 X103.673 Y106.648 F7800.000
G1 X103.673 Y106.648 F7800.000
G1 X114.172 Y106.802 F7800.000
G1 X104.673 Y106.802 E9.21860 F600.000
G1 X103.718 Y106.532 E9.51604
G1 X103.638 Y105.956 E9.69039
G1 X103.638 Y101.056 E11.15866
G1 X103.806 Y100.221 E11.41390
G1 X113.522 Y100.221 E14.32528
G92 E0
G1 X115.616 Y92.352 F7800.000
G1 X100.602 Y92.352 F7800.000
G1 X95.980 Y94.463 F7800.000
G1 X91.566 Y94.463 F7800.000
G1 X87.455 Y98.575 F7800.000
G1 X86.419 Y92.352 F7800.000
G1 X86.419 Y98.575 E1.86470 F600.000
G1 X86.596 Y99.431 E2.12677
G1 X95.980 Y99.431 E4.93847
G92 E0
G1 X86.455 Y106.648 F7800.000
G1 X86.455 Y106.648 F7800.000
G1 X96.241 Y106.802 F7800.000
G1 X87.455 Y106.802 E2.63269 F600.000
G1 X86.499 Y106.532 E2.93014
G1 X86.419 Y105.956 E3.10449
G1 X86.419 Y100.288 E4.80289
G1 X87.316 Y95.951 E6.13009
G92 E0
G1 Z1.200 F7800.000
G1 X114.616 Y93.198 F7800.000
G1 X104.673 Y93.198 E2.97938 F600.000
G1 X103.718 Y93.468 E3.27683
G1 X103.638 Y94.044 E3.45118
G1 X103.638 Y99.386 E5.05189
G1 X104.509 Y103.706 E6.37226
G1 X103.673 Y106.648 F7800.000
G1 X103.673 Y106.648 F7800.000
G1 X114.172 Y106.802 F7800.000
G1 X104.673 Y106.802 E9.21860 F600.000
G1 X103.718 Y106.532 E9.51604
G1 X103.638 Y105.956 E9.69039
G1 X103.638 Y101.056 E11.15866
G1 X103.806 Y100.221 E11.41390
G1 X113.522 Y100.221 E14.32528
G92 E0
G1 X115.616 Y92.352 F7800.000
G1 X100.602 Y92.352 F7800.000
G1 X95.980 Y94.463 F7800.000
G1 X91.566 Y94.463 F7800.000
G1 X87.455 Y98.575 F7800.000
G1 X86.419 Y92.352 F7800.000
G1 X86.419 Y98.575 E1.86470 F600.000
G1 X86.596 Y99.431 E2.12677
G1 X95.980 Y99.431 E4.93847
G92 E0
G1 X86.455 Y106.648 F7800.000
G1 X86.455 Y106.648 F7800.000
G1 X96.241 Y106.802 F7800.000
G1 X87.455 Y106.802 E2.63269 F600.000
G1 X86.499 Y106.532 E2.93014
G1 X86.419 Y105.956 E3.10449
G1 X86.419 Y100.288 E4.80289
G1 X87.316 Y95.951 E6.13009
G92 E0
G1 Z1.500 F7800.000
G1 X114.616 Y93.198 F7800.000
G1 X104.673 Y93.198 E2.97938 F600.000
G1 X103.718 Y93.468 E3.27683
G1 X103.638 Y94.044 E3.45118
G1 X103.638 Y99.386 E5.05189
G1 X104.509 Y103.706 E6.37226
G1 X103.673 Y106.648 F7800.000
G1 X103.673 Y106.648 F7800.000
G1 X114.172 Y106.802 F7800.000
G1 X104.673 Y106.802 E9.21860 F600.000
G1 X103.718 Y106.532 E9.51604
G1 X103.638 Y105.956 E9.69039
G1 X103.638 Y101.056 E11.15866
G1 X103.806 Y100.221 E11.41390
G1 X113.522 Y100.221 E14.32528
G92 E0
G1 X115.616 Y92.352 F7800.000
G1 X100.602 Y92.352 F7800.000
G1 X95.980 Y94.463 F7800.000
G1 X91.566 Y94.463 F7800.000
G1 X87.455 Y98.575 F7800.000
G1 X86.419 Y92.352 F7800.000
G1 X86.419 Y98.575 E1.86470 F600.000
G1 X86.596 Y99.431 E2.12677
G1 X95.980 Y99.431 E4.93847
G92 E0
G1 X86.455 Y106.648 F7800.000
G1 X86.455 Y106.648 F7800.000
G1 X96.241 Y106.802 F7800.000
G1 X87.455 Y106.802 E2.63269 F600.000
G1 X86.499 Y106.532 E2.93014
G1 X86.419 Y105.956 E3.10449
G1 X86.419 Y100.288 E4.80289
G1 X87.316 Y95.951 E6.13009
G92 E0
G1 Z1.800 F7800.000
G1 X114.616 Y93.198 F7800.000
G1 X104.673 Y93.198 E2.97938 F600.000
G1 X103.718 Y93.468 E3.27683
G1 X103.638 Y94.044 E3.45118
G1 X103.638 Y99.386 E5.05189
G1 X104.509 Y103.706 E6.37226
G1 X103.673 Y106.648 F7800.000
G1 X103.673 Y106.648 F7800.000
G1 X114.172 Y106.802 F7800.000
G1 X104.673 Y106.802 E9.21860 F600.000
G1 X103.718 Y106.532 E9.51604
G1 X103.638 Y105.956 E9.69039
G1 X103.638 Y101.056 E11.15866
G1 X103.806 Y100.221 E11.41390
G1 X113.522 Y100.221 E14.32528
G92 E0
G1 X115.616 Y92.352 F7800.000
G1 X100.602 Y92.352 F7800.000
G1 X95.980 Y94.463 F7800.000
G1 X91.566 Y94.463 F7800.000
G1 X87.455 Y98.575 F7800.000
G1 X86.419 Y92.352 F7800.000
G1 X86.419 Y98.575 E1.86470 F600.000
G1 X86.596 Y99.431 E2.12677
G1 X95.980 Y99.431 E4.93847
G92 E0
G1 X86.455 Y106.648 F7800.000
G1 X86.455 Y106.648 F7800.000
G1 X96.241 Y106.802 F7800.000
G1 X87.455 Y106.802 E2.63269 F600.000
G1 X86.499 Y106.532 E2.93014
G1 X86.419 Y105.956 E3.10449
G1 X86.419 Y100.288 E4.80289
G1 X87.316 Y95.951 E6.13009
G92 E0
G1 Z2.100 F7800.000
G1 X114.616 Y93.198 F7800.000
G1 X104.673 Y93.198 E2.97938 F600.000
G1 X103.718 Y93.468 E3.27683
G1 X103.638 Y94.044 E3.45118
G1 X103.638 Y99.386 E5.05189
G1 X104.509 Y103.706 E6.37226
G92 E0
G1 X103.673 Y106.648 F7800.000
G1 X103.673 Y106.648 F7800.000
G1 X114.172 Y106.802 F7800.000
G1 X104.673 Y106.802 E2.84634 F600.000
G1 X103.718 Y106.532 E3.14378
G1 X103.638 Y105.956 E3.31814
G1 X103.638 Y101.056 E4.78640
G1 X103.806 Y100.221 E5.04164
G1 X113.522 Y100.221 E7.95302
G92 E0
G1 X115.616 Y92.352 F7800.000
G1 X100.602 Y92.352 F7800.000
G1 X95.980 Y94.463 F7800.000
G1 X91.566 Y94.463 F7800.000
G1 X87.455 Y98.575 F7800.000
G1 X86.419 Y92.352 F7800.000
G1 X86.419 Y98.575 E1.86470 F600.000
G1 X86.596 Y99.431 E2.12677
G1 X95.980 Y99.431 E4.93847
G92 E0
G1 X86.455 Y106.648 F7800.000
G1 X86.455 Y106.648 F7800.000
G1 X96.241 Y106.802 F7800.000
G1 X87.455 Y106.802 E2.63269 F600.000
G1 X86.499 Y106.532 E2.93014
G1 X86.419 Y105.956 E3.10449
G1 X86.419 Y100.288 E4.80289
