; generated by Slic3r 1.2.9 on 2016-03-11 at 01:24:24

; external perimeters extrusion width = 1.54mm
; perimeters extrusion width = 2.62mm
; infill extrusion width = 6.27mm
; solid infill extrusion width = 2.62mm
; top infill extrusion width = 2.62mm

M107
M104 S30 ; set temperature
G28 ; home all axes
G1 Z5 F5000 ; lift nozzle
M302
M92 E10000
M500
M501
G1 E100
M109 S30 ; wait for temperature to be reached
G21 ; set units to millimeters
G90 ; use absolute coordinates
M82 ; use absolute distances for extrusion
G92 E0
G1 Z0.300 F7800.000
G1 X110.606 Y98.741 F7800.000
G1 X110.606 Y96.973 E0.08001 F378.000
G1 X110.531 Y96.025 E0.12305
G1 X110.298 Y95.217 E0.16107
G1 X109.901 Y94.566 E0.19560
G1 X109.360 Y94.089 E0.22824
G1 X108.702 Y93.804 E0.26069
G1 X107.940 Y93.710 E0.29541
G1 X107.231 Y93.796 E0.32774
G1 X106.599 Y94.055 E0.35863
G1 X106.055 Y94.484 E0.39001
G1 X105.619 Y95.060 E0.42267
G1 X105.306 Y95.757 E0.45727
G1 X105.164 Y96.352 E0.48492
G1 X103.614 Y96.095 E0.55605
G1 X104.335 Y94.173 E0.64892
G1 X105.787 Y92.911 E0.73599
G1 X107.939 Y92.483 E0.83524
G1 X109.107 Y92.611 E0.88842
G1 X109.175 Y92.618 E0.89153 F378.000
G1 X110.219 Y93.020 E0.94212
G1 X111.070 Y93.686 E0.99102
G1 X111.703 Y94.587 E1.04086
G1 X112.086 Y95.697 E1.09401
G1 X112.217 Y97.036 E1.15487
G1 X112.217 Y107.519 E1.62922
G1 X107.654 Y107.519 E1.83569
G1 X107.654 Y106.277 E1.89189
G1 X110.606 Y106.277 E2.02547
G1 X110.606 Y98.972 E2.35600
G1 X110.598 Y95.351 F7800.000
G1 X111.949 Y96.701 E2.44411 F540.000
G1 X111.991 Y97.299 E2.47177
G1 X110.768 Y96.077 E2.55155
G1 X110.816 Y96.680 E2.57951
G1 X111.991 Y97.855 E2.65616
G1 X111.991 Y98.411 E2.68182
G1 X110.832 Y97.252 E2.75744
G1 X110.832 Y97.808 E2.78310
G1 X111.991 Y98.967 E2.85873
G1 X111.991 Y99.523 E2.88438
G1 X110.832 Y98.364 E2.96001
G1 X110.832 Y98.920 E2.98567
G1 X111.991 Y100.080 E3.06130
G1 X111.991 Y100.636 E3.08695
G1 X110.832 Y99.476 E3.16258
G1 X110.832 Y100.033 E3.18823
G1 X111.991 Y101.192 E3.26386
G1 X111.991 Y101.748 E3.28952
G1 X110.832 Y100.589 E3.36515
G1 X110.832 Y101.145 E3.39080
G1 X111.991 Y102.304 E3.46643
G1 X111.991 Y102.860 E3.49208
G1 X110.832 Y101.701 E3.56771
G1 X110.832 Y102.257 E3.59337
G1 X111.991 Y103.416 E3.66900
G1 X111.991 Y103.972 E3.69465
G1 X110.832 Y102.813 E3.77028
G1 X110.832 Y103.369 E3.79593
G1 X111.991 Y104.528 E3.87156
G1 X111.991 Y105.084 E3.89722
G1 X110.832 Y103.925 E3.97284
G1 X110.832 Y104.481 E3.99850
G1 X111.991 Y105.640 E4.07413
G1 X111.991 Y106.196 E4.09978
G1 X110.832 Y105.037 E4.17541
G1 X110.832 Y105.593 E4.20107
G1 X111.991 Y106.752 E4.27669
G1 X111.963 Y107.281 E4.30111
G1 X110.832 Y106.149 E4.37494
G1 X110.630 Y106.503 F7800.000
G1 X111.420 Y107.293 E4.42649 F540.000
G1 X110.864 Y107.293 E4.45215
G1 X110.073 Y106.503 E4.50370
G1 X109.517 Y106.503 E4.52935
G1 X110.308 Y107.293 E4.58091
G1 X109.751 Y107.293 E4.60656
G1 X108.961 Y106.503 E4.65811
G1 X108.405 Y106.503 E4.68377
G1 X109.195 Y107.293 E4.73532
G1 X108.639 Y107.293 E4.76097
G1 X107.880 Y106.533 E4.81054
G1 X107.880 Y107.089 E4.83619
G1 X108.083 Y107.293 E4.84948
G92 E0
G1 X111.381 Y96.942 F7800.000
G1 X111.311 Y95.884 F7800.000
G1 X111.308 Y95.867 F7800.000
G1 X111.123 Y95.283 F7800.000
G1 X104.587 Y96.012 F7800.000
G1 X104.059 Y95.484 E0.03448 F540.000
G1 X104.211 Y95.080 E0.05440
G1 X105.052 Y95.921 E0.10928
G1 X105.198 Y95.511 E0.12936
G1 X104.363 Y94.675 E0.18386
G1 X104.529 Y94.286 E0.20340
G1 X105.370 Y95.127 E0.25827
G1 X105.584 Y94.785 E0.27688
G1 X104.812 Y94.013 E0.32725
G1 X105.110 Y93.755 E0.34544
G1 X105.824 Y94.469 E0.39204
G1 X106.108 Y94.197 E0.41018
G1 X105.407 Y93.496 E0.45588
G1 X105.705 Y93.238 E0.47406
G1 X106.419 Y93.951 E0.52062
G1 X106.785 Y93.761 E0.53965
G1 X106.090 Y93.067 E0.58496
G1 X106.554 Y92.975 E0.60678
G1 X107.179 Y93.600 E0.64756
G1 X107.661 Y93.526 E0.67006
G1 X107.018 Y92.882 E0.71204
G1 X107.482 Y92.790 E0.73386
G1 X108.195 Y93.503 E0.78040
G1 X108.829 Y93.581 E0.80985
G1 X107.971 Y92.724 E0.86580
G1 X108.595 Y92.791 E0.89475
G1 X111.889 Y96.085 E1.10965
G1 X111.686 Y95.326 E1.14587
G1 X109.308 Y92.949 E1.30102
G1 X110.631 Y93.715 F7800.000
G1 X110.993 Y94.078 E1.32467 F540.000
G92 E0
G1 X105.685 Y92.702 F7800.000
G1 X99.508 Y94.846 F7800.000
G1 X98.154 Y100.384 F7800.000
G1 X98.415 Y103.212 F7800.000
G1 X98.415 Y106.052 F7800.000
G1 X87.889 Y107.519 F7800.000
G1 X87.783 Y107.519 E0.00477 F378.000
G1 X87.783 Y92.673 E0.67654
G1 X89.404 Y92.673 E0.74989
G1 X89.404 Y98.896 E1.03147
G1 X97.929 Y98.896 E1.41722 F378.000
G1 X97.929 Y100.159 E1.47437
G1 X89.404 Y100.159 E1.86012
G1 X89.404 Y106.277 E2.13696
G1 X98.190 Y106.277 E2.53452
G1 X98.190 Y107.519 E2.59072
G1 X88.120 Y107.519 E3.04641
G1 X88.009 Y107.089 F7800.000
G1 X88.213 Y107.293 E3.05944 F540.000
G1 X88.758 Y107.293 E3.08414
G1 X88.009 Y106.544 E3.13209
G1 X88.009 Y105.998 E3.15679
G1 X89.304 Y107.293 E3.23967
G1 X89.178 Y98.984 F7800.000
G1 X88.009 Y97.815 E3.31452 F540.000
G1 X88.009 Y97.269 E3.33921
G1 X89.178 Y98.438 E3.41406
G1 X89.178 Y97.893 E3.43875
G1 X88.009 Y96.724 E3.51359
G1 X88.009 Y96.178 E3.53829
G1 X89.178 Y97.347 E3.61313
G1 X89.178 Y96.802 E3.63783
G1 X88.009 Y95.633 E3.71267
G1 X88.009 Y95.087 E3.73737
G1 X89.178 Y96.256 E3.81221
G1 X89.178 Y95.711 E3.83691
G1 X88.009 Y94.542 E3.91175
G1 X88.009 Y93.996 E3.93644
G1 X89.178 Y95.165 E4.01129
G1 X89.178 Y94.619 E4.03598
G1 X88.009 Y93.450 E4.11083
G1 X88.026 Y92.922 E4.13476
G1 X89.178 Y94.074 E4.20851
G1 X89.178 Y93.528 E4.23321
G1 X88.549 Y92.899 E4.27350
G92 E0
G1 X88.629 Y93.448 F7800.000
G1 X88.629 Y93.448 F7800.000
G1 X97.703 Y99.326 F7800.000
G1 X97.500 Y99.122 E0.01303 F540.000
G1 X96.954 Y99.122 E0.03773
G1 X97.703 Y99.871 E0.08569
G1 X97.220 Y99.933 E0.10776
G1 X96.409 Y99.122 E0.15969
G1 X95.863 Y99.122 E0.18438
G1 X96.674 Y99.933 E0.23631
G1 X96.129 Y99.933 E0.26100
G1 X95.317 Y99.122 E0.31293
G1 X94.772 Y99.122 E0.33762
G1 X95.583 Y99.933 E0.38955
G1 X95.037 Y99.933 E0.41424
G1 X94.226 Y99.122 E0.46617
G1 X93.681 Y99.122 E0.49086
G1 X94.492 Y99.933 E0.54279
G1 X93.946 Y99.933 E0.56748
G1 X93.135 Y99.122 E0.61940
G1 X92.590 Y99.122 E0.64410
G1 X93.401 Y99.933 E0.69602
G1 X92.855 Y99.933 E0.72072
G1 X92.044 Y99.122 E0.77264
G1 X91.499 Y99.122 E0.79734
G1 X92.310 Y99.933 E0.84926
G1 X91.764 Y99.933 E0.87396
G1 X90.953 Y99.122 E0.92588
G1 X90.407 Y99.122 E0.95058
G1 X91.218 Y99.933 E1.00250
G1 X90.673 Y99.933 E1.02720
G1 X89.862 Y99.122 E1.07912
G1 X89.316 Y99.122 E1.10382
G1 X90.127 Y99.933 E1.15574
G1 X89.582 Y99.933 E1.18044
G1 X88.009 Y98.360 E1.28111
G1 X88.009 Y98.906 E1.30581
G1 X89.178 Y100.075 E1.38065
G1 X89.178 Y100.621 E1.40535
G1 X88.009 Y99.452 E1.48019
G1 X88.009 Y99.997 E1.50489
G1 X89.178 Y101.166 E1.57973
G1 X89.178 Y101.712 E1.60442
G1 X88.009 Y100.543 E1.67927
G1 X88.009 Y101.088 E1.70396
G1 X89.178 Y102.257 E1.77881
G1 X89.178 Y102.803 E1.80350
G1 X88.009 Y101.634 E1.87834
G1 X88.009 Y102.179 E1.90304
G1 X89.178 Y103.348 E1.97788
G1 X89.178 Y103.894 E2.00258
G1 X88.009 Y102.725 E2.07742
G1 X88.009 Y103.271 E2.10212
G1 X89.178 Y104.440 E2.17696
G1 X89.178 Y104.985 E2.20166
G1 X88.009 Y103.816 E2.27650
G1 X88.009 Y104.362 E2.30119
G1 X89.178 Y105.531 E2.37604
G1 X89.178 Y106.076 E2.40073
G1 X88.009 Y104.907 E2.47558
G1 X88.009 Y105.453 E2.50027
G1 X89.849 Y107.293 E2.61808
G1 X90.395 Y107.293 E2.64278
G1 X89.605 Y106.503 E2.69336
G1 X90.151 Y106.503 E2.71805
G1 X90.941 Y107.293 E2.76863
G1 X91.486 Y107.293 E2.79333
G1 X90.696 Y106.503 E2.84391
G1 X91.242 Y106.503 E2.86860
G1 X92.032 Y107.293 E2.91918
G1 X92.577 Y107.293 E2.94388
G1 X91.787 Y106.503 E2.99446
G1 X92.333 Y106.503 E3.01915
G1 X93.123 Y107.293 E3.06973
G1 X93.668 Y107.293 E3.09443
G1 X92.878 Y106.503 E3.14501
G1 X93.424 Y106.503 E3.16971
G1 X94.214 Y107.293 E3.22028
G1 X94.760 Y107.293 E3.24498
G1 X93.969 Y106.503 E3.29556
G1 X94.515 Y106.503 E3.32026
G1 X95.305 Y107.293 E3.37084
G1 X95.851 Y107.293 E3.39553
G1 X95.061 Y106.503 E3.44611
G1 X95.606 Y106.503 E3.47081
G1 X96.396 Y107.293 E3.52139
G1 X96.942 Y107.293 E3.54608
G1 X96.152 Y106.503 E3.59666
G1 X96.697 Y106.503 E3.62136
G1 X97.487 Y107.293 E3.67194
G1 X97.964 Y107.224 E3.69375
G1 X97.243 Y106.503 E3.73994
G1 X97.788 Y106.503 E3.76463
G1 X97.964 Y106.679 E3.77590
M106 S255
G92 E0
G1 Z0.600 F7800.000
G1 X104.238 Y96.426 F7800.000
G1 X104.986 Y94.626 E0.58425 F600.000
G1 X105.654 Y93.931 E0.87318
G1 X106.104 Y93.558 E1.04832
G1 X106.384 Y93.448 E1.13848
G1 X107.192 Y93.220 E1.38995
G1 X107.966 Y93.101 E1.62453
G1 X108.744 Y93.189 E1.85919
G1 X109.023 Y93.245 E1.94451
G1 X109.587 Y93.476 E2.12696
G1 X109.875 Y93.625 E2.22431
G1 X110.342 Y94.013 E2.40605
G1 X110.533 Y94.195 E2.48522
G1 X110.928 Y94.798 E2.70119
G1 X111.012 Y94.940 E2.75056
G1 X111.282 Y95.785 E3.01629
G1 X111.320 Y95.985 E3.07740
G1 X111.411 Y97.075 E3.40518
G1 X111.411 Y106.052 E6.09506
G1 X111.330 Y106.632 E6.27054
G1 X110.381 Y106.898 E6.56585
G1 X107.429 Y106.898 E7.45041
G92 E0
G1 X102.582 Y100.648 F7800.000
G1 X99.366 Y94.551 F7800.000
G1 X93.837 Y94.463 F7800.000
G1 X89.629 Y98.671 F7800.000
G1 X88.594 Y92.448 F7800.000
G1 X88.594 Y98.671 E1.86470 F600.000
G1 X88.771 Y99.527 E2.12677
G1 X98.154 Y99.527 E4.93847
G92 E0
G1 X88.629 Y106.744 F7800.000
G1 X88.629 Y106.744 F7800.000
G1 X98.415 Y106.898 F7800.000
G1 X89.629 Y106.898 E2.63269 F600.000
G1 X88.674 Y106.628 E2.93014
G1 X88.594 Y106.052 E3.10449
G1 X88.594 Y100.384 E4.80289
G1 X89.491 Y96.047 E6.13009
G92 E0
G1 Z0.900 F7800.000
G1 X104.238 Y96.426 F7800.000
G1 X104.986 Y94.626 E0.58425 F600.000
G1 X105.654 Y93.931 E0.87318
G1 X106.104 Y93.558 E1.04832
G1 X106.384 Y93.448 E1.13848
G1 X107.192 Y93.220 E1.38995
G1 X107.966 Y93.101 E1.62453
G1 X108.744 Y93.189 E1.85919
G1 X109.023 Y93.245 E1.94451
G1 X109.587 Y93.476 E2.12696
G1 X109.875 Y93.625 E2.22431
G1 X110.342 Y94.013 E2.40605
G1 X110.533 Y94.195 E2.48522
G1 X110.928 Y94.798 E2.70119
G1 X111.012 Y94.940 E2.75056
G1 X111.282 Y95.785 E3.01629
G1 X111.320 Y95.985 E3.07740
G1 X111.411 Y97.075 E3.40518
G1 X111.411 Y106.052 E6.09506
G1 X111.330 Y106.632 E6.27054
G1 X110.381 Y106.898 E6.56585
G1 X107.429 Y106.898 E7.45041
G92 E0
G1 X102.582 Y100.648 F7800.000
G1 X99.366 Y94.551 F7800.000
G1 X93.837 Y94.463 F7800.000
G1 X89.629 Y98.671 F7800.000
G1 X88.594 Y92.448 F7800.000
G1 X88.594 Y98.671 E1.86470 F600.000
G1 X88.771 Y99.527 E2.12677
G1 X98.154 Y99.527 E4.93847
G92 E0
G1 X88.629 Y106.744 F7800.000
G1 X88.629 Y106.744 F7800.000
G1 X98.415 Y106.898 F7800.000
G1 X89.629 Y106.898 E2.63269 F600.000
G1 X88.674 Y106.628 E2.93014
G1 X88.594 Y106.052 E3.10449
G1 X88.594 Y100.384 E4.80289
G1 X89.491 Y96.047 E6.13009
G92 E0
G1 Z1.200 F7800.000
G1 X104.238 Y96.426 F7800.000
G1 X104.986 Y94.626 E0.58425 F600.000
G1 X105.654 Y93.931 E0.87318
G1 X106.104 Y93.558 E1.04832
G1 X106.385 Y93.448 E1.13848
G1 X107.192 Y93.220 E1.38995
G1 X107.966 Y93.101 E1.62453
G1 X108.744 Y93.189 E1.85919
G1 X109.023 Y93.245 E1.94451
G1 X109.587 Y93.476 E2.12696
G1 X109.875 Y93.625 E2.22431
G1 X110.342 Y94.013 E2.40605
G1 X110.533 Y94.196 E2.48522
G1 X110.928 Y94.798 E2.70119
G1 X111.012 Y94.940 E2.75056
G1 X111.282 Y95.785 E3.01629
G1 X111.320 Y95.985 E3.07740
G1 X111.411 Y97.075 E3.40518
G1 X111.411 Y106.052 E6.09506
G1 X111.330 Y106.632 E6.27054
G1 X110.381 Y106.898 E6.56585
G1 X107.429 Y106.898 E7.45040
G92 E0
G1 X102.582 Y100.648 F7800.000
G1 X99.366 Y94.551 F7800.000
G1 X93.837 Y94.463 F7800.000
G1 X89.629 Y98.671 F7800.000
G1 X88.594 Y92.448 F7800.000
G1 X88.594 Y98.671 E1.86470 F600.000
G1 X88.771 Y99.527 E2.12677
G1 X98.154 Y99.527 E4.93847
G92 E0
G1 X88.629 Y106.744 F7800.000
G1 X88.629 Y106.744 F7800.000
G1 X98.415 Y106.898 F7800.000
G1 X89.629 Y106.898 E2.63269 F600.000
G1 X88.674 Y106.628 E2.93014
G1 X88.594 Y106.052 E3.10449
G1 X88.594 Y100.384 E4.80289
G1 X89.491 Y96.047 E6.13009
G92 E0
G1 Z1.500 F7800.000
G1 X104.238 Y96.426 F7800.000
G1 X104.986 Y94.626 E0.58425 F600.000
G1 X105.654 Y93.931 E0.87318
G1 X106.104 Y93.558 E1.04832
G1 X106.384 Y93.448 E1.13848
G1 X107.192 Y93.220 E1.38995
G1 X107.966 Y93.101 E1.62453
G1 X108.744 Y93.189 E1.85919
G1 X109.023 Y93.245 E1.94451
G1 X109.587 Y93.476 E2.12696
G1 X109.875 Y93.625 E2.22431
G1 X110.342 Y94.013 E2.40605
G1 X110.533 Y94.195 E2.48522
G1 X110.928 Y94.798 E2.70119
G1 X111.012 Y94.940 E2.75056
G1 X111.282 Y95.785 E3.01629
G1 X111.320 Y95.985 E3.07740
G1 X111.411 Y97.075 E3.40518
G1 X111.411 Y106.052 E6.09506
G1 X111.330 Y106.632 E6.27054
G1 X110.381 Y106.898 E6.56585
G1 X107.429 Y106.898 E7.45041
G92 E0
G1 X102.582 Y100.648 F7800.000
G1 X99.366 Y94.551 F7800.000
G1 X93.837 Y94.463 F7800.000
G1 X89.629 Y98.671 F7800.000
G1 X88.594 Y92.448 F7800.000
G1 X88.594 Y98.671 E1.86470 F600.000
G1 X88.771 Y99.527 E2.12677
G1 X98.154 Y99.527 E4.93847
G92 E0
G1 X88.629 Y106.744 F7800.000
G1 X88.629 Y106.744 F7800.000
G1 X98.415 Y106.898 F7800.000
G1 X89.629 Y106.898 E2.63269 F600.000
G1 X88.674 Y106.628 E2.93014
G1 X88.594 Y106.052 E3.10449
G1 X88.594 Y100.384 E4.80289
G1 X89.491 Y96.047 E6.13009
G92 E0
G1 Z1.800 F7800.000
G1 X104.238 Y96.426 F7800.000
G1 X104.986 Y94.626 E0.58425 F600.000
G1 X105.654 Y93.931 E0.87318
G1 X106.104 Y93.558 E1.04832
G1 X106.384 Y93.448 E1.13848
G1 X107.192 Y93.220 E1.38995
G1 X107.966 Y93.101 E1.62453
G1 X108.744 Y93.189 E1.85919
G1 X109.023 Y93.245 E1.94451
G1 X109.587 Y93.476 E2.12696
G1 X109.875 Y93.625 E2.22431
G1 X110.342 Y94.013 E2.40605
G1 X110.533 Y94.195 E2.48522
G1 X110.928 Y94.798 E2.70119
G1 X111.012 Y94.940 E2.75056
G1 X111.282 Y95.785 E3.01629
G1 X111.320 Y95.985 E3.07740
G1 X111.411 Y97.075 E3.40518
G1 X111.411 Y106.052 E6.09506
G1 X111.330 Y106.632 E6.27054
G1 X110.381 Y106.898 E6.56585
G1 X107.429 Y106.898 E7.45041
G92 E0
G1 X102.582 Y100.648 F7800.000
G1 X99.366 Y94.551 F7800.000
G1 X93.837 Y94.463 F7800.000
G1 X89.629 Y98.671 F7800.000
G1 X88.594 Y92.448 F7800.000
G1 X88.594 Y98.671 E1.86470 F600.000
G1 X88.771 Y99.527 E2.12677
G1 X98.154 Y99.527 E4.93847
G92 E0
G1 X88.629 Y106.744 F7800.000
G1 X88.629 Y106.744 F7800.000
G1 X98.415 Y106.898 F7800.000
G1 X89.629 Y106.898 E2.63269 F600.000
G1 X88.674 Y106.628 E2.93014
G1 X88.594 Y106.052 E3.10449
G1 X88.594 Y100.384 E4.80289
G1 X89.491 Y96.047 E6.13009
G92 E0
G1 Z2.100 F7800.000
G1 X104.238 Y96.426 F7800.000
G1 X104.986 Y94.626 E0.58425 F600.000
G1 X105.654 Y93.931 E0.87318
G1 X106.103 Y93.559 E1.04770
G1 X106.385 Y93.449 E1.13846
G1 X107.039 Y93.253 E1.34308
G1 X107.997 Y93.104 E1.63344
G1 X108.744 Y93.189 E1.85889
G1 X109.023 Y93.245 E1.94422
G1 X109.587 Y93.476 E2.12666
G1 X109.875 Y93.625 E2.22402
G1 X110.342 Y94.013 E2.40576
G1 X110.533 Y94.195 E2.48492
G1 X110.928 Y94.798 E2.70090
G1 X111.012 Y94.940 E2.75027
G1 X111.282 Y95.785 E3.01599
G1 X111.320 Y95.985 E3.07711
G1 X111.411 Y97.075 E3.40488
G1 X111.411 Y106.052 E6.09477
G1 X111.330 Y106.632 E6.27025
G1 X110.381 Y106.898 E6.56555
G1 X107.429 Y106.898 E7.45011
G92 E0
G1 X102.582 Y100.648 F7800.000
G1 X99.366 Y94.551 F7800.000
G1 X93.837 Y94.463 F7800.000
G1 X89.629 Y98.671 F7800.000
G1 X88.594 Y92.448 F7800.000
G1 X88.594 Y98.671 E1.86470 F600.000
G1 X88.771 Y99.527 E2.12677
G1 X98.154 Y99.527 E4.93847
G92 E0
G1 X88.629 Y106.744 F7800.000
G1 X88.629 Y106.744 F7800.000
G1 X98.415 Y106.898 F7800.000
G1 X89.629 Y106.898 E2.63269 F600.000
G1 X88.674 Y106.628 E2.93014
G1 X88.594 Y106.052 E3.10449
G1 X88.594 Y100.384 E4.80289
G1 X89.491 Y96.047 E6.13009
G92 E0
M107
M104 S0 ; turn off temperature
G28 X0  ; home X axis
M84     ; disable motors

; filament used = 125.3mm (1.0cm3)

; avoid_crossing_perimeters = 1
; bed_shape = 0x0,250x0,250x250,0x250
; bed_temperature = 0
; before_layer_gcode = 
; bridge_acceleration = 0
; bridge_fan_speed = 100
; brim_width = 0
; complete_objects = 0
; cooling = 1
; default_acceleration = 0
; disable_fan_first_layers = 1
; duplicate_distance = 6
; end_gcode = M104 S0 ; turn off temperature\nG28 X0  ; home X axis\nM84     ; disable motors\n
; extruder_clearance_height = 20
; extruder_clearance_radius = 20
; extruder_offset = 0x0
; extrusion_axis = E
; extrusion_multiplier = 3
; fan_always_on = 0
; fan_below_layer_time = 60
; filament_colour = #FFFFFF
