; generated by Slic3r 1.2.9 on 2016-03-11 at 01:24:27

; external perimeters extrusion width = 1.54mm
; perimeters extrusion width = 2.62mm
; infill extrusion width = 6.27mm
; solid infill extrusion width = 2.62mm
; top infill extrusion width = 2.62mm

M107
M104 S30 ; set temperature
G28 ; home all axes
G1 Z5 F5000 ; lift nozzle
M302
M92 E10000
M500
M501
G1 E100
M109 S30 ; wait for temperature to be reached
G21 ; set units to millimeters
G90 ; use absolute coordinates
M82 ; use absolute distances for extrusion
G92 E0
G1 Z0.300 F7800.000
G1 X102.802 Y95.569 F7800.000
G1 X102.802 Y102.555 E0.31614 F378.000
G1 X102.730 Y105.674 E0.45729 F378.000
G1 X103.205 Y105.750 E0.47904
G1 X103.523 Y104.688 E0.52920
G1 X104.128 Y102.851 E0.61675
G1 X108.071 Y92.577 E1.11469
G1 X109.214 Y92.577 E1.16640
G1 X113.105 Y102.853 E1.66357
G1 X113.396 Y103.672 E1.70292
G1 X113.712 Y104.678 E1.75065
G1 X114.000 Y105.690 E1.79827
G1 X114.482 Y105.611 E1.82037
G1 X114.408 Y103.667 E1.90836
G1 X114.398 Y102.557 E1.95861
G1 X114.398 Y92.577 E2.41020
G1 X115.813 Y92.577 E2.47422
G1 X115.813 Y107.423 E3.14599
G1 X113.536 Y107.423 E3.24900
G1 X109.519 Y96.741 E3.76539
G1 X109.070 Y95.324 E3.83265
G1 X108.868 Y94.557 E3.86857
G1 X108.442 Y94.559 E3.88784
G1 X108.036 Y96.083 E3.95919
G1 X107.758 Y96.966 E4.00109
G1 X103.751 Y107.423 E4.50782
G1 X101.409 Y107.423 E4.61381
G1 X101.409 Y92.577 E5.28558
G1 X102.802 Y92.577 E5.34861
G1 X102.802 Y95.338 E5.47353
G1 X102.576 Y93.143 F7800.000
G1 X102.235 Y92.803 E5.49541 F540.000
G1 X101.688 Y92.803 E5.52031
G1 X102.576 Y93.691 E5.57741
G1 X102.576 Y94.239 E5.60231
G1 X101.635 Y93.298 E5.66280
G1 X101.635 Y93.846 E5.68770
G1 X102.576 Y94.787 E5.74820
G1 X102.576 Y95.335 E5.77310
G1 X101.635 Y94.394 E5.83360
G1 X101.635 Y94.941 E5.85850
G1 X102.576 Y95.882 E5.91899
G1 X102.576 Y96.430 E5.94389
G1 X101.635 Y95.489 E6.00439
G1 X101.635 Y96.037 E6.02929
G1 X102.576 Y96.978 E6.08979
G1 X102.576 Y97.526 E6.11469
G1 X101.635 Y96.585 E6.17518
G1 X101.635 Y97.133 E6.20008
G1 X102.576 Y98.074 E6.26058
G1 X102.576 Y98.622 E6.28548
G1 X101.635 Y97.680 E6.34598
G1 X101.635 Y98.228 E6.37088
G1 X102.576 Y99.169 E6.43137
G1 X102.576 Y99.717 E6.45627
G1 X101.635 Y98.776 E6.51677
G1 X101.635 Y99.324 E6.54167
G1 X102.576 Y100.265 E6.60217
G1 X102.576 Y100.813 E6.62707
G1 X101.635 Y99.872 E6.68756
G1 X101.635 Y100.420 E6.71246
G1 X102.576 Y101.361 E6.77296
G1 X102.576 Y101.909 E6.79786
G1 X101.635 Y100.967 E6.85836
G1 X101.635 Y101.515 E6.88326
G1 X102.576 Y102.456 E6.94375
G1 X102.568 Y102.996 E6.96828
G1 X101.635 Y102.063 E7.02824
G1 X101.635 Y102.611 E7.05315
G1 X102.555 Y103.531 E7.11232
G1 X102.543 Y104.067 E7.13667
G1 X101.635 Y103.159 E7.19506
G1 X101.635 Y103.707 E7.21996
G1 X102.531 Y104.603 E7.27756
G1 X102.519 Y105.138 E7.30191
G1 X101.635 Y104.254 E7.35873
G1 X101.635 Y104.802 E7.38363
G1 X102.506 Y105.674 E7.43965
G1 X102.753 Y105.921 F7800.000
G1 X103.734 Y106.902 E7.50272 F540.000
G1 X103.886 Y106.506 E7.52200
G1 X103.353 Y105.973 E7.55625
G1 X103.480 Y105.551 E7.57625
G1 X104.038 Y106.110 E7.61214
G1 X104.190 Y105.714 E7.63142
G1 X103.606 Y105.130 E7.66893
G1 X103.732 Y104.709 E7.68893
G1 X104.341 Y105.318 E7.72808
G1 X104.493 Y104.922 E7.74736
G1 X103.868 Y104.296 E7.78757
G1 X104.003 Y103.884 E7.80729
G1 X104.645 Y104.525 E7.84854
G1 X104.797 Y104.129 E7.86782
G1 X104.139 Y103.472 E7.91011
G1 X104.274 Y103.059 E7.92984
G1 X104.948 Y103.733 E7.97317
G1 X105.100 Y103.337 E7.99245
G1 X104.419 Y102.656 E8.03624
G1 X104.571 Y102.260 E8.05552
G1 X105.252 Y102.941 E8.09930
G1 X105.404 Y102.545 E8.11858
G1 X104.723 Y101.864 E8.16236
G1 X104.875 Y101.468 E8.18163
G1 X105.556 Y102.149 E8.22539
G1 X105.707 Y101.753 E8.24467
G1 X105.027 Y101.072 E8.28842
G1 X105.179 Y100.677 E8.30769
G1 X105.859 Y101.357 E8.35143
G1 X106.011 Y100.961 E8.37071
G1 X105.331 Y100.281 E8.41443
G1 X105.483 Y99.885 E8.43371
G1 X106.163 Y100.565 E8.47742
G1 X106.314 Y100.169 E8.49670
G1 X105.635 Y99.489 E8.54040
G1 X105.787 Y99.093 E8.55967
G1 X106.466 Y99.773 E8.60336
G1 X106.618 Y99.377 E8.62264
G1 X105.938 Y98.697 E8.66632
G1 X106.090 Y98.301 E8.68559
G1 X106.770 Y98.981 E8.72926
G1 X106.921 Y98.585 E8.74853
G1 X106.242 Y97.906 E8.79219
G1 X106.394 Y97.510 E8.81146
G1 X107.073 Y98.189 E8.85510
G1 X107.225 Y97.793 E8.87438
G1 X106.546 Y97.114 E8.91801
G1 X106.698 Y96.718 E8.93728
G1 X107.377 Y97.396 E8.98090
G1 X107.529 Y97.000 E9.00017
G1 X106.850 Y96.322 E9.04378
G1 X107.002 Y95.926 E9.06305
G1 X107.663 Y96.587 E9.10550
G1 X107.794 Y96.170 E9.12536
G1 X107.154 Y95.530 E9.16647
G1 X107.306 Y95.135 E9.18574
G1 X107.912 Y95.741 E9.22471
G1 X108.027 Y95.308 E9.24507
G1 X107.458 Y94.739 E9.28167
G1 X107.610 Y94.343 E9.30094
G1 X108.143 Y94.875 E9.33517
G1 X108.258 Y94.443 E9.35552
G1 X107.762 Y93.947 E9.38738
G1 X107.914 Y93.551 E9.40666
G1 X108.695 Y94.332 E9.45686
G1 X109.485 Y94.026 F7800.000
G1 X108.261 Y92.803 E9.53548 F540.000
G1 X108.066 Y93.155 E9.55380
G1 X109.818 Y94.908 E9.66645
G1 X109.199 Y94.836 E9.69478
G1 X110.152 Y95.789 E9.75603
G1 X109.429 Y95.613 F7800.000
G1 X110.486 Y96.671 E9.82400 F540.000
G1 X110.000 Y97.280 F7800.000
G1 X111.153 Y98.434 E9.89818 F540.000
G1 X110.660 Y99.036 F7800.000
G1 X111.821 Y100.197 E9.97281 F540.000
G1 X111.320 Y100.792 F7800.000
G1 X112.489 Y101.960 E10.04790 F540.000
G1 X111.981 Y102.548 F7800.000
G1 X113.132 Y103.700 E10.12192 F540.000
G1 X112.311 Y103.426 F7800.000
G1 X113.392 Y104.508 E10.19141 F540.000
G1 X112.641 Y104.305 E10.22677
G1 X113.624 Y105.287 E10.28994
G1 X112.972 Y105.183 E10.31998
G1 X113.842 Y106.053 E10.37594
G1 X114.209 Y105.872 E10.39454
G1 X115.534 Y107.197 E10.47969
G1 X115.587 Y106.702 E10.50232
G1 X114.679 Y105.795 E10.56066
G1 X114.698 Y105.266 E10.58471
G1 X115.587 Y106.154 E10.64183
G1 X115.587 Y105.606 E10.66673
G1 X114.677 Y104.696 E10.72524
G1 X114.655 Y104.127 E10.75114
G1 X115.587 Y105.059 E10.81103
G1 X115.587 Y104.511 E10.83593
G1 X114.634 Y103.558 E10.89717
G1 X114.629 Y103.005 E10.92232
G1 X115.587 Y103.963 E10.98390
G1 X115.587 Y103.415 E11.00880
G1 X114.624 Y102.452 E11.07071
G1 X114.624 Y101.904 E11.09561
G1 X115.587 Y102.867 E11.15752
G1 X115.587 Y102.320 E11.18242
G1 X114.624 Y101.356 E11.24433
G1 X114.624 Y100.809 E11.26923
G1 X115.587 Y101.772 E11.33114
G1 X115.587 Y101.224 E11.35604
G1 X114.624 Y100.261 E11.41795
G1 X114.624 Y99.713 E11.44286
G1 X115.587 Y100.676 E11.50476
G1 X115.587 Y100.128 E11.52967
G1 X114.624 Y99.165 E11.59158
G1 X114.624 Y98.617 E11.61648
G1 X115.587 Y99.580 E11.67839
G1 X115.587 Y99.033 E11.70329
G1 X114.624 Y98.070 E11.76520
G1 X114.624 Y97.522 E11.79010
G1 X115.587 Y98.485 E11.85201
G1 X115.587 Y97.937 E11.87691
G1 X114.624 Y96.974 E11.93882
G1 X114.624 Y96.426 E11.96372
G1 X115.587 Y97.389 E12.02563
G1 X115.587 Y96.841 E12.05053
G1 X114.624 Y95.878 E12.11244
G1 X114.624 Y95.330 E12.13734
G1 X115.587 Y96.293 E12.19925
G1 X115.587 Y95.746 E12.22415
G1 X114.624 Y94.783 E12.28606
G1 X114.624 Y94.235 E12.31097
G1 X115.587 Y95.198 E12.37287
G1 X115.587 Y94.650 E12.39778
G1 X114.624 Y93.687 E12.45969
G1 X114.624 Y93.139 E12.48459
G1 X115.587 Y94.102 E12.54650
G1 X115.587 Y93.554 E12.57140
G1 X114.835 Y92.803 E12.61970
G1 X115.383 Y92.803 E12.64460
G1 X115.587 Y93.007 E12.65769
G92 E0
G1 X108.842 Y93.782 F7800.000
G1 X108.641 Y93.644 F7800.000
G1 X108.641 Y93.406 F7800.000
G1 X108.679 Y93.352 F7800.000
G1 X109.151 Y93.145 F7800.000
G1 X108.809 Y92.803 E0.02196 F540.000
G1 X109.683 Y96.416 F7800.000
G1 X110.820 Y97.552 E0.09503 F540.000
G1 X110.330 Y98.158 F7800.000
G1 X111.487 Y99.316 E0.16944 F540.000
G1 X110.990 Y99.914 F7800.000
G1 X112.155 Y101.079 E0.24430 F540.000
G1 X111.651 Y101.670 F7800.000
G1 X112.822 Y102.842 E0.31961 F540.000
G1 X113.739 Y105.950 F7800.000
G1 X114.986 Y107.197 E0.39976 F540.000
G1 X114.438 Y107.197 E0.42466
G1 X113.302 Y106.061 E0.49771
G1 X113.632 Y106.939 F7800.000
G1 X113.890 Y107.197 E0.51432 F540.000
G92 E0
G1 X114.008 Y106.475 F7800.000
G1 X114.008 Y106.475 F7800.000
G1 X103.482 Y107.197 F7800.000
G1 X101.635 Y105.350 E0.11873 F540.000
G1 X101.635 Y105.898 E0.14363
G1 X102.934 Y107.197 E0.22715
G1 X102.386 Y107.197 E0.25205
G1 X101.635 Y106.446 E0.30035
G1 X101.635 Y106.993 E0.32525
G1 X101.838 Y107.197 E0.33834
G92 E0
G1 X101.184 Y107.648 F7800.000
G1 X99.184 Y107.648 F7800.000
G1 X96.819 Y107.648 F7800.000
G1 X94.819 Y107.648 F7800.000
G1 X86.053 Y107.423 F7800.000
G1 X84.187 Y107.423 E0.08444 F378.000
G1 X84.187 Y92.577 E0.75621
G1 X85.808 Y92.577 E0.82956
G1 X85.808 Y98.800 E1.11114
G1 X94.333 Y98.800 E1.49689 F378.000
G1 X94.333 Y100.063 E1.55404
G1 X85.808 Y100.063 E1.93979
G1 X85.808 Y106.181 E2.21663
G1 X94.594 Y106.181 E2.61419
G1 X94.594 Y107.423 E2.67039
G1 X86.284 Y107.423 E3.04641
G1 X85.708 Y107.197 F7800.000
G1 X84.413 Y105.902 E3.12929 F540.000
G1 X84.413 Y106.448 E3.15399
G1 X85.162 Y107.197 E3.20195
G1 X84.617 Y107.197 E3.22664
G1 X84.413 Y106.993 E3.23967
G1 X85.582 Y98.888 F7800.000
G1 X84.413 Y97.719 E3.31452 F540.000
G1 X84.413 Y97.173 E3.33921
G1 X85.582 Y98.342 E3.41406
G1 X85.582 Y97.797 E3.43875
G1 X84.413 Y96.628 E3.51359
G1 X84.413 Y96.082 E3.53829
G1 X85.582 Y97.251 E3.61313
G1 X85.582 Y96.706 E3.63783
G1 X84.413 Y95.537 E3.71267
G1 X84.413 Y94.991 E3.73737
G1 X85.582 Y96.160 E3.81221
G1 X85.582 Y95.615 E3.83691
G1 X84.413 Y94.446 E3.91175
G1 X84.413 Y93.900 E3.93645
G1 X85.582 Y95.069 E4.01129
G1 X85.582 Y94.523 E4.03598
G1 X84.413 Y93.354 E4.11083
G1 X84.430 Y92.826 E4.13476
G1 X85.582 Y93.978 E4.20851
G1 X85.582 Y93.432 E4.23321
G1 X84.953 Y92.803 E4.27350
G92 E0
G1 X85.033 Y93.352 F7800.000
G1 X85.033 Y93.352 F7800.000
G1 X94.107 Y99.230 F7800.000
G1 X93.904 Y99.026 E0.01303 F540.000
G1 X93.358 Y99.026 E0.03773
G1 X94.107 Y99.775 E0.08569
G1 X93.624 Y99.837 E0.10776
G1 X92.813 Y99.026 E0.15969
G1 X92.267 Y99.026 E0.18438
G1 X93.078 Y99.837 E0.23631
G1 X92.533 Y99.837 E0.26100
G1 X91.721 Y99.026 E0.31293
G1 X91.176 Y99.026 E0.33762
G1 X91.987 Y99.837 E0.38955
G1 X91.441 Y99.837 E0.41424
G1 X90.630 Y99.026 E0.46617
G1 X90.085 Y99.026 E0.49086
G1 X90.896 Y99.837 E0.54278
G1 X90.350 Y99.837 E0.56748
G1 X89.539 Y99.026 E0.61940
G1 X88.994 Y99.026 E0.64410
G1 X89.805 Y99.837 E0.69602
G1 X89.259 Y99.837 E0.72072
G1 X88.448 Y99.026 E0.77264
G1 X87.903 Y99.026 E0.79734
G1 X88.714 Y99.837 E0.84926
G1 X88.168 Y99.837 E0.87396
G1 X87.357 Y99.026 E0.92588
G1 X86.811 Y99.026 E0.95058
G1 X87.622 Y99.837 E1.00250
G1 X87.077 Y99.837 E1.02720
G1 X86.266 Y99.026 E1.07912
G1 X85.720 Y99.026 E1.10382
G1 X86.531 Y99.837 E1.15574
G1 X85.986 Y99.837 E1.18044
G1 X84.413 Y98.264 E1.28111
G1 X84.413 Y98.810 E1.30581
G1 X85.582 Y99.979 E1.38065
G1 X85.582 Y100.525 E1.40535
G1 X84.413 Y99.356 E1.48019
G1 X84.413 Y99.901 E1.50489
G1 X85.582 Y101.070 E1.57973
G1 X85.582 Y101.616 E1.60442
G1 X84.413 Y100.447 E1.67927
G1 X84.413 Y100.992 E1.70396
G1 X85.582 Y102.161 E1.77881
G1 X85.582 Y102.707 E1.80350
G1 X84.413 Y101.538 E1.87834
G1 X84.413 Y102.083 E1.90304
G1 X85.582 Y103.252 E1.97788
G1 X85.582 Y103.798 E2.00258
G1 X84.413 Y102.629 E2.07742
G1 X84.413 Y103.175 E2.10212
G1 X85.582 Y104.344 E2.17696
G1 X85.582 Y104.889 E2.20166
G1 X84.413 Y103.720 E2.27650
G1 X84.413 Y104.266 E2.30119
G1 X85.582 Y105.435 E2.37604
G1 X85.582 Y105.980 E2.40073
G1 X84.413 Y104.811 E2.47558
G1 X84.413 Y105.357 E2.50027
G1 X86.253 Y107.197 E2.61808
G1 X86.799 Y107.197 E2.64278
G1 X86.009 Y106.407 E2.69336
G1 X86.555 Y106.407 E2.71805
G1 X87.345 Y107.197 E2.76863
G1 X87.890 Y107.197 E2.79333
G1 X87.100 Y106.407 E2.84391
G1 X87.646 Y106.407 E2.86860
G1 X88.436 Y107.197 E2.91918
G1 X88.981 Y107.197 E2.94388
G1 X88.191 Y106.407 E2.99446
G1 X88.737 Y106.407 E3.01916
G1 X89.527 Y107.197 E3.06973
G1 X90.072 Y107.197 E3.09443
G1 X89.282 Y106.407 E3.14501
G1 X89.828 Y106.407 E3.16971
G1 X90.618 Y107.197 E3.22029
G1 X91.164 Y107.197 E3.24498
G1 X90.373 Y106.407 E3.29556
G1 X90.919 Y106.407 E3.32026
G1 X91.709 Y107.197 E3.37084
G1 X92.255 Y107.197 E3.39553
G1 X91.465 Y106.407 E3.44611
G1 X92.010 Y106.407 E3.47081
G1 X92.800 Y107.197 E3.52139
G1 X93.346 Y107.197 E3.54608
G1 X92.556 Y106.407 E3.59666
G1 X93.101 Y106.407 E3.62136
G1 X93.891 Y107.197 E3.67194
G1 X94.368 Y107.128 E3.69375
G1 X93.647 Y106.407 E3.73994
G1 X94.192 Y106.407 E3.76464
G1 X94.368 Y106.583 E3.77590
M106 S255
G92 E0
G1 Z0.600 F7800.000
G1 X115.105 Y92.352 F7800.000
G1 X115.105 Y102.554 E3.05685 F600.000
G1 X115.143 Y105.387 E3.90604
G1 X114.845 Y106.455 E4.23827
G1 X114.433 Y106.527 E4.36357
G1 X114.146 Y106.542 E4.44950
G1 X113.434 Y105.643 E4.79315
G1 X112.832 Y103.861 E5.35680
G1 X112.539 Y103.060 E5.61221
G1 X110.081 Y96.547 E7.69832
G1 X109.418 Y94.592 E8.31689
G1 X108.689 Y93.677 E8.66733
G1 X108.641 Y93.644 E8.68489
G1 X107.877 Y94.587 E9.04853
G1 X107.153 Y96.755 E9.73346
G1 X104.733 Y103.066 E11.75884
G1 X103.800 Y105.723 E12.60259
G1 X103.164 Y106.569 E12.91989
G1 X102.787 Y106.559 E13.03285
G1 X102.352 Y106.480 E13.16538
G1 X102.072 Y105.463 E13.48158
G1 X102.105 Y102.547 E14.35514
G1 X102.105 Y92.352 E17.41017
G92 E0
G1 X101.184 Y92.352 F7800.000
G1 X94.558 Y94.463 F7800.000
G1 X88.033 Y92.352 F7800.000
G1 X86.033 Y92.352 F7800.000
G1 X84.998 Y92.352 F7800.000
G1 X84.998 Y98.575 E1.86470 F600.000
G1 X85.175 Y99.431 E2.12677
G1 X94.558 Y99.431 E4.93847
G92 E0
G1 X85.033 Y106.648 F7800.000
G1 X85.033 Y106.648 F7800.000
G1 X94.819 Y106.802 F7800.000
G1 X86.033 Y106.802 E2.63269 F600.000
G1 X85.078 Y106.532 E2.93014
G1 X84.998 Y105.956 E3.10449
G1 X84.998 Y100.288 E4.80289
G1 X85.895 Y95.951 E6.13009
G92 E0
G1 Z0.900 F7800.000
G1 X115.105 Y92.352 F7800.000
G1 X115.105 Y102.554 E3.05685 F600.000
G1 X115.143 Y105.387 E3.90604
G1 X114.845 Y106.455 E4.23827
G1 X114.433 Y106.527 E4.36357
G1 X114.146 Y106.542 E4.44950
G1 X113.434 Y105.643 E4.79315
G1 X112.832 Y103.861 E5.35680
G1 X112.539 Y103.060 E5.61221
G1 X110.081 Y96.547 E7.69832
G1 X109.418 Y94.592 E8.31689
G1 X108.689 Y93.677 E8.66733
G1 X108.641 Y93.644 E8.68489
G1 X107.877 Y94.587 E9.04853
G1 X107.153 Y96.755 E9.73346
G1 X104.733 Y103.066 E11.75884
G1 X103.800 Y105.723 E12.60259
G1 X103.164 Y106.569 E12.91989
G1 X102.787 Y106.559 E13.03285
G1 X102.352 Y106.480 E13.16538
G1 X102.072 Y105.463 E13.48158
G1 X102.105 Y102.547 E14.35514
G1 X102.105 Y92.352 E17.41017
G92 E0
G1 X101.184 Y92.352 F7800.000
G1 X94.558 Y94.463 F7800.000
G1 X88.033 Y92.352 F7800.000
G1 X86.033 Y92.352 F7800.000
G1 X84.998 Y92.352 F7800.000
G1 X84.998 Y98.575 E1.86470 F600.000
G1 X85.175 Y99.431 E2.12677
G1 X94.558 Y99.431 E4.93847
G92 E0
G1 X85.033 Y106.648 F7800.000
G1 X85.033 Y106.648 F7800.000
G1 X94.819 Y106.802 F7800.000
G1 X86.033 Y106.802 E2.63269 F600.000
G1 X85.078 Y106.532 E2.93014
G1 X84.998 Y105.956 E3.10449
G1 X84.998 Y100.288 E4.80289
G1 X85.895 Y95.951 E6.13009
G92 E0
G1 Z1.200 F7800.000
G1 X115.105 Y92.352 F7800.000
G1 X115.105 Y102.554 E3.05685 F600.000
G1 X115.143 Y105.387 E3.90604
G1 X114.845 Y106.455 E4.23827
G1 X114.433 Y106.527 E4.36357
G1 X114.146 Y106.542 E4.44950
G1 X113.434 Y105.643 E4.79315
G1 X112.832 Y103.861 E5.35680
G1 X112.539 Y103.060 E5.61221
G1 X110.081 Y96.547 E7.69832
G1 X109.418 Y94.592 E8.31689
G1 X108.689 Y93.677 E8.66733
G1 X108.641 Y93.644 E8.68489
G1 X107.877 Y94.587 E9.04853
G1 X107.153 Y96.755 E9.73346
G1 X104.733 Y103.066 E11.75884
G1 X103.800 Y105.723 E12.60259
G1 X103.164 Y106.569 E12.91989
G1 X102.787 Y106.559 E13.03285
G1 X102.352 Y106.480 E13.16538
G1 X102.072 Y105.463 E13.48158
G1 X102.105 Y102.547 E14.35514
G1 X102.105 Y92.352 E17.41017
G92 E0
G1 X101.184 Y92.352 F7800.000
G1 X94.558 Y94.463 F7800.000
G1 X88.033 Y92.352 F7800.000
G1 X86.033 Y92.352 F7800.000
G1 X84.998 Y92.352 F7800.000
G1 X84.998 Y98.575 E1.86470 F600.000
G1 X85.175 Y99.431 E2.12677
G1 X94.558 Y99.431 E4.93847
G92 E0
G1 X85.033 Y106.648 F7800.000
G1 X85.033 Y106.648 F7800.000
G1 X94.819 Y106.802 F7800.000
G1 X86.033 Y106.802 E2.63269 F600.000
G1 X85.078 Y106.532 E2.93014
G1 X84.998 Y105.956 E3.10449
G1 X84.998 Y100.288 E4.80289
G1 X85.895 Y95.951 E6.13009
G92 E0
G1 Z1.500 F7800.000
G1 X115.105 Y92.352 F7800.000
G1 X115.105 Y102.554 E3.05685 F600.000
G1 X115.143 Y105.387 E3.90604
