; generated by Slic3r 1.2.9 on 2016-03-11 at 01:24:28

; external perimeters extrusion width = 1.54mm
; perimeters extrusion width = 2.62mm
; infill extrusion width = 6.27mm
; solid infill extrusion width = 2.62mm
; top infill extrusion width = 2.62mm

M107
M104 S30 ; set temperature
G28 ; home all axes
G1 Z5 F5000 ; lift nozzle
M302
M92 E10000
M500
M501
G1 E100
M109 S30 ; wait for temperature to be reached
G21 ; set units to millimeters
G90 ; use absolute coordinates
M82 ; use absolute distances for extrusion
G92 E0
G1 Z0.300 F7800.000
G1 X102.625 Y102.254 F7800.000
G1 X102.625 Y92.577 E0.43787 F378.000
G1 X104.018 Y92.577 E0.50091
G1 X104.018 Y102.512 E0.95044
G1 X103.964 Y104.320 E1.03230 F378.000
G1 X103.909 Y105.392 E1.08085
G1 X104.314 Y105.520 E1.10008
G1 X112.456 Y92.577 E1.79194
G1 X114.600 Y92.577 E1.88899
G1 X114.600 Y107.423 E2.56076
G1 X113.185 Y107.423 E2.62479
G1 X113.185 Y97.618 E3.06845
G1 X113.200 Y96.856 E3.10294
G1 X113.315 Y94.524 E3.20859
G1 X112.911 Y94.395 E3.22779
G1 X104.683 Y107.423 E3.92502
G1 X102.625 Y107.423 E4.01814
G1 X102.625 Y102.485 E4.24159
G1 X103.704 Y105.073 F7800.000
G1 X102.851 Y104.221 E4.29706 F540.000
G1 X102.851 Y103.666 E4.32258
G1 X103.731 Y104.546 E4.37981
G1 X103.750 Y104.010 E4.40445
G1 X102.851 Y103.112 E4.46294
G1 X102.851 Y102.557 E4.48846
G1 X103.766 Y103.472 E4.54799
G1 X103.782 Y102.933 E4.57278
G1 X102.851 Y102.002 E4.63335
G1 X102.851 Y101.448 E4.65887
G1 X103.792 Y102.389 E4.72011
G1 X103.792 Y101.834 E4.74563
G1 X102.851 Y100.893 E4.80687
G1 X102.851 Y100.339 E4.83238
G1 X103.792 Y101.280 E4.89362
G1 X103.792 Y100.725 E4.91914
G1 X102.851 Y99.784 E4.98038
G1 X102.851 Y99.230 E5.00590
G1 X103.792 Y100.171 E5.06714
G1 X103.792 Y99.616 E5.09266
G1 X102.851 Y98.675 E5.15390
G1 X102.851 Y98.120 E5.17942
G1 X103.792 Y99.062 E5.24066
G1 X103.792 Y98.507 E5.26617
G1 X102.851 Y97.566 E5.32741
G1 X102.851 Y97.011 E5.35293
G1 X103.792 Y97.952 E5.41417
G1 X103.792 Y97.398 E5.43969
G1 X102.851 Y96.457 E5.50093
G1 X102.851 Y95.902 E5.52645
G1 X103.792 Y96.843 E5.58769
G1 X103.792 Y96.289 E5.61321
G1 X102.851 Y95.348 E5.67445
G1 X102.851 Y94.793 E5.69996
G1 X103.792 Y95.734 E5.76120
G1 X103.792 Y95.180 E5.78672
G1 X102.851 Y94.238 E5.84796
G1 X102.851 Y93.684 E5.87348
G1 X103.792 Y94.625 E5.93472
G1 X103.792 Y94.070 E5.96024
G1 X102.851 Y93.129 E6.02148
G1 X103.079 Y92.803 E6.03980
G1 X103.792 Y93.516 E6.08619
G92 E0
G1 X112.768 Y93.535 F7800.000
G1 X112.949 Y93.470 F7800.000
G1 X113.605 Y93.572 F7800.000
G1 X113.825 Y93.874 F7800.000
G1 X113.517 Y94.923 F7800.000
G1 X114.374 Y95.779 E0.05576 F540.000
G1 X114.374 Y96.334 E0.08127
G1 X113.491 Y95.451 E0.13873
G1 X113.465 Y95.979 E0.16308
G1 X114.374 Y96.889 E0.22224
G1 X114.374 Y97.443 E0.24775
G1 X113.439 Y96.508 E0.30861
G1 X113.421 Y97.044 E0.33329
G1 X114.374 Y97.998 E0.39536
G1 X114.374 Y98.552 E0.42088
G1 X113.411 Y97.589 E0.48355
G1 X113.411 Y98.144 E0.50907
G1 X114.374 Y99.107 E0.57174
G1 X114.374 Y99.661 E0.59726
G1 X113.411 Y98.698 E0.65993
G1 X113.411 Y99.253 E0.68545
G1 X114.374 Y100.216 E0.74812
G1 X114.374 Y100.770 E0.77364
G1 X113.411 Y99.807 E0.83631
G1 X113.411 Y100.362 E0.86182
G1 X114.374 Y101.325 E0.92450
G1 X114.374 Y101.880 E0.95001
G1 X113.411 Y100.917 E1.01269
G1 X113.411 Y101.471 E1.03820
G1 X114.374 Y102.434 E1.10088
G1 X114.374 Y102.989 E1.12639
G1 X113.411 Y102.026 E1.18907
G1 X113.411 Y102.580 E1.21458
G1 X114.374 Y103.543 E1.27726
G1 X114.374 Y104.098 E1.30277
G1 X113.411 Y103.135 E1.36544
G1 X113.411 Y103.689 E1.39096
G1 X114.374 Y104.652 E1.45363
G1 X114.374 Y105.207 E1.47915
G1 X113.411 Y104.244 E1.54182
G1 X113.411 Y104.798 E1.56734
G1 X114.374 Y105.762 E1.63001
G1 X114.374 Y106.316 E1.65553
G1 X113.411 Y105.353 E1.71820
G1 X113.411 Y105.908 E1.74372
G1 X114.374 Y106.871 E1.80639
G1 X114.146 Y107.197 E1.82472
G1 X113.411 Y106.462 E1.87254
G1 X113.411 Y107.017 E1.89806
G1 X113.592 Y107.197 E1.90979
G92 E0
G1 X104.432 Y106.370 F7800.000
G1 X104.158 Y106.470 F7800.000
G1 X103.656 Y106.392 F7800.000
G1 X103.400 Y106.648 F7800.000
G1 X102.851 Y106.993 F7800.000
G1 X103.055 Y107.197 E0.01325 F540.000
G1 X103.609 Y107.197 E0.03877
G1 X102.851 Y106.439 E0.08810
G1 X102.851 Y105.884 E0.11362
G1 X104.164 Y107.197 E0.19904
G1 X104.643 Y107.122 E0.22136
G1 X102.851 Y105.330 E0.33796
G1 X102.851 Y104.775 E0.36348
G1 X104.858 Y106.782 E0.49405
G1 X105.072 Y106.442 E0.51255
G1 X104.392 Y105.762 E0.55679
G1 X104.607 Y105.421 E0.57530
G1 X105.287 Y106.102 E0.61957
G1 X105.502 Y105.762 E0.63807
G1 X104.821 Y105.081 E0.68239
G1 X105.035 Y104.741 E0.70089
G1 X105.716 Y105.422 E0.74524
G1 X105.931 Y105.082 E0.76374
G1 X105.249 Y104.400 E0.80812
G1 X105.463 Y104.060 E0.82662
G1 X106.146 Y104.742 E0.87104
G1 X106.360 Y104.402 E0.88954
G1 X105.677 Y103.719 E0.93399
G1 X105.891 Y103.379 E0.95249
G1 X106.575 Y104.062 E0.99698
G1 X106.790 Y103.723 E1.01547
G1 X106.106 Y103.038 E1.05999
G1 X106.320 Y102.698 E1.07850
G1 X107.004 Y103.383 E1.12305
G1 X107.219 Y103.043 E1.14155
G1 X106.534 Y102.358 E1.18613
G1 X106.748 Y102.017 E1.20464
G1 X107.434 Y102.703 E1.24926
G1 X107.648 Y102.363 E1.26776
G1 X106.962 Y101.677 E1.31241
G1 X107.176 Y101.336 E1.33091
G1 X107.863 Y102.023 E1.37560
G1 X108.078 Y101.683 E1.39410
G1 X107.390 Y100.996 E1.43882
G1 X107.604 Y100.655 E1.45733
G1 X108.292 Y101.343 E1.50208
G1 X108.507 Y101.003 E1.52058
G1 X107.819 Y100.315 E1.56537
G1 X108.033 Y99.975 E1.58388
G1 X108.722 Y100.663 E1.62870
G1 X108.936 Y100.323 E1.64720
G1 X108.247 Y99.634 E1.69206
G1 X108.461 Y99.294 E1.71056
G1 X109.151 Y99.984 E1.75545
G1 X109.366 Y99.644 E1.77395
G1 X108.675 Y98.953 E1.81888
G1 X108.889 Y98.613 E1.83738
G1 X109.580 Y99.304 E1.88234
G1 X109.795 Y98.964 E1.90084
G1 X109.103 Y98.272 E1.94584
G1 X109.318 Y97.932 E1.96434
G1 X110.009 Y98.624 E2.00937
G1 X110.224 Y98.284 E2.02787
G1 X109.532 Y97.592 E2.07293
G1 X109.746 Y97.251 E2.09144
G1 X110.439 Y97.944 E2.13653
G1 X110.653 Y97.604 E2.15503
G1 X109.960 Y96.911 E2.20016
G1 X110.174 Y96.570 E2.21867
G1 X110.868 Y97.264 E2.26383
G1 X111.083 Y96.924 E2.28233
G1 X110.388 Y96.230 E2.32753
G1 X110.602 Y95.889 E2.34603
G1 X111.297 Y96.584 E2.39127
G1 X111.512 Y96.245 E2.40976
G1 X110.816 Y95.549 E2.45503
G1 X111.031 Y95.209 E2.47354
G1 X111.727 Y95.905 E2.51884
G1 X111.941 Y95.565 E2.53733
G1 X111.245 Y94.868 E2.58267
G1 X111.459 Y94.528 E2.60118
G1 X112.156 Y95.225 E2.64654
G1 X112.371 Y94.885 E2.66504
G1 X111.673 Y94.187 E2.71044
G1 X111.887 Y93.847 E2.72895
G1 X112.585 Y94.545 E2.77439
G1 X112.800 Y94.205 E2.79289
G1 X112.101 Y93.506 E2.83836
G1 X112.315 Y93.166 E2.85686
G1 X114.374 Y95.225 E2.99084
G1 X114.374 Y94.670 E3.01636
G1 X112.530 Y92.826 E3.13640
G1 X113.062 Y92.803 E3.16091
G1 X114.374 Y94.116 E3.24633
G1 X114.374 Y93.561 E3.27185
G1 X113.616 Y92.803 E3.32119
G1 X114.171 Y92.803 E3.34670
G1 X114.374 Y93.007 E3.35995
G92 E0
G1 X104.217 Y105.253 F7800.000
G1 X106.243 Y92.352 F7800.000
G1 X102.400 Y91.352 F7800.000
G1 X99.086 Y100.288 F7800.000
G1 X96.032 Y103.116 F7800.000
G1 X96.032 Y105.956 F7800.000
G1 X95.142 Y106.181 F7800.000
G1 X95.807 Y106.181 E0.03006 F378.000
G1 X95.807 Y107.423 E0.08626
G1 X85.400 Y107.423 E0.55717
G1 X85.400 Y92.577 E1.22894
G1 X87.021 Y92.577 E1.30229
G1 X87.021 Y98.800 E1.58388
G1 X95.546 Y98.800 E1.96963 F378.000
G1 X95.546 Y100.063 E2.02678
G1 X87.021 Y100.063 E2.41253
G1 X87.021 Y106.181 E2.68936
G1 X94.911 Y106.181 E3.04641
G1 X95.581 Y106.583 F7800.000
G1 X95.405 Y106.407 E3.05767 F540.000
G1 X94.859 Y106.407 E3.08237
G1 X95.581 Y107.128 E3.12855
G1 X95.104 Y107.197 E3.15037
G1 X94.314 Y106.407 E3.20095
G1 X93.768 Y106.407 E3.22564
G1 X94.558 Y107.197 E3.27622
G1 X94.013 Y107.197 E3.30092
G1 X93.223 Y106.407 E3.35150
G1 X92.677 Y106.407 E3.37619
G1 X93.467 Y107.197 E3.42677
G1 X92.922 Y107.197 E3.45147
G1 X92.132 Y106.407 E3.50205
G1 X91.586 Y106.407 E3.52674
G1 X92.376 Y107.197 E3.57732
G1 X91.830 Y107.197 E3.60202
G1 X91.040 Y106.407 E3.65260
G1 X90.495 Y106.407 E3.67729
G1 X91.285 Y107.197 E3.72787
G1 X90.739 Y107.197 E3.75257
G1 X89.949 Y106.407 E3.80315
G1 X89.404 Y106.407 E3.82785
G1 X90.194 Y107.197 E3.87843
G1 X89.648 Y107.197 E3.90312
G1 X88.858 Y106.407 E3.95370
G1 X88.313 Y106.407 E3.97840
G1 X89.103 Y107.197 E4.02898
G1 X88.557 Y107.197 E4.05367
G1 X87.767 Y106.407 E4.10425
G1 X87.221 Y106.407 E4.12895
G1 X88.012 Y107.197 E4.17953
G1 X87.466 Y107.197 E4.20422
G1 X85.626 Y105.357 E4.32203
G1 X85.626 Y104.811 E4.34673
G1 X86.795 Y105.980 E4.42157
G1 X86.795 Y105.435 E4.44627
G1 X85.626 Y104.266 E4.52111
G1 X85.626 Y103.720 E4.54581
G1 X86.795 Y104.889 E4.62065
G1 X86.795 Y104.344 E4.64534
G1 X85.626 Y103.175 E4.72019
G1 X85.626 Y102.629 E4.74488
G1 X86.795 Y103.798 E4.81973
G1 X86.795 Y103.252 E4.84442
G1 X85.626 Y102.083 E4.91926
G1 X85.626 Y101.538 E4.94396
G1 X86.795 Y102.707 E5.01880
G1 X86.795 Y102.161 E5.04350
G1 X85.626 Y100.992 E5.11834
G1 X85.626 Y100.447 E5.14304
G1 X86.795 Y101.616 E5.21788
G1 X86.795 Y101.070 E5.24258
G1 X85.626 Y99.901 E5.31742
G1 X85.626 Y99.356 E5.34211
G1 X86.795 Y100.525 E5.41696
G1 X86.795 Y99.979 E5.44165
G1 X85.626 Y98.810 E5.51650
G1 X85.626 Y98.264 E5.54119
G1 X87.198 Y99.837 E5.64186
G1 X87.744 Y99.837 E5.66656
G1 X86.933 Y99.026 E5.71848
G1 X87.478 Y99.026 E5.74318
G1 X88.289 Y99.837 E5.79510
G1 X88.835 Y99.837 E5.81980
G1 X88.024 Y99.026 E5.87172
G1 X88.569 Y99.026 E5.89642
G1 X89.381 Y99.837 E5.94834
G1 X89.926 Y99.837 E5.97304
G1 X89.115 Y99.026 E6.02496
G1 X89.661 Y99.026 E6.04966
G1 X90.472 Y99.837 E6.10158
G1 X91.017 Y99.837 E6.12628
G1 X90.206 Y99.026 E6.17820
G1 X90.752 Y99.026 E6.20290
G1 X91.563 Y99.837 E6.25482
G1 X92.108 Y99.837 E6.27952
G1 X91.297 Y99.026 E6.33144
G1 X91.843 Y99.026 E6.35614
G1 X92.654 Y99.837 E6.40806
G1 X93.199 Y99.837 E6.43276
G1 X92.388 Y99.026 E6.48468
G1 X92.934 Y99.026 E6.50938
G1 X93.745 Y99.837 E6.56130
G1 X94.291 Y99.837 E6.58600
G1 X93.480 Y99.026 E6.63792
G1 X94.025 Y99.026 E6.66262
G1 X94.836 Y99.837 E6.71454
G1 X95.320 Y99.775 E6.73661
G1 X94.571 Y99.026 E6.78457
G1 X95.116 Y99.026 E6.80927
G1 X95.320 Y99.230 E6.82230
G1 X86.795 Y98.888 F7800.000
G1 X85.626 Y97.719 E6.89715 F540.000
G1 X85.626 Y97.173 E6.92184
G1 X86.795 Y98.342 E6.99669
G1 X86.795 Y97.797 E7.02138
G1 X85.626 Y96.628 E7.09622
G1 X85.626 Y96.082 E7.12092
G1 X86.795 Y97.251 E7.19576
G1 X86.795 Y96.706 E7.22046
G1 X85.626 Y95.537 E7.29530
G1 X85.626 Y94.991 E7.32000
G1 X86.795 Y96.160 E7.39484
G1 X86.795 Y95.615 E7.41954
G1 X85.626 Y94.446 E7.49438
G1 X85.626 Y93.900 E7.51908
G1 X86.795 Y95.069 E7.59392
G1 X86.795 Y94.523 E7.61861
G1 X85.626 Y93.354 E7.69346
G1 X85.643 Y92.826 E7.71739
G1 X86.795 Y93.978 E7.79114
G1 X86.795 Y93.432 E7.81584
G1 X86.165 Y92.803 E7.85613
G1 X85.626 Y106.993 F7800.000
G1 X85.829 Y107.197 E7.86917 F540.000
G1 X86.375 Y107.197 E7.89386
G1 X85.626 Y106.448 E7.94182
G1 X85.626 Y105.902 E7.96652
G1 X86.920 Y107.197 E8.04940
M106 S255
G92 E0
G1 Z0.600 F7800.000
G1 X103.322 Y92.352 F7800.000
G1 X103.322 Y102.501 E3.04120 F600.000
G1 X103.272 Y105.185 E3.84543
G1 X103.658 Y106.390 E4.22466
G1 X103.847 Y106.422 E4.28197
G1 X104.147 Y106.449 E4.37217
G1 X104.969 Y105.726 E4.70041
G1 X112.246 Y94.181 E8.78971
G1 X112.969 Y93.507 E9.08590
G1 X113.369 Y93.535 E9.20580
G1 X113.601 Y93.577 E9.27643
G1 X113.953 Y94.729 E9.63746
G1 X113.893 Y97.625 E10.50542
G1 X113.893 Y107.648 E13.50885
G92 E0
G1 X112.960 Y97.616 F7800.000
G1 X112.960 Y97.616 F7800.000
G1 X112.128 Y97.616 F7800.000
G1 X109.614 Y106.302 F7800.000
G1 X105.910 Y108.344 F7800.000
G1 X104.807 Y108.648 F7800.000
G1 X102.400 Y108.648 F7800.000
G1 X100.400 Y107.648 F7800.000
G1 X99.216 Y106.464 F7800.000
G1 X99.216 Y105.956 F7800.000
G1 X98.530 Y103.001 F7800.000
G1 X99.086 Y100.288 F7800.000
G1 X99.086 Y98.575 F7800.000
G1 X97.989 Y94.763 F7800.000
G1 X95.771 Y94.463 F7800.000
G1 X91.357 Y94.463 F7800.000
G1 X89.246 Y92.352 F7800.000
G1 X87.246 Y92.352 F7800.000
G1 X86.210 Y92.352 F7800.000
G1 X86.210 Y98.575 E1.86470 F600.000
G1 X86.387 Y99.431 E2.12677
G1 X95.771 Y99.431 E4.93847
G92 E0
G1 X86.246 Y106.648 F7800.000
G1 X86.246 Y106.648 F7800.000
G1 X96.032 Y106.802 F7800.000
G1 X87.246 Y106.802 E2.63269 F600.000
G1 X86.290 Y106.532 E2.93014
G1 X86.210 Y105.956 E3.10449
G1 X86.210 Y100.288 E4.80289
G1 X87.107 Y95.951 E6.13009
G92 E0
G1 Z0.900 F7800.000
G1 X103.322 Y92.352 F7800.000
G1 X103.322 Y102.501 E3.04120 F600.000
G1 X103.272 Y105.185 E3.84543
G1 X103.658 Y106.390 E4.22466
G1 X103.847 Y106.422 E4.28197
G1 X104.147 Y106.449 E4.37217
G1 X104.969 Y105.726 E4.70041
G1 X112.246 Y94.181 E8.78971
G1 X112.969 Y93.507 E9.08590
G1 X113.369 Y93.535 E9.20580
G1 X113.601 Y93.577 E9.27643
G1 X113.953 Y94.729 E9.63746
G1 X113.893 Y97.625 E10.50542
G1 X113.893 Y107.648 E13.50885
G92 E0
G1 X112.960 Y97.616 F7800.000
G1 X112.960 Y97.616 F7800.000
G1 X112.128 Y97.616 F7800.000
G1 X109.614 Y106.302 F7800.000
G1 X105.910 Y108.344 F7800.000
G1 X104.807 Y108.648 F7800.000
G1 X102.400 Y108.648 F7800.000
G1 X100.400 Y107.648 F7800.000
G1 X99.216 Y106.464 F7800.000
G1 X99.216 Y105.956 F7800.000
G1 X98.530 Y103.001 F7800.000
G1 X99.086 Y100.288 F7800.000
G1 X99.086 Y98.575 F7800.000
G1 X97.989 Y94.763 F7800.000
G1 X95.771 Y94.463 F7800.000
G1 X91.357 Y94.463 F7800.000
G1 X89.246 Y92.352 F7800.000
G1 X87.246 Y92.352 F7800.000
G1 X86.210 Y92.352 F7800.000
G1 X86.210 Y98.575 E1.86470 F600.000
G1 X86.387 Y99.431 E2.12677
G1 X95.771 Y99.431 E4.93847
G92 E0
G1 X86.246 Y106.648 F7800.000
G1 X86.246 Y106.648 F7800.000
G1 X96.032 Y106.802 F7800.000
G1 X87.246 Y106.802 E2.63269 F600.000
G1 X86.290 Y106.532 E2.93014
G1 X86.210 Y105.956 E3.10449
G1 X86.210 Y100.288 E4.80289
G1 X87.107 Y95.951 E6.13009
G92 E0
G1 Z1.200 F7800.000
G1 X103.322 Y92.352 F7800.000
G1 X103.322 Y102.501 E3.04120 F600.000
G1 X103.272 Y105.185 E3.84543
G1 X103.658 Y106.390 E4.22466
G1 X103.847 Y106.422 E4.28198
G1 X104.147 Y106.449 E4.37217
G1 X104.969 Y105.726 E4.70041
G1 X112.246 Y94.181 E8.78971
G1 X112.969 Y93.507 E9.08590
G1 X113.369 Y93.535 E9.20580
G1 X113.601 Y93.577 E9.27643
G1 X113.953 Y94.729 E9.63745
G1 X113.893 Y97.625 E10.50542
G1 X113.893 Y107.648 E13.50885
G92 E0
G1 X112.960 Y97.616 F7800.000
G1 X112.960 Y97.616 F7800.000
G1 X112.128 Y97.616 F7800.000
G1 X109.614 Y106.302 F7800.000
G1 X105.910 Y108.344 F7800.000
G1 X104.807 Y108.648 F7800.000
G1 X102.400 Y108.648 F7800.000
G1 X100.400 Y107.648 F7800.000
G1 X99.216 Y106.464 F7800.000
G1 X99.216 Y105.956 F7800.000
G1 X98.530 Y103.001 F7800.000
G1 X99.086 Y100.288 F7800.000
G1 X99.086 Y98.575 F7800.000
G1 X97.989 Y94.763 F7800.000
G1 X95.771 Y94.463 F7800.000
G1 X91.357 Y94.463 F7800.000
G1 X89.246 Y92.352 F7800.000
G1 X87.246 Y92.352 F7800.000
G1 X86.210 Y92.352 F7800.000
G1 X86.210 Y98.575 E1.86470 F600.000
G1 X86.387 Y99.431 E2.12677
G1 X95.771 Y99.431 E4.93847
G92 E0
G1 X86.246 Y106.648 F7800.000
G1 X86.246 Y106.648 F7800.000
G1 X96.032 Y106.802 F7800.000
G1 X87.246 Y106.802 E2.63269 F600.000
G1 X86.290 Y106.532 E2.93014
G1 X86.210 Y105.956 E3.10449
G1 X86.210 Y100.288 E4.80289
G1 X87.107 Y95.951 E6.13009
G92 E0
G1 Z1.500 F7800.000
G1 X103.322 Y92.352 F7800.000
G1 X103.322 Y102.501 E3.04120 F600.000
G1 X103.272 Y105.185 E3.84543
G1 X103.658 Y106.390 E4.22466
G1 X103.847 Y106.422 E4.28197
G1 X104.147 Y106.449 E4.37217
G1 X104.969 Y105.726 E4.70041
G1 X112.246 Y94.181 E8.78971
G1 X112.969 Y93.507 E9.08590
G1 X113.369 Y93.535 E9.20580
G1 X113.601 Y93.577 E9.27643
G1 X113.953 Y94.729 E9.63745
G1 X113.893 Y97.625 E10.50541
G1 X113.893 Y107.648 E13.50885
G92 E0
G1 X112.960 Y97.616 F7800.000
G1 X112.960 Y97.616 F7800.000
G1 X112.128 Y97.616 F7800.000
G1 X109.614 Y106.302 F7800.000
G1 X105.910 Y108.344 F7800.000
G1 X104.807 Y108.648 F7800.000
G1 X102.400 Y108.648 F7800.000
G1 X100.400 Y107.648 F7800.000
G1 X99.216 Y106.464 F7800.000
G1 X99.216 Y105.956 F7800.000
G1 X98.530 Y103.001 F7800.000
G1 X99.086 Y100.288 F7800.000
G1 X99.086 Y98.575 F7800.000
G1 X97.989 Y94.763 F7800.000
G1 X95.771 Y94.463 F7800.000
G1 X91.357 Y94.463 F7800.000
G1 X89.246 Y92.352 F7800.000
G1 X87.246 Y92.352 F7800.000
G1 X86.210 Y92.352 F7800.000
G1 X86.210 Y98.575 E1.86470 F600.000
