; generated by Slic3r 1.2.9 on 2016-03-11 at 01:24:29

; external perimeters extrusion width = 1.54mm
; perimeters extrusion width = 2.62mm
; infill extrusion width = 6.27mm
; solid infill extrusion width = 2.62mm
; top infill extrusion width = 2.62mm

M107
M104 S30 ; set temperature
G28 ; home all axes
G1 Z5 F5000 ; lift nozzle
M302
M92 E10000
M500
M501
G1 E100
M109 S30 ; wait for temperature to be reached
G21 ; set units to millimeters
G90 ; use absolute coordinates
M82 ; use absolute distances for extrusion
G92 E0
G1 Z0.300 F7800.000
G1 X115.080 Y103.187 F7800.000
G1 X114.702 Y104.124 E0.04572 F378.000
G1 X114.032 Y105.169 E0.10189
G1 X113.191 Y106.032 E0.15642
G1 X112.175 Y106.716 E0.21183
G1 X111.002 Y107.214 E0.26948
G1 X109.690 Y107.514 E0.33038
G1 X108.241 Y107.614 E0.39613
G1 X106.077 Y107.390 E0.49457
G1 X104.272 Y106.725 E0.58158
G1 X102.814 Y105.621 E0.66436
G1 X101.737 Y104.124 E0.74778
G1 X101.088 Y102.275 E0.83645
G1 X100.869 Y100.061 E0.93713
G1 X100.967 Y98.562 E1.00511
G1 X101.260 Y97.196 E1.06834
G1 X101.746 Y95.965 E1.12822
G1 X102.413 Y94.896 E1.18525
G1 X103.251 Y94.011 E1.24037
G1 X104.263 Y93.308 E1.29612
G1 X105.435 Y92.797 E1.35398
G1 X106.752 Y92.489 E1.41518
G1 X108.216 Y92.386 E1.48158
G1 X109.682 Y92.491 E1.54809
G1 X110.978 Y92.802 E1.60842 F378.000
G1 X112.151 Y93.319 E1.66642
G1 X113.169 Y94.028 E1.72254
G1 X114.014 Y94.915 E1.77799
G1 X114.691 Y95.983 E1.83520
G1 X115.185 Y97.209 E1.89504
G1 X115.483 Y98.570 E1.95804
G1 X115.583 Y100.065 E2.02586
G1 X115.485 Y101.563 E2.09380
G1 X115.167 Y102.973 E2.15921
G1 X113.568 Y102.462 F7800.000
G1 X113.266 Y103.408 E2.20416 F378.000
G1 X112.438 Y104.678 E2.27276
G1 X111.303 Y105.623 E2.33957
G1 X109.898 Y106.188 E2.40808
G1 X108.238 Y106.374 E2.48368
G1 X106.565 Y106.191 E2.55982
G1 X105.152 Y105.634 E2.62856
G1 X104.011 Y104.701 E2.69524
G1 X103.179 Y103.438 E2.76368
G1 X102.685 Y101.890 E2.83721
G1 X102.522 Y100.065 E2.92013
G1 X102.687 Y98.242 E3.00293
G1 X103.186 Y96.676 E3.07733
G1 X104.024 Y95.372 E3.14749
G1 X105.167 Y94.394 E3.21554
G1 X106.569 Y93.808 E3.28429
G1 X108.070 Y93.632 E3.35270
G1 X108.215 Y93.615 E3.35929 F378.000
G1 X109.899 Y93.801 E3.43595
G1 X111.315 Y94.368 E3.50496
G1 X112.450 Y95.317 E3.57189
G1 X113.271 Y96.605 E3.64105
G1 X113.759 Y98.190 E3.71608
G1 X113.921 Y100.065 E3.80126
G1 X113.758 Y101.868 E3.88316
G1 X113.639 Y102.242 E3.90091
G1 X114.612 Y96.489 F7800.000
G1 X111.402 Y93.279 E4.10917 F540.000
G1 X110.961 Y93.944 F7800.000
G1 X109.788 Y92.771 E4.18531 F540.000
G1 X110.515 Y92.945 F7800.000
G1 X112.749 Y95.179 E4.33030 F540.000
G1 X112.607 Y95.037 F7800.000
G1 X114.978 Y97.408 E4.48417 F540.000
G1 X115.133 Y98.116 E4.51744
G1 X113.499 Y96.482 E4.62348
G1 X113.745 Y97.281 E4.66184
G1 X115.267 Y98.803 E4.76061
G1 X115.306 Y99.396 E4.78786
G1 X113.984 Y98.073 E4.87371
G1 X114.035 Y98.678 E4.90158
G1 X115.346 Y99.988 E4.98662
G1 X115.332 Y100.527 E5.01134
G1 X114.087 Y99.283 E5.09208
G1 X114.139 Y99.888 E5.11994
G1 X115.297 Y101.046 E5.19509
G1 X115.263 Y101.565 E5.21895
G1 X114.109 Y100.411 E5.29383
G1 X114.064 Y100.918 E5.31721
G1 X115.169 Y102.023 E5.38895
G1 X115.070 Y102.478 E5.41028
G1 X114.018 Y101.425 E5.47857
G1 X113.957 Y101.918 E5.50134
G1 X114.968 Y102.928 E5.56693
G1 X114.809 Y103.322 E5.58642
G1 X113.823 Y102.337 E5.65038
G1 X113.689 Y102.756 E5.67057
G1 X114.650 Y103.716 E5.73289
G1 X114.484 Y104.103 E5.75222
G1 X113.555 Y103.175 E5.81248
G1 X113.394 Y103.567 E5.83192
G1 X114.268 Y104.440 E5.88861
G1 X114.052 Y104.777 E5.90698
G1 X113.176 Y103.902 E5.96381
G1 X112.958 Y104.236 E5.98214
G1 X113.822 Y105.100 E6.03821
G1 X113.545 Y105.377 E6.05615
G1 X112.740 Y104.571 E6.10843
G1 X112.496 Y104.880 E6.12650
G1 X113.269 Y105.653 E6.17666
G1 X112.992 Y105.930 E6.19461
G1 X112.194 Y105.132 E6.24641
G1 X111.892 Y105.383 E6.26443
G1 X112.663 Y106.153 E6.31443
G1 X112.332 Y106.376 E6.33271
G1 X111.591 Y105.634 E6.38086
G1 X111.261 Y105.857 E6.39914
G1 X111.983 Y106.580 E6.44604
G1 X111.595 Y106.745 E6.46539
G1 X110.866 Y106.016 E6.51269
G1 X110.472 Y106.174 E6.53219
G1 X111.207 Y106.909 E6.57989
G1 X110.791 Y107.047 E6.59997
G1 X110.077 Y106.333 E6.64630
G1 X109.628 Y106.437 E6.66745
G1 X110.341 Y107.150 E6.71370
G1 X109.891 Y107.253 E6.73489
G1 X109.131 Y106.493 E6.78420
G1 X108.634 Y106.549 E6.80716
G1 X109.398 Y107.313 E6.85677
G1 X108.881 Y107.349 E6.88056
G1 X108.132 Y106.599 E6.92919
G1 X107.511 Y106.531 E6.95787
G1 X108.364 Y107.385 E7.01324
G1 X107.754 Y107.328 E7.04135
G1 X106.889 Y106.463 E7.09746
G1 X106.202 Y106.329 E7.12960
G1 X107.137 Y107.264 E7.19028
G1 X106.520 Y107.200 E7.21874
G1 X105.289 Y105.969 E7.29862
G1 X104.891 Y106.676 F7800.000
G1 X101.833 Y103.619 E7.49704 F540.000
G1 X101.534 Y102.766 F7800.000
G1 X105.767 Y107.000 E7.77174 F540.000
G1 X103.235 Y105.574 F7800.000
G1 X102.881 Y105.220 E7.79472 F540.000
G1 X102.994 Y103.674 F7800.000
G1 X101.294 Y101.974 E7.90504 F540.000
G1 X101.233 Y101.360 E7.93334
G1 X102.724 Y102.851 E8.03011
G1 X102.465 Y102.039 E8.06924
G1 X101.173 Y100.746 E8.15311
G1 X101.112 Y100.133 E8.18140
G1 X102.409 Y101.430 E8.26558
G1 X102.355 Y100.823 E8.29356
G1 X101.122 Y99.589 E8.37361
G1 X101.155 Y99.070 E8.39748
G1 X102.301 Y100.215 E8.47180
G1 X102.335 Y99.697 E8.49565
G1 X101.189 Y98.551 E8.57002
G1 X101.283 Y98.092 E8.59151
G1 X102.381 Y99.190 E8.66275
G1 X102.427 Y98.683 E8.68612
G1 X101.381 Y97.636 E8.75401
G1 X101.481 Y97.184 E8.77528
G1 X102.488 Y98.191 E8.84061
G1 X102.622 Y97.771 E8.86081
G1 X101.638 Y96.787 E8.92466
G1 X101.794 Y96.391 E8.94422
G1 X102.755 Y97.352 E9.00660
G1 X102.889 Y96.933 E9.02679
G1 X101.955 Y95.998 E9.08743
G1 X102.167 Y95.658 E9.10585
G1 X103.045 Y96.535 E9.16280
G1 X103.261 Y96.199 E9.18116
G1 X102.380 Y95.317 E9.23837
G1 X102.597 Y94.981 E9.25672
G1 X103.478 Y95.862 E9.31389
G1 X103.694 Y95.525 E9.33225
G1 X102.866 Y94.698 E9.38597
G1 X103.143 Y94.421 E9.40392
G1 X103.925 Y95.203 E9.45468
G1 X104.223 Y94.948 E9.47268
G1 X103.419 Y94.145 E9.52484
G1 X103.737 Y93.910 E9.54298
G1 X104.521 Y94.693 E9.59383
G1 X104.819 Y94.438 E9.61183
G1 X104.064 Y93.683 E9.66084
G1 X104.400 Y93.467 E9.67921
G1 X105.127 Y94.193 E9.72634
G1 X105.517 Y94.030 E9.74573
G1 X104.785 Y93.299 E9.79319
G1 X105.170 Y93.131 E9.81247
G1 X105.907 Y93.867 E9.86024
G1 X106.297 Y93.704 E9.87964
G1 X105.573 Y92.980 E9.92663
G1 X106.021 Y92.875 E9.94775
G1 X106.718 Y93.572 E9.99297
G1 X107.213 Y93.514 E10.01583
G1 X106.469 Y92.770 E10.06409
G1 X106.948 Y92.696 E10.08632
G1 X107.707 Y93.456 E10.13562
G1 X108.202 Y93.398 E10.15848
G1 X107.464 Y92.660 E10.20638
G1 X107.981 Y92.623 E10.23014
G1 X108.800 Y93.443 E10.28332
G1 X109.422 Y93.512 E10.31204
G1 X108.553 Y92.643 E10.36844
G1 X109.149 Y92.685 E10.39585
G1 X110.045 Y93.581 E10.45395
G1 X112.792 Y94.116 F7800.000
G1 X113.630 Y94.955 E10.50837 F540.000
G92 E0
G1 X101.544 Y95.863 F7800.000
G1 X97.663 Y94.332 F7800.000
G1 X94.787 Y94.367 F7800.000
G1 X94.787 Y98.575 F7800.000
G1 X94.562 Y100.063 F7800.000
G1 X86.037 Y100.063 E0.38575 F378.000
G1 X86.037 Y106.181 E0.66259
G1 X94.823 Y106.181 E1.06015
G1 X94.823 Y107.423 E1.11634
G1 X84.416 Y107.423 E1.58725
G1 X84.416 Y92.577 E2.25902
G1 X86.037 Y92.577 E2.33237
G1 X86.037 Y98.800 E2.61396
G1 X94.562 Y98.800 E2.99971 F378.000
G1 X94.562 Y99.832 E3.04641
G1 X94.336 Y99.230 F7800.000
G1 X94.133 Y99.026 E3.05944 F540.000
G1 X93.587 Y99.026 E3.08414
G1 X94.336 Y99.775 E3.13210
G1 X93.853 Y99.837 E3.15417
G1 X93.042 Y99.026 E3.20609
G1 X92.496 Y99.026 E3.23079
G1 X93.307 Y99.837 E3.28271
G1 X92.762 Y99.837 E3.30741
G1 X91.950 Y99.026 E3.35933
G1 X91.405 Y99.026 E3.38403
G1 X92.216 Y99.837 E3.43595
G1 X91.670 Y99.837 E3.46065
G1 X90.859 Y99.026 E3.51257
G1 X90.314 Y99.026 E3.53727
G1 X91.125 Y99.837 E3.58919
G1 X90.579 Y99.837 E3.61389
G1 X89.768 Y99.026 E3.66581
G1 X89.223 Y99.026 E3.69051
G1 X90.034 Y99.837 E3.74243
G1 X89.488 Y99.837 E3.76713
G1 X88.677 Y99.026 E3.81905
G1 X88.132 Y99.026 E3.84375
G1 X88.943 Y99.837 E3.89567
G1 X88.397 Y99.837 E3.92037
G1 X87.586 Y99.026 E3.97229
G1 X87.040 Y99.026 E3.99699
G1 X87.851 Y99.837 E4.04891
G1 X87.306 Y99.837 E4.07361
G1 X86.495 Y99.026 E4.12553
G1 X85.949 Y99.026 E4.15023
G1 X86.760 Y99.837 E4.20215
G1 X86.215 Y99.837 E4.22685
G1 X84.642 Y98.264 E4.32752
G1 X84.642 Y98.810 E4.35222
G1 X85.811 Y99.979 E4.42706
G1 X85.811 Y100.525 E4.45175
G1 X84.642 Y99.356 E4.52660
G1 X84.642 Y99.901 E4.55129
G1 X85.811 Y101.070 E4.62614
G1 X85.811 Y101.616 E4.65083
G1 X84.642 Y100.447 E4.72567
G1 X84.642 Y100.992 E4.75037
G1 X85.811 Y102.161 E4.82521
G1 X85.811 Y102.707 E4.84991
G1 X84.642 Y101.538 E4.92475
G1 X84.642 Y102.083 E4.94945
G1 X85.811 Y103.252 E5.02429
G1 X85.811 Y103.798 E5.04899
G1 X84.642 Y102.629 E5.12383
G1 X84.642 Y103.175 E5.14853
G1 X85.811 Y104.344 E5.22337
G1 X85.811 Y104.889 E5.24806
G1 X84.642 Y103.720 E5.32291
G1 X84.642 Y104.266 E5.34760
G1 X85.811 Y105.435 E5.42245
G1 X85.811 Y105.980 E5.44714
G1 X84.642 Y104.811 E5.52198
G1 X84.642 Y105.357 E5.54668
G1 X86.482 Y107.197 E5.66449
G1 X87.028 Y107.197 E5.68919
G1 X86.238 Y106.407 E5.73976
G1 X86.784 Y106.407 E5.76446
G1 X87.574 Y107.197 E5.81504
G1 X88.119 Y107.197 E5.83974
G1 X87.329 Y106.407 E5.89032
G1 X87.875 Y106.407 E5.91501
G1 X88.665 Y107.197 E5.96559
G1 X89.210 Y107.197 E5.99029
G1 X88.420 Y106.407 E6.04087
G1 X88.966 Y106.407 E6.06556
G1 X89.756 Y107.197 E6.11614
G1 X90.301 Y107.197 E6.14084
G1 X89.511 Y106.407 E6.19142
G1 X90.057 Y106.407 E6.21611
G1 X90.847 Y107.197 E6.26669
G1 X91.393 Y107.197 E6.29139
G1 X90.602 Y106.407 E6.34197
G1 X91.148 Y106.407 E6.36666
G1 X91.938 Y107.197 E6.41724
G1 X92.484 Y107.197 E6.44194
G1 X91.694 Y106.407 E6.49252
G1 X92.239 Y106.407 E6.51722
G1 X93.029 Y107.197 E6.56779
G1 X93.575 Y107.197 E6.59249
G1 X92.785 Y106.407 E6.64307
G1 X93.330 Y106.407 E6.66777
G1 X94.120 Y107.197 E6.71835
G1 X94.597 Y107.128 E6.74016
G1 X93.876 Y106.407 E6.78635
G1 X94.421 Y106.407 E6.81104
G1 X94.597 Y106.583 E6.82230
G1 X85.937 Y107.197 F7800.000
G1 X84.642 Y105.902 E6.90519 F540.000
G1 X84.642 Y106.448 E6.92988
G1 X85.391 Y107.197 E6.97784
G1 X84.846 Y107.197 E7.00254
G1 X84.642 Y106.993 E7.01557
G1 X85.811 Y98.888 F7800.000
G1 X84.642 Y97.719 E7.09041 F540.000
G1 X84.642 Y97.173 E7.11511
G1 X85.811 Y98.342 E7.18995
G1 X85.811 Y97.797 E7.21465
G1 X84.642 Y96.628 E7.28949
G1 X84.642 Y96.082 E7.31419
G1 X85.811 Y97.251 E7.38903
G1 X85.811 Y96.706 E7.41373
G1 X84.642 Y95.537 E7.48857
G1 X84.642 Y94.991 E7.51326
G1 X85.811 Y96.160 E7.58811
G1 X85.811 Y95.615 E7.61280
G1 X84.642 Y94.446 E7.68764
G1 X84.642 Y93.900 E7.71234
G1 X85.811 Y95.069 E7.78718
G1 X85.811 Y94.523 E7.81188
G1 X84.642 Y93.354 E7.88672
G1 X84.659 Y92.826 E7.91066
G1 X85.811 Y93.978 E7.98441
G1 X85.811 Y93.432 E8.00910
G1 X85.182 Y92.803 E8.04940
M106 S255
G92 E0
G1 Z0.600 F7800.000
G1 X101.697 Y100.047 F7800.000
G1 X101.803 Y98.678 E0.41153 F600.000
G1 X101.922 Y97.973 E0.62588
G1 X102.064 Y97.439 E0.79152
G1 X102.465 Y96.327 E1.14548
G1 X103.054 Y95.391 E1.47685
G1 X103.369 Y94.989 E1.62983
G1 X103.560 Y94.779 E1.71523
G1 X103.753 Y94.596 E1.79482
G1 X104.612 Y93.933 E2.11988
G1 X104.938 Y93.754 E2.23138
G1 X105.651 Y93.449 E2.46385
G1 X106.297 Y93.240 E2.66726
G1 X106.848 Y93.127 E2.83583
G1 X108.215 Y93.002 E3.24711
G1 X109.570 Y93.123 E3.65473
G1 X110.156 Y93.240 E3.83386
G1 X110.766 Y93.433 E4.02547
G1 X111.523 Y93.752 E4.27154
G1 X111.819 Y93.910 E4.37212
G1 X112.695 Y94.580 E4.70268
G1 X112.878 Y94.750 E4.77749
G1 X113.071 Y94.962 E4.86334
G1 X113.406 Y95.390 E5.02624
G1 X113.998 Y96.339 E5.36130
G1 X114.395 Y97.454 E5.71595
G1 X114.565 Y98.145 E5.92928
G1 X114.647 Y98.688 E6.09400
G1 X114.751 Y100.065 E6.50780
G1 X114.645 Y101.445 E6.92234
G1 X114.526 Y102.140 E7.13365
G1 X114.385 Y102.667 E7.29724
G1 X113.987 Y103.754 E7.64417
G1 X113.401 Y104.668 E7.96933
G1 X113.087 Y105.061 E8.12004
G1 X112.889 Y105.273 E8.20699
G1 X112.702 Y105.446 E8.28340
G1 X111.838 Y106.094 E8.60708
G1 X111.522 Y106.261 E8.71417
G1 X110.792 Y106.563 E8.95086
G1 X110.162 Y106.761 E9.14866
G1 X109.595 Y106.873 E9.32169
G1 X108.251 Y106.992 E9.72605
G1 X106.527 Y106.812 E10.24541
G1 X106.304 Y106.773 E10.31347
G1 X104.941 Y106.264 E10.74920
G1 X104.613 Y106.101 E10.85886
G1 X103.577 Y105.287 E11.25388
G1 X103.361 Y105.088 E11.34189
G1 X102.450 Y103.753 E11.82618
G1 X101.914 Y102.162 E12.32904
G1 X101.872 Y101.938 E12.39746
G1 X101.697 Y100.047 E12.96634
G92 E0
G1 X101.044 Y97.130 F7800.000
G1 X94.787 Y94.367 F7800.000
G1 X88.454 Y92.352 F7800.000
G1 X86.262 Y92.352 F7800.000
G1 X85.227 Y92.352 F7800.000
G1 X85.227 Y98.575 E1.86470 F600.000
G1 X85.404 Y99.431 E2.12677
G1 X94.787 Y99.431 E4.93847
G92 E0
G1 X85.262 Y106.648 F7800.000
G1 X85.262 Y106.648 F7800.000
G1 X95.048 Y106.802 F7800.000
G1 X86.262 Y106.802 E2.63269 F600.000
G1 X85.307 Y106.532 E2.93014
G1 X85.227 Y105.956 E3.10449
G1 X85.227 Y100.288 E4.80289
G1 X86.124 Y95.951 E6.13009
G92 E0
G1 Z0.900 F7800.000
G1 X101.697 Y100.047 F7800.000
G1 X101.803 Y98.678 E0.41153 F600.000
G1 X101.922 Y97.973 E0.62587
G1 X102.064 Y97.439 E0.79152
G1 X102.465 Y96.327 E1.14548
G1 X103.054 Y95.391 E1.47685
G1 X103.369 Y94.989 E1.62983
G1 X103.560 Y94.779 E1.71523
G1 X103.753 Y94.596 E1.79482
G1 X104.612 Y93.933 E2.11988
G1 X104.938 Y93.754 E2.23138
G1 X105.651 Y93.449 E2.46385
G1 X106.297 Y93.240 E2.66726
G1 X106.848 Y93.127 E2.83583
G1 X108.215 Y93.002 E3.24711
G1 X109.570 Y93.123 E3.65473
G1 X110.156 Y93.240 E3.83386
G1 X110.766 Y93.433 E4.02547
G1 X111.523 Y93.752 E4.27154
G1 X111.819 Y93.910 E4.37212
G1 X112.695 Y94.580 E4.70268
G1 X112.878 Y94.750 E4.77749
G1 X113.071 Y94.962 E4.86334
G1 X113.406 Y95.390 E5.02624
G1 X113.998 Y96.339 E5.36130
G1 X114.395 Y97.454 E5.71595
G1 X114.565 Y98.145 E5.92928
G1 X114.647 Y98.688 E6.09400
G1 X114.751 Y100.065 E6.50780
G1 X114.645 Y101.445 E6.92234
G1 X114.526 Y102.140 E7.13365
G1 X114.385 Y102.667 E7.29724
G1 X113.987 Y103.754 E7.64417
G1 X113.401 Y104.668 E7.96933
G1 X113.087 Y105.061 E8.12004
G1 X112.889 Y105.273 E8.20699
G1 X112.702 Y105.446 E8.28340
G1 X111.838 Y106.094 E8.60708
G1 X111.522 Y106.261 E8.71417
G1 X110.792 Y106.563 E8.95086
G1 X110.162 Y106.761 E9.14866
G1 X109.595 Y106.873 E9.32169
G1 X108.251 Y106.992 E9.72605
G1 X106.527 Y106.812 E10.24540
G1 X106.304 Y106.773 E10.31347
G1 X104.941 Y106.264 E10.74920
G1 X104.613 Y106.101 E10.85886
G1 X103.577 Y105.287 E11.25388
G1 X103.361 Y105.088 E11.34189
G1 X102.450 Y103.753 E11.82618
G1 X101.914 Y102.162 E12.32904
G1 X101.872 Y101.938 E12.39746
G1 X101.697 Y100.047 E12.96634
G92 E0
G1 X101.044 Y97.130 F7800.000
G1 X94.787 Y94.367 F7800.000
G1 X88.454 Y92.352 F7800.000
G1 X86.262 Y92.352 F7800.000
G1 X85.227 Y92.352 F7800.000
G1 X85.227 Y98.575 E1.86470 F600.000
G1 X85.404 Y99.431 E2.12677
G1 X94.787 Y99.431 E4.93847
G92 E0
G1 X85.262 Y106.648 F7800.000
G1 X85.262 Y106.648 F7800.000
G1 X95.048 Y106.802 F7800.000
G1 X86.262 Y106.802 E2.63269 F600.000
G1 X85.307 Y106.532 E2.93014
G1 X85.227 Y105.956 E3.10449
G1 X85.227 Y100.288 E4.80289
G1 X86.124 Y95.951 E6.13009
G92 E0
G1 Z1.200 F7800.000
G1 X101.697 Y100.047 F7800.000
G1 X101.803 Y98.678 E0.41153 F600.000
G1 X101.922 Y97.973 E0.62587
G1 X102.064 Y97.439 E0.79152
G1 X102.465 Y96.327 E1.14548
G1 X103.054 Y95.391 E1.47685
G1 X103.369 Y94.989 E1.62983
G1 X103.560 Y94.779 E1.71523
G1 X103.753 Y94.596 E1.79482
G1 X104.612 Y93.933 E2.11988
G1 X104.938 Y93.754 E2.23138
G1 X105.651 Y93.449 E2.46385
G1 X106.297 Y93.240 E2.66726
G1 X106.848 Y93.127 E2.83583
G1 X108.215 Y93.002 E3.24711
G1 X109.570 Y93.123 E3.65473
G1 X110.156 Y93.240 E3.83386
G1 X110.766 Y93.433 E4.02547
G1 X111.523 Y93.752 E4.27154
G1 X111.819 Y93.910 E4.37212
G1 X112.695 Y94.580 E4.70268
G1 X112.878 Y94.750 E4.77749
G1 X113.071 Y94.962 E4.86334
G1 X113.406 Y95.390 E5.02624
G1 X113.998 Y96.339 E5.36130
G1 X114.395 Y97.454 E5.71595
G1 X114.565 Y98.145 E5.92928
G1 X114.647 Y98.688 E6.09400
G1 X114.751 Y100.065 E6.50780
G1 X114.645 Y101.445 E6.92234
G1 X114.526 Y102.140 E7.13365
G1 X114.385 Y102.667 E7.29724
G1 X113.987 Y103.754 E7.64417
G1 X113.401 Y104.668 E7.96933
G1 X113.087 Y105.061 E8.12004
