; generated by Slic3r 1.2.9 on 2016-03-11 at 01:24:30

; external perimeters extrusion width = 1.54mm
; perimeters extrusion width = 2.62mm
; infill extrusion width = 6.27mm
; solid infill extrusion width = 2.62mm
; top infill extrusion width = 2.62mm

M107
M104 S30 ; set temperature
G28 ; home all axes
G1 Z5 F5000 ; lift nozzle
M302
M92 E10000
M500
M501
G1 E100
M109 S30 ; wait for temperature to be reached
G21 ; set units to millimeters
G90 ; use absolute coordinates
M82 ; use absolute distances for extrusion
G92 E0
G1 Z0.300 F7800.000
G1 X108.103 Y98.556 F7800.000
G1 X109.250 Y98.556 E0.05190 F378.000
G1 X110.717 Y98.695 E0.11857
G1 X111.942 Y99.103 E0.17699
G1 X112.943 Y99.777 E0.23161
G1 X113.685 Y100.677 E0.28438
G1 X114.131 Y101.766 E0.33762
G1 X114.281 Y103.055 E0.39635
G1 X114.132 Y104.347 E0.45520
G1 X113.688 Y105.415 E0.50751
G1 X112.952 Y106.273 E0.55866
G1 X111.940 Y106.907 E0.61270
G1 X110.668 Y107.292 E0.67287
G1 X109.119 Y107.423 E0.74318
G1 X102.936 Y107.423 E1.02298
G1 X102.936 Y92.577 E1.69475
G1 X104.557 Y92.577 E1.76810
G1 X104.557 Y98.556 E2.03864
G1 X107.872 Y98.556 E2.18866 F378.000
G1 X107.872 Y99.743 F7800.000
G1 X108.986 Y99.743 E2.23904 F378.000
G1 X110.990 Y100.098 E2.33114
G1 X112.245 Y101.210 E2.40701
G1 X112.657 Y103.035 E2.49165
G1 X112.233 Y104.800 E2.57381
G1 X110.947 Y105.872 E2.64958
G1 X108.898 Y106.214 E2.74356
G1 X104.557 Y106.214 E2.94001
G1 X104.557 Y99.743 E3.23282
G1 X107.641 Y99.743 E3.37239 F378.000
G1 X111.308 Y99.161 F7800.000
G1 X113.801 Y101.654 E3.53355 F540.000
G1 X113.964 Y102.368 E3.56701
G1 X110.505 Y98.910 E3.79058
G1 X109.897 Y98.852 E3.81852
G1 X110.878 Y99.833 E3.88193
G1 X110.208 Y99.714 E3.91302
G1 X109.289 Y98.795 E3.97248
G1 X108.725 Y98.782 E3.99826
G1 X109.539 Y99.596 E4.05087
G1 X108.909 Y99.517 E4.07988
G1 X108.174 Y98.782 E4.12741
G1 X107.623 Y98.782 E4.15260
G1 X108.358 Y99.517 E4.20013
G1 X107.807 Y99.517 E4.22531
G1 X107.072 Y98.782 E4.27284
G1 X106.521 Y98.782 E4.29803
G1 X107.256 Y99.517 E4.34556
G1 X106.705 Y99.517 E4.37075
G1 X105.970 Y98.782 E4.41827
G1 X105.419 Y98.782 E4.44346
G1 X106.154 Y99.517 E4.49099
G1 X105.603 Y99.517 E4.51618
G1 X104.868 Y98.782 E4.56370
G1 X104.331 Y98.796 E4.58827
G1 X103.162 Y97.627 E4.66385
G1 X103.162 Y97.076 E4.68904
G1 X104.331 Y98.245 E4.76463
G1 X104.317 Y98.782 E4.78919
G1 X105.052 Y99.517 E4.83672
G1 X104.501 Y99.517 E4.86190
G1 X103.162 Y98.178 E4.94850
G1 X103.162 Y98.729 E4.97369
G1 X104.331 Y99.898 E5.04927
G1 X104.331 Y100.449 E5.07446
G1 X103.162 Y99.280 E5.15005
G1 X103.162 Y99.831 E5.17524
G1 X104.331 Y101.000 E5.25082
G1 X104.331 Y101.551 E5.27601
G1 X103.162 Y100.382 E5.35160
G1 X103.162 Y100.933 E5.37679
G1 X104.331 Y102.102 E5.45237
G1 X104.331 Y102.653 E5.47756
G1 X103.162 Y101.484 E5.55315
G1 X103.162 Y102.035 E5.57834
G1 X104.331 Y103.204 E5.65392
G1 X104.331 Y103.755 E5.67911
G1 X103.162 Y102.586 E5.75470
G1 X103.162 Y103.137 E5.77988
G1 X104.331 Y104.306 E5.85547
G1 X104.331 Y104.857 E5.88066
G1 X103.162 Y103.688 E5.95625
G1 X103.162 Y104.239 E5.98143
G1 X104.331 Y105.408 E6.05702
G1 X104.331 Y105.959 E6.08221
G1 X103.162 Y104.790 E6.15779
G1 X103.162 Y105.341 E6.18298
G1 X105.018 Y107.197 E6.30302
G1 X104.467 Y107.197 E6.32820
G1 X103.162 Y105.891 E6.41261
G1 X103.162 Y106.442 E6.43780
G1 X103.916 Y107.197 E6.48659
G1 X103.365 Y107.197 E6.51178
G1 X103.162 Y106.993 E6.52494
G1 X104.812 Y106.440 F7800.000
G1 X105.569 Y107.197 E6.57389 F540.000
G1 X106.120 Y107.197 E6.59908
G1 X105.363 Y106.440 E6.64803
G1 X105.914 Y106.440 E6.67322
G1 X106.671 Y107.197 E6.72216
G1 X107.222 Y107.197 E6.74735
G1 X106.465 Y106.440 E6.79630
G1 X107.016 Y106.440 E6.82149
G1 X107.773 Y107.197 E6.87044
G1 X108.324 Y107.197 E6.89563
G1 X107.567 Y106.440 E6.94458
G1 X108.118 Y106.440 E6.96977
G1 X108.875 Y107.197 E7.01872
G1 X109.408 Y107.178 E7.04307
G1 X108.669 Y106.440 E7.09082
G1 X109.166 Y106.386 E7.11367
G1 X109.916 Y107.136 E7.16214
G1 X110.424 Y107.093 E7.18545
G1 X109.638 Y106.307 E7.23622
G1 X110.111 Y106.228 E7.25811
G1 X110.891 Y107.009 E7.30860
G1 X111.314 Y106.881 E7.32880
G1 X110.583 Y106.150 E7.37609
G1 X111.034 Y106.050 E7.39723
G1 X111.737 Y106.753 E7.44267
G1 X112.107 Y106.572 E7.46150
G1 X111.335 Y105.800 E7.51143
G1 X111.635 Y105.549 E7.52931
G1 X112.446 Y106.360 E7.58171
G1 X112.779 Y106.142 E7.59991
G1 X111.936 Y105.299 E7.65442
G1 X112.236 Y105.048 E7.67230
G1 X113.051 Y105.863 E7.72495
G1 X113.305 Y105.566 E7.74281
G1 X112.466 Y104.727 E7.79707
G1 X112.572 Y104.282 E7.81796
G1 X113.539 Y105.250 E7.88048
G1 X113.701 Y104.860 E7.89975
G1 X112.679 Y103.838 E7.96583
G1 X112.786 Y103.394 E7.98672
G1 X113.863 Y104.471 E8.05636
G1 X113.952 Y104.009 E8.07785
G1 X112.889 Y102.946 E8.14659
G1 X112.728 Y102.234 E8.17994
G1 X114.009 Y103.515 E8.26277
G1 X114.036 Y102.991 E8.28676
G1 X112.568 Y101.523 E8.38171
G1 X112.950 Y100.252 F7800.000
G1 X112.565 Y99.867 E8.40662 F540.000
G92 E0
G1 X113.009 Y101.076 F7800.000
G1 X113.009 Y101.076 F7800.000
G1 X104.331 Y97.694 F7800.000
G1 X103.162 Y96.525 E0.07559 F540.000
G1 X103.162 Y95.974 E0.10077
G1 X104.331 Y97.143 E0.17636
G1 X104.331 Y96.592 E0.20155
G1 X103.162 Y95.423 E0.27714
G1 X103.162 Y94.872 E0.30232
G1 X104.331 Y96.041 E0.37791
G1 X104.331 Y95.490 E0.40310
G1 X103.162 Y94.321 E0.47869
G1 X103.162 Y93.770 E0.50387
G1 X104.331 Y94.939 E0.57946
G1 X104.331 Y94.388 E0.60465
G1 X103.162 Y93.219 E0.68024
G1 X103.297 Y92.803 E0.70023
G1 X104.331 Y93.837 E0.76708
G1 X104.331 Y93.286 E0.79227
G1 X103.848 Y92.803 E0.82350
G92 E0
G1 X102.711 Y92.352 F7800.000
G1 X98.301 Y94.761 F7800.000
G1 X91.675 Y94.463 F7800.000
G1 X89.563 Y92.352 F7800.000
G1 X87.563 Y92.352 F7800.000
G1 X85.717 Y98.080 F7800.000
G1 X85.717 Y92.577 E0.24902 F378.000
G1 X87.338 Y92.577 E0.32236
G1 X87.338 Y98.800 E0.60395
G1 X95.863 Y98.800 E0.98970 F378.000
G1 X95.863 Y100.063 E1.04685
G1 X87.338 Y100.063 E1.43260
G1 X87.338 Y106.181 E1.70944
G1 X96.124 Y106.181 E2.10700
G1 X96.124 Y107.423 E2.16320
G1 X85.717 Y107.423 E2.63411
G1 X85.717 Y98.311 E3.04641
G1 X87.112 Y98.888 F7800.000
G1 X85.943 Y97.719 E3.12125 F540.000
G1 X85.943 Y97.173 E3.14595
G1 X87.112 Y98.342 E3.22079
G1 X87.112 Y97.797 E3.24548
G1 X85.943 Y96.628 E3.32033
G1 X85.943 Y96.082 E3.34502
G1 X87.112 Y97.251 E3.41987
G1 X87.112 Y96.706 E3.44456
G1 X85.943 Y95.537 E3.51940
G1 X85.943 Y94.991 E3.54410
G1 X87.112 Y96.160 E3.61894
G1 X87.112 Y95.615 E3.64364
G1 X85.943 Y94.446 E3.71848
G1 X85.943 Y93.900 E3.74318
G1 X87.112 Y95.069 E3.81802
G1 X87.112 Y94.523 E3.84272
G1 X85.943 Y93.354 E3.91756
G1 X85.960 Y92.826 E3.94150
G1 X87.112 Y93.978 E4.01525
G1 X87.112 Y93.432 E4.03994
G1 X86.483 Y92.803 E4.08024
G92 E0
G1 X86.563 Y93.352 F7800.000
G1 X86.563 Y93.352 F7800.000
G1 X95.637 Y99.230 F7800.000
G1 X95.434 Y99.026 E0.01303 F540.000
G1 X94.888 Y99.026 E0.03773
G1 X95.637 Y99.775 E0.08569
G1 X95.154 Y99.837 E0.10776
G1 X94.343 Y99.026 E0.15969
G1 X93.797 Y99.026 E0.18438
G1 X94.608 Y99.837 E0.23631
G1 X94.063 Y99.837 E0.26100
G1 X93.251 Y99.026 E0.31293
G1 X92.706 Y99.026 E0.33762
G1 X93.517 Y99.837 E0.38954
G1 X92.971 Y99.837 E0.41424
G1 X92.160 Y99.026 E0.46616
G1 X91.615 Y99.026 E0.49086
G1 X92.426 Y99.837 E0.54278
G1 X91.880 Y99.837 E0.56748
G1 X91.069 Y99.026 E0.61940
G1 X90.524 Y99.026 E0.64410
G1 X91.335 Y99.837 E0.69602
G1 X90.789 Y99.837 E0.72072
G1 X89.978 Y99.026 E0.77264
G1 X89.433 Y99.026 E0.79734
G1 X90.244 Y99.837 E0.84926
G1 X89.698 Y99.837 E0.87396
G1 X88.887 Y99.026 E0.92588
G1 X88.341 Y99.026 E0.95058
G1 X89.153 Y99.837 E1.00250
G1 X88.607 Y99.837 E1.02720
G1 X87.796 Y99.026 E1.07912
G1 X87.250 Y99.026 E1.10382
G1 X88.061 Y99.837 E1.15574
G1 X87.516 Y99.837 E1.18044
G1 X85.943 Y98.264 E1.28111
G1 X85.943 Y98.810 E1.30581
G1 X87.112 Y99.979 E1.38065
G1 X87.112 Y100.525 E1.40535
G1 X85.943 Y99.356 E1.48019
G1 X85.943 Y99.901 E1.50489
G1 X87.112 Y101.070 E1.57973
G1 X87.112 Y101.616 E1.60442
G1 X85.943 Y100.447 E1.67927
G1 X85.943 Y100.992 E1.70396
G1 X87.112 Y102.161 E1.77881
G1 X87.112 Y102.707 E1.80350
G1 X85.943 Y101.538 E1.87834
G1 X85.943 Y102.083 E1.90304
G1 X87.112 Y103.252 E1.97788
G1 X87.112 Y103.798 E2.00258
G1 X85.943 Y102.629 E2.07742
G1 X85.943 Y103.175 E2.10212
G1 X87.112 Y104.344 E2.17696
G1 X87.112 Y104.889 E2.20166
G1 X85.943 Y103.720 E2.27650
G1 X85.943 Y104.266 E2.30119
G1 X87.112 Y105.435 E2.37604
G1 X87.112 Y105.980 E2.40073
G1 X85.943 Y104.811 E2.47558
G1 X85.943 Y105.357 E2.50027
G1 X87.784 Y107.197 E2.61808
G1 X88.329 Y107.197 E2.64278
G1 X87.539 Y106.407 E2.69336
G1 X88.085 Y106.407 E2.71805
G1 X88.875 Y107.197 E2.76863
G1 X89.420 Y107.197 E2.79333
G1 X88.630 Y106.407 E2.84391
G1 X89.176 Y106.407 E2.86860
G1 X89.966 Y107.197 E2.91918
G1 X90.511 Y107.197 E2.94388
G1 X89.721 Y106.407 E2.99446
G1 X90.267 Y106.407 E3.01916
G1 X91.057 Y107.197 E3.06973
G1 X91.602 Y107.197 E3.09443
G1 X90.812 Y106.407 E3.14501
G1 X91.358 Y106.407 E3.16971
G1 X92.148 Y107.197 E3.22029
G1 X92.694 Y107.197 E3.24498
G1 X91.903 Y106.407 E3.29556
G1 X92.449 Y106.407 E3.32026
G1 X93.239 Y107.197 E3.37084
G1 X93.785 Y107.197 E3.39553
G1 X92.995 Y106.407 E3.44611
G1 X93.540 Y106.407 E3.47081
G1 X94.330 Y107.197 E3.52139
G1 X94.876 Y107.197 E3.54608
G1 X94.086 Y106.407 E3.59666
G1 X94.631 Y106.407 E3.62136
G1 X95.421 Y107.197 E3.67194
G1 X95.898 Y107.128 E3.69375
G1 X95.177 Y106.407 E3.73994
G1 X95.722 Y106.407 E3.76464
G1 X95.898 Y106.583 E3.77590
G1 X87.238 Y107.197 F7800.000
G1 X85.943 Y105.902 E3.85878 F540.000
G1 X85.943 Y106.448 E3.88348
G1 X86.692 Y107.197 E3.93144
G1 X86.147 Y107.197 E3.95613
G1 X85.943 Y106.993 E3.96916
M106 S255
G92 E0
G1 Z0.600 F7800.000
G1 X104.597 Y102.637 F7800.000
G1 X103.746 Y98.331 E1.31513 F600.000
G1 X103.746 Y92.352 E3.10672
G1 X103.908 Y99.149 F7800.000
G1 X109.110 Y99.156 E4.66536 F600.000
G1 X110.579 Y99.350 E5.10941
G1 X111.037 Y99.466 E5.25112
G1 X111.476 Y99.645 E5.39308
G1 X111.631 Y99.734 E5.44673
G1 X112.424 Y100.349 E5.74739
G1 X112.678 Y100.612 E5.85684
G1 X113.011 Y101.080 E6.02917
G1 X113.295 Y101.981 E6.31224
G1 X113.463 Y103.055 E6.63799
G1 X113.285 Y104.127 E6.96347
G1 X113.002 Y104.993 E7.23645
G1 X112.665 Y105.435 E7.40299
G1 X112.430 Y105.666 E7.50170
G1 X111.637 Y106.241 E7.79521
G1 X111.428 Y106.354 E7.86653
G1 X110.993 Y106.519 E8.00590
G1 X110.540 Y106.625 E8.14536
G1 X109.093 Y106.807 E8.58220
G1 X108.880 Y106.818 E8.64627
G1 X104.782 Y106.818 E9.87422
G1 X103.819 Y106.539 E10.17447
G1 X103.746 Y105.989 E10.34084
G1 X103.746 Y99.968 E12.14501
G1 X103.908 Y99.149 E12.39501
G92 E0
G1 X102.711 Y92.352 F7800.000
G1 X96.088 Y94.463 F7800.000
G1 X89.563 Y92.352 F7800.000
G1 X87.563 Y92.352 F7800.000
G1 X86.528 Y92.352 F7800.000
G1 X86.528 Y98.575 E1.86470 F600.000
G1 X86.705 Y99.431 E2.12677
G1 X96.088 Y99.431 E4.93847
G92 E0
G1 X86.563 Y106.648 F7800.000
G1 X86.563 Y106.648 F7800.000
G1 X96.349 Y106.802 F7800.000
G1 X87.563 Y106.802 E2.63269 F600.000
G1 X86.608 Y106.532 E2.93014
G1 X86.528 Y105.956 E3.10449
G1 X86.528 Y100.288 E4.80289
G1 X87.425 Y95.951 E6.13009
G92 E0
G1 Z0.900 F7800.000
G1 X104.597 Y102.637 F7800.000
G1 X103.746 Y98.331 E1.31513 F600.000
G1 X103.746 Y92.352 E3.10672
G1 X103.908 Y99.149 F7800.000
G1 X109.110 Y99.156 E4.66536 F600.000
G1 X110.579 Y99.350 E5.10941
G1 X111.037 Y99.466 E5.25112
G1 X111.476 Y99.645 E5.39308
G1 X111.631 Y99.734 E5.44673
G1 X112.424 Y100.349 E5.74739
G1 X112.678 Y100.612 E5.85684
G1 X113.011 Y101.080 E6.02917
G1 X113.295 Y101.981 E6.31224
G1 X113.463 Y103.055 E6.63799
G1 X113.285 Y104.127 E6.96347
G1 X113.002 Y104.993 E7.23645
G1 X112.665 Y105.435 E7.40299
G1 X112.430 Y105.666 E7.50170
G1 X111.637 Y106.241 E7.79520
G1 X111.428 Y106.354 E7.86653
G1 X110.993 Y106.519 E8.00590
G1 X110.540 Y106.625 E8.14536
G1 X109.093 Y106.807 E8.58220
G1 X108.880 Y106.818 E8.64627
G1 X104.782 Y106.818 E9.87422
G1 X103.819 Y106.539 E10.17447
G1 X103.746 Y105.989 E10.34084
G1 X103.746 Y99.968 E12.14501
G1 X103.908 Y99.149 E12.39501
G92 E0
G1 X102.711 Y92.352 F7800.000
G1 X96.088 Y94.463 F7800.000
G1 X89.563 Y92.352 F7800.000
G1 X87.563 Y92.352 F7800.000
G1 X86.528 Y92.352 F7800.000
G1 X86.528 Y98.575 E1.86470 F600.000
G1 X86.705 Y99.431 E2.12677
G1 X96.088 Y99.431 E4.93847
G92 E0
G1 X86.563 Y106.648 F7800.000
G1 X86.563 Y106.648 F7800.000
G1 X96.349 Y106.802 F7800.000
G1 X87.563 Y106.802 E2.63269 F600.000
G1 X86.608 Y106.532 E2.93014
G1 X86.528 Y105.956 E3.10449
G1 X86.528 Y100.288 E4.80289
G1 X87.425 Y95.951 E6.13009
G92 E0
G1 Z1.200 F7800.000
G1 X104.597 Y102.637 F7800.000
G1 X103.746 Y98.331 E1.31513 F600.000
G1 X103.746 Y92.352 E3.10672
G1 X103.908 Y99.149 F7800.000
G1 X109.110 Y99.156 E4.66536 F600.000
G1 X110.579 Y99.350 E5.10941
G1 X111.037 Y99.466 E5.25112
G1 X111.476 Y99.645 E5.39308
G1 X111.631 Y99.734 E5.44673
G1 X112.424 Y100.349 E5.74739
G1 X112.678 Y100.612 E5.85684
G1 X113.011 Y101.080 E6.02917
G1 X113.295 Y101.981 E6.31224
G1 X113.463 Y103.055 E6.63799
G1 X113.285 Y104.127 E6.96347
G1 X113.002 Y104.993 E7.23645
G1 X112.665 Y105.435 E7.40299
G1 X112.430 Y105.666 E7.50170
G1 X111.637 Y106.241 E7.79521
G1 X111.428 Y106.354 E7.86653
G1 X110.993 Y106.519 E8.00590
G1 X110.540 Y106.625 E8.14536
G1 X109.093 Y106.807 E8.58220
G1 X108.880 Y106.818 E8.64627
G1 X104.782 Y106.818 E9.87422
G1 X103.819 Y106.539 E10.17447
G1 X103.746 Y105.989 E10.34084
G1 X103.746 Y99.968 E12.14501
G1 X103.908 Y99.149 E12.39501
G92 E0
G1 X102.711 Y92.352 F7800.000
G1 X96.088 Y94.463 F7800.000
G1 X89.563 Y92.352 F7800.000
G1 X87.563 Y92.352 F7800.000
G1 X86.528 Y92.352 F7800.000
G1 X86.528 Y98.575 E1.86470 F600.000
G1 X86.705 Y99.431 E2.12677
G1 X96.088 Y99.431 E4.93847
G92 E0
G1 X86.563 Y106.648 F7800.000
G1 X86.563 Y106.648 F7800.000
G1 X96.349 Y106.802 F7800.000
G1 X87.563 Y106.802 E2.63269 F600.000
G1 X86.608 Y106.532 E2.93014
G1 X86.528 Y105.956 E3.10449
G1 X86.528 Y100.288 E4.80289
G1 X87.425 Y95.951 E6.13009
G92 E0
G1 Z1.500 F7800.000
G1 X104.597 Y102.637 F7800.000
G1 X103.746 Y98.331 E1.31513 F600.000
G1 X103.746 Y92.352 E3.10672
G1 X103.908 Y99.149 F7800.000
G1 X109.110 Y99.156 E4.66536 F600.000
G1 X110.579 Y99.350 E5.10941
G1 X111.037 Y99.466 E5.25112
G1 X111.476 Y99.645 E5.39308
G1 X111.631 Y99.734 E5.44673
G1 X112.424 Y100.349 E5.74739
G1 X112.678 Y100.612 E5.85684
G1 X113.011 Y101.080 E6.02917
G1 X113.295 Y101.981 E6.31224
G1 X113.463 Y103.055 E6.63799
G1 X113.285 Y104.127 E6.96347
G1 X113.002 Y104.993 E7.23645
G1 X112.665 Y105.435 E7.40299
G1 X112.430 Y105.666 E7.50170
G1 X111.637 Y106.241 E7.79521
G1 X111.428 Y106.354 E7.86653
G1 X110.993 Y106.519 E8.00590
G1 X110.540 Y106.625 E8.14536
G1 X109.093 Y106.807 E8.58220
G1 X108.880 Y106.818 E8.64627
G1 X104.782 Y106.818 E9.87422
G1 X103.819 Y106.539 E10.17447
G1 X103.746 Y105.989 E10.34084
G1 X103.746 Y99.968 E12.14501
G1 X103.908 Y99.149 E12.39501
G92 E0
G1 X102.711 Y92.352 F7800.000
G1 X96.088 Y94.463 F7800.000
G1 X89.563 Y92.352 F7800.000
G1 X87.563 Y92.352 F7800.000
G1 X86.528 Y92.352 F7800.000
G1 X86.528 Y98.575 E1.86470 F600.000
G1 X86.705 Y99.431 E2.12677
G1 X96.088 Y99.431 E4.93847
G92 E0
G1 X86.563 Y106.648 F7800.000
G1 X86.563 Y106.648 F7800.000
G1 X96.349 Y106.802 F7800.000
G1 X87.563 Y106.802 E2.63269 F600.000
G1 X86.608 Y106.532 E2.93014
G1 X86.528 Y105.956 E3.10449
G1 X86.528 Y100.288 E4.80289
G1 X87.425 Y95.951 E6.13009
G92 E0
G1 Z1.800 F7800.000
G1 X104.597 Y102.637 F7800.000
G1 X103.746 Y98.331 E1.31513 F600.000
G1 X103.746 Y92.352 E3.10672
G1 X103.908 Y99.149 F7800.000
G1 X109.110 Y99.156 E4.66536 F600.000
G1 X110.579 Y99.350 E5.10941
G1 X111.037 Y99.466 E5.25112
G1 X111.476 Y99.645 E5.39308
G1 X111.631 Y99.734 E5.44673
G1 X112.424 Y100.349 E5.74739
G1 X112.678 Y100.612 E5.85684
G1 X113.011 Y101.080 E6.02917
G1 X113.295 Y101.981 E6.31224
G1 X113.463 Y103.055 E6.63799
G1 X113.285 Y104.127 E6.96347
G1 X113.002 Y104.993 E7.23645
G1 X112.665 Y105.435 E7.40299
G1 X112.430 Y105.666 E7.50170
G1 X111.637 Y106.241 E7.79520
G1 X111.428 Y106.354 E7.86653
G1 X110.993 Y106.519 E8.00590
G1 X110.540 Y106.625 E8.14536
G1 X109.093 Y106.807 E8.58220
G1 X108.880 Y106.818 E8.64627
G1 X104.782 Y106.818 E9.87422
G1 X103.819 Y106.539 E10.17447
