; generated by Slic3r 1.2.9 on 2016-03-11 at 01:24:31

; external perimeters extrusion width = 1.54mm
; perimeters extrusion width = 2.62mm
; infill extrusion width = 6.27mm
; solid infill extrusion width = 2.62mm
; top infill extrusion width = 2.62mm

M107
M104 S30 ; set temperature
G28 ; home all axes
G1 Z5 F5000 ; lift nozzle
M302
M92 E10000
M500
M501
G1 E100
M109 S30 ; wait for temperature to be reached
G21 ; set units to millimeters
G90 ; use absolute coordinates
M82 ; use absolute distances for extrusion
G92 E0
G1 Z0.300 F7800.000
G1 X115.566 Y101.869 F7800.000
G1 X115.583 Y102.063 E0.00880 F378.000
G1 X115.485 Y103.562 E0.07680
G1 X115.190 Y104.919 E0.13961
G1 X114.702 Y106.130 E0.19873
G1 X114.032 Y107.179 E0.25503
G1 X113.190 Y108.044 E0.30964
G1 X112.175 Y108.730 E0.36511
G1 X111.002 Y109.229 E0.42276
G1 X109.690 Y109.530 E0.48367
G1 X108.241 Y109.630 E0.54942
G1 X106.077 Y109.406 E0.64786
G1 X104.273 Y108.738 E0.73489
G1 X102.814 Y107.631 E0.81776
G1 X101.737 Y106.131 E0.90133
G1 X101.088 Y104.276 E0.99023
G1 X100.869 Y102.055 E1.09123
G1 X100.958 Y100.611 E1.15670
G1 X101.225 Y99.290 E1.21769
G1 X101.667 Y98.094 E1.27536
G1 X102.274 Y97.048 E1.33012
G1 X103.038 Y96.169 E1.38276
G1 X103.958 Y95.456 E1.43547
G1 X105.024 Y94.918 E1.48950
G1 X106.222 Y94.566 E1.54599
G1 X107.706 Y94.383 E1.61362
G1 X108.239 Y92.960 E1.68237
G1 X108.796 Y91.961 E1.73412
G1 X109.423 Y91.243 E1.77724
G1 X110.143 Y90.760 E1.81651
G1 X110.990 Y90.468 E1.85701
G1 X111.975 Y90.369 E1.90183
G1 X112.528 Y90.393 E1.92687
G1 X113.201 Y90.473 E1.95754 F378.000
G1 X113.675 Y90.567 E1.97939
G1 X113.675 Y91.566 E2.02458
G1 X113.104 Y91.490 E2.05061
G1 X112.646 Y91.470 E2.07139
G1 X111.910 Y91.541 E2.10485
G1 X111.249 Y91.762 E2.13635
G1 X110.677 Y92.132 E2.16718
G1 X110.192 Y92.661 E2.19968
G1 X109.782 Y93.357 E2.23621
G1 X109.354 Y94.442 E2.28899
G1 X111.366 Y94.939 E2.38276
G1 X112.821 Y95.730 E2.45772
G1 X114.004 Y96.886 E2.53255
G1 X114.878 Y98.354 E2.60985
G1 X115.406 Y100.077 E2.69138
G1 X115.545 Y101.639 E2.76235
G1 X113.897 Y101.780 F7800.000
G1 X113.921 Y102.059 E2.77504 F378.000
G1 X113.758 Y103.869 E2.85725
G1 X113.266 Y105.414 E2.93063
G1 X112.438 Y106.688 E2.99937
G1 X111.303 Y107.636 E3.06629
G1 X109.899 Y108.203 E3.13483
G1 X108.238 Y108.390 E3.21044
G1 X106.565 Y108.206 E3.28660
G1 X105.152 Y107.647 E3.35538
G1 X104.010 Y106.711 E3.42216
G1 X103.179 Y105.443 E3.49076
G1 X102.685 Y103.890 E3.56451
G1 X102.522 Y102.059 E3.64771
G1 X102.687 Y100.230 E3.73078
G1 X103.186 Y98.659 E3.80540
G1 X104.024 Y97.350 E3.87573
G1 X105.167 Y96.369 E3.94388
G1 X106.569 Y95.781 E4.01267
G1 X108.070 Y95.604 E4.08109
G1 X108.215 Y95.587 E4.08769 F378.000
G1 X109.899 Y95.774 E4.16436
G1 X111.315 Y96.343 E4.23341
G1 X112.450 Y97.295 E4.30044
G1 X113.272 Y98.588 E4.36976
G1 X113.759 Y100.178 E4.44501
G1 X113.877 Y101.550 E4.50732
G1 X114.999 Y99.614 F7800.000
G1 X112.968 Y97.583 E4.63800 F540.000
G1 X114.137 Y97.656 F7800.000
G1 X112.171 Y95.690 E4.76445 F540.000
G1 X111.532 Y96.147 F7800.000
G1 X110.321 Y94.936 E4.84237 F540.000
G1 X111.049 Y95.116 E4.87648
G1 X114.757 Y98.824 E5.11501
G1 X113.586 Y98.750 F7800.000
G1 X115.197 Y100.360 E5.21860 F540.000
G1 X115.250 Y100.962 E5.24608
G1 X113.829 Y99.541 E5.33750
G1 X114.001 Y100.260 E5.37115
G1 X115.304 Y101.564 E5.45499
G1 X115.355 Y102.163 E5.48235
G1 X114.052 Y100.860 E5.56618
G1 X114.103 Y101.459 E5.59355
G1 X115.321 Y102.677 E5.67190
G1 X115.288 Y103.192 E5.69535
G1 X114.142 Y102.046 E5.76906
G1 X114.096 Y102.549 E5.79203
G1 X115.241 Y103.693 E5.86564
G1 X115.143 Y104.143 E5.88660
G1 X114.051 Y103.052 E5.95682
G1 X114.006 Y103.555 E5.97979
G1 X115.045 Y104.594 E6.04664
G1 X114.930 Y105.026 E6.06700
G1 X113.925 Y104.021 E6.13165
G1 X113.792 Y104.437 E6.15149
G1 X114.772 Y105.417 E6.21454
G1 X114.615 Y105.808 E6.23370
G1 X113.660 Y104.853 E6.29513
G1 X113.527 Y105.268 E6.31498
G1 X114.439 Y106.180 E6.37362
G1 X114.225 Y106.514 E6.39167
G1 X113.351 Y105.640 E6.44791
G1 X113.135 Y105.972 E6.46593
G1 X114.011 Y106.849 E6.52231
G1 X113.774 Y107.160 E6.54010
G1 X112.919 Y106.305 E6.59510
G1 X112.703 Y106.637 E6.61312
G1 X113.500 Y107.434 E6.66438
G1 X113.226 Y107.708 E6.68201
G1 X112.448 Y106.930 E6.73203
G1 X112.150 Y107.180 E6.74973
G1 X112.945 Y107.975 E6.80090
G1 X112.618 Y108.196 E6.81886
G1 X111.851 Y107.429 E6.86819
G1 X111.552 Y107.679 E6.88589
G1 X112.291 Y108.417 E6.93340
G1 X111.938 Y108.613 E6.95174
G1 X111.215 Y107.889 E6.99830
G1 X110.824 Y108.047 E7.01746
G1 X111.554 Y108.777 E7.06440
G1 X111.169 Y108.940 E7.08341
G1 X110.433 Y108.204 E7.13074
G1 X110.043 Y108.362 E7.14989
G1 X110.752 Y109.071 E7.19550
G1 X110.306 Y109.173 E7.21631
G1 X109.590 Y108.457 E7.26240
G1 X109.097 Y108.512 E7.28495
G1 X109.860 Y109.276 E7.33405
G1 X109.367 Y109.331 E7.35660
G1 X108.604 Y108.568 E7.40569
G1 X108.100 Y108.612 E7.42870
G1 X108.855 Y109.367 E7.47724
G1 X108.342 Y109.402 E7.50061
G1 X107.484 Y108.544 E7.55579
G1 X106.868 Y108.476 E7.58398
G1 X107.733 Y109.341 E7.63963
G1 X107.122 Y109.278 E7.66760
G1 X106.178 Y108.335 E7.72828
G1 X105.272 Y107.976 F7800.000
G1 X106.510 Y109.214 E7.80794 F540.000
G1 X105.759 Y109.011 E7.84333
G1 X101.543 Y104.795 E8.11452
G1 X101.296 Y104.001 E8.15235
G1 X103.030 Y105.735 E8.26388
G1 X102.737 Y104.893 F7800.000
G1 X101.237 Y103.393 E8.36038 F540.000
G1 X101.177 Y102.785 E8.38816
G1 X102.481 Y104.089 E8.47206
G1 X102.413 Y103.473 E8.50023
G1 X101.117 Y102.177 E8.58362
G1 X101.117 Y101.629 E8.60854
G1 X102.360 Y102.871 E8.68847
G1 X102.306 Y102.270 E8.71594
G1 X101.149 Y101.113 E8.79037
G1 X101.181 Y100.596 E8.81391
G1 X102.330 Y101.746 E8.88784
G1 X102.376 Y101.243 E8.91081
G1 X101.270 Y100.137 E8.98194
G1 X101.362 Y99.681 E9.00311
G1 X102.421 Y100.740 E9.07124
G1 X102.469 Y100.240 E9.09411
G1 X101.462 Y99.233 E9.15886
G1 X101.610 Y98.833 E9.17827
G1 X102.601 Y99.824 E9.24200
G1 X102.733 Y99.407 E9.26185
G1 X101.758 Y98.433 E9.32456
G1 X101.921 Y98.047 E9.34358
G1 X102.865 Y98.991 E9.40431
G1 X103.004 Y98.582 E9.42398
G1 X102.122 Y97.700 E9.48068
G1 X102.323 Y97.354 E9.49892
G1 X103.218 Y98.248 E9.55644
G1 X103.432 Y97.914 E9.57448
G1 X102.546 Y97.028 E9.63144
G1 X102.801 Y96.735 E9.64911
G1 X103.646 Y97.579 E9.70344
G1 X103.860 Y97.245 E9.72149
G1 X103.062 Y96.447 E9.77282
G1 X103.341 Y96.179 E9.79046
G1 X104.150 Y96.988 E9.84251
G1 X104.445 Y96.735 E9.86019
G1 X103.650 Y95.939 E9.91134
G1 X103.959 Y95.700 E9.92912
G1 X104.740 Y96.481 E9.97937
G1 X105.035 Y96.228 E9.99705
G1 X104.308 Y95.501 E10.04380
G1 X104.672 Y95.317 E10.06236
G1 X105.406 Y96.051 E10.10952
G1 X105.792 Y95.889 E10.12857
G1 X105.037 Y95.134 E10.17714
G1 X105.457 Y95.006 E10.19713
G1 X106.178 Y95.727 E10.24350
G1 X106.564 Y95.565 E10.26255
G1 X105.881 Y94.881 E10.30650
G1 X106.320 Y94.772 E10.32708
G1 X107.053 Y95.505 E10.37422
G1 X107.543 Y95.447 E10.39668
G1 X106.808 Y94.712 E10.44398
G1 X107.296 Y94.651 E10.46634
G1 X108.034 Y95.389 E10.51381
G1 X108.583 Y95.391 E10.53879
G1 X107.783 Y94.591 E10.59021
G1 X107.977 Y94.236 E10.60859
G1 X109.200 Y95.459 E10.68726
G1 X109.816 Y95.528 E10.71549
G1 X108.865 Y94.576 E10.77670
G1 X109.177 Y94.340 E10.79450
G1 X108.275 Y93.439 E10.85250
G1 X108.425 Y93.040 E10.87187
G1 X109.332 Y93.947 E10.93023
G1 X109.487 Y93.554 E10.94945
G1 X108.617 Y92.684 E11.00542
G1 X108.814 Y92.332 E11.02374
G1 X109.660 Y93.179 E11.07818
G1 X109.863 Y92.834 E11.09639
G1 X109.023 Y91.993 E11.15044
G1 X109.278 Y91.701 E11.16811
G1 X110.078 Y92.501 E11.21955
G1 X110.340 Y92.215 E11.23720
G1 X109.534 Y91.408 E11.28907
G1 X109.859 Y91.185 E11.30700
G1 X110.614 Y91.941 E11.35561
G1 X110.947 Y91.725 E11.37364
G1 X110.187 Y90.965 E11.42256
G1 X110.591 Y90.821 E11.44208
G1 X111.300 Y91.530 E11.48764
G1 X111.711 Y91.392 E11.50735
G1 X111.005 Y90.686 E11.55277
G1 X111.503 Y90.636 E11.57554
G1 X112.164 Y91.297 E11.61805
G1 X112.663 Y91.248 E11.64088
G1 X112.016 Y90.601 E11.68253
G1 X112.602 Y90.640 E11.70927
G1 X113.230 Y91.267 E11.74962
G1 X113.240 Y90.729 E11.77410
G1 X113.449 Y90.938 E11.78755
G92 E0
G1 X109.457 Y92.382 F7800.000
G1 X109.056 Y93.085 F7800.000
G1 X110.616 Y95.779 F7800.000
G1 X109.593 Y94.756 E0.06582 F540.000
G1 X109.022 Y94.734 E0.09180
G1 X108.126 Y93.837 E0.14944
G1 X102.478 Y98.327 F7800.000
G1 X102.033 Y99.519 F7800.000
G1 X101.892 Y100.067 F7800.000
G1 X101.796 Y100.721 F7800.000
G1 X101.696 Y102.040 F7800.000
G1 X101.647 Y102.041 F7800.000
G1 X101.838 Y105.639 F7800.000
G1 X104.889 Y108.690 E0.34567 F540.000
G1 X103.237 Y107.586 F7800.000
G1 X102.882 Y107.231 E0.36847 F540.000
G92 E0
G1 X100.867 Y104.325 F7800.000
G1 X97.377 Y104.669 F7800.000
G1 X97.721 Y102.304 F7800.000
G1 X94.787 Y102.304 F7800.000
G1 X93.208 Y100.816 F7800.000
G1 X94.562 Y100.816 E0.06130 F378.000
G1 X94.562 Y102.079 E0.11845
G1 X86.037 Y102.079 E0.50420
G1 X86.037 Y108.197 E0.78103
G1 X94.823 Y108.197 E1.17859
G1 X94.823 Y109.439 E1.23479
G1 X84.416 Y109.439 E1.70570
G1 X84.416 Y94.593 E2.37747
G1 X86.037 Y94.593 E2.45082
G1 X86.037 Y100.816 E2.73241
G1 X92.977 Y100.816 E3.04641 F378.000
G1 X94.336 Y101.246 F7800.000
G1 X94.133 Y101.042 E3.05944 F540.000
G1 X93.587 Y101.042 E3.08414
G1 X94.336 Y101.791 E3.13210
G1 X93.853 Y101.853 E3.15417
G1 X93.042 Y101.042 E3.20609
G1 X92.496 Y101.042 E3.23079
G1 X93.307 Y101.853 E3.28271
G1 X92.762 Y101.853 E3.30741
G1 X91.950 Y101.042 E3.35933
G1 X91.405 Y101.042 E3.38403
G1 X92.216 Y101.853 E3.43595
G1 X91.670 Y101.853 E3.46065
G1 X90.859 Y101.042 E3.51257
G1 X90.314 Y101.042 E3.53727
G1 X91.125 Y101.853 E3.58919
G1 X90.579 Y101.853 E3.61389
G1 X89.768 Y101.042 E3.66581
G1 X89.223 Y101.042 E3.69051
G1 X90.034 Y101.853 E3.74243
G1 X89.488 Y101.853 E3.76713
G1 X88.677 Y101.042 E3.81905
G1 X88.132 Y101.042 E3.84375
G1 X88.943 Y101.853 E3.89567
G1 X88.397 Y101.853 E3.92037
G1 X87.586 Y101.042 E3.97229
G1 X87.040 Y101.042 E3.99699
G1 X87.851 Y101.853 E4.04891
G1 X87.306 Y101.853 E4.07361
G1 X86.495 Y101.042 E4.12553
G1 X85.949 Y101.042 E4.15023
G1 X86.760 Y101.853 E4.20215
G1 X86.215 Y101.853 E4.22685
G1 X84.642 Y100.280 E4.32752
G1 X84.642 Y100.826 E4.35221
G1 X85.811 Y101.995 E4.42706
G1 X85.811 Y102.541 E4.45175
G1 X84.642 Y101.372 E4.52660
G1 X84.642 Y101.917 E4.55129
G1 X85.811 Y103.086 E4.62613
G1 X85.811 Y103.632 E4.65083
G1 X84.642 Y102.463 E4.72567
G1 X84.642 Y103.008 E4.75037
G1 X85.811 Y104.177 E4.82521
G1 X85.811 Y104.723 E4.84991
G1 X84.642 Y103.554 E4.92475
G1 X84.642 Y104.099 E4.94945
G1 X85.811 Y105.268 E5.02429
G1 X85.811 Y105.814 E5.04899
G1 X84.642 Y104.645 E5.12383
G1 X84.642 Y105.191 E5.14852
G1 X85.811 Y106.360 E5.22337
G1 X85.811 Y106.905 E5.24806
G1 X84.642 Y105.736 E5.32291
G1 X84.642 Y106.282 E5.34760
G1 X85.811 Y107.451 E5.42244
G1 X85.811 Y107.996 E5.44714
G1 X84.642 Y106.827 E5.52198
G1 X84.642 Y107.373 E5.54668
G1 X86.482 Y109.213 E5.66449
G1 X87.028 Y109.213 E5.68918
G1 X86.238 Y108.423 E5.73976
G1 X86.784 Y108.423 E5.76446
G1 X87.574 Y109.213 E5.81504
G1 X88.119 Y109.213 E5.83973
G1 X87.329 Y108.423 E5.89031
G1 X87.875 Y108.423 E5.91501
G1 X88.665 Y109.213 E5.96559
G1 X89.210 Y109.213 E5.99028
G1 X88.420 Y108.423 E6.04086
G1 X88.966 Y108.423 E6.06556
G1 X89.756 Y109.213 E6.11614
G1 X90.301 Y109.213 E6.14084
G1 X89.511 Y108.423 E6.19142
G1 X90.057 Y108.423 E6.21611
G1 X90.847 Y109.213 E6.26669
G1 X91.393 Y109.213 E6.29139
G1 X90.602 Y108.423 E6.34197
G1 X91.148 Y108.423 E6.36666
G1 X91.938 Y109.213 E6.41724
G1 X92.484 Y109.213 E6.44194
G1 X91.694 Y108.423 E6.49252
G1 X92.239 Y108.423 E6.51721
G1 X93.029 Y109.213 E6.56779
G1 X93.575 Y109.213 E6.59249
G1 X92.785 Y108.423 E6.64307
G1 X93.330 Y108.423 E6.66776
G1 X94.120 Y109.213 E6.71834
G1 X94.597 Y109.144 E6.74016
G1 X93.876 Y108.423 E6.78634
G1 X94.421 Y108.423 E6.81104
G1 X94.597 Y108.599 E6.82230
G1 X85.937 Y109.213 F7800.000
G1 X84.642 Y107.918 E6.90518 F540.000
G1 X84.642 Y108.464 E6.92988
G1 X85.391 Y109.213 E6.97784
G1 X84.846 Y109.213 E7.00253
G1 X84.642 Y109.009 E7.01557
G1 X85.811 Y100.904 F7800.000
G1 X84.642 Y99.735 E7.09041 F540.000
G1 X84.642 Y99.189 E7.11511
G1 X85.811 Y100.358 E7.18995
G1 X85.811 Y99.813 E7.21464
G1 X84.642 Y98.644 E7.28949
G1 X84.642 Y98.098 E7.31418
G1 X85.811 Y99.267 E7.38903
G1 X85.811 Y98.722 E7.41372
G1 X84.642 Y97.553 E7.48856
G1 X84.642 Y97.007 E7.51326
G1 X85.811 Y98.176 E7.58810
G1 X85.811 Y97.631 E7.61280
G1 X84.642 Y96.462 E7.68764
G1 X84.642 Y95.916 E7.71234
G1 X85.811 Y97.085 E7.78718
G1 X85.811 Y96.539 E7.81188
G1 X84.642 Y95.370 E7.88672
G1 X84.659 Y94.842 E7.91066
G1 X85.811 Y95.994 E7.98441
G1 X85.811 Y95.448 E8.00910
G1 X85.182 Y94.819 E8.04940
M106 S255
G92 E0
G1 Z0.600 F7800.000
G1 X107.491 Y94.182 F7800.000
G1 X109.456 Y95.103 E0.65004 F600.000
G1 X110.146 Y95.241 E0.86101
G1 X111.126 Y95.558 E1.16950
G1 X111.518 Y95.742 E1.29933
G1 X111.753 Y95.877 E1.38055
G1 X112.392 Y96.312 E1.61210
G1 X112.868 Y96.743 E1.80457
G1 X113.061 Y96.948 E1.88904
G1 X113.398 Y97.363 E2.04930
G1 X113.889 Y98.160 E2.32963
G1 X114.140 Y98.681 E2.50303
G1 X114.519 Y99.920 E2.89115
G1 X114.592 Y100.236 E2.98830
G1 X114.750 Y102.072 E3.54072
G1 X114.645 Y103.444 E3.95298
G1 X114.526 Y104.140 E4.16439
G1 X114.384 Y104.671 E4.32908
G1 X113.986 Y105.761 E4.67707
G1 X113.400 Y106.678 E5.00310
G1 X113.088 Y107.070 E5.15315
G1 X112.700 Y107.459 E5.31762
G1 X111.837 Y108.109 E5.64158
G1 X111.523 Y108.275 E5.74795
G1 X110.791 Y108.578 E5.98533
G1 X110.163 Y108.776 E6.18266
G1 X109.595 Y108.888 E6.35612
G1 X108.251 Y109.008 E6.76038
G1 X106.527 Y108.827 E7.27986
G1 X106.225 Y108.769 E7.37201
G1 X104.940 Y108.277 E7.78426
G1 X104.614 Y108.115 E7.89325
G1 X103.576 Y107.296 E8.28977
G1 X103.361 Y107.098 E8.37708
G1 X102.451 Y105.760 E8.86221
G1 X101.894 Y104.098 E9.38729
G1 X101.697 Y102.040 E10.00690
G1 X101.796 Y100.721 E10.40328
G1 X101.919 Y99.961 E10.63391
G1 X102.033 Y99.519 E10.77060
G1 X102.404 Y98.441 E11.11218
G1 X102.529 Y98.202 E11.19287
G1 X102.942 Y97.525 E11.43075
G1 X103.361 Y96.965 E11.64040
G1 X103.550 Y96.747 E11.72668
G1 X104.356 Y96.086 E12.03908
G1 X104.688 Y95.865 E12.15843
G1 X104.936 Y95.726 E12.24362
G1 X105.281 Y95.567 E12.35759
G1 X106.351 Y95.188 E12.69775
G1 X107.758 Y95.005 E13.12284
G1 X108.108 Y94.900 E13.23237
G1 X108.576 Y94.691 E13.38607
G1 X108.583 Y94.566 E13.42360
G1 X108.719 Y93.914 E13.62302
G1 X108.958 Y93.293 E13.82261
G1 X109.127 Y92.950 E13.93705
G1 X109.436 Y92.411 E14.12315
G1 X109.650 Y92.132 E14.22867
G1 X109.930 Y91.820 E14.35430
G1 X110.311 Y91.513 E14.50102
G1 X110.467 Y91.410 E14.55675
G1 X111.070 Y91.132 E14.75568
G1 X111.879 Y90.962 E15.00352
G1 X112.681 Y90.945 E15.24388
G1 X113.124 Y90.978 E15.37712
G1 X113.900 Y91.099 E15.61231
G92 E0
G1 X108.034 Y92.865 F7800.000
G1 X108.034 Y92.865 F7800.000
G1 X105.302 Y91.342 F7800.000
G1 X105.289 Y91.325 F7800.000
G1 X105.277 Y91.310 F7800.000
G1 X103.997 Y91.494 F7800.000
G1 X103.379 Y91.612 F7800.000
G1 X102.143 Y91.906 F7800.000
G1 X101.402 Y92.121 F7800.000
G1 X100.194 Y92.534 F7800.000
G1 X99.299 Y92.891 F7800.000
G1 X98.092 Y93.441 F7800.000
G1 X97.039 Y93.985 F7800.000
G1 X96.229 Y94.451 F7800.000
G1 X94.787 Y94.367 F7800.000
G1 X92.486 Y94.367 F7800.000
G1 X92.485 Y94.368 F7800.000
G1 X86.262 Y94.368 F7800.000
G1 X85.227 Y94.368 F7800.000
G1 X85.227 Y100.591 E1.86470 F600.000
G1 X85.404 Y101.447 E2.12677
G1 X94.787 Y101.447 E4.93847
G92 E0
G1 X85.262 Y108.664 F7800.000
G1 X85.262 Y108.664 F7800.000
G1 X95.048 Y108.818 F7800.000
G1 X86.262 Y108.818 E2.63269 F600.000
G1 X85.307 Y108.548 E2.93014
G1 X85.227 Y107.972 E3.10449
G1 X85.227 Y102.304 E4.80289
G1 X86.124 Y97.967 E6.13009
G92 E0
G1 Z0.900 F7800.000
G1 X107.491 Y94.182 F7800.000
G1 X109.456 Y95.103 E0.65004 F600.000
G1 X110.146 Y95.241 E0.86101
G1 X111.126 Y95.558 E1.16950
G1 X111.518 Y95.742 E1.29933
G1 X111.753 Y95.877 E1.38055
G1 X112.392 Y96.312 E1.61210
G1 X112.868 Y96.743 E1.80457
G1 X113.061 Y96.948 E1.88904
G1 X113.398 Y97.363 E2.04930
G1 X113.889 Y98.160 E2.32963
G1 X114.140 Y98.681 E2.50303
G1 X114.519 Y99.920 E2.89115
G1 X114.592 Y100.236 E2.98830
G1 X114.750 Y102.072 E3.54072
G1 X114.645 Y103.444 E3.95298
G1 X114.526 Y104.140 E4.16439
G1 X114.384 Y104.671 E4.32908
