; generated by Slic3r 1.2.9 on 2016-03-11 at 01:24:36

; external perimeters extrusion width = 1.54mm
; perimeters extrusion width = 2.62mm
; infill extrusion width = 6.27mm
; solid infill extrusion width = 2.62mm
; top infill extrusion width = 2.62mm

M107
M104 S30 ; set temperature
G28 ; home all axes
G1 Z5 F5000 ; lift nozzle
M302
M92 E10000
M500
M501
G1 E100
M109 S30 ; wait for temperature to be reached
G21 ; set units to millimeters
G90 ; use absolute coordinates
M82 ; use absolute distances for extrusion
G92 E0
G1 Z0.300 F7800.000
G1 X109.202 Y93.882 F7800.000
G1 X114.369 Y106.586 E0.62054 F378.000
G1 X114.709 Y107.423 E0.66145 F378.000
G1 X113.017 Y107.423 E0.73800
G1 X108.879 Y96.800 E1.25386
G1 X107.957 Y94.056 E1.38486
G1 X107.562 Y94.056 E1.40275
G1 X106.639 Y96.800 E1.53376
G1 X102.479 Y107.423 E2.04999
G1 X100.788 Y107.423 E2.12650
G1 X106.827 Y92.577 E2.85173
G1 X108.671 Y92.577 E2.93517
G1 X109.115 Y93.668 E2.98848
G1 X108.944 Y93.946 F7800.000
G1 X107.801 Y92.803 E3.06198 F540.000
G1 X108.349 Y92.803 E3.08689
G1 X108.569 Y93.023 E3.10103
G1 X107.732 Y93.830 F7800.000
G1 X106.881 Y92.979 E3.15575 F540.000
G1 X107.253 Y92.803 E3.17446
G1 X109.320 Y94.870 E3.30732
G1 X108.641 Y95.287 F7800.000
G1 X110.071 Y96.717 E3.39926 F540.000
G1 X109.224 Y96.965 F7800.000
G1 X110.822 Y98.563 E3.50203 F540.000
G1 X109.923 Y98.760 F7800.000
G1 X111.573 Y100.410 E3.60813 F540.000
G1 X110.622 Y100.555 F7800.000
G1 X112.325 Y102.257 E3.71757 F540.000
G1 X112.700 Y103.180 F7800.000
G1 X110.972 Y101.452 E3.82868 F540.000
G1 X111.321 Y102.350 F7800.000
G1 X113.076 Y104.104 E3.94146 F540.000
G1 X113.451 Y105.027 F7800.000
G1 X111.671 Y103.247 E4.05590 F540.000
G1 X112.021 Y104.144 F7800.000
G1 X113.827 Y105.951 E4.17201 F540.000
G1 X112.720 Y105.939 F7800.000
G1 X113.978 Y107.197 E4.25286 F540.000
G1 X114.202 Y106.874 E4.27075
G1 X112.370 Y105.042 E4.38853
G1 X113.069 Y106.837 F7800.000
G1 X113.430 Y107.197 E4.41169 F540.000
G1 X111.949 Y101.334 F7800.000
G1 X110.273 Y99.657 E4.51946 F540.000
G1 X111.198 Y99.487 F7800.000
G1 X109.573 Y97.862 E4.62390 F540.000
G1 X110.447 Y97.640 F7800.000
G1 X108.918 Y96.111 E4.72216 F540.000
G1 X109.696 Y95.793 F7800.000
G1 X108.364 Y94.462 E4.80776 F540.000
G1 X107.363 Y94.008 F7800.000
G1 X106.723 Y93.368 E4.84892 F540.000
G1 X106.564 Y93.757 E4.86803
G1 X107.225 Y94.418 E4.91050
G1 X107.087 Y94.828 E4.93016
G1 X106.406 Y94.147 E4.97396
G1 X106.247 Y94.536 E4.99307
G1 X106.949 Y95.238 E5.03818
G1 X106.811 Y95.648 E5.05784
G1 X106.089 Y94.926 E5.10428
G1 X105.931 Y95.315 E5.12339
G1 X106.673 Y96.058 E5.17114
G1 X106.535 Y96.468 E5.19080
G1 X105.772 Y95.705 E5.23988
G1 X105.614 Y96.094 E5.25899
G1 X106.394 Y96.874 E5.30912
G1 X106.239 Y97.268 E5.32834
G1 X105.455 Y96.483 E5.37875
G1 X105.297 Y96.873 E5.39786
G1 X106.085 Y97.661 E5.44854
G1 X105.931 Y98.055 E5.46776
G1 X105.138 Y97.262 E5.51871
G1 X104.980 Y97.652 E5.53782
G1 X105.777 Y98.449 E5.58905
G1 X105.623 Y98.842 E5.60827
G1 X104.822 Y98.041 E5.65976
G1 X104.663 Y98.431 E5.67888
G1 X105.469 Y99.236 E5.73065
G1 X105.314 Y99.630 E5.74987
G1 X104.505 Y98.820 E5.80191
G1 X104.346 Y99.209 E5.82102
G1 X105.160 Y100.023 E5.87334
G1 X105.006 Y100.417 E5.89256
G1 X104.188 Y99.599 E5.94515
G1 X104.030 Y99.988 E5.96426
G1 X104.852 Y100.811 E6.01713
G1 X104.698 Y101.204 E6.03634
G1 X103.871 Y100.378 E6.08948
G1 X103.713 Y100.767 E6.10859
G1 X104.544 Y101.598 E6.16200
G1 X104.389 Y101.992 E6.18122
G1 X103.554 Y101.157 E6.23491
G1 X103.396 Y101.546 E6.25402
G1 X104.235 Y102.385 E6.30797
G1 X104.081 Y102.779 E6.32719
G1 X103.238 Y101.935 E6.38142
G1 X103.079 Y102.325 E6.40053
G1 X103.927 Y103.173 E6.45503
G1 X103.773 Y103.566 E6.47425
G1 X102.921 Y102.714 E6.52903
G1 X102.762 Y103.104 E6.54814
G1 X103.619 Y103.960 E6.60319
G1 X103.464 Y104.354 E6.62241
G1 X102.604 Y103.493 E6.67773
G1 X102.445 Y103.883 E6.69684
G1 X103.310 Y104.747 E6.75243
G1 X103.156 Y105.141 E6.77165
G1 X102.287 Y104.272 E6.82752
G1 X102.129 Y104.662 E6.84663
G1 X103.002 Y105.535 E6.90277
G1 X102.848 Y105.928 E6.92199
G1 X101.970 Y105.051 E6.97840
G1 X101.812 Y105.440 E6.99751
G1 X102.694 Y106.322 E7.05420
G1 X102.539 Y106.716 E7.07342
G1 X101.653 Y105.830 E7.13038
G1 X101.495 Y106.219 E7.14949
G1 X102.385 Y107.110 E7.20672
G1 X101.925 Y107.197 E7.22802
G1 X101.337 Y106.609 E7.26584
G1 X101.178 Y106.998 E7.28495
G1 X101.377 Y107.197 E7.29774
G92 E0
G1 X100.454 Y107.648 F7800.000
G1 X98.227 Y103.005 F7800.000
G1 X95.552 Y103.122 F7800.000
G1 X89.861 Y103.122 F7800.000
G1 X87.027 Y105.956 F7800.000
G1 X85.181 Y105.217 F7800.000
G1 X85.181 Y92.577 E0.57196 F378.000
G1 X86.802 Y92.577 E0.64531
G1 X86.802 Y98.800 E0.92690
G1 X95.327 Y98.800 E1.31265 F378.000
G1 X95.327 Y100.063 E1.36980
G1 X86.802 Y100.063 E1.75555
G1 X86.802 Y106.181 E2.03238
G1 X95.588 Y106.181 E2.42994
G1 X95.588 Y107.423 E2.48614
G1 X85.181 Y107.423 E2.95705
G1 X85.181 Y105.448 E3.04641
G1 X85.407 Y106.993 F7800.000
G1 X85.611 Y107.197 E3.05944 F540.000
G1 X86.156 Y107.197 E3.08414
G1 X85.407 Y106.448 E3.13209
G1 X85.407 Y105.902 E3.15679
G1 X86.702 Y107.197 E3.23967
G1 X86.576 Y98.888 F7800.000
G1 X85.407 Y97.719 E3.31452 F540.000
G1 X85.407 Y97.173 E3.33921
G1 X86.576 Y98.342 E3.41406
G1 X86.576 Y97.797 E3.43875
G1 X85.407 Y96.628 E3.51359
G1 X85.407 Y96.082 E3.53829
G1 X86.576 Y97.251 E3.61313
G1 X86.576 Y96.706 E3.63783
G1 X85.407 Y95.537 E3.71267
G1 X85.407 Y94.991 E3.73737
G1 X86.576 Y96.160 E3.81221
G1 X86.576 Y95.615 E3.83691
G1 X85.407 Y94.446 E3.91175
G1 X85.407 Y93.900 E3.93645
G1 X86.576 Y95.069 E4.01129
G1 X86.576 Y94.523 E4.03598
G1 X85.407 Y93.354 E4.11083
G1 X85.424 Y92.826 E4.13476
G1 X86.576 Y93.978 E4.20851
G1 X86.576 Y93.432 E4.23321
G1 X85.947 Y92.803 E4.27350
G92 E0
G1 X86.027 Y93.352 F7800.000
G1 X86.027 Y93.352 F7800.000
G1 X95.101 Y99.230 F7800.000
G1 X94.898 Y99.026 E0.01303 F540.000
G1 X94.352 Y99.026 E0.03773
G1 X95.101 Y99.775 E0.08569
G1 X94.618 Y99.837 E0.10776
G1 X93.807 Y99.026 E0.15969
G1 X93.261 Y99.026 E0.18438
G1 X94.072 Y99.837 E0.23631
G1 X93.527 Y99.837 E0.26100
G1 X92.715 Y99.026 E0.31293
G1 X92.170 Y99.026 E0.33762
G1 X92.981 Y99.837 E0.38955
G1 X92.435 Y99.837 E0.41424
G1 X91.624 Y99.026 E0.46617
G1 X91.079 Y99.026 E0.49086
G1 X91.890 Y99.837 E0.54278
G1 X91.344 Y99.837 E0.56748
G1 X90.533 Y99.026 E0.61940
G1 X89.988 Y99.026 E0.64410
G1 X90.799 Y99.837 E0.69602
G1 X90.253 Y99.837 E0.72072
G1 X89.442 Y99.026 E0.77264
G1 X88.897 Y99.026 E0.79734
G1 X89.708 Y99.837 E0.84926
G1 X89.162 Y99.837 E0.87396
G1 X88.351 Y99.026 E0.92588
G1 X87.805 Y99.026 E0.95058
G1 X88.616 Y99.837 E1.00250
G1 X88.071 Y99.837 E1.02720
G1 X87.260 Y99.026 E1.07912
G1 X86.714 Y99.026 E1.10382
G1 X87.525 Y99.837 E1.15574
G1 X86.980 Y99.837 E1.18044
G1 X85.407 Y98.264 E1.28111
G1 X85.407 Y98.810 E1.30581
G1 X86.576 Y99.979 E1.38065
G1 X86.576 Y100.525 E1.40535
G1 X85.407 Y99.356 E1.48019
G1 X85.407 Y99.901 E1.50489
G1 X86.576 Y101.070 E1.57973
G1 X86.576 Y101.616 E1.60442
G1 X85.407 Y100.447 E1.67927
G1 X85.407 Y100.992 E1.70396
G1 X86.576 Y102.161 E1.77881
G1 X86.576 Y102.707 E1.80350
G1 X85.407 Y101.538 E1.87834
G1 X85.407 Y102.083 E1.90304
G1 X86.576 Y103.252 E1.97788
G1 X86.576 Y103.798 E2.00258
G1 X85.407 Y102.629 E2.07742
G1 X85.407 Y103.175 E2.10212
G1 X86.576 Y104.344 E2.17696
G1 X86.576 Y104.889 E2.20166
G1 X85.407 Y103.720 E2.27650
G1 X85.407 Y104.266 E2.30120
G1 X86.576 Y105.435 E2.37604
G1 X86.576 Y105.980 E2.40073
G1 X85.407 Y104.811 E2.47558
G1 X85.407 Y105.357 E2.50027
G1 X87.247 Y107.197 E2.61808
G1 X87.793 Y107.197 E2.64278
G1 X87.003 Y106.407 E2.69336
G1 X87.549 Y106.407 E2.71805
G1 X88.339 Y107.197 E2.76863
G1 X88.884 Y107.197 E2.79333
G1 X88.094 Y106.407 E2.84391
G1 X88.640 Y106.407 E2.86861
G1 X89.430 Y107.197 E2.91918
G1 X89.975 Y107.197 E2.94388
G1 X89.185 Y106.407 E2.99446
G1 X89.731 Y106.407 E3.01916
G1 X90.521 Y107.197 E3.06974
G1 X91.066 Y107.197 E3.09443
G1 X90.276 Y106.407 E3.14501
G1 X90.822 Y106.407 E3.16971
G1 X91.612 Y107.197 E3.22029
G1 X92.158 Y107.197 E3.24498
G1 X91.367 Y106.407 E3.29556
G1 X91.913 Y106.407 E3.32026
G1 X92.703 Y107.197 E3.37084
G1 X93.249 Y107.197 E3.39553
G1 X92.459 Y106.407 E3.44611
G1 X93.004 Y106.407 E3.47081
G1 X93.794 Y107.197 E3.52139
G1 X94.340 Y107.197 E3.54608
G1 X93.550 Y106.407 E3.59666
G1 X94.095 Y106.407 E3.62136
G1 X94.885 Y107.197 E3.67194
G1 X95.362 Y107.128 E3.69375
G1 X94.641 Y106.407 E3.73994
G1 X95.186 Y106.407 E3.76464
G1 X95.362 Y106.583 E3.77590
M106 S255
G92 E0
G1 Z0.600 F7800.000
G1 X113.950 Y107.648 F7800.000
G1 X109.537 Y96.562 E3.57549 F600.000
G1 X108.592 Y94.013 E4.38999
G1 X108.152 Y93.349 E4.62870
G1 X107.724 Y93.316 E4.75722
G1 X107.349 Y93.353 E4.87011
G1 X106.919 Y94.010 E5.10550
G1 X105.973 Y96.558 E5.91985
G1 X101.546 Y107.648 E9.49796
G92 E0
G1 X100.454 Y107.648 F7800.000
G1 X95.813 Y103.116 F7800.000
G1 X89.861 Y103.122 F7800.000
G1 X87.027 Y100.288 F7800.000
G1 X85.992 Y92.352 F7800.000
G1 X85.992 Y98.575 E1.86470 F600.000
G1 X86.169 Y99.431 E2.12677
G1 X95.552 Y99.431 E4.93847
G92 E0
G1 X86.027 Y106.648 F7800.000
G1 X86.027 Y106.648 F7800.000
G1 X95.813 Y106.802 F7800.000
G1 X87.027 Y106.802 E2.63269 F600.000
G1 X86.072 Y106.532 E2.93014
G1 X85.992 Y105.956 E3.10449
G1 X85.992 Y100.288 E4.80289
G1 X86.889 Y95.951 E6.13009
G92 E0
G1 Z0.900 F7800.000
G1 X113.950 Y107.648 F7800.000
G1 X109.537 Y96.562 E3.57549 F600.000
G1 X108.592 Y94.013 E4.38999
G1 X108.152 Y93.349 E4.62870
G1 X107.724 Y93.316 E4.75722
G1 X107.349 Y93.353 E4.87011
G1 X106.919 Y94.010 E5.10550
G1 X105.973 Y96.558 E5.91985
G1 X101.546 Y107.648 E9.49796
G92 E0
G1 X100.454 Y107.648 F7800.000
G1 X95.813 Y103.116 F7800.000
G1 X89.861 Y103.122 F7800.000
G1 X87.027 Y100.288 F7800.000
G1 X85.992 Y92.352 F7800.000
G1 X85.992 Y98.575 E1.86470 F600.000
G1 X86.169 Y99.431 E2.12677
G1 X95.552 Y99.431 E4.93847
G92 E0
G1 X86.027 Y106.648 F7800.000
G1 X86.027 Y106.648 F7800.000
G1 X95.813 Y106.802 F7800.000
G1 X87.027 Y106.802 E2.63269 F600.000
G1 X86.072 Y106.532 E2.93014
G1 X85.992 Y105.956 E3.10449
G1 X85.992 Y100.288 E4.80289
G1 X86.889 Y95.951 E6.13009
G92 E0
G1 Z1.200 F7800.000
G1 X113.950 Y107.648 F7800.000
G1 X109.537 Y96.562 E3.57549 F600.000
G1 X108.592 Y94.013 E4.38999
G1 X108.152 Y93.349 E4.62870
G1 X107.724 Y93.316 E4.75722
G1 X107.349 Y93.353 E4.87011
G1 X106.919 Y94.010 E5.10550
G1 X105.973 Y96.558 E5.91985
G1 X101.546 Y107.648 E9.49796
G92 E0
G1 X100.454 Y107.648 F7800.000
G1 X95.813 Y103.116 F7800.000
G1 X89.861 Y103.122 F7800.000
G1 X87.027 Y100.288 F7800.000
G1 X85.992 Y92.352 F7800.000
G1 X85.992 Y98.575 E1.86470 F600.000
G1 X86.169 Y99.431 E2.12677
G1 X95.552 Y99.431 E4.93847
G92 E0
G1 X86.027 Y106.648 F7800.000
G1 X86.027 Y106.648 F7800.000
G1 X95.813 Y106.802 F7800.000
G1 X87.027 Y106.802 E2.63269 F600.000
G1 X86.072 Y106.532 E2.93014
G1 X85.992 Y105.956 E3.10449
G1 X85.992 Y100.288 E4.80289
G1 X86.889 Y95.951 E6.13009
G92 E0
G1 Z1.500 F7800.000
G1 X113.950 Y107.648 F7800.000
G1 X109.537 Y96.562 E3.57549 F600.000
G1 X108.592 Y94.013 E4.38999
G1 X108.152 Y93.349 E4.62870
G1 X107.724 Y93.316 E4.75721
G1 X107.349 Y93.353 E4.87011
G1 X106.919 Y94.010 E5.10550
G1 X105.973 Y96.558 E5.91985
G1 X101.546 Y107.648 E9.49796
G92 E0
G1 X100.454 Y107.648 F7800.000
G1 X95.813 Y103.116 F7800.000
G1 X89.861 Y103.122 F7800.000
G1 X87.027 Y100.288 F7800.000
G1 X85.992 Y92.352 F7800.000
G1 X85.992 Y98.575 E1.86470 F600.000
G1 X86.169 Y99.431 E2.12677
G1 X95.552 Y99.431 E4.93847
G92 E0
G1 X86.027 Y106.648 F7800.000
G1 X86.027 Y106.648 F7800.000
G1 X95.813 Y106.802 F7800.000
G1 X87.027 Y106.802 E2.63269 F600.000
G1 X86.072 Y106.532 E2.93014
G1 X85.992 Y105.956 E3.10449
G1 X85.992 Y100.288 E4.80289
G1 X86.889 Y95.951 E6.13009
G92 E0
G1 Z1.800 F7800.000
G1 X113.950 Y107.648 F7800.000
G1 X109.537 Y96.562 E3.57549 F600.000
G1 X108.592 Y94.013 E4.38999
G1 X108.152 Y93.349 E4.62870
G1 X107.724 Y93.316 E4.75722
G1 X107.349 Y93.353 E4.87011
G1 X106.919 Y94.010 E5.10550
G1 X105.973 Y96.558 E5.91985
G1 X101.546 Y107.648 E9.49796
G92 E0
G1 X100.454 Y107.648 F7800.000
G1 X95.813 Y103.116 F7800.000
G1 X89.861 Y103.122 F7800.000
G1 X87.027 Y100.288 F7800.000
G1 X85.992 Y92.352 F7800.000
G1 X85.992 Y98.575 E1.86470 F600.000
G1 X86.169 Y99.431 E2.12677
G1 X95.552 Y99.431 E4.93847
G92 E0
G1 X86.027 Y106.648 F7800.000
G1 X86.027 Y106.648 F7800.000
G1 X95.813 Y106.802 F7800.000
G1 X87.027 Y106.802 E2.63269 F600.000
G1 X86.072 Y106.532 E2.93014
G1 X85.992 Y105.956 E3.10449
G1 X85.992 Y100.288 E4.80289
G1 X86.889 Y95.951 E6.13009
G92 E0
G1 Z2.100 F7800.000
G1 X113.950 Y107.648 F7800.000
G1 X109.537 Y96.562 E3.57549 F600.000
G1 X108.592 Y94.013 E4.38999
G1 X108.152 Y93.349 E4.62870
G1 X107.724 Y93.316 E4.75721
G1 X107.349 Y93.353 E4.87011
G1 X106.919 Y94.010 E5.10550
G1 X105.973 Y96.558 E5.91985
G1 X101.546 Y107.648 E9.49796
G92 E0
G1 X100.454 Y107.648 F7800.000
G1 X95.813 Y103.116 F7800.000
G1 X89.861 Y103.122 F7800.000
G1 X87.027 Y100.288 F7800.000
G1 X85.992 Y92.352 F7800.000
G1 X85.992 Y98.575 E1.86470 F600.000
G1 X86.169 Y99.431 E2.12677
G1 X95.552 Y99.431 E4.93847
G92 E0
G1 X86.027 Y106.648 F7800.000
G1 X86.027 Y106.648 F7800.000
G1 X95.813 Y106.802 F7800.000
G1 X87.027 Y106.802 E2.63269 F600.000
G1 X86.072 Y106.532 E2.93014
G1 X85.992 Y105.956 E3.10449
G1 X85.992 Y100.288 E4.80289
G1 X86.889 Y95.951 E6.13009
G92 E0
M107
M104 S0 ; turn off temperature
G28 X0  ; home X axis
M84     ; disable motors

; filament used = 138.7mm (1.1cm3)

; avoid_crossing_perimeters = 1
; bed_shape = 0x0,250x0,250x250,0x250
; bed_temperature = 0
; before_layer_gcode = 
; bridge_acceleration = 0
; bridge_fan_speed = 100
; brim_width = 0
; complete_objects = 0
; cooling = 1
; default_acceleration = 0
; disable_fan_first_layers = 1
; duplicate_distance = 6
; end_gcode = M104 S0 ; turn off temperature\nG28 X0  ; home X axis\nM84     ; disable motors\n
; extruder_clearance_height = 20
; extruder_clearance_radius = 20
; extruder_offset = 0x0
; extrusion_axis = E
; extrusion_multiplier = 3
; fan_always_on = 0
; fan_below_layer_time = 60
; filament_colour = #FFFFFF
; filament_diameter = 3.125
; first_layer_acceleration = 0
; first_layer_bed_temperature = 0
; first_layer_extrusion_width = 150%
; first_layer_speed = 90%
; first_layer_temperature = 30
; gcode_arcs = 0
; gcode_comments = 0
; gcode_flavor = reprap
; infill_acceleration = 0
; infill_first = 0
; layer_gcode = 
; max_fan_speed = 100
; max_print_speed = 80
; max_volumetric_speed = 0
; min_fan_speed = 35
; min_print_speed = 10
; min_skirt_length = 0
; notes = 
; nozzle_diameter = 1.54
; only_retract_when_crossing_perimeters = 1
; ooze_prevention = 0
; output_filename_format = [input_filename_base].gcode
; perimeter_acceleration = 0
; post_process = 
; pressure_advance = 0
; resolution = 0
; retract_before_travel = 2
; retract_layer_change = 1
; retract_length = 0
; retract_length_toolchange = 10
; retract_lift = 0
; retract_restart_extra = 0
; retract_restart_extra_toolchange = 0
; retract_speed = 0
; skirt_distance = 6
; skirt_height = 1
; skirts = 0
; slowdown_below_layer_time = 30
; spiral_vase = 0
; standby_temperature_delta = -5
; start_gcode = G28 ; home all axes\nG1 Z5 F5000 ; lift nozzle\nM302\nM92 E10000\nM500\nM501\nG1 E100
; temperature = 30
; threads = 2
; toolchange_gcode = 
; travel_speed = 130
; use_firmware_retraction = 0
; use_relative_e_distances = 0
; use_volumetric_e = 0
; vibration_limit = 0
; wipe = 0
; z_offset = 0
; dont_support_bridges = 1
; extrusion_width = 0
; first_layer_height = 100%
; infill_only_where_needed = 0
; interface_shells = 0
; layer_height = 0.3
; raft_layers = 0
; seam_position = random
; support_material = 0
; support_material_angle = 0
; support_material_contact_distance = 0.2
; support_material_enforce_layers = 0
; support_material_extruder = 1
; support_material_extrusion_width = 0
; support_material_interface_extruder = 1
; support_material_interface_layers = 3
; support_material_interface_spacing = 0
; support_material_interface_speed = 100%
; support_material_pattern = pillars
; support_material_spacing = 2.5
; support_material_speed = 7
; support_material_threshold = 0
