; generated by Slic3r 1.2.9 on 2016-03-11 at 01:24:37

; external perimeters extrusion width = 1.54mm
; perimeters extrusion width = 2.62mm
; infill extrusion width = 6.27mm
; solid infill extrusion width = 2.62mm
; top infill extrusion width = 2.62mm

M107
M104 S30 ; set temperature
G28 ; home all axes
G1 Z5 F5000 ; lift nozzle
M302
M92 E10000
M500
M501
G1 E100
M109 S30 ; wait for temperature to be reached
G21 ; set units to millimeters
G90 ; use absolute coordinates
M82 ; use absolute distances for extrusion
G92 E0
G1 Z0.300 F7800.000
G1 X107.916 Y107.423 F7800.000
G1 X106.938 Y107.423 E0.04424 F378.000
G1 X104.457 Y98.555 E0.46092
G1 X103.972 Y96.725 E0.54660
G1 X103.369 Y94.129 E0.66720
G1 X102.931 Y94.129 E0.68700
G1 X102.347 Y96.649 E0.80408
G1 X102.031 Y97.872 E0.86123
G1 X99.328 Y107.423 E1.31037
G1 X97.641 Y107.423 E1.38671
G1 X102.018 Y92.577 E2.08706
G1 X104.150 Y92.577 E2.18355
G1 X105.548 Y97.654 E2.42183
G1 X107.069 Y103.285 E2.68577 F378.000
G1 X107.545 Y105.383 E2.78309
G1 X107.985 Y105.381 E2.80299
G1 X108.544 Y102.891 E2.91845
G1 X108.744 Y102.128 E2.95415
G1 X111.350 Y92.577 E3.40213
G1 X113.482 Y92.577 E3.49860
G1 X117.857 Y107.423 E4.19894
G1 X116.171 Y107.423 E4.27523
G1 X113.585 Y98.109 E4.71262
G1 X113.164 Y96.535 E4.78635
G1 X112.589 Y94.108 E4.89921
G1 X112.154 Y94.115 E4.91888
G1 X111.572 Y96.596 E5.03420
G1 X111.197 Y98.068 E5.10293
G1 X108.581 Y107.423 E5.54249
G1 X108.147 Y107.423 E5.56212
G1 X107.595 Y107.197 F7800.000
G1 X106.957 Y106.559 E5.60355 F540.000
G1 X106.742 Y105.791 F7800.000
G1 X108.148 Y107.197 E5.69493 F540.000
G1 X108.489 Y106.984 E5.71338
G1 X106.527 Y105.022 E5.84085
G1 X107.249 Y105.190 F7800.000
G1 X106.312 Y104.253 E5.90174 F540.000
G1 X106.924 Y103.757 F7800.000
G1 X105.882 Y102.715 E5.96945 F540.000
G1 X106.532 Y102.259 F7800.000
G1 X105.452 Y101.178 E6.03969 F540.000
G1 X105.667 Y101.947 E6.07637
G1 X106.737 Y103.017 E6.14595
G1 X106.097 Y103.484 F7800.000
G1 X107.086 Y104.474 E6.21025 F540.000
G1 X107.667 Y105.608 F7800.000
G1 X108.610 Y106.551 E6.27152 F540.000
G1 X108.731 Y106.118 E6.29217
G1 X108.162 Y105.550 E6.32910
G1 X108.264 Y105.098 E6.35039
G1 X108.852 Y105.685 E6.38858
G1 X108.973 Y105.253 E6.40923
G1 X108.365 Y104.645 E6.44868
G1 X109.094 Y104.820 F7800.000
G1 X108.467 Y104.193 E6.48940 F540.000
G1 X108.569 Y103.741 E6.51069
G1 X109.215 Y104.387 E6.55266
G1 X109.336 Y103.954 E6.57331
G1 X108.670 Y103.289 E6.61655
G1 X108.773 Y102.838 E6.63779
G1 X109.457 Y103.522 E6.68221
G1 X109.578 Y103.089 E6.70285
G1 X108.888 Y102.399 E6.74768
G1 X109.004 Y101.962 E6.76848
G1 X109.699 Y102.656 E6.81363
G1 X109.820 Y102.224 E6.83427
G1 X109.123 Y101.527 E6.87956
G1 X109.241 Y101.092 E6.90028
G1 X109.941 Y101.791 E6.94573
G1 X110.062 Y101.358 E6.96637
G1 X109.360 Y100.656 E7.01196
G1 X109.479 Y100.221 E7.03268
G1 X110.183 Y100.925 E7.07843
G1 X110.304 Y100.493 E7.09907
G1 X109.598 Y99.786 E7.14496
G1 X109.716 Y99.351 E7.16568
G1 X110.425 Y100.060 E7.21173
G1 X110.546 Y99.627 E7.23237
G1 X109.835 Y98.916 E7.27856
G1 X109.954 Y98.481 E7.29928
G1 X110.667 Y99.195 E7.34562
G1 X110.788 Y98.762 E7.36627
G1 X110.072 Y98.046 E7.41276
G1 X110.191 Y97.611 E7.43348
G1 X110.909 Y98.329 E7.48012
G1 X111.027 Y97.893 E7.50088
G1 X110.310 Y97.176 E7.54745
G1 X110.428 Y96.741 E7.56816
G1 X111.139 Y97.452 E7.61433
G1 X111.251 Y97.011 E7.63525
G1 X110.547 Y96.306 E7.68101
G1 X110.666 Y95.871 E7.70173
G1 X111.363 Y96.569 E7.74705
G1 X111.469 Y96.120 E7.76821
G1 X110.785 Y95.436 E7.81266
G1 X110.903 Y95.001 E7.83338
G1 X111.574 Y95.672 E7.87695
G1 X111.679 Y95.223 E7.89812
G1 X111.022 Y94.566 E7.94081
G1 X111.141 Y94.131 E7.96153
G1 X111.784 Y94.775 E8.00336
G1 X111.890 Y94.326 E8.02452
G1 X111.259 Y93.696 E8.06547
G1 X111.378 Y93.261 E8.08619
G1 X112.010 Y93.892 E8.12721
G1 X112.555 Y93.884 E8.15227
G1 X111.497 Y92.826 E8.22101
G1 X112.028 Y92.803 E8.24541
G1 X113.811 Y94.586 E8.36129
G1 X113.580 Y93.801 F7800.000
G1 X112.581 Y92.803 E8.42616 F540.000
G1 X113.135 Y92.803 E8.45160
G1 X113.348 Y93.016 E8.46545
G1 X112.863 Y94.192 F7800.000
G1 X114.042 Y95.372 E8.54208 F540.000
G1 X114.274 Y96.157 E8.57969
G1 X113.035 Y94.918 E8.66017
G1 X113.207 Y95.644 E8.69444
G1 X114.505 Y96.942 E8.77879
G1 X114.737 Y97.727 E8.81640
G1 X113.379 Y96.369 E8.90460
G1 X113.580 Y97.125 E8.94051
G1 X114.968 Y98.512 E9.03066
G1 X115.199 Y99.297 E9.06827
G1 X113.782 Y97.880 E9.16035
G1 X113.994 Y98.646 E9.19685
G1 X115.431 Y100.082 E9.29019
G1 X115.662 Y100.867 E9.32780
G1 X114.207 Y99.412 E9.42235
G1 X114.420 Y100.179 E9.45890
G1 X115.894 Y101.653 E9.55465
G1 X116.125 Y102.438 E9.59226
G1 X114.633 Y100.946 E9.68921
G1 X114.846 Y101.712 E9.72577
G1 X116.356 Y103.223 E9.82392
G1 X116.588 Y104.008 E9.86153
G1 X115.059 Y102.479 E9.96089
G1 X115.271 Y103.245 E9.99744
G1 X116.819 Y104.793 E10.09800
G1 X117.051 Y105.578 E10.13561
G1 X115.484 Y104.012 E10.23737
G1 X115.697 Y104.779 E10.27393
G1 X117.282 Y106.363 E10.37689
G1 X117.513 Y107.148 E10.41450
G1 X115.910 Y105.545 E10.51866
G1 X116.123 Y106.312 E10.55522
G1 X117.008 Y107.197 E10.61273
G92 E0
G1 X108.130 Y106.156 F7800.000
G1 X107.806 Y106.402 F7800.000
G1 X107.711 Y106.402 F7800.000
G1 X107.387 Y106.158 F7800.000
G1 X106.328 Y101.500 F7800.000
G1 X105.236 Y100.409 E0.07090 F540.000
G1 X105.021 Y99.640 E0.10758
G1 X106.123 Y100.741 E0.17913
G1 X105.918 Y99.983 E0.21524
G1 X104.806 Y98.871 E0.28745
G1 X104.597 Y98.108 E0.32381
G1 X105.713 Y99.224 E0.39631
G1 X105.508 Y98.465 E0.43242
G1 X104.397 Y97.355 E0.50460
G1 X104.197 Y96.601 E0.54042
G1 X105.302 Y97.706 E0.61222
G1 X105.092 Y96.942 F7800.000
G1 X104.028 Y95.878 E0.68132 F540.000
G1 X103.861 Y95.157 E0.71533
G1 X104.881 Y96.178 E0.78163
G1 X104.671 Y95.414 E0.81805
G1 X103.694 Y94.436 E0.88155
G1 X103.160 Y93.903 F7800.000
G1 X102.142 Y92.884 E0.94772 F540.000
G1 X102.016 Y93.312 E0.96820
G1 X102.738 Y94.034 E1.01514
G1 X102.634 Y94.484 E1.03634
G1 X101.890 Y93.740 E1.08470
G1 X101.764 Y94.167 E1.10518
G1 X102.530 Y94.934 E1.15496
G1 X102.426 Y95.383 E1.17616
G1 X101.638 Y94.595 E1.22737
G1 X101.511 Y95.023 E1.24785
G1 X102.321 Y95.833 E1.30047
G1 X102.217 Y96.282 E1.32168
G1 X101.385 Y95.450 E1.37572
G1 X101.259 Y95.878 E1.39621
G1 X102.111 Y96.730 E1.45157
G1 X101.998 Y97.170 E1.47245
G1 X101.133 Y96.306 E1.52861
G1 X101.007 Y96.733 E1.54910
G1 X101.884 Y97.610 E1.60606
G1 X101.767 Y98.047 E1.62683
G1 X100.881 Y97.161 E1.68438
G1 X100.755 Y97.589 E1.70487
G1 X101.645 Y98.478 E1.76267
G1 X101.522 Y98.910 E1.78328
G1 X100.629 Y98.016 E1.84134
G1 X100.503 Y98.444 E1.86182
G1 X101.400 Y99.342 E1.92013
G1 X101.278 Y99.773 E1.94074
G1 X100.377 Y98.872 E1.99931
G1 X100.251 Y99.299 E2.01980
G1 X101.156 Y100.205 E2.07862
G1 X101.034 Y100.636 E2.09923
G1 X100.125 Y99.727 E2.15831
G1 X99.999 Y100.155 E2.17879
G1 X100.912 Y101.068 E2.23812
G1 X100.790 Y101.499 E2.25873
G1 X99.873 Y100.582 E2.31832
G1 X99.746 Y101.010 E2.33881
G1 X100.667 Y101.931 E2.39865
G1 X100.545 Y102.363 E2.41926
G1 X99.620 Y101.438 E2.47936
G1 X99.494 Y101.865 E2.49984
G1 X100.423 Y102.794 E2.56020
G1 X100.301 Y103.226 E2.58080
G1 X99.368 Y102.293 E2.64141
G1 X99.242 Y102.721 E2.66190
G1 X100.179 Y103.657 E2.72276
G1 X100.057 Y104.089 E2.74337
G1 X99.116 Y103.148 E2.80449
G1 X98.990 Y103.576 E2.82498
G1 X99.935 Y104.521 E2.88635
G1 X99.812 Y104.952 E2.90696
G1 X98.864 Y104.004 E2.96859
G1 X98.738 Y104.431 E2.98907
G1 X99.690 Y105.384 E3.05096
G1 X99.568 Y105.815 E3.07157
G1 X98.612 Y104.859 E3.13371
G1 X98.486 Y105.287 E3.15419
G1 X99.446 Y106.247 E3.21659
G1 X99.324 Y106.679 E3.23720
G1 X98.360 Y105.714 E3.29985
G1 X98.234 Y106.142 E3.32033
G1 X99.202 Y107.110 E3.38324
G1 X98.735 Y107.197 E3.40506
G1 X98.108 Y106.570 E3.44582
G1 X97.981 Y106.997 E3.46630
G1 X98.181 Y107.197 E3.47928
G92 E0
G1 X100.292 Y101.171 F7800.000
G1 X100.292 Y101.171 F7800.000
G1 X104.461 Y94.649 F7800.000
G1 X102.614 Y92.803 E0.11998 F540.000
G1 X103.168 Y92.803 E0.14542
G1 X104.250 Y93.885 E0.21575
G1 X104.040 Y93.121 E0.25216
G1 X103.722 Y92.803 E0.27284
G92 E0
G1 X101.849 Y92.352 F7800.000
G1 X95.942 Y95.210 F7800.000
G1 X88.024 Y94.463 F7800.000
G1 X85.913 Y92.352 F7800.000
G1 X83.913 Y92.352 F7800.000
G1 X83.688 Y94.376 F7800.000
G1 X83.688 Y98.800 E0.20018 F378.000
G1 X92.213 Y98.800 E0.58593 F378.000
G1 X92.213 Y100.063 E0.64308
G1 X83.688 Y100.063 E1.02883
G1 X83.688 Y106.181 E1.30567
G1 X92.474 Y106.181 E1.70323
G1 X92.474 Y107.423 E1.75943
G1 X82.067 Y107.423 E2.23034
G1 X82.067 Y92.577 E2.90211
G1 X83.688 Y92.577 E2.97546
G1 X83.688 Y94.145 E3.04641
G1 X82.832 Y92.803 F7800.000
G1 X83.462 Y93.432 E3.08670 F540.000
G1 X83.462 Y93.978 E3.11140
G1 X82.310 Y92.826 E3.18515
G1 X82.293 Y93.354 E3.20908
G1 X83.462 Y94.523 E3.28393
G1 X83.462 Y95.069 E3.30862
G1 X82.293 Y93.900 E3.38347
G1 X82.293 Y94.446 E3.40816
G1 X83.462 Y95.615 E3.48300
G1 X83.462 Y96.160 E3.50770
G1 X82.293 Y94.991 E3.58254
G1 X82.293 Y95.537 E3.60724
G1 X83.462 Y96.706 E3.68208
G1 X83.462 Y97.251 E3.70678
G1 X82.293 Y96.082 E3.78162
G1 X82.293 Y96.628 E3.80632
G1 X83.462 Y97.797 E3.88116
G1 X83.462 Y98.342 E3.90585
G1 X82.293 Y97.173 E3.98070
G1 X82.293 Y97.719 E4.00539
G1 X83.462 Y98.888 E4.08024
G1 X82.293 Y106.993 F7800.000
G1 X82.496 Y107.197 E4.09327 F540.000
G1 X83.042 Y107.197 E4.11796
G1 X82.293 Y106.448 E4.16592
G1 X82.293 Y105.902 E4.19062
G1 X83.587 Y107.197 E4.27350
G1 X92.248 Y106.583 F7800.000
G1 X92.072 Y106.407 E4.28476 F540.000
G1 X91.526 Y106.407 E4.30946
G1 X92.248 Y107.128 E4.35565
G1 X91.771 Y107.197 E4.37746
G1 X90.981 Y106.407 E4.42804
G1 X90.435 Y106.407 E4.45274
G1 X91.225 Y107.197 E4.50332
G1 X90.680 Y107.197 E4.52801
G1 X89.890 Y106.407 E4.57859
G1 X89.344 Y106.407 E4.60329
G1 X90.134 Y107.197 E4.65387
G1 X89.589 Y107.197 E4.67856
G1 X88.799 Y106.407 E4.72914
G1 X88.253 Y106.407 E4.75384
G1 X89.043 Y107.197 E4.80442
G1 X88.497 Y107.197 E4.82911
G1 X87.707 Y106.407 E4.87969
G1 X87.162 Y106.407 E4.90439
G1 X87.952 Y107.197 E4.95497
G1 X87.406 Y107.197 E4.97966
G1 X86.616 Y106.407 E5.03024
G1 X86.071 Y106.407 E5.05494
G1 X86.861 Y107.197 E5.10552
G1 X86.315 Y107.197 E5.13022
G1 X85.525 Y106.407 E5.18080
G1 X84.980 Y106.407 E5.20549
G1 X85.770 Y107.197 E5.25607
G1 X85.224 Y107.197 E5.28077
G1 X84.434 Y106.407 E5.33135
G1 X83.888 Y106.407 E5.35604
G1 X84.679 Y107.197 E5.40662
G1 X84.133 Y107.197 E5.43132
G1 X82.293 Y105.357 E5.54913
G1 X82.293 Y104.811 E5.57382
G1 X83.462 Y105.980 E5.64867
G1 X83.462 Y105.435 E5.67336
G1 X82.293 Y104.266 E5.74820
G1 X82.293 Y103.720 E5.77290
G1 X83.462 Y104.889 E5.84774
G1 X83.462 Y104.344 E5.87244
G1 X82.293 Y103.175 E5.94728
G1 X82.293 Y102.629 E5.97198
G1 X83.462 Y103.798 E6.04682
G1 X83.462 Y103.252 E6.07152
G1 X82.293 Y102.083 E6.14636
G1 X82.293 Y101.538 E6.17106
G1 X83.462 Y102.707 E6.24590
G1 X83.462 Y102.161 E6.27059
G1 X82.293 Y100.992 E6.34544
G1 X82.293 Y100.447 E6.37013
G1 X83.462 Y101.616 E6.44498
G1 X83.462 Y101.070 E6.46967
G1 X82.293 Y99.901 E6.54451
G1 X82.293 Y99.356 E6.56921
G1 X83.462 Y100.525 E6.64405
G1 X83.462 Y99.979 E6.66875
G1 X82.293 Y98.810 E6.74359
G1 X82.293 Y98.264 E6.76829
G1 X83.865 Y99.837 E6.86896
G1 X84.411 Y99.837 E6.89366
G1 X83.600 Y99.026 E6.94558
G1 X84.145 Y99.026 E6.97028
G1 X84.956 Y99.837 E7.02220
G1 X85.502 Y99.837 E7.04690
G1 X84.691 Y99.026 E7.09882
G1 X85.236 Y99.026 E7.12352
G1 X86.048 Y99.837 E7.17544
G1 X86.593 Y99.837 E7.20014
G1 X85.782 Y99.026 E7.25206
G1 X86.328 Y99.026 E7.27675
G1 X87.139 Y99.837 E7.32868
G1 X87.684 Y99.837 E7.35337
G1 X86.873 Y99.026 E7.40530
G1 X87.419 Y99.026 E7.42999
G1 X88.230 Y99.837 E7.48192
G1 X88.775 Y99.837 E7.50661
G1 X87.964 Y99.026 E7.55854
G1 X88.510 Y99.026 E7.58323
G1 X89.321 Y99.837 E7.63516
G1 X89.866 Y99.837 E7.65985
G1 X89.055 Y99.026 E7.71178
G1 X89.601 Y99.026 E7.73647
G1 X90.412 Y99.837 E7.78840
G1 X90.958 Y99.837 E7.81309
G1 X90.147 Y99.026 E7.86502
G1 X90.692 Y99.026 E7.88971
G1 X91.503 Y99.837 E7.94164
G1 X91.987 Y99.775 E7.96371
G1 X91.238 Y99.026 E8.01167
G1 X91.783 Y99.026 E8.03637
G1 X91.987 Y99.230 E8.04940
M106 S255
G92 E0
G1 Z0.600 F7800.000
G1 X117.077 Y107.648 F7800.000
G1 X114.292 Y97.917 E3.03301 F600.000
G1 X113.855 Y96.361 E3.51720
G1 X113.263 Y94.134 E4.20762
G1 X112.869 Y93.397 E4.45822
G1 X112.397 Y93.344 E4.60067
G1 X111.963 Y93.379 E4.73111
G1 X111.536 Y94.150 E4.99507
G1 X110.570 Y97.900 E6.15554
G1 X109.155 Y103.040 E7.75285
G1 X108.577 Y105.330 E8.46068
G1 X107.806 Y106.402 E8.85639
G1 X107.712 Y106.402 E8.88454
G1 X106.947 Y105.333 E9.27842
G1 X106.467 Y103.435 E9.86517
G1 X104.589 Y96.571 E11.99750
G1 X103.980 Y94.170 E12.73969
G1 X103.536 Y93.383 E13.01066
G1 X103.110 Y93.353 E13.13869
G1 X102.639 Y93.408 E13.28070
G1 X102.245 Y94.153 E13.53324
G1 X101.302 Y97.675 E14.62567
G1 X98.421 Y107.648 E17.73629
G92 E0
G1 X97.340 Y107.648 F7800.000
G1 X92.699 Y103.116 F7800.000
G1 X86.747 Y103.122 F7800.000
G1 X83.913 Y100.288 F7800.000
G1 X82.877 Y92.352 F7800.000
G1 X82.877 Y98.575 E1.86470 F600.000
G1 X83.054 Y99.431 E2.12677
G1 X92.438 Y99.431 E4.93847
G92 E0
G1 X82.913 Y106.648 F7800.000
G1 X82.913 Y106.648 F7800.000
G1 X92.699 Y106.802 F7800.000
G1 X83.913 Y106.802 E2.63269 F600.000
G1 X82.957 Y106.532 E2.93014
G1 X82.877 Y105.956 E3.10449
G1 X82.877 Y100.288 E4.80289
G1 X83.774 Y95.951 E6.13009
G92 E0
G1 Z0.900 F7800.000
G1 X117.077 Y107.648 F7800.000
G1 X114.292 Y97.917 E3.03301 F600.000
G1 X113.855 Y96.361 E3.51720
G1 X113.263 Y94.134 E4.20762
G1 X112.869 Y93.397 E4.45822
G1 X112.397 Y93.344 E4.60068
G1 X111.963 Y93.379 E4.73112
G1 X111.536 Y94.150 E4.99507
G1 X110.570 Y97.900 E6.15554
G1 X109.155 Y103.040 E7.75285
G1 X108.577 Y105.330 E8.46068
G1 X107.806 Y106.402 E8.85639
G1 X107.712 Y106.402 E8.88454
G1 X106.947 Y105.333 E9.27842
G1 X106.466 Y103.432 E9.86610
G1 X104.589 Y96.571 E11.99750
G1 X103.980 Y94.170 E12.73970
G1 X103.536 Y93.383 E13.01066
G1 X103.110 Y93.353 E13.13869
G1 X102.639 Y93.408 E13.28070
G1 X102.245 Y94.153 E13.53324
G1 X101.302 Y97.675 E14.62567
G1 X98.421 Y107.648 E17.73630
G92 E0
G1 X97.340 Y107.648 F7800.000
G1 X92.699 Y103.116 F7800.000
G1 X86.747 Y103.122 F7800.000
G1 X83.913 Y100.288 F7800.000
G1 X82.877 Y92.352 F7800.000
G1 X82.877 Y98.575 E1.86470 F600.000
G1 X83.054 Y99.431 E2.12677
G1 X92.438 Y99.431 E4.93847
G92 E0
G1 X82.913 Y106.648 F7800.000
G1 X82.913 Y106.648 F7800.000
G1 X92.699 Y106.802 F7800.000
G1 X83.913 Y106.802 E2.63269 F600.000
G1 X82.957 Y106.532 E2.93014
G1 X82.877 Y105.956 E3.10449
G1 X82.877 Y100.288 E4.80289
G1 X83.774 Y95.951 E6.13009
G92 E0
G1 Z1.200 F7800.000
G1 X117.077 Y107.648 F7800.000
G1 X114.292 Y97.917 E3.03301 F600.000
G1 X113.855 Y96.361 E3.51720
G1 X113.263 Y94.134 E4.20762
G1 X112.869 Y93.397 E4.45822
G1 X112.397 Y93.344 E4.60068
G1 X111.963 Y93.379 E4.73112
G1 X111.536 Y94.150 E4.99507
G1 X110.570 Y97.900 E6.15554
G1 X109.155 Y103.040 E7.75285
G1 X108.577 Y105.330 E8.46068
G1 X107.806 Y106.402 E8.85639
G1 X107.712 Y106.402 E8.88454
G1 X106.947 Y105.333 E9.27842
G1 X106.466 Y103.432 E9.86610
G1 X104.588 Y96.571 E11.99750
G1 X103.980 Y94.170 E12.73970
G1 X103.536 Y93.383 E13.01067
G1 X103.110 Y93.353 E13.13869
G1 X102.639 Y93.408 E13.28071
G1 X102.245 Y94.153 E13.53325
G1 X101.302 Y97.675 E14.62568
G1 X98.421 Y107.648 E17.73630
G92 E0
G1 X97.340 Y107.648 F7800.000
G1 X92.699 Y103.116 F7800.000
G1 X86.747 Y103.122 F7800.000
G1 X83.913 Y100.288 F7800.000
G1 X82.877 Y92.352 F7800.000
G1 X82.877 Y98.575 E1.86470 F600.000
G1 X83.054 Y99.431 E2.12677
G1 X92.438 Y99.431 E4.93847
G92 E0
G1 X82.913 Y106.648 F7800.000
G1 X82.913 Y106.648 F7800.000
G1 X92.699 Y106.802 F7800.000
G1 X83.913 Y106.802 E2.63269 F600.000
G1 X82.957 Y106.532 E2.93014
G1 X82.877 Y105.956 E3.10449
G1 X82.877 Y100.288 E4.80289
G1 X83.774 Y95.951 E6.13009
G92 E0
G1 Z1.500 F7800.000
G1 X117.077 Y107.648 F7800.000
G1 X114.292 Y97.917 E3.03301 F600.000
G1 X113.855 Y96.361 E3.51720
G1 X113.263 Y94.134 E4.20762
G1 X112.869 Y93.397 E4.45822
G1 X112.397 Y93.344 E4.60067
G1 X111.963 Y93.379 E4.73111
G1 X111.536 Y94.150 E4.99507
G1 X110.570 Y97.900 E6.15554
G1 X109.155 Y103.040 E7.75285
G1 X108.577 Y105.330 E8.46068
G1 X107.806 Y106.402 E8.85639
