; generated by Slic3r 1.2.9 on 2016-03-11 at 01:24:38

; external perimeters extrusion width = 1.54mm
; perimeters extrusion width = 2.62mm
; infill extrusion width = 6.27mm
; solid infill extrusion width = 2.62mm
; top infill extrusion width = 2.62mm

M107
M104 S30 ; set temperature
G28 ; home all axes
G1 Z5 F5000 ; lift nozzle
M302
M92 E10000
M500
M501
G1 E100
M109 S30 ; wait for temperature to be reached
G21 ; set units to millimeters
G90 ; use absolute coordinates
M82 ; use absolute distances for extrusion
G92 E0
G1 Z0.300 F7800.000
G1 X111.022 Y105.638 F7800.000
G1 X108.011 Y101.251 E0.24075 F378.000
G1 X103.654 Y107.423 E0.58261
G1 X101.925 Y107.423 E0.66084
G1 X107.118 Y100.299 E1.05976
G1 X101.482 Y92.577 E1.49235
G1 X103.209 Y92.577 E1.57054
G1 X107.463 Y98.666 E1.90664
G1 X108.000 Y99.435 E1.94905 F378.000
G1 X112.690 Y92.577 E2.32500
G1 X114.426 Y92.577 E2.40352
G1 X108.923 Y100.376 E2.83543
G1 X113.977 Y107.423 E3.22786
G1 X112.246 Y107.423 E3.30620
G1 X111.152 Y105.829 E3.39368
G1 X110.843 Y104.871 F7800.000
G1 X113.169 Y107.197 E3.54445 F540.000
G1 X112.616 Y107.197 E3.56977
G1 X112.051 Y106.632 E3.60642
G1 X112.797 Y106.273 F7800.000
G1 X109.635 Y103.111 E3.81138 F540.000
G1 X109.993 Y102.364 F7800.000
G1 X106.259 Y98.630 E4.05343 F540.000
G1 X106.445 Y97.711 F7800.000
G1 X103.272 Y94.538 E4.25912 F540.000
G1 X103.885 Y94.046 F7800.000
G1 X102.642 Y92.803 E4.33970 F540.000
G1 X102.089 Y92.803 E4.36503
G1 X105.165 Y95.878 E4.56441
G1 X104.765 Y96.584 F7800.000
G1 X108.632 Y100.451 E4.81510 F540.000
G1 X108.861 Y100.127 E4.83328
G1 X108.208 Y99.474 E4.87562
G1 X108.432 Y99.146 E4.89384
G1 X109.090 Y99.803 E4.93645
G1 X109.318 Y99.479 E4.95462
G1 X108.657 Y98.818 E4.99750
G1 X108.881 Y98.490 E5.01572
G1 X109.547 Y99.155 E5.05887
G1 X109.775 Y98.831 E5.07705
G1 X109.106 Y98.162 E5.12047
G1 X109.330 Y97.834 E5.13869
G1 X110.004 Y98.508 E5.18237
G1 X110.232 Y98.184 E5.20055
G1 X109.554 Y97.506 E5.24451
G1 X109.779 Y97.177 E5.26273
G1 X110.461 Y97.860 E5.30695
G1 X110.690 Y97.536 E5.32513
G1 X110.003 Y96.849 E5.36962
G1 X110.228 Y96.521 E5.38785
G1 X110.918 Y97.212 E5.43261
G1 X111.147 Y96.888 E5.45079
G1 X110.452 Y96.193 E5.49582
G1 X110.676 Y95.865 E5.51404
G1 X111.375 Y96.564 E5.55935
G1 X111.604 Y96.240 E5.57752
G1 X110.901 Y95.537 E5.62310
G1 X111.125 Y95.209 E5.64132
G1 X111.832 Y95.916 E5.68716
G1 X112.061 Y95.592 E5.70534
G1 X111.350 Y94.881 E5.75145
G1 X111.574 Y94.553 E5.76967
G1 X112.289 Y95.268 E5.81605
G1 X112.518 Y94.944 E5.83423
G1 X111.798 Y94.225 E5.88088
G1 X112.023 Y93.897 E5.89910
G1 X112.747 Y94.621 E5.94602
G1 X112.975 Y94.297 E5.96420
G1 X112.247 Y93.569 E6.01139
G1 X112.472 Y93.241 E6.02961
G1 X113.204 Y93.973 E6.07707
G1 X113.432 Y93.649 E6.09524
G1 X112.696 Y92.912 E6.14297
G1 X113.139 Y92.803 E6.16389
G1 X113.661 Y93.325 E6.19772
G1 X113.691 Y92.803 E6.22169
G1 X113.889 Y93.001 E6.23452
G92 E0
G1 X111.395 Y104.318 F7800.000
G1 X107.365 Y100.289 E0.26123 F540.000
G1 X107.132 Y100.608 E0.27936
G1 X107.775 Y101.251 E0.32100
G1 X107.546 Y101.574 E0.33917
G1 X106.899 Y100.928 E0.38110
G1 X106.666 Y101.247 E0.39923
G1 X107.317 Y101.898 E0.44143
G1 X107.089 Y102.222 E0.45960
G1 X106.433 Y101.567 E0.50208
G1 X106.200 Y101.886 E0.52021
G1 X106.860 Y102.546 E0.56297
G1 X106.631 Y102.870 E0.58114
G1 X105.968 Y102.206 E0.62418
G1 X105.735 Y102.525 E0.64231
G1 X106.403 Y103.194 E0.68563
G1 X106.174 Y103.518 E0.70380
G1 X105.502 Y102.845 E0.74740
G1 X105.269 Y103.165 E0.76553
G1 X105.946 Y103.841 E0.80940
G1 X105.717 Y104.165 E0.82758
G1 X105.036 Y103.484 E0.87173
G1 X104.803 Y103.804 E0.88986
G1 X105.488 Y104.489 E0.93429
G1 X105.260 Y104.813 E0.95246
G1 X104.570 Y104.123 E0.99718
G1 X104.337 Y104.443 E1.01530
G1 X105.031 Y105.137 E1.06030
G1 X104.802 Y105.461 E1.07847
G1 X104.104 Y104.762 E1.12374
G1 X103.871 Y105.082 E1.14187
G1 X104.574 Y105.784 E1.18741
G1 X104.345 Y106.108 E1.20559
G1 X103.638 Y105.401 E1.25142
G1 X103.405 Y105.721 E1.26954
G1 X104.117 Y106.432 E1.31565
G1 X103.888 Y106.756 E1.33382
G1 X103.172 Y106.041 E1.38021
G1 X102.939 Y106.360 E1.39833
G1 X103.659 Y107.080 E1.44500
G1 X103.224 Y107.197 E1.46566
G1 X102.707 Y106.680 E1.49921
G1 X102.474 Y106.999 E1.51734
G1 X102.671 Y107.197 E1.53017
G92 E0
G1 X101.483 Y107.648 F7800.000
G1 X99.001 Y105.956 F7800.000
G1 X97.997 Y107.648 F7800.000
G1 X95.997 Y107.648 F7800.000
G1 X85.365 Y106.991 F7800.000
G1 X85.365 Y92.577 E0.65223 F378.000
G1 X86.986 Y92.577 E0.72558
G1 X86.986 Y98.800 E1.00717
G1 X95.511 Y98.800 E1.39292 F378.000
G1 X95.511 Y100.063 E1.45007
G1 X86.986 Y100.063 E1.83582
G1 X86.986 Y106.181 E2.11265
G1 X95.772 Y106.181 E2.51021
G1 X95.772 Y107.423 E2.56641
G1 X85.365 Y107.423 E3.03732
G1 X85.365 Y107.222 E3.04641
G1 X85.591 Y106.993 F7800.000
G1 X85.795 Y107.197 E3.05944 F540.000
G1 X86.340 Y107.197 E3.08414
G1 X85.591 Y106.448 E3.13209
G1 X85.591 Y105.902 E3.15679
G1 X86.886 Y107.197 E3.23967
G1 X86.760 Y98.888 F7800.000
G1 X85.591 Y97.719 E3.31452 F540.000
G1 X85.591 Y97.173 E3.33921
G1 X86.760 Y98.342 E3.41406
G1 X86.760 Y97.797 E3.43875
G1 X85.591 Y96.628 E3.51359
G1 X85.591 Y96.082 E3.53829
G1 X86.760 Y97.251 E3.61313
G1 X86.760 Y96.706 E3.63783
G1 X85.591 Y95.537 E3.71267
G1 X85.591 Y94.991 E3.73737
G1 X86.760 Y96.160 E3.81221
G1 X86.760 Y95.615 E3.83691
G1 X85.591 Y94.446 E3.91175
G1 X85.591 Y93.900 E3.93645
G1 X86.760 Y95.069 E4.01129
G1 X86.760 Y94.523 E4.03598
G1 X85.591 Y93.354 E4.11083
G1 X85.608 Y92.826 E4.13476
G1 X86.760 Y93.978 E4.20851
G1 X86.760 Y93.432 E4.23321
G1 X86.131 Y92.803 E4.27350
G92 E0
G1 X86.211 Y93.352 F7800.000
G1 X86.211 Y93.352 F7800.000
G1 X95.285 Y99.230 F7800.000
G1 X95.082 Y99.026 E0.01303 F540.000
G1 X94.536 Y99.026 E0.03773
G1 X95.285 Y99.775 E0.08569
G1 X94.802 Y99.837 E0.10776
G1 X93.991 Y99.026 E0.15969
G1 X93.445 Y99.026 E0.18438
G1 X94.256 Y99.837 E0.23631
G1 X93.711 Y99.837 E0.26100
G1 X92.899 Y99.026 E0.31293
G1 X92.354 Y99.026 E0.33762
G1 X93.165 Y99.837 E0.38955
G1 X92.619 Y99.837 E0.41424
G1 X91.808 Y99.026 E0.46617
G1 X91.263 Y99.026 E0.49086
G1 X92.074 Y99.837 E0.54278
G1 X91.528 Y99.837 E0.56748
G1 X90.717 Y99.026 E0.61940
G1 X90.172 Y99.026 E0.64410
G1 X90.983 Y99.837 E0.69602
G1 X90.437 Y99.837 E0.72072
G1 X89.626 Y99.026 E0.77264
G1 X89.081 Y99.026 E0.79734
G1 X89.892 Y99.837 E0.84926
G1 X89.346 Y99.837 E0.87396
G1 X88.535 Y99.026 E0.92588
G1 X87.989 Y99.026 E0.95058
G1 X88.800 Y99.837 E1.00250
G1 X88.255 Y99.837 E1.02720
G1 X87.444 Y99.026 E1.07912
G1 X86.898 Y99.026 E1.10382
G1 X87.709 Y99.837 E1.15574
G1 X87.164 Y99.837 E1.18044
G1 X85.591 Y98.264 E1.28111
G1 X85.591 Y98.810 E1.30581
G1 X86.760 Y99.979 E1.38065
G1 X86.760 Y100.525 E1.40535
G1 X85.591 Y99.356 E1.48019
G1 X85.591 Y99.901 E1.50489
G1 X86.760 Y101.070 E1.57973
G1 X86.760 Y101.616 E1.60442
G1 X85.591 Y100.447 E1.67927
G1 X85.591 Y100.992 E1.70396
G1 X86.760 Y102.161 E1.77881
G1 X86.760 Y102.707 E1.80350
G1 X85.591 Y101.538 E1.87834
G1 X85.591 Y102.083 E1.90304
G1 X86.760 Y103.252 E1.97788
G1 X86.760 Y103.798 E2.00258
G1 X85.591 Y102.629 E2.07742
G1 X85.591 Y103.175 E2.10212
G1 X86.760 Y104.344 E2.17696
G1 X86.760 Y104.889 E2.20166
G1 X85.591 Y103.720 E2.27650
G1 X85.591 Y104.266 E2.30119
G1 X86.760 Y105.435 E2.37604
G1 X86.760 Y105.980 E2.40073
G1 X85.591 Y104.811 E2.47558
G1 X85.591 Y105.357 E2.50027
G1 X87.431 Y107.197 E2.61808
G1 X87.977 Y107.197 E2.64278
G1 X87.187 Y106.407 E2.69336
G1 X87.733 Y106.407 E2.71805
G1 X88.523 Y107.197 E2.76863
G1 X89.068 Y107.197 E2.79333
G1 X88.278 Y106.407 E2.84391
G1 X88.824 Y106.407 E2.86860
G1 X89.614 Y107.197 E2.91918
G1 X90.159 Y107.197 E2.94388
G1 X89.369 Y106.407 E2.99446
G1 X89.915 Y106.407 E3.01915
G1 X90.705 Y107.197 E3.06973
G1 X91.250 Y107.197 E3.09443
G1 X90.460 Y106.407 E3.14501
G1 X91.006 Y106.407 E3.16971
G1 X91.796 Y107.197 E3.22029
G1 X92.342 Y107.197 E3.24498
G1 X91.551 Y106.407 E3.29556
G1 X92.097 Y106.407 E3.32026
G1 X92.887 Y107.197 E3.37084
G1 X93.433 Y107.197 E3.39553
G1 X92.643 Y106.407 E3.44611
G1 X93.188 Y106.407 E3.47081
G1 X93.978 Y107.197 E3.52139
G1 X94.524 Y107.197 E3.54608
G1 X93.734 Y106.407 E3.59666
G1 X94.279 Y106.407 E3.62136
G1 X95.069 Y107.197 E3.67194
G1 X95.546 Y107.128 E3.69375
G1 X94.825 Y106.407 E3.73994
G1 X95.370 Y106.407 E3.76463
G1 X95.546 Y106.583 E3.77590
M106 S255
G92 E0
G1 Z0.600 F7800.000
G1 X113.710 Y92.352 F7800.000
G1 X108.721 Y99.533 E2.62025 F600.000
G1 X108.446 Y99.844 E2.74446
G1 X108.023 Y100.224 E2.91493
G1 X108.015 Y100.459 E2.98523
G1 X108.478 Y100.892 E3.17516
G1 X108.713 Y101.162 E3.28238
G1 X113.263 Y107.648 E5.65652
G1 X110.640 Y102.630 F7800.000
G1 X107.544 Y99.785 E6.91632 F600.000
G1 X107.310 Y99.520 E7.02240
G1 X102.191 Y92.352 E9.66155
G92 E0
G1 X102.633 Y107.648 F7800.000
G1 X107.299 Y101.144 E2.39857 F600.000
G1 X107.579 Y100.838 E2.52286
G1 X110.699 Y98.128 E3.76121
G92 E0
G1 X106.840 Y100.299 F7800.000
G1 X97.644 Y94.830 F7800.000
G1 X95.736 Y94.463 F7800.000
G1 X91.323 Y94.463 F7800.000
G1 X87.211 Y98.575 F7800.000
G1 X86.176 Y92.352 F7800.000
G1 X86.176 Y98.575 E1.86470 F600.000
G1 X86.353 Y99.431 E2.12677
G1 X95.736 Y99.431 E4.93847
G92 E0
G1 X86.211 Y106.648 F7800.000
G1 X86.211 Y106.648 F7800.000
G1 X95.997 Y106.802 F7800.000
G1 X87.211 Y106.802 E2.63269 F600.000
G1 X86.256 Y106.532 E2.93014
G1 X86.176 Y105.956 E3.10449
G1 X86.176 Y100.288 E4.80289
G1 X87.073 Y95.951 E6.13009
G92 E0
G1 Z0.900 F7800.000
G1 X113.710 Y92.352 F7800.000
G1 X108.721 Y99.533 E2.62025 F600.000
G1 X108.446 Y99.844 E2.74446
G1 X108.023 Y100.224 E2.91493
G1 X108.015 Y100.459 E2.98523
G1 X108.478 Y100.892 E3.17516
G1 X108.713 Y101.162 E3.28238
G1 X113.263 Y107.648 E5.65652
G1 X110.640 Y102.630 F7800.000
G1 X107.544 Y99.785 E6.91632 F600.000
G1 X107.310 Y99.520 E7.02240
G1 X102.191 Y92.352 E9.66155
G92 E0
G1 X102.633 Y107.648 F7800.000
G1 X107.299 Y101.144 E2.39857 F600.000
G1 X107.579 Y100.838 E2.52286
G1 X110.699 Y98.128 E3.76121
G92 E0
G1 X106.840 Y100.299 F7800.000
G1 X97.644 Y94.830 F7800.000
G1 X95.736 Y94.463 F7800.000
G1 X91.323 Y94.463 F7800.000
G1 X87.211 Y98.575 F7800.000
G1 X86.176 Y92.352 F7800.000
G1 X86.176 Y98.575 E1.86470 F600.000
G1 X86.353 Y99.431 E2.12677
G1 X95.736 Y99.431 E4.93847
G92 E0
G1 X86.211 Y106.648 F7800.000
G1 X86.211 Y106.648 F7800.000
G1 X95.997 Y106.802 F7800.000
G1 X87.211 Y106.802 E2.63269 F600.000
G1 X86.256 Y106.532 E2.93014
G1 X86.176 Y105.956 E3.10449
G1 X86.176 Y100.288 E4.80289
G1 X87.073 Y95.951 E6.13009
G92 E0
G1 Z1.200 F7800.000
G1 X113.710 Y92.352 F7800.000
G1 X108.721 Y99.533 E2.62025 F600.000
G1 X108.446 Y99.844 E2.74446
G1 X108.023 Y100.224 E2.91493
G1 X108.015 Y100.459 E2.98523
G1 X108.478 Y100.892 E3.17516
G1 X108.713 Y101.162 E3.28238
G1 X113.263 Y107.648 E5.65652
G1 X110.640 Y102.630 F7800.000
G1 X107.544 Y99.785 E6.91632 F600.000
G1 X107.310 Y99.520 E7.02240
G1 X102.191 Y92.352 E9.66155
G92 E0
G1 X102.633 Y107.648 F7800.000
G1 X107.299 Y101.144 E2.39857 F600.000
G1 X107.579 Y100.838 E2.52286
G1 X110.699 Y98.128 E3.76121
G92 E0
G1 X106.840 Y100.299 F7800.000
G1 X97.644 Y94.830 F7800.000
G1 X95.736 Y94.463 F7800.000
G1 X91.323 Y94.463 F7800.000
G1 X87.211 Y98.575 F7800.000
G1 X86.176 Y92.352 F7800.000
G1 X86.176 Y98.575 E1.86470 F600.000
G1 X86.353 Y99.431 E2.12677
G1 X95.736 Y99.431 E4.93847
G92 E0
G1 X86.211 Y106.648 F7800.000
G1 X86.211 Y106.648 F7800.000
G1 X95.997 Y106.802 F7800.000
G1 X87.211 Y106.802 E2.63269 F600.000
G1 X86.256 Y106.532 E2.93014
G1 X86.176 Y105.956 E3.10449
G1 X86.176 Y100.288 E4.80289
G1 X87.073 Y95.951 E6.13009
G92 E0
G1 Z1.500 F7800.000
G1 X113.710 Y92.352 F7800.000
G1 X108.721 Y99.533 E2.62025 F600.000
G1 X108.446 Y99.844 E2.74446
G1 X108.023 Y100.224 E2.91493
G1 X108.015 Y100.459 E2.98523
G1 X108.478 Y100.892 E3.17516
G1 X108.713 Y101.162 E3.28238
G1 X113.263 Y107.648 E5.65652
G1 X110.640 Y102.630 F7800.000
G1 X107.544 Y99.785 E6.91632 F600.000
G1 X107.310 Y99.520 E7.02240
G1 X102.191 Y92.352 E9.66155
G92 E0
G1 X102.633 Y107.648 F7800.000
G1 X107.299 Y101.144 E2.39857 F600.000
G1 X107.579 Y100.838 E2.52286
G1 X110.699 Y98.128 E3.76121
G92 E0
G1 X106.840 Y100.299 F7800.000
G1 X97.644 Y94.830 F7800.000
G1 X95.736 Y94.463 F7800.000
G1 X91.323 Y94.463 F7800.000
G1 X87.211 Y98.575 F7800.000
G1 X86.176 Y92.352 F7800.000
G1 X86.176 Y98.575 E1.86470 F600.000
G1 X86.353 Y99.431 E2.12677
G1 X95.736 Y99.431 E4.93847
G92 E0
G1 X86.211 Y106.648 F7800.000
G1 X86.211 Y106.648 F7800.000
G1 X95.997 Y106.802 F7800.000
G1 X87.211 Y106.802 E2.63269 F600.000
G1 X86.256 Y106.532 E2.93014
G1 X86.176 Y105.956 E3.10449
G1 X86.176 Y100.288 E4.80289
G1 X87.073 Y95.951 E6.13009
G92 E0
G1 Z1.800 F7800.000
G1 X113.710 Y92.352 F7800.000
G1 X108.721 Y99.533 E2.62025 F600.000
G1 X108.446 Y99.844 E2.74446
G1 X108.023 Y100.224 E2.91493
G1 X108.015 Y100.459 E2.98523
G1 X108.478 Y100.892 E3.17516
G1 X108.713 Y101.162 E3.28238
G1 X113.263 Y107.648 E5.65652
G1 X110.640 Y102.630 F7800.000
G1 X107.544 Y99.785 E6.91632 F600.000
G1 X107.310 Y99.520 E7.02240
G1 X102.191 Y92.352 E9.66155
G92 E0
G1 X102.633 Y107.648 F7800.000
G1 X107.299 Y101.144 E2.39857 F600.000
G1 X107.579 Y100.838 E2.52286
G1 X110.699 Y98.128 E3.76121
G92 E0
G1 X106.840 Y100.299 F7800.000
G1 X97.644 Y94.830 F7800.000
G1 X95.736 Y94.463 F7800.000
G1 X91.323 Y94.463 F7800.000
G1 X87.211 Y98.575 F7800.000
G1 X86.176 Y92.352 F7800.000
G1 X86.176 Y98.575 E1.86470 F600.000
G1 X86.353 Y99.431 E2.12677
G1 X95.736 Y99.431 E4.93847
G92 E0
G1 X86.211 Y106.648 F7800.000
G1 X86.211 Y106.648 F7800.000
G1 X95.997 Y106.802 F7800.000
G1 X87.211 Y106.802 E2.63269 F600.000
G1 X86.256 Y106.532 E2.93014
G1 X86.176 Y105.956 E3.10449
G1 X86.176 Y100.288 E4.80289
G1 X87.073 Y95.951 E6.13009
G92 E0
G1 Z2.100 F7800.000
G1 X113.710 Y92.352 F7800.000
G1 X108.721 Y99.533 E2.62025 F600.000
G1 X108.446 Y99.844 E2.74446
G1 X108.023 Y100.224 E2.91493
G1 X108.015 Y100.459 E2.98523
G1 X108.478 Y100.892 E3.17516
G1 X108.713 Y101.162 E3.28238
G1 X113.263 Y107.648 E5.65652
G92 E0
G1 X110.640 Y102.630 F7800.000
G1 X107.544 Y99.785 E1.25980 F600.000
G1 X107.310 Y99.520 E1.36588
G1 X102.191 Y92.352 E4.00503
G92 E0
G1 X102.633 Y107.648 F7800.000
G1 X107.299 Y101.144 E2.39857 F600.000
G1 X107.579 Y100.838 E2.52286
G1 X110.699 Y98.128 E3.76121
G92 E0
G1 X106.840 Y100.299 F7800.000
G1 X97.644 Y94.830 F7800.000
G1 X95.736 Y94.463 F7800.000
G1 X91.323 Y94.463 F7800.000
G1 X87.211 Y98.575 F7800.000
G1 X86.176 Y92.352 F7800.000
G1 X86.176 Y98.575 E1.86470 F600.000
G1 X86.353 Y99.431 E2.12677
G1 X95.736 Y99.431 E4.93847
G92 E0
G1 X86.211 Y106.648 F7800.000
G1 X86.211 Y106.648 F7800.000
G1 X95.997 Y106.802 F7800.000
G1 X87.211 Y106.802 E2.63269 F600.000
G1 X86.256 Y106.532 E2.93014
G1 X86.176 Y105.956 E3.10449
G1 X86.176 Y100.288 E4.80289
G1 X87.073 Y95.951 E6.13009
G92 E0
M107
M104 S0 ; turn off temperature
G28 X0  ; home X axis
M84     ; disable motors

; filament used = 162.8mm (1.2cm3)

; avoid_crossing_perimeters = 1
; bed_shape = 0x0,250x0,250x250,0x250
; bed_temperature = 0
; before_layer_gcode = 
; bridge_acceleration = 0
; bridge_fan_speed = 100
; brim_width = 0
; complete_objects = 0
; cooling = 1
; default_acceleration = 0
; disable_fan_first_layers = 1
; duplicate_distance = 6
; end_gcode = M104 S0 ; turn off temperature\nG28 X0  ; home X axis\nM84     ; disable motors\n
; extruder_clearance_height = 20
; extruder_clearance_radius = 20
; extruder_offset = 0x0
; extrusion_axis = E
; extrusion_multiplier = 3
; fan_always_on = 0
; fan_below_layer_time = 60
; filament_colour = #FFFFFF
; filament_diameter = 3.125
; first_layer_acceleration = 0
; first_layer_bed_temperature = 0
; first_layer_extrusion_width = 150%
; first_layer_speed = 90%
; first_layer_temperature = 30
; gcode_arcs = 0
; gcode_comments = 0
; gcode_flavor = reprap
; infill_acceleration = 0
; infill_first = 0
; layer_gcode = 
; max_fan_speed = 100
; max_print_speed = 80
; max_volumetric_speed = 0
; min_fan_speed = 35
; min_print_speed = 10
; min_skirt_length = 0
; notes = 
; nozzle_diameter = 1.54
; only_retract_when_crossing_perimeters = 1
; ooze_prevention = 0
; output_filename_format = [input_filename_base].gcode
; perimeter_acceleration = 0
