; generated by Slic3r 1.2.9 on 2016-03-11 at 01:24:40

; external perimeters extrusion width = 1.54mm
; perimeters extrusion width = 2.62mm
; infill extrusion width = 6.27mm
; solid infill extrusion width = 2.62mm
; top infill extrusion width = 2.62mm

M107
M104 S30 ; set temperature
G28 ; home all axes
G1 Z5 F5000 ; lift nozzle
M302
M92 E10000
M500
M501
G1 E100
M109 S30 ; wait for temperature to be reached
G21 ; set units to millimeters
G90 ; use absolute coordinates
M82 ; use absolute distances for extrusion
G92 E0
G1 Z0.300 F7800.000
G1 X111.472 Y103.708 F7800.000
G1 X113.402 Y106.218 E0.14326 F378.000
G1 X113.402 Y107.423 E0.19781
G1 X102.985 Y107.423 E0.66917
G1 X102.985 Y106.181 E0.72537
G1 X111.732 Y106.181 E1.12117
G1 X102.193 Y93.826 E1.82745
G1 X102.193 Y92.577 E1.88398
G1 X113.912 Y92.577 E2.41425
G1 X113.912 Y93.819 E2.47045
G1 X103.864 Y93.819 E2.92511 F378.000
G1 X111.331 Y103.525 E3.47922
G1 X111.294 Y103.957 F7800.000
G1 X107.307 Y99.971 E3.73929 F540.000
G1 X107.587 Y99.138 F7800.000
G1 X103.541 Y95.092 E4.00324 F540.000
G1 X103.879 Y94.318 F7800.000
G1 X102.419 Y92.859 E4.09848 F540.000
G1 X102.419 Y93.415 E4.12412
G1 X105.733 Y96.728 E4.34029
G1 X105.424 Y97.531 F7800.000
G1 X109.440 Y101.547 E4.60230 F540.000
G1 X109.191 Y102.410 F7800.000
G1 X113.148 Y106.367 E4.86044 F540.000
G1 X113.176 Y106.951 E4.88743
G1 X111.074 Y104.849 E5.02457
G1 X112.866 Y107.197 F7800.000
G1 X112.076 Y106.407 E5.07611 F540.000
G1 X111.520 Y106.407 E5.10176
G1 X112.310 Y107.197 E5.15330
G1 X111.754 Y107.197 E5.17895
G1 X110.964 Y106.407 E5.23049
G1 X110.408 Y106.407 E5.25614
G1 X111.198 Y107.197 E5.30768
G1 X110.642 Y107.197 E5.33332
G1 X109.852 Y106.407 E5.38487
G1 X109.296 Y106.407 E5.41051
G1 X110.086 Y107.197 E5.46206
G1 X109.530 Y107.197 E5.48770
G1 X108.740 Y106.407 E5.53925
G1 X108.184 Y106.407 E5.56489
G1 X108.974 Y107.197 E5.61643
G1 X108.418 Y107.197 E5.64208
G1 X107.628 Y106.407 E5.69362
G1 X107.072 Y106.407 E5.71927
G1 X107.862 Y107.197 E5.77081
G1 X107.306 Y107.197 E5.79646
G1 X106.516 Y106.407 E5.84800
G1 X105.960 Y106.407 E5.87365
G1 X106.751 Y107.197 E5.92519
G1 X106.195 Y107.197 E5.95083
G1 X105.404 Y106.407 E6.00238
G1 X104.849 Y106.407 E6.02802
G1 X105.639 Y107.197 E6.07957
G1 X105.083 Y107.197 E6.10521
G1 X104.293 Y106.407 E6.15675
G1 X103.737 Y106.407 F7800.000
G1 X104.527 Y107.197 E6.20830 F540.000
G1 X103.971 Y107.197 E6.23394
G1 X103.211 Y106.438 E6.28349
G1 X103.211 Y106.993 E6.30914
G1 X103.415 Y107.197 E6.32242
G92 E0
G1 X103.710 Y93.593 F7800.000
G1 X102.920 Y92.803 E0.05154 F540.000
G1 X103.476 Y92.803 E0.07719
G1 X104.266 Y93.593 E0.12873
G1 X104.822 Y93.593 E0.15438
G1 X104.031 Y92.803 E0.20592
G1 X104.587 Y92.803 E0.23156
G1 X105.378 Y93.593 E0.28311
G1 X105.933 Y93.593 E0.30875
G1 X105.143 Y92.803 E0.36029
G1 X105.699 Y92.803 E0.38594
G1 X106.489 Y93.593 E0.43748
G1 X107.045 Y93.593 E0.46313
G1 X106.255 Y92.803 E0.51467
G1 X106.811 Y92.803 E0.54032
G1 X107.601 Y93.593 E0.59186
G1 X108.157 Y93.593 E0.61750
G1 X107.367 Y92.803 E0.66905
G1 X107.923 Y92.803 E0.69469
G1 X108.713 Y93.593 E0.74623
G1 X109.269 Y93.593 E0.77188
G1 X108.479 Y92.803 E0.82342
G1 X109.035 Y92.803 E0.84907
G1 X109.825 Y93.593 E0.90061
G1 X110.381 Y93.593 E0.92626
G1 X109.591 Y92.803 E0.97780
G1 X110.147 Y92.803 E1.00344
G1 X110.937 Y93.593 E1.05499
G1 X111.493 Y93.593 E1.08063
G1 X110.703 Y92.803 E1.13217
G1 X111.259 Y92.803 E1.15782
G1 X112.049 Y93.593 E1.20936
G1 X112.605 Y93.593 E1.23501
G1 X111.815 Y92.803 E1.28655
G1 X112.371 Y92.803 E1.31220
G1 X113.161 Y93.593 E1.36374
G1 X113.686 Y93.563 E1.38802
G1 X112.927 Y92.803 E1.43757
G1 X113.483 Y92.803 E1.46321
G1 X113.686 Y93.007 E1.47650
G92 E0
G1 X104.321 Y94.044 F7800.000
G1 X114.137 Y96.044 F7800.000
G1 X115.137 Y92.352 F7800.000
G1 X99.968 Y92.352 F7800.000
G1 X97.801 Y94.573 F7800.000
G1 X96.459 Y94.463 F7800.000
G1 X96.459 Y98.575 F7800.000
G1 X95.377 Y98.800 F7800.000
G1 X96.234 Y98.800 E0.03878 F378.000
G1 X96.234 Y100.063 E0.09593
G1 X87.709 Y100.063 E0.48168
G1 X87.709 Y106.181 E0.75851
G1 X96.495 Y106.181 E1.15607
G1 X96.495 Y107.423 E1.21227
G1 X86.088 Y107.423 E1.68318
G1 X86.088 Y92.577 E2.35495
G1 X87.709 Y92.577 E2.42830
G1 X87.709 Y98.800 E2.70989
G1 X95.146 Y98.800 E3.04641 F378.000
G1 X96.008 Y99.230 F7800.000
G1 X95.804 Y99.026 E3.05944 F540.000
G1 X95.259 Y99.026 E3.08414
G1 X96.008 Y99.775 E3.13210
G1 X95.524 Y99.837 E3.15417
G1 X94.713 Y99.026 E3.20609
G1 X94.168 Y99.026 E3.23079
G1 X94.979 Y99.837 E3.28271
G1 X94.433 Y99.837 E3.30741
G1 X93.622 Y99.026 E3.35933
G1 X93.076 Y99.026 E3.38403
G1 X93.887 Y99.837 E3.43595
G1 X93.342 Y99.837 E3.46065
G1 X92.531 Y99.026 E3.51257
G1 X91.985 Y99.026 E3.53727
G1 X92.796 Y99.837 E3.58919
G1 X92.251 Y99.837 E3.61389
G1 X91.440 Y99.026 E3.66581
G1 X90.894 Y99.026 E3.69051
G1 X91.705 Y99.837 E3.74243
G1 X91.160 Y99.837 E3.76713
G1 X90.349 Y99.026 E3.81905
G1 X89.803 Y99.026 E3.84375
G1 X90.614 Y99.837 E3.89567
G1 X90.069 Y99.837 E3.92037
G1 X89.257 Y99.026 E3.97229
G1 X88.712 Y99.026 E3.99699
G1 X89.523 Y99.837 E4.04891
G1 X88.977 Y99.837 E4.07361
G1 X88.166 Y99.026 E4.12553
G1 X87.621 Y99.026 E4.15023
G1 X88.432 Y99.837 E4.20215
G1 X87.886 Y99.837 E4.22685
G1 X86.314 Y98.264 E4.32752
G1 X86.314 Y98.810 E4.35222
G1 X87.483 Y99.979 E4.42706
G1 X87.483 Y100.525 E4.45175
G1 X86.314 Y99.356 E4.52660
G1 X86.314 Y99.901 E4.55129
G1 X87.483 Y101.070 E4.62614
G1 X87.483 Y101.616 E4.65083
G1 X86.314 Y100.447 E4.72567
G1 X86.314 Y100.992 E4.75037
G1 X87.483 Y102.161 E4.82521
G1 X87.483 Y102.707 E4.84991
G1 X86.314 Y101.538 E4.92475
G1 X86.314 Y102.083 E4.94945
G1 X87.483 Y103.252 E5.02429
G1 X87.483 Y103.798 E5.04899
G1 X86.314 Y102.629 E5.12383
G1 X86.314 Y103.175 E5.14853
G1 X87.483 Y104.344 E5.22337
G1 X87.483 Y104.889 E5.24806
G1 X86.314 Y103.720 E5.32291
G1 X86.314 Y104.266 E5.34760
G1 X87.483 Y105.435 E5.42245
G1 X87.483 Y105.980 E5.44714
G1 X86.314 Y104.811 E5.52198
G1 X86.314 Y105.357 E5.54668
G1 X88.154 Y107.197 E5.66449
G1 X88.700 Y107.197 E5.68919
G1 X87.909 Y106.407 E5.73976
G1 X88.455 Y106.407 E5.76446
G1 X89.245 Y107.197 E5.81504
G1 X89.791 Y107.197 E5.83974
G1 X89.001 Y106.407 E5.89032
G1 X89.546 Y106.407 E5.91501
G1 X90.336 Y107.197 E5.96559
G1 X90.882 Y107.197 E5.99029
G1 X90.092 Y106.407 E6.04087
G1 X90.637 Y106.407 E6.06556
G1 X91.427 Y107.197 E6.11614
G1 X91.973 Y107.197 E6.14084
G1 X91.183 Y106.407 E6.19142
G1 X91.728 Y106.407 E6.21611
G1 X92.518 Y107.197 E6.26669
G1 X93.064 Y107.197 E6.29139
G1 X92.274 Y106.407 E6.34197
G1 X92.820 Y106.407 E6.36667
G1 X93.610 Y107.197 E6.41724
G1 X94.155 Y107.197 E6.44194
G1 X93.365 Y106.407 E6.49252
G1 X93.911 Y106.407 E6.51722
G1 X94.701 Y107.197 E6.56780
G1 X95.246 Y107.197 E6.59249
G1 X94.456 Y106.407 E6.64307
G1 X95.002 Y106.407 E6.66777
G1 X95.792 Y107.197 E6.71835
G1 X96.269 Y107.128 E6.74016
G1 X95.547 Y106.407 E6.78635
G1 X96.093 Y106.407 E6.81104
G1 X96.269 Y106.583 E6.82230
G1 X87.608 Y107.197 F7800.000
G1 X86.314 Y105.902 E6.90519 F540.000
G1 X86.314 Y106.448 E6.92988
G1 X87.063 Y107.197 E6.97784
G1 X86.517 Y107.197 E7.00254
G1 X86.314 Y106.993 E7.01557
G1 X87.483 Y98.888 F7800.000
G1 X86.314 Y97.719 E7.09041 F540.000
G1 X86.314 Y97.173 E7.11511
G1 X87.483 Y98.342 E7.18995
G1 X87.483 Y97.797 E7.21465
G1 X86.314 Y96.628 E7.28949
G1 X86.314 Y96.082 E7.31419
G1 X87.483 Y97.251 E7.38903
G1 X87.483 Y96.706 E7.41373
G1 X86.314 Y95.537 E7.48857
G1 X86.314 Y94.991 E7.51326
G1 X87.483 Y96.160 E7.58811
G1 X87.483 Y95.615 E7.61280
G1 X86.314 Y94.446 E7.68765
G1 X86.314 Y93.900 E7.71234
G1 X87.483 Y95.069 E7.78718
G1 X87.483 Y94.523 E7.81188
G1 X86.314 Y93.354 E7.88672
G1 X86.331 Y92.826 E7.91066
G1 X87.483 Y93.978 E7.98441
G1 X87.483 Y93.432 E8.00911
G1 X86.853 Y92.803 E8.04940
M106 S255
G92 E0
G1 Z0.600 F7800.000
G1 X114.137 Y93.198 F7800.000
G1 X104.321 Y93.198 E2.94133 F600.000
G1 X103.221 Y93.556 E3.28802
G1 X103.617 Y94.586 E3.61865
G1 X111.968 Y105.421 E7.71765
G1 X112.360 Y106.453 E8.04874
G1 X111.274 Y106.802 E8.39055
G1 X102.760 Y106.802 E10.94174
G92 E0
G1 X100.487 Y98.575 F7800.000
G1 X96.459 Y94.463 F7800.000
G1 X92.045 Y94.463 F7800.000
G1 X87.934 Y98.575 F7800.000
G1 X86.898 Y92.352 F7800.000
G1 X86.898 Y98.575 E1.86470 F600.000
G1 X87.075 Y99.431 E2.12677
G1 X96.459 Y99.431 E4.93847
G92 E0
G1 X86.934 Y106.648 F7800.000
G1 X86.934 Y106.648 F7800.000
G1 X96.720 Y106.802 F7800.000
G1 X87.934 Y106.802 E2.63269 F600.000
G1 X86.978 Y106.532 E2.93014
G1 X86.898 Y105.956 E3.10449
G1 X86.898 Y100.288 E4.80289
G1 X87.795 Y95.951 E6.13009
G92 E0
G1 Z0.900 F7800.000
G1 X114.137 Y93.198 F7800.000
G1 X104.321 Y93.198 E2.94133 F600.000
G1 X103.221 Y93.556 E3.28802
G1 X103.617 Y94.586 E3.61865
G1 X111.968 Y105.421 E7.71765
G1 X112.360 Y106.453 E8.04874
G1 X111.274 Y106.802 E8.39055
G1 X102.760 Y106.802 E10.94174
G92 E0
G1 X100.487 Y98.575 F7800.000
G1 X96.459 Y94.463 F7800.000
G1 X92.045 Y94.463 F7800.000
G1 X87.934 Y98.575 F7800.000
G1 X86.898 Y92.352 F7800.000
G1 X86.898 Y98.575 E1.86470 F600.000
G1 X87.075 Y99.431 E2.12677
G1 X96.459 Y99.431 E4.93847
G92 E0
G1 X86.934 Y106.648 F7800.000
G1 X86.934 Y106.648 F7800.000
G1 X96.720 Y106.802 F7800.000
G1 X87.934 Y106.802 E2.63269 F600.000
G1 X86.978 Y106.532 E2.93014
G1 X86.898 Y105.956 E3.10449
G1 X86.898 Y100.288 E4.80289
G1 X87.795 Y95.951 E6.13009
G92 E0
G1 Z1.200 F7800.000
G1 X114.137 Y93.198 F7800.000
G1 X104.321 Y93.198 E2.94133 F600.000
G1 X103.221 Y93.556 E3.28802
G1 X103.617 Y94.586 E3.61865
G1 X111.968 Y105.421 E7.71765
G1 X112.360 Y106.453 E8.04874
G1 X111.274 Y106.802 E8.39055
G1 X102.760 Y106.802 E10.94174
G92 E0
G1 X100.487 Y98.575 F7800.000
G1 X96.459 Y94.463 F7800.000
G1 X92.045 Y94.463 F7800.000
G1 X87.934 Y98.575 F7800.000
G1 X86.898 Y92.352 F7800.000
G1 X86.898 Y98.575 E1.86470 F600.000
G1 X87.075 Y99.431 E2.12677
G1 X96.459 Y99.431 E4.93847
G92 E0
G1 X86.934 Y106.648 F7800.000
G1 X86.934 Y106.648 F7800.000
G1 X96.720 Y106.802 F7800.000
G1 X87.934 Y106.802 E2.63269 F600.000
G1 X86.978 Y106.532 E2.93014
G1 X86.898 Y105.956 E3.10449
G1 X86.898 Y100.288 E4.80289
G1 X87.795 Y95.951 E6.13009
G92 E0
G1 Z1.500 F7800.000
G1 X114.137 Y93.198 F7800.000
G1 X104.321 Y93.198 E2.94133 F600.000
G1 X103.221 Y93.556 E3.28802
G1 X103.617 Y94.586 E3.61865
G1 X111.968 Y105.421 E7.71765
G1 X112.360 Y106.453 E8.04874
G1 X111.274 Y106.802 E8.39055
G1 X102.760 Y106.802 E10.94174
G92 E0
G1 X100.487 Y98.575 F7800.000
G1 X96.459 Y94.463 F7800.000
G1 X92.045 Y94.463 F7800.000
G1 X87.934 Y98.575 F7800.000
G1 X86.898 Y92.352 F7800.000
G1 X86.898 Y98.575 E1.86470 F600.000
G1 X87.075 Y99.431 E2.12677
G1 X96.459 Y99.431 E4.93847
G92 E0
G1 X86.934 Y106.648 F7800.000
G1 X86.934 Y106.648 F7800.000
G1 X96.720 Y106.802 F7800.000
G1 X87.934 Y106.802 E2.63269 F600.000
G1 X86.978 Y106.532 E2.93014
G1 X86.898 Y105.956 E3.10449
G1 X86.898 Y100.288 E4.80289
G1 X87.795 Y95.951 E6.13009
G92 E0
G1 Z1.800 F7800.000
G1 X114.137 Y93.198 F7800.000
G1 X104.321 Y93.198 E2.94133 F600.000
G1 X103.221 Y93.556 E3.28802
G1 X103.617 Y94.586 E3.61865
G1 X111.968 Y105.421 E7.71765
G1 X112.360 Y106.453 E8.04874
G1 X111.274 Y106.802 E8.39055
G1 X102.760 Y106.802 E10.94174
G92 E0
G1 X100.487 Y98.575 F7800.000
G1 X96.459 Y94.463 F7800.000
G1 X92.045 Y94.463 F7800.000
G1 X87.934 Y98.575 F7800.000
G1 X86.898 Y92.352 F7800.000
G1 X86.898 Y98.575 E1.86470 F600.000
G1 X87.075 Y99.431 E2.12677
G1 X96.459 Y99.431 E4.93847
G92 E0
G1 X86.934 Y106.648 F7800.000
G1 X86.934 Y106.648 F7800.000
G1 X96.720 Y106.802 F7800.000
G1 X87.934 Y106.802 E2.63269 F600.000
G1 X86.978 Y106.532 E2.93014
G1 X86.898 Y105.956 E3.10449
G1 X86.898 Y100.288 E4.80289
G1 X87.795 Y95.951 E6.13009
G92 E0
G1 Z2.100 F7800.000
G1 X114.137 Y93.198 F7800.000
G1 X104.321 Y93.198 E2.94133 F600.000
G1 X103.221 Y93.556 E3.28802
G1 X103.617 Y94.586 E3.61865
G1 X111.968 Y105.421 E7.71765
G1 X112.360 Y106.453 E8.04874
G1 X111.274 Y106.802 E8.39055
G1 X102.760 Y106.802 E10.94174
G92 E0
G1 X100.487 Y98.575 F7800.000
G1 X96.459 Y94.463 F7800.000
G1 X92.045 Y94.463 F7800.000
G1 X87.934 Y98.575 F7800.000
G1 X86.898 Y92.352 F7800.000
G1 X86.898 Y98.575 E1.86470 F600.000
G1 X87.075 Y99.431 E2.12677
G1 X96.459 Y99.431 E4.93847
G92 E0
G1 X86.934 Y106.648 F7800.000
G1 X86.934 Y106.648 F7800.000
G1 X96.720 Y106.802 F7800.000
G1 X87.934 Y106.802 E2.63269 F600.000
G1 X86.978 Y106.532 E2.93014
G1 X86.898 Y105.956 E3.10449
G1 X86.898 Y100.288 E4.80289
G1 X87.795 Y95.951 E6.13009
G92 E0
M107
M104 S0 ; turn off temperature
G28 X0  ; home X axis
M84     ; disable motors

; filament used = 147.9mm (1.1cm3)

; avoid_crossing_perimeters = 1
; bed_shape = 0x0,250x0,250x250,0x250
; bed_temperature = 0
; before_layer_gcode = 
; bridge_acceleration = 0
; bridge_fan_speed = 100
; brim_width = 0
; complete_objects = 0
; cooling = 1
; default_acceleration = 0
; disable_fan_first_layers = 1
; duplicate_distance = 6
; end_gcode = M104 S0 ; turn off temperature\nG28 X0  ; home X axis\nM84     ; disable motors\n
; extruder_clearance_height = 20
; extruder_clearance_radius = 20
; extruder_offset = 0x0
; extrusion_axis = E
; extrusion_multiplier = 3
; fan_always_on = 0
; fan_below_layer_time = 60
; filament_colour = #FFFFFF
; filament_diameter = 3.125
; first_layer_acceleration = 0
; first_layer_bed_temperature = 0
; first_layer_extrusion_width = 150%
; first_layer_speed = 90%
; first_layer_temperature = 30
; gcode_arcs = 0
; gcode_comments = 0
; gcode_flavor = reprap
; infill_acceleration = 0
; infill_first = 0
; layer_gcode = 
; max_fan_speed = 100
; max_print_speed = 80
; max_volumetric_speed = 0
; min_fan_speed = 35
; min_print_speed = 10
; min_skirt_length = 0
; notes = 
; nozzle_diameter = 1.54
; only_retract_when_crossing_perimeters = 1
; ooze_prevention = 0
; output_filename_format = [input_filename_base].gcode
; perimeter_acceleration = 0
; post_process = 
; pressure_advance = 0
; resolution = 0
; retract_before_travel = 2
; retract_layer_change = 1
; retract_length = 0
; retract_length_toolchange = 10
; retract_lift = 0
; retract_restart_extra = 0
; retract_restart_extra_toolchange = 0
; retract_speed = 0
; skirt_distance = 6
; skirt_height = 1
; skirts = 0
; slowdown_below_layer_time = 30
; spiral_vase = 0
; standby_temperature_delta = -5
; start_gcode = G28 ; home all axes\nG1 Z5 F5000 ; lift nozzle\nM302\nM92 E10000\nM500\nM501\nG1 E100
; temperature = 30
; threads = 2
; toolchange_gcode = 
; travel_speed = 130
; use_firmware_retraction = 0
; use_relative_e_distances = 0
; use_volumetric_e = 0
; vibration_limit = 0
; wipe = 0
; z_offset = 0
; dont_support_bridges = 1
; extrusion_width = 0
; first_layer_height = 100%
; infill_only_where_needed = 0
; interface_shells = 0
; layer_height = 0.3
; raft_layers = 0
; seam_position = random
; support_material = 0
; support_material_angle = 0
; support_material_contact_distance = 0.2
; support_material_enforce_layers = 0
; support_material_extruder = 1
; support_material_extrusion_width = 0
; support_material_interface_extruder = 1
; support_material_interface_layers = 3
; support_material_interface_spacing = 0
; support_material_interface_speed = 100%
; support_material_pattern = pillars
; support_material_spacing = 2.5
; support_material_speed = 7
; support_material_threshold = 0
; xy_size_compensation = 0
; bottom_solid_layers = 3
; bridge_flow_ratio = 1
; bridge_speed = 10
; external_fill_pattern = rectilinear
; external_perimeter_extrusion_width = 0
; external_perimeter_speed = 70%
; external_perimeters_first = 1
; extra_perimeters = 1
; fill_angle = 45
; fill_density = 60%
; fill_pattern = rectilinear
; gap_fill_speed = 10
; infill_every_layers = 1
; infill_extruder = 1
; infill_extrusion_width = 0
; infill_overlap = 15%
; infill_speed = 10
; overhangs = 1
; perimeter_extruder = 1
; perimeter_extrusion_width = 0
; perimeter_speed = 10
; perimeters = 1
; small_perimeter_speed = 70%
; solid_infill_below_area = 70
; solid_infill_every_layers = 0
; solid_infill_extruder = 1
; solid_infill_extrusion_width = 0
; solid_infill_speed = 10
; thin_walls = 1
; top_infill_extrusion_width = 0
; top_solid_infill_speed = 10
; top_solid_layers = 3
