; generated by Slic3r 1.2.9 on 2016-03-10 at 20:34:22

; external perimeters extrusion width = 1.54mm
; perimeters extrusion width = 2.62mm
; infill extrusion width = 6.27mm
; solid infill extrusion width = 2.62mm
; top infill extrusion width = 2.62mm

M107
M104 S30 ; set temperature
G28 ; home all axes
G1 Z5 F5000 ; lift nozzle
M302
M92 E10000
M500
M501
G1 E100
M109 S30 ; wait for temperature to be reached
G21 ; set units to millimeters
G90 ; use absolute coordinates
M82 ; use absolute distances for extrusion
G92 E0
G1 Z0.300 F7800.000
G1 X130.708 Y129.141 F7800.000
G1 X131.578 Y129.397 E0.04105 F600.000
G1 X131.080 Y130.266 E0.08636
G1 X130.299 Y131.137 E0.13930
G1 X129.366 Y131.789 E0.19081
G1 X128.247 Y132.245 E0.24549
G1 X126.909 Y132.522 E0.30731
G1 X125.357 Y132.614 E0.37767
G1 X123.175 Y132.393 E0.47693
G1 X121.363 Y131.736 E0.56414
G1 X119.907 Y130.648 E0.64640
G1 X118.837 Y129.161 E0.72928
G1 X118.192 Y127.303 E0.81827
G1 X117.974 Y125.062 E0.92017
G1 X118.074 Y123.552 E0.98862
G1 X118.371 Y122.183 E1.05202
G1 X118.865 Y120.956 E1.11185
G1 X119.544 Y119.893 E1.16894
G1 X120.397 Y119.012 E1.22441
G1 X121.425 Y118.309 E1.28078
G1 X122.618 Y117.797 E1.33949
G1 X123.959 Y117.489 E1.40176
G1 X125.452 Y117.385 E1.46949
G1 X126.666 Y117.454 E1.52450
G1 X128.013 Y117.681 E1.58633 F600.000
G1 X129.192 Y118.048 E1.64223
G1 X130.279 Y118.550 E1.69640
G1 X131.245 Y119.172 E1.74836
G1 X132.027 Y119.857 E1.79539
G1 X132.027 Y124.807 E2.01937
G1 X126.001 Y124.807 E2.29204
G1 X126.001 Y123.522 E2.35019
G1 X130.569 Y123.522 E2.55689
G1 X130.569 Y120.430 E2.69681
G1 X129.883 Y119.866 E2.73699
G1 X129.155 Y119.436 E2.77524
G1 X128.318 Y119.084 E2.81629
G1 X127.406 Y118.824 E2.85921
G1 X126.450 Y118.668 E2.90305
G1 X125.444 Y118.615 E2.94866
G1 X123.771 Y118.806 E3.02485
G1 X122.339 Y119.387 E3.09475
G1 X121.169 Y120.358 E3.16354
G1 X120.308 Y121.660 E3.23415
G1 X119.796 Y123.231 E3.30894
G1 X119.627 Y125.064 E3.39226
G1 X119.786 Y126.895 E3.47539
G1 X120.269 Y128.443 E3.54879
G1 X121.081 Y129.705 E3.61670
G1 X122.208 Y130.636 E3.68282
G1 X123.618 Y131.191 E3.75141
G1 X125.293 Y131.374 E3.82765
G1 X126.402 Y131.306 E3.87790
G1 X127.386 Y131.102 E3.92337
G1 X128.250 Y130.758 E3.96549
G1 X128.999 Y130.261 E4.00617
G1 X129.631 Y129.600 E4.04754
G1 X130.042 Y128.944 E4.08255
G1 X130.487 Y129.075 E4.10355
G1 X131.099 Y129.839 F7800.000
G1 X130.645 Y129.385 E4.13279 F600.000
G1 X130.034 Y129.323 E4.16076
G1 X130.895 Y130.184 E4.21622
G1 X130.636 Y130.474 E4.23394
G1 X129.823 Y129.661 E4.28630
G1 X129.562 Y129.950 E4.30402
G1 X130.374 Y130.761 E4.35629
G1 X130.099 Y131.036 E4.37398
G1 X129.294 Y130.230 E4.42586
G1 X129.005 Y130.490 E4.44358
G1 X129.779 Y131.265 E4.49346
G1 X129.456 Y131.490 E4.51143
G1 X128.675 Y130.710 E4.56173
G1 X128.345 Y130.929 E4.57978
G1 X129.097 Y131.681 E4.62827
G1 X128.707 Y131.840 E4.64746
G1 X127.958 Y131.091 E4.69573
G1 X127.565 Y131.248 E4.71499
G1 X128.317 Y131.999 E4.76344
G1 X127.875 Y132.106 E4.78416
G1 X127.138 Y131.369 E4.83168
G1 X126.683 Y131.463 E4.85284
G1 X127.420 Y132.201 E4.90035
G1 X126.965 Y132.295 E4.92152
G1 X126.210 Y131.539 E4.97019
G1 X125.692 Y131.571 E4.99381
G1 X126.449 Y132.328 E5.04257
G1 X125.931 Y132.358 E5.06622
G1 X125.169 Y131.597 E5.11529
G1 X124.553 Y131.530 E5.14353
G1 X125.407 Y132.383 E5.19854
G1 X124.796 Y132.322 E5.22652
G1 X123.937 Y131.463 E5.28186
G1 X123.254 Y131.329 E5.31356
G1 X124.184 Y132.260 E5.37352
G1 X123.573 Y132.198 E5.40150
G1 X122.348 Y130.972 E5.48046
G1 X121.952 Y131.675 F7800.000
G1 X118.935 Y128.657 E5.67488 F600.000
G1 X118.642 Y127.816 F7800.000
G1 X122.814 Y131.987 E5.94365 F600.000
G1 X120.324 Y130.596 F7800.000
G1 X119.974 Y130.246 E5.96622 F600.000
G1 X120.135 Y128.760 F7800.000
G1 X118.400 Y127.024 E6.07804 F600.000
G1 X118.341 Y126.416 E6.10588
G1 X119.837 Y127.912 E6.20227
G1 X119.588 Y127.114 E6.24035
G1 X118.282 Y125.808 E6.32452
G1 X118.223 Y125.200 E6.35236
G1 X119.517 Y126.494 E6.43572
G1 X119.464 Y125.892 E6.46323
G1 X118.223 Y124.650 E6.54325
G1 X118.256 Y124.135 E6.56677
G1 X119.412 Y125.291 E6.64123
G1 X119.435 Y124.764 E6.66524
G1 X118.290 Y123.620 E6.73897
G1 X118.375 Y123.156 E6.76047
G1 X119.481 Y124.261 E6.83172
G1 X119.527 Y123.759 E6.85473
G1 X118.473 Y122.705 E6.92265
G1 X118.571 Y122.254 E6.94368
G1 X119.574 Y123.256 E7.00827
G1 X119.708 Y122.841 E7.02814
G1 X118.721 Y121.854 E7.09173
G1 X118.879 Y121.463 E7.11096
G1 X119.843 Y122.427 E7.17310
G1 X119.978 Y122.013 E7.19294
G1 X119.036 Y121.071 E7.25362
G1 X119.242 Y120.728 E7.27186
G1 X120.115 Y121.600 E7.32806
G1 X120.333 Y121.270 E7.34612
G1 X119.456 Y120.393 E7.40263
G1 X119.670 Y120.058 E7.42074
G1 X120.552 Y120.939 E7.47755
G1 X120.770 Y120.609 E7.49561
G1 X119.935 Y119.774 E7.54942
G1 X120.210 Y119.499 E7.56711
G1 X120.989 Y120.278 E7.61732
G1 X121.278 Y120.018 E7.63503
G1 X120.484 Y119.224 E7.68615
G1 X120.788 Y118.979 E7.70395
G1 X121.578 Y119.769 E7.75483
G1 X121.878 Y119.520 E7.77260
G1 X121.115 Y118.756 E7.82180
G1 X121.441 Y118.534 E7.83980
G1 X122.178 Y119.271 E7.88731
G1 X122.544 Y119.087 E7.90595
G1 X121.816 Y118.359 E7.95285
G1 X122.200 Y118.195 E7.97190
G1 X122.934 Y118.929 E8.01920
G1 X123.325 Y118.770 E8.03841
G1 X122.584 Y118.030 E8.08613
G1 X123.023 Y117.919 E8.10674
G1 X123.715 Y118.612 E8.15136
G1 X124.192 Y118.540 E8.17334
G1 X123.469 Y117.817 E8.21993
G1 X123.916 Y117.714 E8.24080
G1 X124.685 Y118.483 E8.29037
G1 X125.178 Y118.427 E8.31297
G1 X124.428 Y117.677 E8.36128
G1 X124.942 Y117.642 E8.38473
G1 X125.698 Y118.398 E8.43345
G1 X126.277 Y118.428 E8.45988
G1 X125.467 Y117.617 E8.51212
G1 X126.048 Y117.650 E8.53867
G1 X126.895 Y118.497 E8.59324
G1 X127.552 Y118.604 F7800.000
G1 X126.641 Y117.694 E8.65190 F600.000
G1 X128.320 Y118.823 F7800.000
G1 X127.302 Y117.805 E8.71751 F600.000
G1 X127.983 Y117.937 E8.74915
G1 X129.225 Y119.180 E8.82919
G1 X129.741 Y118.597 F7800.000
G1 X131.801 Y120.656 E8.96192 F600.000
G1 X131.801 Y120.107 F7800.000
G1 X131.402 Y119.709 E8.98761 F600.000
G1 X128.781 Y118.186 F7800.000
G1 X131.801 Y121.206 E9.18216 F600.000
G1 X131.801 Y121.755 E9.20718
G1 X130.794 Y120.749 E9.27201
G1 X130.794 Y121.298 E9.29703
G1 X131.801 Y122.304 E9.36186
G1 X131.801 Y122.853 E9.38687
G1 X130.794 Y121.847 E9.45170
G1 X130.794 Y122.396 E9.47672
G1 X131.801 Y123.402 E9.54155
G1 X131.801 Y123.951 E9.56657
G1 X130.794 Y122.945 E9.63140
G1 X130.794 Y123.494 E9.65641
G1 X131.801 Y124.500 E9.72124
G1 X131.332 Y124.581 E9.74290
G1 X130.499 Y123.748 E9.79658
G1 X129.950 Y123.748 E9.82160
G1 X130.783 Y124.581 E9.87528
G1 X130.234 Y124.581 E9.90030
G1 X129.401 Y123.748 E9.95398
G1 X128.852 Y123.748 E9.97900
G1 X129.685 Y124.581 E10.03268
G1 X129.136 Y124.581 E10.05770
G1 X128.303 Y123.748 E10.11138
G1 X127.753 Y123.748 E10.13639
G1 X128.587 Y124.581 E10.19007
G1 X128.037 Y124.581 E10.21509
G1 X127.204 Y123.748 E10.26877
G1 X126.655 Y123.748 E10.29379
G1 X127.488 Y124.581 E10.34747
G1 X126.939 Y124.581 E10.37249
G1 X126.226 Y123.868 E10.41842
M106 S255
G92 E0
G1 Z0.600 F7800.000
G1 X131.037 Y129.003 F7800.000
G1 X130.166 Y130.144 E0.42996 F600.000
G1 X129.784 Y130.556 E0.59838
G1 X129.552 Y130.755 E0.68999
G1 X129.012 Y131.138 E0.88840
G1 X128.656 Y131.326 E1.00904
G1 X128.045 Y131.582 E1.20745
G1 X127.498 Y131.740 E1.37825
G1 X126.824 Y131.879 E1.58432
G1 X126.544 Y131.916 E1.66887
G1 X125.370 Y131.991 E2.02148
G1 X125.208 Y131.982 E2.07022
G1 X123.581 Y131.811 E2.56036
G1 X123.357 Y131.772 E2.62851
G1 X121.999 Y131.264 E3.06301
G1 X121.742 Y131.143 E3.14797
G1 X120.644 Y130.289 E3.56478
G1 X120.450 Y130.114 E3.64303
G1 X119.621 Y128.897 E4.08442
G1 X119.552 Y128.789 E4.12264
G1 X119.501 Y128.651 E4.16694
G1 X118.999 Y127.126 E4.64788
G1 X118.809 Y125.156 E5.24100
G1 X118.807 Y124.968 E5.29713
G1 X118.910 Y123.670 E5.68749
G1 X119.033 Y122.956 E5.90468
G1 X119.175 Y122.430 E6.06773
G1 X119.582 Y121.325 E6.42055
G1 X120.179 Y120.395 E6.75199
G1 X120.521 Y119.969 E6.91542
G1 X120.891 Y119.598 E7.07250
G1 X121.769 Y118.936 E7.40217
G1 X122.117 Y118.748 E7.52065
G1 X122.831 Y118.450 E7.75229
G1 X123.730 Y118.182 E8.03357
G1 X124.053 Y118.127 E8.13176
G1 X125.456 Y118.001 E8.55370
G1 X126.561 Y118.063 E8.88547
G1 X127.493 Y118.214 E9.16814
G1 X127.862 Y118.296 E9.28160
G1 X128.477 Y118.480 E9.47386
G1 X128.960 Y118.653 E9.62752
G1 X129.493 Y118.893 E9.80269
G1 X129.958 Y119.136 E9.95987
G1 X130.204 Y119.288 E10.04644
G1 X130.929 Y119.823 E10.31675
G1 X131.268 Y120.201 E10.46872
G1 X131.298 Y120.536 E10.56954
G1 X131.298 Y123.297 E11.39687
G1 X131.182 Y123.962 E11.59916
G1 X126.643 Y124.164 E12.96048
G1 X132.252 Y124.164 E14.64105
G92 E0
G1 Z0.900 F7800.000
G1 X131.037 Y129.003 F7800.000
G1 X130.166 Y130.144 E0.42996 F600.000
G1 X129.784 Y130.556 E0.59838
G1 X129.552 Y130.755 E0.68999
G1 X129.012 Y131.138 E0.88840
G1 X128.656 Y131.326 E1.00904
G1 X128.045 Y131.582 E1.20745
G1 X127.498 Y131.740 E1.37825
G1 X126.824 Y131.879 E1.58432
G1 X126.544 Y131.916 E1.66887
G1 X125.370 Y131.991 E2.02148
G1 X125.208 Y131.982 E2.07022
G1 X123.581 Y131.811 E2.56036
G1 X123.357 Y131.772 E2.62850
G1 X121.999 Y131.264 E3.06301
G1 X121.742 Y131.143 E3.14797
G1 X120.644 Y130.289 E3.56478
G1 X120.450 Y130.114 E3.64303
G1 X119.621 Y128.897 E4.08442
G1 X119.552 Y128.789 E4.12264
G1 X119.501 Y128.651 E4.16694
G1 X118.999 Y127.126 E4.64788
G1 X118.809 Y125.156 E5.24100
G1 X118.807 Y124.968 E5.29713
G1 X118.910 Y123.670 E5.68749
G1 X119.033 Y122.956 E5.90468
G1 X119.175 Y122.430 E6.06773
G1 X119.582 Y121.325 E6.42055
G1 X120.179 Y120.395 E6.75199
G1 X120.521 Y119.969 E6.91542
G1 X120.891 Y119.598 E7.07250
G1 X121.769 Y118.936 E7.40217
G1 X122.117 Y118.748 E7.52065
G1 X122.831 Y118.450 E7.75229
G1 X123.730 Y118.182 E8.03357
G1 X124.053 Y118.127 E8.13176
G1 X125.456 Y118.001 E8.55370
G1 X126.561 Y118.063 E8.88547
G1 X127.493 Y118.214 E9.16814
G1 X127.862 Y118.296 E9.28160
G1 X128.477 Y118.480 E9.47386
G1 X128.960 Y118.653 E9.62752
G1 X129.493 Y118.893 E9.80269
G1 X129.958 Y119.136 E9.95987
G1 X130.204 Y119.288 E10.04644
G1 X130.929 Y119.823 E10.31675
G1 X131.268 Y120.201 E10.46872
G1 X131.298 Y120.536 E10.56954
G1 X131.298 Y123.297 E11.39687
G1 X131.182 Y123.962 E11.59916
G1 X126.643 Y124.164 E12.96048
G1 X132.252 Y124.164 E14.64105
G92 E0
G1 Z1.200 F7800.000
G1 X131.037 Y129.003 F7800.000
G1 X130.166 Y130.144 E0.42996 F600.000
G1 X129.784 Y130.556 E0.59838
G1 X129.552 Y130.755 E0.68999
G1 X129.012 Y131.138 E0.88840
G1 X128.656 Y131.326 E1.00904
G1 X128.045 Y131.582 E1.20745
G1 X127.498 Y131.740 E1.37825
G1 X126.824 Y131.879 E1.58432
G1 X126.544 Y131.916 E1.66887
G1 X125.370 Y131.991 E2.02148
G1 X125.208 Y131.982 E2.07022
G1 X123.581 Y131.811 E2.56036
G1 X123.357 Y131.772 E2.62851
G1 X121.999 Y131.264 E3.06301
G1 X121.742 Y131.143 E3.14797
G1 X120.644 Y130.289 E3.56478
G1 X120.450 Y130.114 E3.64303
G1 X119.621 Y128.897 E4.08442
G1 X119.552 Y128.789 E4.12264
G1 X119.501 Y128.651 E4.16694
G1 X118.999 Y127.126 E4.64788
G1 X118.809 Y125.156 E5.24100
G1 X118.807 Y124.968 E5.29713
G1 X118.910 Y123.670 E5.68749
G1 X119.033 Y122.956 E5.90468
G1 X119.175 Y122.430 E6.06773
G1 X119.582 Y121.325 E6.42055
G1 X120.179 Y120.395 E6.75199
G1 X120.521 Y119.969 E6.91542
G1 X120.891 Y119.598 E7.07250
G1 X121.769 Y118.936 E7.40217
G1 X122.117 Y118.748 E7.52065
G1 X122.831 Y118.450 E7.75229
G1 X123.730 Y118.182 E8.03357
G1 X124.053 Y118.127 E8.13176
G1 X125.456 Y118.001 E8.55370
G1 X126.561 Y118.063 E8.88547
G1 X127.493 Y118.214 E9.16814
G1 X127.862 Y118.296 E9.28160
G1 X128.477 Y118.480 E9.47386
G1 X128.960 Y118.653 E9.62752
G1 X129.493 Y118.893 E9.80269
G1 X129.958 Y119.136 E9.95987
G1 X130.204 Y119.288 E10.04644
G1 X130.929 Y119.823 E10.31675
G1 X131.268 Y120.201 E10.46872
G1 X131.298 Y120.536 E10.56954
G1 X131.298 Y123.297 E11.39687
G1 X131.182 Y123.962 E11.59916
G1 X126.643 Y124.164 E12.96048
G1 X132.252 Y124.164 E14.64105
G92 E0
G1 Z1.500 F7800.000
G1 X131.037 Y129.003 F7800.000
G1 X130.166 Y130.144 E0.42996 F600.000
G1 X129.784 Y130.556 E0.59838
G1 X129.552 Y130.755 E0.68999
G1 X129.012 Y131.138 E0.88840
G1 X128.656 Y131.326 E1.00904
G1 X128.045 Y131.582 E1.20745
G1 X127.498 Y131.740 E1.37825
G1 X126.824 Y131.879 E1.58432
G1 X126.544 Y131.916 E1.66887
G1 X125.370 Y131.991 E2.02148
G1 X125.208 Y131.982 E2.07022
G1 X123.581 Y131.811 E2.56036
G1 X123.357 Y131.772 E2.62851
G1 X121.999 Y131.264 E3.06301
G1 X121.742 Y131.143 E3.14797
G1 X120.644 Y130.289 E3.56478
G1 X120.450 Y130.114 E3.64303
G1 X119.621 Y128.897 E4.08442
G1 X119.552 Y128.789 E4.12264
G1 X119.501 Y128.651 E4.16694
G1 X118.999 Y127.126 E4.64788
G1 X118.809 Y125.156 E5.24100
G1 X118.807 Y124.968 E5.29713
G1 X118.910 Y123.670 E5.68749
G1 X119.033 Y122.956 E5.90468
G1 X119.175 Y122.430 E6.06773
G1 X119.582 Y121.325 E6.42055
G1 X120.179 Y120.395 E6.75199
G1 X120.521 Y119.969 E6.91542
G1 X120.891 Y119.598 E7.07250
G1 X121.769 Y118.936 E7.40217
G1 X122.117 Y118.748 E7.52065
G1 X122.831 Y118.450 E7.75229
G1 X123.730 Y118.182 E8.03357
G1 X124.053 Y118.127 E8.13176
G1 X125.456 Y118.001 E8.55370
G1 X126.561 Y118.063 E8.88547
G1 X127.493 Y118.214 E9.16814
G1 X127.862 Y118.296 E9.28160
G1 X128.477 Y118.480 E9.47386
G1 X128.960 Y118.653 E9.62752
G1 X129.493 Y118.893 E9.80269
G1 X129.958 Y119.136 E9.95987
G1 X130.204 Y119.288 E10.04644
G1 X130.929 Y119.823 E10.31675
G1 X131.268 Y120.201 E10.46872
G1 X131.298 Y120.536 E10.56954
G1 X131.298 Y123.297 E11.39687
G1 X131.182 Y123.962 E11.59916
G1 X126.643 Y124.164 E12.96048
G1 X132.252 Y124.164 E14.64105
G92 E0
G1 Z1.800 F7800.000
G1 X131.037 Y129.003 F7800.000
G1 X130.166 Y130.144 E0.42996 F600.000
G1 X129.784 Y130.556 E0.59838
G1 X129.552 Y130.755 E0.68998
G1 X129.012 Y131.138 E0.88840
G1 X128.656 Y131.326 E1.00904
G1 X128.045 Y131.582 E1.20745
G1 X127.498 Y131.740 E1.37825
G1 X126.824 Y131.879 E1.58432
G1 X126.544 Y131.916 E1.66887
G1 X125.370 Y131.991 E2.02148
G1 X125.208 Y131.982 E2.07022
G1 X123.581 Y131.811 E2.56036
G1 X123.357 Y131.772 E2.62851
G1 X121.999 Y131.264 E3.06301
G1 X121.742 Y131.143 E3.14797
G1 X120.644 Y130.289 E3.56478
G1 X120.450 Y130.114 E3.64303
G1 X119.621 Y128.897 E4.08442
G1 X119.552 Y128.789 E4.12264
G1 X119.501 Y128.651 E4.16694
G1 X118.999 Y127.126 E4.64788
G1 X118.809 Y125.156 E5.24100
G1 X118.807 Y124.968 E5.29713
G1 X118.910 Y123.670 E5.68749
G1 X119.033 Y122.956 E5.90468
G1 X119.175 Y122.430 E6.06773
G1 X119.582 Y121.325 E6.42055
G1 X120.179 Y120.395 E6.75199
G1 X120.521 Y119.969 E6.91542
G1 X120.891 Y119.598 E7.07250
G1 X121.769 Y118.936 E7.40217
G1 X122.117 Y118.748 E7.52065
G1 X122.831 Y118.450 E7.75229
G1 X123.730 Y118.182 E8.03356
G1 X124.053 Y118.127 E8.13176
G1 X125.456 Y118.001 E8.55370
G1 X126.561 Y118.063 E8.88547
G1 X127.493 Y118.214 E9.16814
G1 X127.862 Y118.296 E9.28160
G1 X128.477 Y118.480 E9.47386
G1 X128.960 Y118.653 E9.62752
G1 X129.493 Y118.893 E9.80269
G1 X129.958 Y119.136 E9.95987
G1 X130.204 Y119.288 E10.04644
G1 X130.929 Y119.823 E10.31675
G1 X131.268 Y120.201 E10.46872
G1 X131.298 Y120.536 E10.56954
G1 X131.298 Y123.297 E11.39687
G1 X131.182 Y123.962 E11.59916
G1 X126.643 Y124.164 E12.96048
G1 X132.252 Y124.164 E14.64105
G92 E0
G1 Z2.100 F7800.000
G1 X131.037 Y129.003 F7800.000
G1 X130.166 Y130.144 E0.42996 F600.000
G1 X129.784 Y130.556 E0.59838
G1 X129.552 Y130.755 E0.68999
G1 X129.012 Y131.138 E0.88840
G1 X128.656 Y131.326 E1.00904
G1 X128.045 Y131.582 E1.20745
G1 X127.498 Y131.740 E1.37825
G1 X126.824 Y131.879 E1.58432
G1 X126.544 Y131.916 E1.66887
G1 X125.370 Y131.991 E2.02148
G1 X125.208 Y131.982 E2.07022
G1 X123.581 Y131.811 E2.56036
G1 X123.357 Y131.772 E2.62851
G1 X121.999 Y131.264 E3.06301
G1 X121.742 Y131.143 E3.14797
G1 X120.644 Y130.289 E3.56478
G1 X120.450 Y130.114 E3.64303
G1 X119.621 Y128.897 E4.08442
G1 X119.552 Y128.789 E4.12264
G1 X119.501 Y128.651 E4.16694
G1 X118.999 Y127.126 E4.64788
G1 X118.809 Y125.156 E5.24100
G1 X118.807 Y124.968 E5.29713
G1 X118.910 Y123.670 E5.68749
G1 X119.033 Y122.956 E5.90468
G1 X119.175 Y122.430 E6.06773
G1 X119.582 Y121.325 E6.42055
G1 X120.179 Y120.395 E6.75199
G1 X120.521 Y119.969 E6.91542
G1 X120.891 Y119.598 E7.07250
G1 X121.769 Y118.936 E7.40217
