; generated by Slic3r 1.2.9 on 2016-03-11 at 01:24:43

; external perimeters extrusion width = 1.54mm
; perimeters extrusion width = 2.62mm
; infill extrusion width = 6.27mm
; solid infill extrusion width = 2.62mm
; top infill extrusion width = 2.62mm

M107
M104 S30 ; set temperature
G28 ; home all axes
G1 Z5 F5000 ; lift nozzle
M302
M92 E10000
M500
M501
G1 E100
M109 S30 ; wait for temperature to be reached
G21 ; set units to millimeters
G90 ; use absolute coordinates
M82 ; use absolute distances for extrusion
G92 E0
G1 Z0.300 F7800.000
G1 X87.194 Y92.719 F7800.000
G1 X88.195 Y92.489 E0.04648 F378.000
G1 X89.689 Y92.385 E0.11422
G1 X90.868 Y92.452 E0.16765
G1 X91.002 Y92.459 E0.17374 F378.000
G1 X92.249 Y92.680 E0.23104
G1 X93.429 Y93.048 E0.28698
G1 X94.516 Y93.550 E0.34116
G1 X95.481 Y94.172 E0.39311
G1 X96.263 Y94.857 E0.44014
G1 X96.263 Y99.807 E0.66413
G1 X90.237 Y99.807 E0.93680
G1 X90.237 Y98.522 E0.99495
G1 X94.805 Y98.522 E1.20164
G1 X94.805 Y95.430 E1.34157
G1 X94.119 Y94.866 E1.38174
G1 X93.391 Y94.436 E1.42000
G1 X92.555 Y94.084 E1.46105
G1 X91.643 Y93.824 E1.50397
G1 X90.687 Y93.668 E1.54780
G1 X89.680 Y93.615 E1.59342
G1 X88.007 Y93.806 E1.66960
G1 X86.576 Y94.387 E1.73950
G1 X85.406 Y95.358 E1.80830
G1 X84.545 Y96.660 E1.87891
G1 X84.032 Y98.231 E1.95369
G1 X83.863 Y100.064 E2.03701
G1 X84.022 Y101.895 E2.12014
G1 X84.505 Y103.443 E2.19354
G1 X85.318 Y104.705 E2.26146
G1 X86.444 Y105.636 E2.32757
G1 X87.855 Y106.191 E2.39616
G1 X89.530 Y106.374 E2.47241
G1 X90.638 Y106.306 E2.52266
G1 X91.622 Y106.102 E2.56813
G1 X92.487 Y105.758 E2.61024
G1 X93.236 Y105.261 E2.65093
G1 X93.868 Y104.600 E2.69229
G1 X94.278 Y103.944 E2.72731
G1 X95.815 Y104.397 E2.79981
G1 X95.317 Y105.266 E2.84512
G1 X94.536 Y106.137 E2.89806
G1 X93.603 Y106.789 E2.94957
G1 X92.484 Y107.245 E3.00425
G1 X91.146 Y107.522 E3.06607
G1 X89.594 Y107.614 E3.13642
G1 X87.411 Y107.393 E3.23569
G1 X85.599 Y106.736 E3.32290
G1 X84.144 Y105.648 E3.40515
G1 X83.074 Y104.161 E3.48803
G1 X82.428 Y102.303 E3.57703
G1 X82.211 Y100.062 E3.67892
G1 X82.310 Y98.552 E3.74738
G1 X82.608 Y97.183 E3.81077
G1 X83.102 Y95.956 E3.87060
G1 X83.781 Y94.893 E3.92769
G1 X84.633 Y94.012 E3.98317
G1 X85.662 Y93.309 E4.03954
G1 X86.854 Y92.797 E4.09825
G1 X86.969 Y92.771 E4.10358
G1 X90.867 Y92.683 F7800.000
G1 X91.788 Y93.604 E4.16295 F540.000
G1 X91.132 Y93.497 F7800.000
G1 X90.285 Y92.650 E4.21752 F540.000
G1 X89.703 Y92.617 E4.24407
G1 X90.514 Y93.428 E4.29630
G1 X89.935 Y93.398 E4.32273
G1 X89.179 Y92.642 E4.37145
G1 X88.665 Y92.677 E4.39490
G1 X89.415 Y93.427 E4.44321
G1 X88.922 Y93.483 E4.46581
G1 X88.152 Y92.714 E4.51538
G1 X87.706 Y92.817 E4.53626
G1 X88.429 Y93.540 E4.58284
G1 X87.952 Y93.612 E4.60482
G1 X87.260 Y92.919 E4.64944
G1 X86.821 Y93.030 E4.67005
G1 X87.561 Y93.770 E4.71777
G1 X87.171 Y93.929 E4.73698
G1 X86.437 Y93.195 E4.78429
G1 X86.052 Y93.359 E4.80334
G1 X86.780 Y94.087 E4.85023
G1 X86.415 Y94.271 E4.86887
G1 X85.677 Y93.534 E4.91638
G1 X85.351 Y93.756 E4.93439
G1 X86.115 Y94.520 E4.98358
G1 X85.814 Y94.769 E5.00135
G1 X85.025 Y93.979 E5.05224
G1 X84.721 Y94.224 E5.07003
G1 X85.514 Y95.018 E5.12115
G1 X85.226 Y95.278 E5.13887
G1 X84.446 Y94.499 E5.18907
G1 X84.172 Y94.774 E5.20676
G1 X85.007 Y95.609 E5.26058
G1 X84.788 Y95.939 E5.27863
G1 X83.907 Y95.058 E5.33544
G1 X83.693 Y95.393 E5.35356
G1 X84.570 Y96.270 E5.41006
G1 X84.351 Y96.600 E5.42812
G1 X83.479 Y95.728 E5.48433
G1 X83.273 Y96.071 E5.50256
G1 X84.215 Y97.013 E5.56324
G1 X84.079 Y97.427 E5.58308
G1 X83.115 Y96.463 E5.64522
G1 X82.957 Y96.854 E5.66445
G1 X83.944 Y97.841 E5.72804
G1 X83.810 Y98.256 E5.74791
G1 X82.808 Y97.254 E5.81251
G1 X82.710 Y97.705 E5.83354
G1 X83.764 Y98.759 E5.90146
G1 X83.718 Y99.261 E5.92446
G1 X82.612 Y98.156 E5.99571
G1 X82.527 Y98.620 E6.01722
G1 X83.671 Y99.764 E6.09094
G1 X83.649 Y100.291 E6.11495
G1 X82.493 Y99.135 E6.18941
G1 X82.459 Y99.650 E6.21294
G1 X83.701 Y100.892 E6.29296
G1 X83.753 Y101.494 E6.32046
G1 X82.460 Y100.200 E6.40383
G1 X82.519 Y100.808 E6.43166
G1 X83.825 Y102.114 E6.51584
G1 X84.074 Y102.912 E6.55391
G1 X82.577 Y101.416 E6.65031
G1 X82.636 Y102.024 E6.67814
G1 X84.372 Y103.760 E6.78997
G1 X83.171 Y103.657 F7800.000
G1 X86.189 Y106.675 E6.98438 F540.000
G1 X86.585 Y105.972 F7800.000
G1 X87.810 Y107.198 E7.06334 F540.000
G1 X88.421 Y107.260 E7.09132
G1 X87.490 Y106.329 E7.15128
G1 X88.173 Y106.463 E7.18298
G1 X89.032 Y107.322 E7.23832
G1 X89.643 Y107.383 E7.26630
G1 X88.789 Y106.530 E7.32131
G1 X89.406 Y106.597 E7.34955
G1 X90.167 Y107.358 E7.39863
G1 X90.685 Y107.328 E7.42228
G1 X89.929 Y106.571 E7.47103
G1 X90.446 Y106.539 E7.49465
G1 X91.202 Y107.295 E7.54332
G1 X91.657 Y107.201 E7.56450
G1 X90.919 Y106.463 E7.61200
G1 X91.374 Y106.369 E7.63317
G1 X92.112 Y107.106 E7.68068
G1 X92.554 Y106.999 E7.70141
G1 X91.802 Y106.248 E7.74985
G1 X92.195 Y106.091 E7.76912
G1 X92.944 Y106.840 E7.81738
G1 X93.334 Y106.681 E7.83658
G1 X92.582 Y105.929 E7.88507
G1 X92.911 Y105.710 E7.90311
G1 X93.692 Y106.490 E7.95342
G1 X94.015 Y106.265 E7.97138
G1 X93.241 Y105.490 E8.02127
G1 X93.530 Y105.230 E8.03898
G1 X94.336 Y106.036 E8.09086
G1 X94.610 Y105.761 E8.10855
G1 X93.799 Y104.950 E8.16083
G1 X94.059 Y104.661 E8.17854
G1 X94.872 Y105.474 E8.23091
G1 X95.132 Y105.184 E8.24862
G1 X94.271 Y104.323 E8.30408
G1 X94.882 Y104.385 E8.33205
G1 X95.335 Y104.839 E8.36129
G92 E0
G1 X94.623 Y104.854 F7800.000
G1 X94.623 Y104.854 F7800.000
G1 X90.463 Y98.868 F7800.000
G1 X91.176 Y99.581 E0.04592 F540.000
G1 X91.725 Y99.581 E0.07094
G1 X90.892 Y98.748 E0.12462
G1 X91.441 Y98.748 E0.14964
G1 X92.274 Y99.581 E0.20332
G1 X92.823 Y99.581 E0.22834
G1 X91.990 Y98.748 E0.28202
G1 X92.539 Y98.748 E0.30704
G1 X93.372 Y99.581 E0.36072
G1 X93.921 Y99.581 E0.38574
G1 X93.088 Y98.748 E0.43942
G1 X93.637 Y98.748 E0.46444
G1 X94.470 Y99.581 E0.51812
G1 X95.020 Y99.581 E0.54314
G1 X94.186 Y98.748 E0.59682
G1 X94.736 Y98.748 E0.62184
G1 X95.569 Y99.581 E0.67552
G1 X96.037 Y99.500 E0.69718
G1 X95.031 Y98.494 E0.76200
G1 X95.031 Y97.945 E0.78702
G1 X96.037 Y98.951 E0.85185
G1 X96.037 Y98.402 E0.87687
G1 X95.031 Y97.396 E0.94170
G1 X95.031 Y96.847 E0.96672
G1 X96.037 Y97.853 E1.03154
G1 X96.037 Y97.304 E1.05656
G1 X95.031 Y96.298 E1.12139
G1 X95.031 Y95.749 E1.14641
G1 X96.037 Y96.755 E1.21124
G1 X96.037 Y96.206 E1.23625
G1 X93.018 Y93.186 E1.43081
G1 X92.556 Y93.823 F7800.000
G1 X91.532 Y92.798 E1.49683 F540.000
G1 X92.220 Y92.937 E1.52881
G1 X93.462 Y94.180 E1.60885
G1 X93.977 Y93.597 F7800.000
G1 X96.037 Y95.656 E1.74158 F540.000
G1 X96.037 Y95.107 F7800.000
G1 X95.638 Y94.709 E1.76727 F540.000
G92 E0
G1 X94.623 Y104.854 F7800.000
G1 X94.623 Y104.854 F7800.000
G1 X94.627 Y104.863 F7800.000
G1 X94.572 Y104.936 F7800.000
G1 X87.050 Y106.987 F7800.000
G1 X82.879 Y102.816 E0.26877 F540.000
G1 X84.211 Y105.246 F7800.000
G1 X84.561 Y105.596 E0.29134 F540.000
G92 E0
G1 X93.711 Y106.988 F7800.000
G1 X100.478 Y105.373 F7800.000
G1 X104.518 Y107.571 F7800.000
G1 X106.860 Y108.332 F7800.000
G1 X108.810 Y108.688 F7800.000
G1 X109.216 Y107.610 F7800.000
G1 X114.878 Y105.220 F7800.000
G1 X115.069 Y105.077 E0.01080 F378.000
G1 X115.672 Y104.364 E0.05305
G1 X116.022 Y103.697 E0.08711
G1 X117.550 Y104.202 E0.15992
G1 X117.076 Y105.088 E0.20536
G1 X116.305 Y105.989 E0.25903
G1 X115.349 Y106.694 E0.31281
G1 X114.208 Y107.204 E0.36933
G1 X112.886 Y107.511 E0.43078
G1 X111.383 Y107.614 E0.49892
G1 X109.269 Y107.390 E0.59513
G1 X107.503 Y106.723 E0.68055
G1 X106.069 Y105.616 E0.76250
G1 X105.009 Y104.118 E0.84556
G1 X104.369 Y102.270 E0.93403
G1 X104.154 Y100.061 E1.03448
G1 X104.250 Y98.546 E1.10317
G1 X104.538 Y97.176 E1.16651
G1 X105.015 Y95.954 E1.22588
G1 X105.672 Y94.896 E1.28222
G1 X106.498 Y94.017 E1.33683
G1 X107.498 Y93.314 E1.39215
G1 X108.655 Y92.799 E1.44942
G1 X109.951 Y92.489 E1.50973
G1 X111.389 Y92.386 E1.57497
G1 X112.709 Y92.490 E1.63487
G1 X112.798 Y92.497 E1.63890 F378.000
G1 X114.081 Y92.829 E1.69887
G1 X115.242 Y93.381 E1.75705
G1 X116.261 Y94.143 E1.81464
G1 X117.117 Y95.107 E1.87299
G1 X117.698 Y96.088 E1.92455
G1 X116.394 Y96.737 E1.99046
G1 X115.224 Y95.102 E2.08142
G1 X113.539 Y94.000 E2.17256
G1 X111.493 Y93.635 E2.26658
G1 X109.869 Y93.832 E2.34060
G1 X108.480 Y94.425 E2.40897
G1 X107.332 Y95.414 E2.47754
G1 X106.480 Y96.722 E2.54816
G1 X105.973 Y98.274 E2.62205
G1 X105.805 Y100.064 E2.70336
G1 X105.966 Y101.863 E2.78509
G1 X106.454 Y103.401 E2.85810
G1 X107.273 Y104.672 E2.92655
G1 X108.393 Y105.620 E2.99295
G1 X109.773 Y106.187 E3.06047
G1 X111.396 Y106.374 E3.13435
G1 X112.467 Y106.293 E3.18297
G1 X113.439 Y106.050 E3.22833
G1 X114.315 Y105.642 E3.27205
G1 X114.693 Y105.359 E3.29342
G1 X116.505 Y104.126 F7800.000
G1 X117.066 Y104.688 E3.32939 F540.000
G1 X116.868 Y105.035 E3.34749
G1 X115.998 Y104.166 E3.40316
G1 X115.799 Y104.511 E3.42124
G1 X116.617 Y105.329 E3.47359
G1 X116.365 Y105.623 E3.49111
G1 X115.549 Y104.807 E3.54337
G1 X115.299 Y105.103 E3.56089
G1 X116.094 Y105.898 E3.61180
G1 X115.784 Y106.133 E3.62943
G1 X115.012 Y105.361 E3.67887
G1 X114.700 Y105.595 E3.69651
G1 X115.470 Y106.365 E3.74581
G1 X115.132 Y106.573 E3.76376
G1 X114.387 Y105.828 E3.81143
G1 X114.015 Y106.001 E3.83002
G1 X114.755 Y106.741 E3.87737
G1 X114.377 Y106.909 E3.89607
G1 X113.643 Y106.175 E3.94309
G1 X113.238 Y106.315 E3.96250
G1 X113.967 Y107.044 E4.00918
G1 X113.524 Y107.147 E4.02975
G1 X112.801 Y106.424 E4.07604
G1 X112.354 Y106.522 E4.09678
G1 X113.082 Y107.250 E4.14339
G1 X112.596 Y107.310 E4.16556
G1 X111.846 Y106.561 E4.21353
G1 X111.339 Y106.599 E4.23656
G1 X112.085 Y107.345 E4.28432
G1 X111.575 Y107.380 E4.30749
G1 X110.729 Y106.535 E4.36161
G1 X110.113 Y106.464 E4.38970
G1 X110.985 Y107.335 E4.44551
G1 X110.374 Y107.271 E4.47330
G1 X109.437 Y106.334 E4.53329
G1 X108.511 Y105.953 F7800.000
G1 X109.764 Y107.206 E4.61351 F540.000
G1 X109.036 Y107.024 E4.64746
G1 X104.831 Y102.819 E4.91669
G1 X104.580 Y102.022 E4.95448
G1 X106.403 Y103.845 E5.07117
G1 X106.039 Y102.936 F7800.000
G1 X104.521 Y101.418 E5.16835 F540.000
G1 X104.462 Y100.813 E5.19585
G1 X105.786 Y102.137 E5.28059
G1 X105.700 Y101.505 E5.30947
G1 X104.403 Y100.209 E5.39245
G1 X104.400 Y99.660 E5.41728
G1 X105.646 Y100.906 E5.49701
G1 X105.592 Y100.306 E5.52425
G1 X104.433 Y99.147 E5.59846
G1 X104.466 Y98.634 E5.62173
G1 X105.612 Y99.780 E5.69512
G1 X105.659 Y99.282 E5.71780
G1 X104.545 Y98.168 E5.78911
G1 X104.639 Y97.717 E5.80997
G1 X105.705 Y98.783 E5.87821
G1 X105.754 Y98.286 E5.90082
G1 X104.734 Y97.266 E5.96610
G1 X104.877 Y96.863 E5.98545
G1 X105.888 Y97.875 E6.05022
G1 X106.023 Y97.463 E6.06980
G1 X105.030 Y96.471 E6.13337
G1 X105.183 Y96.078 E6.15243
G1 X106.157 Y97.052 E6.21480
G1 X106.297 Y96.647 E6.23422
G1 X105.382 Y95.732 E6.29279
G1 X105.591 Y95.395 E6.31073
G1 X106.513 Y96.316 E6.36970
G1 X106.728 Y95.986 E6.38755
G1 X105.800 Y95.059 E6.44692
G1 X106.056 Y94.768 E6.46442
G1 X106.943 Y95.656 E6.52121
G1 X107.158 Y95.325 E6.53907
G1 X106.325 Y94.492 E6.59240
G1 X106.598 Y94.219 E6.60986
G1 X107.443 Y95.065 E6.66399
G1 X107.736 Y94.812 E6.68150
G1 X106.897 Y93.973 E6.73519
G1 X107.218 Y93.748 E6.75292
G1 X108.029 Y94.560 E6.80487
G1 X108.322 Y94.307 E6.82238
G1 X107.538 Y93.523 E6.87259
G1 X107.910 Y93.349 E6.89117
G1 X108.682 Y94.121 E6.94058
G1 X109.064 Y93.958 E6.95940
G1 X108.288 Y93.181 E7.00910
G1 X108.665 Y93.013 E7.02781
G1 X109.446 Y93.794 E7.07781
G1 X109.829 Y93.631 E7.09663
G1 X109.104 Y92.907 E7.14299
G1 X109.545 Y92.802 E7.16349
G1 X110.304 Y93.561 E7.21207
G1 X110.790 Y93.502 E7.23426
G1 X109.996 Y92.707 E7.28512
G1 X110.505 Y92.670 E7.30822
G1 X111.277 Y93.443 E7.35766
G1 X111.829 Y93.449 E7.38265
G1 X111.013 Y92.634 E7.43485
G1 X111.558 Y92.632 E7.45949
G1 X112.493 Y93.568 E7.51937
G1 X113.157 Y93.686 E7.54992
G1 X112.150 Y92.679 E7.61440
G1 X112.761 Y92.745 E7.64223
G1 X113.938 Y93.922 E7.71757
G1 X114.373 Y93.266 F7800.000
G1 X117.215 Y96.107 E7.89948 F540.000
G1 X116.851 Y96.288 E7.91790
G1 X115.367 Y94.805 E8.01288
G1 X115.514 Y94.952 F7800.000
G1 X113.497 Y92.935 E8.14201 F540.000
G1 X115.858 Y94.204 F7800.000
G1 X116.357 Y94.704 E8.17399 F540.000
G92 E0
G1 X105.209 Y98.116 F7800.000
G1 X105.172 Y98.112 F7800.000
G1 X104.980 Y100.047 F7800.000
G1 X104.931 Y100.048 F7800.000
G1 X105.120 Y103.653 F7800.000
G1 X108.160 Y106.693 E0.19462 F540.000
G1 X106.501 Y105.580 F7800.000
G1 X106.143 Y105.222 E0.21754 F540.000
M106 S255
G92 E0
G1 Z0.600 F7800.000
G1 X95.273 Y104.003 F7800.000
G1 X94.403 Y105.144 E0.42996 F600.000
G1 X94.021 Y105.556 E0.59838
G1 X93.789 Y105.755 E0.68999
G1 X93.248 Y106.138 E0.88840
G1 X92.892 Y106.326 E1.00904
G1 X92.282 Y106.582 E1.20745
G1 X91.734 Y106.740 E1.37825
G1 X91.061 Y106.879 E1.58432
G1 X90.781 Y106.916 E1.66887
G1 X89.607 Y106.991 E2.02148
G1 X89.444 Y106.982 E2.07022
G1 X87.817 Y106.811 E2.56036
G1 X87.593 Y106.772 E2.62851
G1 X86.235 Y106.264 E3.06301
G1 X85.979 Y106.143 E3.14797
G1 X84.881 Y105.289 E3.56478
G1 X84.687 Y105.114 E3.64303
G1 X83.857 Y103.897 E4.08442
G1 X83.789 Y103.789 E4.12264
G1 X83.738 Y103.651 E4.16694
G1 X83.236 Y102.126 E4.64788
G1 X83.046 Y100.156 E5.24100
G1 X83.044 Y99.968 E5.29713
G1 X83.146 Y98.670 E5.68749
G1 X83.270 Y97.956 E5.90468
G1 X83.412 Y97.430 E6.06773
G1 X83.818 Y96.325 E6.42055
G1 X84.416 Y95.395 E6.75199
G1 X84.757 Y94.969 E6.91542
G1 X85.127 Y94.598 E7.07250
G1 X86.006 Y93.936 E7.40217
G1 X86.354 Y93.748 E7.52065
G1 X87.067 Y93.450 E7.75229
G1 X87.967 Y93.182 E8.03357
G1 X88.290 Y93.127 E8.13176
G1 X89.693 Y93.001 E8.55370
G1 X90.798 Y93.063 E8.88547
G1 X91.729 Y93.214 E9.16814
G1 X92.099 Y93.296 E9.28160
G1 X92.714 Y93.480 E9.47386
G1 X93.196 Y93.653 E9.62752
G1 X93.730 Y93.893 E9.80269
G1 X94.194 Y94.136 E9.95987
G1 X94.440 Y94.288 E10.04644
G1 X95.166 Y94.823 E10.31675
G1 X95.505 Y95.201 E10.46872
G1 X95.534 Y95.536 E10.56954
G1 X95.534 Y98.297 E11.39687
G1 X95.418 Y98.962 E11.59916
G1 X90.880 Y99.164 E12.96048
G1 X96.488 Y99.164 E14.64105
G92 E0
G1 X100.807 Y105.607 F7800.000
G1 X106.860 Y108.332 F7800.000
G1 X109.098 Y108.722 F7800.000
G1 X111.273 Y108.837 F7800.000
G1 X111.379 Y107.840 F7800.000
G1 X117.000 Y103.783 F7800.000
G1 X116.243 Y104.879 E0.39909 F600.000
G1 X115.780 Y105.424 E0.61327
G1 X115.655 Y105.540 E0.66423
G1 X114.979 Y106.059 E0.91980
G1 X114.586 Y106.278 E1.05466
G1 X113.989 Y106.551 E1.25121
G1 X113.576 Y106.685 E1.38131
G1 X112.790 Y106.874 E1.62348
G1 X112.495 Y106.915 E1.71288
G1 X111.395 Y106.992 E2.04329
G1 X109.733 Y106.811 E2.54418
G1 X109.421 Y106.749 E2.63946
G1 X108.170 Y106.256 E3.04241
G1 X107.853 Y106.095 E3.14884
G1 X106.820 Y105.260 E3.54707
G1 X106.627 Y105.081 E3.62575
G1 X105.800 Y103.857 E4.06830
G1 X105.731 Y103.747 E4.10739
G1 X105.681 Y103.614 E4.14996
G1 X105.178 Y102.094 E4.62983
G1 X104.981 Y100.047 E5.24586
G1 X105.089 Y98.660 E5.66271
G1 X105.202 Y97.996 E5.86470
G1 X105.356 Y97.420 E6.04323
G1 X105.757 Y96.325 E6.39259
G1 X106.338 Y95.408 E6.71790
G1 X106.651 Y95.010 E6.86979
G1 X107.025 Y94.624 E7.03067
G1 X107.868 Y93.966 E7.35122
G1 X108.234 Y93.761 E7.47683
G1 X108.884 Y93.477 E7.68948
G1 X109.584 Y93.246 E7.91035
G1 X110.052 Y93.144 E8.05390
G1 X111.387 Y93.015 E8.45568
G1 X111.636 Y93.029 E8.53032
G1 X112.686 Y93.164 E8.84758
G1 X113.606 Y93.364 E9.12967
G1 X113.859 Y93.440 E9.20884
G1 X114.867 Y94.003 E9.55476
G1 X115.570 Y94.496 E9.81219
G1 X115.780 Y94.666 E9.89306
G1 X116.495 Y95.561 E10.23636
G1 X117.173 Y96.600 E10.60817
G92 E0
G1 Z0.900 F7800.000
G1 X95.273 Y104.003 F7800.000
G1 X94.403 Y105.144 E0.42996 F600.000
G1 X94.021 Y105.556 E0.59838
G1 X93.789 Y105.755 E0.68999
G1 X93.248 Y106.138 E0.88840
G1 X92.892 Y106.326 E1.00904
G1 X92.282 Y106.582 E1.20745
G1 X91.734 Y106.740 E1.37825
G1 X91.061 Y106.879 E1.58432
G1 X90.781 Y106.916 E1.66887
G1 X89.607 Y106.991 E2.02148
G1 X89.444 Y106.982 E2.07022
G1 X87.817 Y106.811 E2.56036
G1 X87.593 Y106.772 E2.62850
G1 X86.235 Y106.264 E3.06301
G1 X85.979 Y106.143 E3.14797
G1 X84.881 Y105.289 E3.56478
G1 X84.687 Y105.114 E3.64303
G1 X83.857 Y103.897 E4.08442
G1 X83.789 Y103.789 E4.12264
G1 X83.738 Y103.651 E4.16694
G1 X83.236 Y102.126 E4.64788
G1 X83.046 Y100.156 E5.24100
