; generated by Slic3r 1.2.9 on 2016-03-11 at 01:24:45

; external perimeters extrusion width = 1.54mm
; perimeters extrusion width = 2.62mm
; infill extrusion width = 6.27mm
; solid infill extrusion width = 2.62mm
; top infill extrusion width = 2.62mm

M107
M104 S30 ; set temperature
G28 ; home all axes
G1 Z5 F5000 ; lift nozzle
M302
M92 E10000
M500
M501
G1 E100
M109 S30 ; wait for temperature to be reached
G21 ; set units to millimeters
G90 ; use absolute coordinates
M82 ; use absolute distances for extrusion
G92 E0
G1 Z0.300 F7800.000
G1 X88.972 Y106.238 F7800.000
G1 X90.222 Y106.374 E0.05693 F378.000
G1 X91.331 Y106.306 E0.10717
G1 X92.315 Y106.102 E0.15264
G1 X93.180 Y105.758 E0.19476
G1 X93.928 Y105.261 E0.23544
G1 X94.560 Y104.600 E0.27681
G1 X94.971 Y103.944 E0.31182
G1 X96.508 Y104.397 E0.38432
G1 X96.009 Y105.266 E0.42963
G1 X95.229 Y106.137 E0.48258
G1 X94.295 Y106.789 E0.53408
G1 X93.176 Y107.245 E0.58877
G1 X91.838 Y107.522 E0.65058
G1 X90.286 Y107.614 E0.72094
G1 X88.104 Y107.393 E0.82021
G1 X86.292 Y106.736 E0.90741
G1 X84.836 Y105.648 E0.98967
G1 X83.766 Y104.161 E1.07255
G1 X83.121 Y102.303 E1.16154
G1 X82.903 Y100.062 E1.26344
G1 X83.003 Y98.552 E1.33189
G1 X83.300 Y97.183 E1.39529
G1 X83.794 Y95.956 E1.45512
G1 X84.473 Y94.893 E1.51221
G1 X85.326 Y94.012 E1.56769
G1 X86.354 Y93.309 E1.62406
G1 X87.547 Y92.797 E1.68276
G1 X88.888 Y92.489 E1.74503
G1 X90.381 Y92.385 E1.81277
G1 X91.560 Y92.452 E1.86620
G1 X91.694 Y92.459 E1.87229 F378.000
G1 X92.941 Y92.680 E1.92959
G1 X94.122 Y93.048 E1.98553
G1 X95.208 Y93.550 E2.03970
G1 X96.174 Y94.172 E2.09166
G1 X96.956 Y94.857 E2.13869
G1 X96.956 Y99.807 E2.36268
G1 X90.930 Y99.807 E2.63535
G1 X90.930 Y98.522 E2.69349
G1 X95.498 Y98.522 E2.90019
G1 X95.498 Y95.430 E3.04012
G1 X94.812 Y94.866 E3.08029
G1 X94.084 Y94.436 E3.11854
G1 X93.247 Y94.084 E3.15960
G1 X92.335 Y93.824 E3.20251
G1 X91.379 Y93.668 E3.24635
G1 X90.373 Y93.615 E3.29197
G1 X88.700 Y93.806 E3.36815
G1 X87.268 Y94.387 E3.43805
G1 X86.098 Y95.358 E3.50685
G1 X85.237 Y96.660 E3.57746
G1 X84.725 Y98.231 E3.65224
G1 X84.556 Y100.064 E3.73556
G1 X84.715 Y101.895 E3.81869
G1 X85.198 Y103.443 E3.89209
G1 X86.010 Y104.705 E3.96001
G1 X87.137 Y105.636 E4.02612
G1 X88.547 Y106.191 E4.09471
G1 X88.742 Y106.213 E4.10358
G1 X88.183 Y106.329 F7800.000
G1 X89.113 Y107.260 E4.16354 F540.000
G1 X89.725 Y107.322 E4.19152
G1 X88.866 Y106.463 E4.24686
G1 X89.482 Y106.530 E4.27511
G1 X90.336 Y107.383 E4.33011
G1 X90.860 Y107.358 E4.35402
G1 X90.098 Y106.597 E4.40309
G1 X90.621 Y106.571 E4.42695
G1 X91.378 Y107.328 E4.47571
G1 X91.894 Y107.295 E4.49927
G1 X91.139 Y106.539 E4.54794
G1 X91.612 Y106.463 E4.56978
G1 X92.349 Y107.201 E4.61728
G1 X92.804 Y107.106 E4.63845
G1 X92.067 Y106.369 E4.68597
G1 X92.494 Y106.248 E4.70623
G1 X93.246 Y106.999 E4.75467
G1 X93.636 Y106.840 E4.77387
G1 X92.887 Y106.091 E4.82213
G1 X93.274 Y105.929 E4.84124
G1 X94.027 Y106.681 E4.88973
G1 X94.385 Y106.490 E4.90822
G1 X93.604 Y105.710 E4.95852
G1 X93.934 Y105.490 E4.97657
G1 X94.708 Y106.265 E5.02645
G1 X95.028 Y106.036 E5.04439
G1 X94.223 Y105.230 E5.09626
G1 X94.491 Y104.950 E5.11396
G1 X95.303 Y105.761 E5.16623
G1 X95.565 Y105.474 E5.18394
G1 X94.752 Y104.661 E5.23631
G1 X94.963 Y104.323 E5.25446
G1 X95.824 Y105.184 E5.30992
G1 X96.028 Y104.839 E5.32819
G1 X95.574 Y104.385 E5.35743
G92 E0
G1 X95.316 Y104.854 F7800.000
G1 X95.316 Y104.854 F7800.000
G1 X91.156 Y98.868 F7800.000
G1 X91.868 Y99.581 E0.04592 F540.000
G1 X92.417 Y99.581 E0.07094
G1 X91.584 Y98.748 E0.12462
G1 X92.133 Y98.748 E0.14964
G1 X92.966 Y99.581 E0.20332
G1 X93.516 Y99.581 E0.22834
G1 X92.682 Y98.748 E0.28202
G1 X93.232 Y98.748 E0.30704
G1 X94.065 Y99.581 E0.36072
G1 X94.614 Y99.581 E0.38574
G1 X93.781 Y98.748 E0.43942
G1 X94.330 Y98.748 E0.46444
G1 X95.163 Y99.581 E0.51812
G1 X95.712 Y99.581 E0.54314
G1 X94.879 Y98.748 E0.59682
G1 X95.428 Y98.748 E0.62184
G1 X96.261 Y99.581 E0.67552
G1 X96.730 Y99.500 E0.69717
G1 X95.724 Y98.494 E0.76200
G1 X95.724 Y97.945 E0.78702
G1 X96.730 Y98.951 E0.85185
G1 X96.730 Y98.402 E0.87687
G1 X95.724 Y97.396 E0.94170
G1 X95.724 Y96.847 E0.96671
G1 X96.730 Y97.853 E1.03154
G1 X96.730 Y97.304 E1.05656
G1 X95.724 Y96.298 E1.12139
G1 X95.724 Y95.749 E1.14641
G1 X96.730 Y96.755 E1.21124
G1 X96.730 Y96.206 E1.23625
G1 X93.710 Y93.186 E1.43081
G1 X93.249 Y93.823 F7800.000
G1 X92.224 Y92.798 E1.49683 F540.000
G1 X92.912 Y92.937 E1.52881
G1 X94.154 Y94.180 E1.60885
G1 X94.670 Y93.597 F7800.000
G1 X96.730 Y95.656 E1.74158 F540.000
G1 X96.730 Y95.107 F7800.000
G1 X96.331 Y94.709 E1.76727 F540.000
G1 X92.481 Y93.604 F7800.000
G1 X91.559 Y92.683 E1.82664 F540.000
G1 X90.978 Y92.650 E1.85319
G1 X91.824 Y93.497 E1.90775
G1 X91.206 Y93.428 F7800.000
G1 X90.396 Y92.617 E1.95999 F540.000
G1 X89.871 Y92.642 E1.98392
G1 X90.627 Y93.398 E2.03264
G1 X90.107 Y93.427 E2.05637
G1 X89.358 Y92.677 E2.10468
G1 X88.845 Y92.714 E2.12809
G1 X89.614 Y93.483 E2.17767
G1 X89.122 Y93.540 E2.20027
G1 X88.399 Y92.817 E2.24685
G1 X87.952 Y92.919 E2.26773
G1 X88.644 Y93.612 E2.31234
G1 X88.254 Y93.770 E2.33155
G1 X87.513 Y93.030 E2.37927
G1 X87.129 Y93.195 E2.39832
G1 X87.863 Y93.929 E2.44563
G1 X87.473 Y94.087 E2.46483
G1 X86.745 Y93.359 E2.51173
G1 X86.370 Y93.534 E2.53057
G1 X87.107 Y94.271 E2.57808
G1 X86.807 Y94.520 E2.59585
G1 X86.044 Y93.756 E2.64505
G1 X85.717 Y93.979 E2.66305
G1 X86.507 Y94.769 E2.71393
G1 X86.207 Y95.018 E2.73170
G1 X85.413 Y94.224 E2.78282
G1 X85.139 Y94.499 E2.80051
G1 X85.918 Y95.278 E2.85072
G1 X85.699 Y95.609 E2.86878
G1 X84.864 Y94.774 E2.92259
G1 X84.599 Y95.058 E2.94029
G1 X85.481 Y95.939 E2.99710
G1 X85.262 Y96.270 E3.01515
G1 X84.385 Y95.393 E3.07166
G1 X84.171 Y95.728 E3.08978
G1 X85.044 Y96.600 E3.14599
G1 X84.907 Y97.013 E3.16579
G1 X83.965 Y96.071 E3.22647
G1 X83.808 Y96.463 E3.24569
G1 X84.772 Y97.427 E3.30783
G1 X84.637 Y97.841 E3.32767
G1 X83.650 Y96.854 E3.39127
G1 X83.500 Y97.254 E3.41070
G1 X84.503 Y98.256 E3.47530
G1 X84.456 Y98.759 E3.49830
G1 X83.402 Y97.705 E3.56622
G1 X83.304 Y98.156 E3.58725
G1 X84.410 Y99.261 E3.65850
G1 X84.364 Y99.764 E3.68150
G1 X83.219 Y98.620 E3.75523
G1 X83.186 Y99.135 E3.77875
G1 X84.341 Y100.291 E3.85321
G1 X84.393 Y100.892 E3.88072
G1 X83.152 Y99.650 E3.96074
G1 X83.152 Y100.200 E3.98578
G1 X84.446 Y101.494 E4.06914
G1 X84.517 Y102.114 E4.09761
G1 X83.211 Y100.808 E4.18178
G1 X83.270 Y101.416 E4.20961
G1 X84.766 Y102.912 E4.30601
G1 X85.064 Y103.760 F7800.000
G1 X83.329 Y102.024 E4.41783 F540.000
G1 X83.571 Y102.816 E4.45555
G1 X87.743 Y106.987 E4.72432
G1 X88.502 Y107.198 E4.76025
G1 X87.277 Y105.972 E4.83920
G1 X86.881 Y106.675 F7800.000
G1 X83.864 Y103.657 E5.03362 F540.000
G1 X84.903 Y105.246 F7800.000
G1 X85.253 Y105.596 E5.05619 F540.000
G92 E0
G1 X94.404 Y106.988 F7800.000
G1 X116.878 Y108.744 F7800.000
G1 X117.775 Y101.056 F7800.000
G1 X116.228 Y96.715 F7800.000
G1 X110.050 Y96.715 F7800.000
G1 X107.379 Y94.044 F7800.000
G1 X114.235 Y93.819 F7800.000
G1 X107.154 Y93.819 E0.32040 F378.000
G1 X107.154 Y99.611 E0.58248
G1 X116.003 Y99.611 E0.98289
G1 X116.003 Y100.831 E1.03810
G1 X107.154 Y100.831 E1.43851
G1 X107.154 Y106.181 E1.68059
G1 X116.653 Y106.181 E2.11041
G1 X116.653 Y107.423 E2.16661
G1 X105.533 Y107.423 E2.66978
G1 X105.533 Y92.577 E3.34156
G1 X117.097 Y92.577 E3.86482
G1 X117.097 Y93.819 E3.92102
G1 X114.466 Y93.819 E4.04008 F378.000
G1 X116.872 Y93.007 F7800.000
G1 X116.668 Y92.803 E4.05312 F540.000
G1 X116.122 Y92.803 E4.07782
G1 X116.872 Y93.552 E4.12579
G1 X116.367 Y93.593 E4.14872
G1 X115.577 Y92.803 E4.19930
G1 X115.031 Y92.803 E4.22400
G1 X115.821 Y93.593 E4.27459
G1 X115.275 Y93.593 E4.29929
G1 X114.485 Y92.803 E4.34988
G1 X113.940 Y92.803 E4.37458
G1 X114.730 Y93.593 E4.42516
G1 X114.184 Y93.593 E4.44987
G1 X113.394 Y92.803 E4.50045
G1 X112.848 Y92.803 E4.52515
G1 X113.639 Y93.593 E4.57574
G1 X113.093 Y93.593 E4.60044
G1 X112.303 Y92.803 E4.65103
G1 X111.757 Y92.803 E4.67573
G1 X112.547 Y93.593 E4.72631
G1 X112.002 Y93.593 E4.75102
G1 X111.212 Y92.803 E4.80160
G1 X110.666 Y92.803 E4.82630
G1 X111.456 Y93.593 E4.87689
G1 X110.910 Y93.593 E4.90159
G1 X110.120 Y92.803 E4.95218
G1 X109.575 Y92.803 E4.97688
G1 X110.365 Y93.593 E5.02746
G1 X109.819 Y93.593 E5.05217
G1 X109.029 Y92.803 E5.10275
G1 X108.483 Y92.803 E5.12745
G1 X109.274 Y93.593 E5.17804
G1 X108.728 Y93.593 E5.20274
G1 X107.938 Y92.803 E5.25332
G1 X107.392 Y92.803 E5.27803
G1 X108.182 Y93.593 E5.32861
G1 X107.637 Y93.593 E5.35331
G1 X106.847 Y92.803 E5.40390
G1 X106.301 Y92.803 E5.42860
G1 X107.091 Y93.593 E5.47919
G1 X106.929 Y93.976 F7800.000
G1 X105.777 Y92.825 E5.55289 F540.000
G1 X105.759 Y93.353 E5.57679
G1 X106.929 Y94.522 E5.65165
G1 X106.929 Y95.067 E5.67635
G1 X105.759 Y93.898 E5.75120
G1 X105.759 Y94.444 E5.77590
G1 X106.929 Y95.613 E5.85075
G1 X106.929 Y96.159 E5.87546
G1 X105.759 Y94.990 E5.95031
G1 X105.759 Y95.535 E5.97501
G1 X106.929 Y96.704 E6.04986
G1 X106.929 Y97.250 E6.07456
G1 X105.759 Y96.081 E6.14941
G1 X105.759 Y96.626 E6.17412
G1 X106.929 Y97.796 E6.24897
G1 X106.929 Y98.341 E6.27367
G1 X105.759 Y97.172 E6.34852
G1 X105.759 Y97.718 E6.37322
G1 X106.929 Y98.887 E6.44808
G1 X106.929 Y99.432 E6.47278
G1 X105.759 Y98.263 E6.54763
G1 X105.759 Y98.809 E6.57233
G1 X107.555 Y100.605 E6.68732
G1 X107.010 Y100.605 E6.71203
G1 X105.759 Y99.355 E6.79208
G1 X105.759 Y99.900 E6.81678
G1 X106.929 Y101.069 E6.89164
G1 X106.929 Y101.615 E6.91634
G1 X105.759 Y100.446 E6.99119
G1 X105.759 Y100.992 E7.01589
G1 X106.929 Y102.161 E7.09074
G1 X106.929 Y102.706 E7.11545
G1 X105.759 Y101.537 E7.19030
G1 X105.759 Y102.083 E7.21500
G1 X106.929 Y103.252 E7.28985
G1 X106.929 Y103.798 E7.31455
G1 X105.759 Y102.628 E7.38941
G1 X105.759 Y103.174 E7.41411
G1 X106.929 Y104.343 E7.48896
G1 X106.929 Y104.889 E7.51366
G1 X105.759 Y103.720 E7.58851
G1 X105.759 Y104.265 E7.61322
G1 X106.929 Y105.434 E7.68807
G1 X106.929 Y105.980 E7.71277
G1 X105.759 Y104.811 E7.78762
G1 X105.759 Y105.357 E7.81232
G1 X107.600 Y107.197 E7.93016
G1 X108.146 Y107.197 E7.95486
G1 X107.355 Y106.407 E8.00545
G1 X107.901 Y106.407 E8.03015
G1 X108.691 Y107.197 E8.08074
G1 X109.237 Y107.197 E8.10544
G1 X108.447 Y106.407 E8.15602
G1 X108.992 Y106.407 E8.18073
G1 X109.782 Y107.197 E8.23131
G1 X110.328 Y107.197 E8.25601
G1 X109.538 Y106.407 E8.30660
G1 X110.084 Y106.407 E8.33130
G1 X110.874 Y107.197 E8.38189
G1 X111.419 Y107.197 E8.40659
G1 X110.629 Y106.407 E8.45717
G1 X111.175 Y106.407 E8.48188
G1 X111.965 Y107.197 E8.53246
G1 X112.511 Y107.197 E8.55716
G1 X111.720 Y106.407 E8.60775
G1 X112.266 Y106.407 E8.63245
G1 X113.056 Y107.197 E8.68304
G1 X113.602 Y107.197 E8.70774
G1 X112.812 Y106.407 E8.75833
G1 X113.357 Y106.407 E8.78303
G1 X114.147 Y107.197 E8.83361
G1 X114.693 Y107.197 E8.85832
G1 X113.903 Y106.407 E8.90890
G1 X114.449 Y106.407 E8.93360
G1 X115.239 Y107.197 E8.98419
G1 X115.784 Y107.197 E9.00889
G1 X114.994 Y106.407 E9.05948
G1 X115.540 Y106.407 E9.08418
G1 X116.330 Y107.197 E9.13477
G1 X116.427 Y106.749 E9.15553
G1 X116.085 Y106.407 E9.17742
G92 E0
G1 X106.379 Y106.648 F7800.000
G1 X106.379 Y106.648 F7800.000
G1 X115.740 Y100.605 F7800.000
G1 X114.972 Y99.837 E0.04918 F540.000
G1 X115.517 Y99.837 E0.07388
G1 X115.777 Y100.097 E0.09053
G1 X115.194 Y100.605 F7800.000
G1 X114.426 Y99.837 E0.13971 F540.000
G1 X113.881 Y99.837 E0.16441
G1 X114.649 Y100.605 E0.21359
G1 X114.103 Y100.605 E0.23829
G1 X113.335 Y99.837 E0.28747
G1 X112.789 Y99.837 E0.31217
G1 X113.557 Y100.605 E0.36135
G1 X113.012 Y100.605 E0.38605
G1 X112.244 Y99.837 E0.43523
G1 X111.698 Y99.837 E0.45993
G1 X112.466 Y100.605 E0.50910
G1 X111.920 Y100.605 E0.53381
G1 X111.152 Y99.837 E0.58298
G1 X110.607 Y99.837 E0.60769
G1 X111.375 Y100.605 E0.65686
G1 X110.829 Y100.605 E0.68157
G1 X110.061 Y99.837 E0.73074
G1 X109.516 Y99.837 E0.75544
G1 X110.284 Y100.605 E0.80462
G1 X109.738 Y100.605 E0.82932
G1 X108.970 Y99.837 E0.87850
G1 X108.424 Y99.837 E0.90320
G1 X109.192 Y100.605 E0.95238
G1 X108.647 Y100.605 E0.97708
G1 X107.879 Y99.837 E1.02626
G1 X107.333 Y99.837 E1.05096
G1 X108.101 Y100.605 E1.10014
G92 E0
G1 X106.379 Y106.648 F7800.000
G1 X106.379 Y106.648 F7800.000
G1 X106.344 Y106.612 F7800.000
G1 X106.308 Y106.648 F7800.000
G1 X105.759 Y105.902 F7800.000
G1 X107.054 Y107.197 E0.08290 F540.000
G1 X106.509 Y107.197 E0.10760
G1 X105.759 Y106.448 E0.15557
G1 X105.759 Y106.993 E0.18027
G1 X105.963 Y107.197 E0.19331
M106 S255
G92 E0
G1 Z0.600 F7800.000
G1 X95.966 Y104.003 F7800.000
G1 X95.095 Y105.144 E0.42996 F600.000
G1 X94.713 Y105.556 E0.59838
G1 X94.481 Y105.755 E0.68999
G1 X93.941 Y106.138 E0.88840
G1 X93.585 Y106.326 E1.00904
G1 X92.974 Y106.582 E1.20745
G1 X92.427 Y106.740 E1.37825
G1 X91.753 Y106.879 E1.58432
G1 X91.473 Y106.916 E1.66887
G1 X90.299 Y106.991 E2.02148
G1 X90.137 Y106.982 E2.07022
G1 X88.510 Y106.811 E2.56036
G1 X88.286 Y106.772 E2.62851
G1 X86.928 Y106.264 E3.06301
G1 X86.671 Y106.143 E3.14797
G1 X85.573 Y105.289 E3.56478
G1 X85.379 Y105.114 E3.64303
G1 X84.550 Y103.897 E4.08442
G1 X84.481 Y103.789 E4.12264
G1 X84.430 Y103.651 E4.16694
G1 X83.928 Y102.126 E4.64788
G1 X83.738 Y100.156 E5.24100
G1 X83.736 Y99.968 E5.29713
G1 X83.839 Y98.670 E5.68749
G1 X83.962 Y97.956 E5.90468
G1 X84.104 Y97.430 E6.06773
G1 X84.511 Y96.325 E6.42055
G1 X85.109 Y95.395 E6.75199
G1 X85.450 Y94.969 E6.91542
G1 X85.820 Y94.598 E7.07250
G1 X86.699 Y93.936 E7.40217
G1 X87.046 Y93.748 E7.52065
G1 X87.760 Y93.450 E7.75229
G1 X88.660 Y93.182 E8.03357
G1 X88.983 Y93.127 E8.13176
G1 X90.385 Y93.001 E8.55370
G1 X91.491 Y93.063 E8.88547
G1 X92.422 Y93.214 E9.16814
G1 X92.791 Y93.296 E9.28160
G1 X93.406 Y93.480 E9.47386
G1 X93.889 Y93.653 E9.62752
G1 X94.422 Y93.893 E9.80269
G1 X94.887 Y94.136 E9.95987
G1 X95.133 Y94.288 E10.04644
G1 X95.859 Y94.823 E10.31675
G1 X96.197 Y95.201 E10.46872
G1 X96.227 Y95.536 E10.56954
G1 X96.227 Y98.297 E11.39687
G1 X96.111 Y98.962 E11.59916
G1 X91.572 Y99.164 E12.96048
G1 X97.181 Y99.164 E14.64105
G92 E0
G1 X101.228 Y94.240 F7800.000
G1 X103.116 Y92.352 F7800.000
G1 X117.322 Y91.256 F7800.000
G1 X117.322 Y96.044 F7800.000
G1 X116.228 Y96.715 F7800.000
G1 X110.050 Y96.715 F7800.000
G1 X107.379 Y94.044 F7800.000
G1 X117.322 Y93.198 F7800.000
G1 X107.379 Y93.198 E2.97938 F600.000
G1 X106.424 Y93.468 E3.27683
G1 X106.344 Y94.044 E3.45118
G1 X106.344 Y99.386 E5.05189
G1 X107.215 Y103.706 E6.37226
G1 X106.379 Y106.648 F7800.000
G1 X106.379 Y106.648 F7800.000
G1 X116.878 Y106.802 F7800.000
G1 X107.379 Y106.802 E9.21860 F600.000
G1 X106.424 Y106.532 E9.51604
G1 X106.344 Y105.956 E9.69039
G1 X106.344 Y101.056 E11.15866
G1 X106.512 Y100.221 E11.41390
G1 X116.228 Y100.221 E14.32531
G92 E0
G1 Z0.900 F7800.000
G1 X95.966 Y104.003 F7800.000
G1 X95.095 Y105.144 E0.42996 F600.000
G1 X94.713 Y105.556 E0.59838
G1 X94.481 Y105.755 E0.68999
G1 X93.941 Y106.138 E0.88840
G1 X93.585 Y106.326 E1.00904
G1 X92.974 Y106.582 E1.20745
G1 X92.427 Y106.740 E1.37825
G1 X91.753 Y106.879 E1.58432
G1 X91.473 Y106.916 E1.66887
G1 X90.299 Y106.991 E2.02148
G1 X90.137 Y106.982 E2.07022
G1 X88.510 Y106.811 E2.56036
G1 X88.286 Y106.772 E2.62850
G1 X86.928 Y106.264 E3.06301
G1 X86.671 Y106.143 E3.14797
G1 X85.573 Y105.289 E3.56478
G1 X85.379 Y105.114 E3.64303
G1 X84.550 Y103.897 E4.08442
G1 X84.481 Y103.789 E4.12264
G1 X84.430 Y103.651 E4.16694
G1 X83.928 Y102.126 E4.64788
G1 X83.738 Y100.156 E5.24100
G1 X83.736 Y99.968 E5.29713
G1 X83.839 Y98.670 E5.68749
G1 X83.962 Y97.956 E5.90468
G1 X84.104 Y97.430 E6.06773
G1 X84.511 Y96.325 E6.42055
G1 X85.109 Y95.395 E6.75199
G1 X85.450 Y94.969 E6.91542
G1 X85.820 Y94.598 E7.07250
G1 X86.699 Y93.936 E7.40217
G1 X87.046 Y93.748 E7.52065
G1 X87.760 Y93.450 E7.75229
G1 X88.660 Y93.182 E8.03357
G1 X88.983 Y93.127 E8.13176
G1 X90.385 Y93.001 E8.55370
G1 X91.491 Y93.063 E8.88547
G1 X92.422 Y93.214 E9.16814
G1 X92.791 Y93.296 E9.28160
G1 X93.406 Y93.480 E9.47386
G1 X93.889 Y93.653 E9.62752
G1 X94.422 Y93.893 E9.80269
G1 X94.887 Y94.136 E9.95987
G1 X95.133 Y94.288 E10.04644
G1 X95.859 Y94.823 E10.31675
G1 X96.197 Y95.201 E10.46872
G1 X96.227 Y95.536 E10.56954
G1 X96.227 Y98.297 E11.39687
G1 X96.111 Y98.962 E11.59916
G1 X91.572 Y99.164 E12.96048
