; generated by Slic3r 1.2.9 on 2016-03-11 at 01:24:50

; external perimeters extrusion width = 1.54mm
; perimeters extrusion width = 2.62mm
; infill extrusion width = 6.27mm
; solid infill extrusion width = 2.62mm
; top infill extrusion width = 2.62mm

M107
M104 S30 ; set temperature
G28 ; home all axes
G1 Z5 F5000 ; lift nozzle
M302
M92 E10000
M500
M501
G1 E100
M109 S30 ; wait for temperature to be reached
G21 ; set units to millimeters
G90 ; use absolute coordinates
M82 ; use absolute distances for extrusion
G92 E0
G1 Z0.300 F7800.000
G1 X85.275 Y102.095 F7800.000
G1 X85.078 Y100.062 E0.09245 F378.000
G1 X85.177 Y98.552 E0.16091
G1 X85.475 Y97.183 E0.22430
G1 X85.969 Y95.956 E0.28414
G1 X86.648 Y94.893 E0.34122
G1 X87.500 Y94.012 E0.39670
G1 X88.529 Y93.309 E0.45307
G1 X89.721 Y92.797 E0.51178
G1 X91.062 Y92.489 E0.57404
G1 X92.556 Y92.385 E0.64178
G1 X93.735 Y92.452 E0.69522
G1 X93.869 Y92.459 E0.70130 F378.000
G1 X95.116 Y92.680 E0.75861
G1 X96.296 Y93.048 E0.81455
G1 X97.383 Y93.550 E0.86872
G1 X98.348 Y94.172 E0.92068
G1 X99.130 Y94.857 E0.96771
G1 X99.130 Y99.807 E1.19169
G1 X93.104 Y99.807 E1.46436
G1 X93.104 Y98.522 E1.52251
G1 X97.672 Y98.522 E1.72921
G1 X97.672 Y95.430 E1.86913
G1 X96.986 Y94.866 E1.90930
G1 X96.258 Y94.436 E1.94756
G1 X95.422 Y94.084 E1.98861
G1 X94.510 Y93.824 E2.03153
G1 X93.554 Y93.668 E2.07537
G1 X92.547 Y93.615 E2.12098
G1 X90.874 Y93.806 E2.19716
G1 X89.443 Y94.387 E2.26706
G1 X88.273 Y95.358 E2.33586
G1 X87.412 Y96.660 E2.40647
G1 X86.899 Y98.231 E2.48126
G1 X86.730 Y100.064 E2.56457
G1 X86.889 Y101.895 E2.64770
G1 X87.372 Y103.443 E2.72111
G1 X88.185 Y104.705 E2.78902
G1 X89.311 Y105.636 E2.85514
G1 X90.722 Y106.191 E2.92373
G1 X92.397 Y106.374 E2.99997
G1 X93.505 Y106.306 E3.05022
G1 X94.489 Y106.102 E3.09569
G1 X95.354 Y105.758 E3.13780
G1 X96.103 Y105.261 E3.17849
G1 X96.735 Y104.600 E3.21986
G1 X97.145 Y103.944 E3.25487
G1 X98.682 Y104.397 E3.32737
G1 X98.184 Y105.266 E3.37268
G1 X97.403 Y106.137 E3.42562
G1 X96.470 Y106.789 E3.47713
G1 X95.351 Y107.245 E3.53181
G1 X94.013 Y107.522 E3.59363
G1 X92.461 Y107.614 E3.66399
G1 X90.278 Y107.393 E3.76325
G1 X88.466 Y106.736 E3.85046
G1 X87.011 Y105.648 E3.93272
G1 X85.941 Y104.161 E4.01560
G1 X85.303 Y102.324 E4.10358
G1 X85.746 Y102.816 F7800.000
G1 X89.917 Y106.987 E4.37235 F540.000
G1 X89.056 Y106.675 F7800.000
G1 X86.038 Y103.657 E4.56676 F540.000
G1 X87.239 Y103.760 F7800.000
G1 X85.503 Y102.024 E4.67859 F540.000
G1 X85.444 Y101.416 E4.70643
G1 X86.941 Y102.912 E4.80282
G1 X86.692 Y102.114 E4.84089
G1 X85.386 Y100.808 E4.92507
G1 X85.327 Y100.200 E4.95290
G1 X86.620 Y101.494 E5.03627
G1 X86.568 Y100.892 E5.06378
G1 X85.326 Y99.650 E5.14379
G1 X85.360 Y99.135 E5.16732
G1 X86.516 Y100.291 E5.24178
G1 X86.538 Y99.764 E5.26579
G1 X85.394 Y98.620 E5.33952
G1 X85.479 Y98.156 E5.36102
G1 X86.585 Y99.261 E5.43227
G1 X86.631 Y98.759 E5.45527
G1 X85.577 Y97.705 E5.52320
G1 X85.675 Y97.254 E5.54423
G1 X86.677 Y98.256 E5.60882
G1 X86.811 Y97.841 E5.62869
G1 X85.824 Y96.854 E5.69228
G1 X85.982 Y96.463 E5.71151
G1 X86.946 Y97.427 E5.77365
G1 X87.082 Y97.013 E5.79349
G1 X86.140 Y96.071 E5.85417
G1 X86.346 Y95.728 E5.87241
G1 X87.218 Y96.600 E5.92861
G1 X87.437 Y96.270 E5.94667
G1 X86.560 Y95.393 E6.00317
G1 X86.774 Y95.058 E6.02129
G1 X87.655 Y95.939 E6.07810
G1 X87.874 Y95.609 E6.09616
G1 X87.039 Y94.774 E6.14997
G1 X87.313 Y94.499 E6.16766
G1 X88.093 Y95.278 E6.21787
G1 X88.381 Y95.018 E6.23558
G1 X87.588 Y94.224 E6.28670
G1 X87.892 Y93.979 E6.30449
G1 X88.681 Y94.769 E6.35538
G1 X88.982 Y94.520 E6.37315
G1 X88.218 Y93.756 E6.42234
G1 X88.544 Y93.534 E6.44035
G1 X89.282 Y94.271 E6.48786
G1 X89.647 Y94.087 E6.50650
G1 X88.919 Y93.359 E6.55339
G1 X89.304 Y93.195 E6.57244
G1 X90.038 Y93.929 E6.61975
G1 X90.428 Y93.770 E6.63896
G1 X89.688 Y93.030 E6.68668
G1 X90.127 Y92.919 E6.70729
G1 X90.819 Y93.612 E6.75191
G1 X91.296 Y93.540 E6.77389
G1 X90.573 Y92.817 E6.82047
G1 X91.019 Y92.714 E6.84135
G1 X91.789 Y93.483 E6.89092
G1 X92.282 Y93.427 E6.91352
G1 X91.532 Y92.677 E6.96183
G1 X92.046 Y92.642 E6.98528
G1 X92.802 Y93.398 E7.03400
G1 X93.381 Y93.428 E7.06043
G1 X92.570 Y92.617 E7.11266
G1 X93.152 Y92.650 E7.13922
G1 X93.999 Y93.497 E7.19378
G1 X94.655 Y93.604 F7800.000
G1 X93.734 Y92.683 E7.25315 F540.000
G1 X95.423 Y93.823 F7800.000
G1 X94.399 Y92.798 E7.31918 F540.000
G1 X95.087 Y92.937 E7.35116
G1 X96.329 Y94.180 E7.43119
G1 X96.844 Y93.597 F7800.000
G1 X98.904 Y95.656 E7.56392 F540.000
G1 X98.904 Y95.107 F7800.000
G1 X98.505 Y94.709 E7.58961 F540.000
G1 X95.885 Y93.186 F7800.000
G1 X98.904 Y96.206 E7.78417 F540.000
G1 X98.904 Y96.755 E7.80918
G1 X97.898 Y95.749 E7.87401
G1 X97.898 Y96.298 E7.89903
G1 X98.904 Y97.304 E7.96386
G1 X98.904 Y97.853 E7.98888
G1 X97.898 Y96.847 E8.05370
G1 X97.898 Y97.396 E8.07872
G1 X98.904 Y98.402 E8.14355
G1 X98.904 Y98.951 E8.16857
G1 X97.898 Y97.945 E8.23340
G1 X97.898 Y98.494 E8.25842
G1 X98.904 Y99.500 E8.32324
G1 X98.436 Y99.581 E8.34490
G1 X97.603 Y98.748 E8.39858
G1 X97.053 Y98.748 E8.42360
G1 X97.887 Y99.581 E8.47728
G1 X97.337 Y99.581 E8.50230
G1 X96.504 Y98.748 E8.55598
G1 X95.955 Y98.748 E8.58100
G1 X96.788 Y99.581 E8.63468
G1 X96.239 Y99.581 E8.65970
G1 X95.406 Y98.748 E8.71338
G1 X94.857 Y98.748 E8.73840
G1 X95.690 Y99.581 E8.79208
G1 X95.141 Y99.581 E8.81710
G1 X94.308 Y98.748 E8.87078
G1 X93.759 Y98.748 E8.89580
G1 X94.592 Y99.581 E8.94948
G1 X94.043 Y99.581 E8.97450
G1 X93.330 Y98.868 E9.02042
G92 E0
G1 X97.490 Y104.854 F7800.000
G1 X97.490 Y104.854 F7800.000
G1 X97.494 Y104.863 F7800.000
G1 X97.508 Y104.859 F7800.000
G1 X98.202 Y104.839 F7800.000
G1 X97.749 Y104.385 E0.02924 F540.000
G1 X97.138 Y104.323 E0.05721
G1 X97.999 Y105.184 E0.11267
G1 X97.739 Y105.474 E0.13039
G1 X96.926 Y104.661 E0.18275
G1 X96.666 Y104.950 E0.20047
G1 X97.477 Y105.761 E0.25274
G1 X97.203 Y106.036 E0.27043
G1 X96.397 Y105.230 E0.32231
G1 X96.108 Y105.490 E0.34003
G1 X96.882 Y106.265 E0.38991
G1 X96.559 Y106.490 E0.40788
G1 X95.778 Y105.710 E0.45818
G1 X95.449 Y105.929 E0.47623
G1 X96.201 Y106.681 E0.52472
G1 X95.811 Y106.840 E0.54391
G1 X95.062 Y106.091 E0.59218
G1 X94.669 Y106.248 E0.61144
G1 X95.421 Y106.999 E0.65989
G1 X94.979 Y107.106 E0.68061
G1 X94.241 Y106.369 E0.72813
G1 X93.786 Y106.463 E0.74929
G1 X94.524 Y107.201 E0.79680
G1 X94.069 Y107.295 E0.81797
G1 X93.313 Y106.539 E0.86664
G1 X92.796 Y106.571 E0.89026
G1 X93.552 Y107.328 E0.93902
G1 X93.034 Y107.358 E0.96267
G1 X92.273 Y106.597 E1.01174
G1 X91.656 Y106.530 E1.03998
G1 X92.510 Y107.383 E1.09499
G1 X91.899 Y107.322 E1.12297
G1 X91.040 Y106.463 E1.17832
G1 X90.357 Y106.329 E1.21001
G1 X91.288 Y107.260 E1.26997
G1 X90.677 Y107.198 E1.29796
G1 X89.452 Y105.972 E1.37691
G1 X87.428 Y105.596 F7800.000
G1 X87.078 Y105.246 E1.39948 F540.000
G92 E0
G1 X95.416 Y107.461 F7800.000
G1 X100.939 Y106.874 F7800.000
G1 X105.120 Y102.312 F7800.000
G1 X108.157 Y101.440 F7800.000
G1 X110.135 Y103.004 F7800.000
G1 X113.087 Y105.956 F7800.000
G1 X113.306 Y96.802 F7800.000
G1 X113.237 Y95.929 E0.03962 F378.000
G1 X113.004 Y95.121 E0.07764
G1 X112.607 Y94.470 E0.11217
G1 X112.066 Y93.993 E0.14481
G1 X111.408 Y93.708 E0.17727
G1 X110.646 Y93.614 E0.21198
G1 X109.937 Y93.700 E0.24431
G1 X109.305 Y93.959 E0.27521
G1 X108.761 Y94.388 E0.30658
G1 X108.325 Y94.964 E0.33924
G1 X108.012 Y95.661 E0.37384
G1 X107.871 Y96.256 E0.40149
G1 X106.320 Y95.999 E0.47262
G1 X107.041 Y94.077 E0.56548
G1 X108.494 Y92.815 E0.65256
G1 X110.645 Y92.387 E0.75181
G1 X111.813 Y92.515 E0.80499
G1 X111.882 Y92.522 E0.80810 F378.000
G1 X112.925 Y92.924 E0.85869
G1 X113.776 Y93.590 E0.90758
G1 X114.409 Y94.491 E0.95743
G1 X114.792 Y95.601 E1.01058
G1 X114.923 Y96.940 E1.07144
G1 X114.923 Y107.423 E1.54579
G1 X110.360 Y107.423 E1.75226
G1 X110.360 Y106.181 E1.80846
G1 X113.312 Y106.181 E1.94203
G1 X113.312 Y97.032 E2.35600
G1 X113.305 Y95.255 F7800.000
G1 X114.655 Y96.605 E2.44411 F540.000
G1 X114.697 Y97.203 E2.47177
G1 X113.474 Y95.981 E2.55155
G1 X113.522 Y96.584 E2.57950
G1 X114.697 Y97.759 E2.65616
G1 X114.697 Y98.315 E2.68182
G1 X113.538 Y97.156 E2.75744
G1 X113.538 Y97.712 E2.78310
G1 X114.697 Y98.871 E2.85873
G1 X114.697 Y99.427 E2.88438
G1 X113.538 Y98.268 E2.96001
G1 X113.538 Y98.824 E2.98567
G1 X114.697 Y99.984 E3.06129
G1 X114.697 Y100.540 E3.08695
G1 X113.538 Y99.380 E3.16258
G1 X113.538 Y99.937 E3.18823
G1 X114.697 Y101.096 E3.26386
G1 X114.697 Y101.652 E3.28952
G1 X113.538 Y100.493 E3.36514
G1 X113.538 Y101.049 E3.39080
G1 X114.697 Y102.208 E3.46643
G1 X114.697 Y102.764 E3.49208
G1 X113.538 Y101.605 E3.56771
G1 X113.538 Y102.161 E3.59337
G1 X114.697 Y103.320 E3.66899
G1 X114.697 Y103.876 E3.69465
G1 X113.538 Y102.717 E3.77028
G1 X113.538 Y103.273 E3.79593
G1 X114.697 Y104.432 E3.87156
G1 X114.697 Y104.988 E3.89722
G1 X113.538 Y103.829 E3.97284
G1 X113.538 Y104.385 E3.99850
G1 X114.697 Y105.544 E4.07413
G1 X114.697 Y106.100 E4.09978
G1 X113.538 Y104.941 E4.17541
G1 X113.538 Y105.497 E4.20107
G1 X114.697 Y106.656 E4.27669
G1 X114.669 Y107.185 E4.30111
G1 X113.538 Y106.053 E4.37494
G1 X113.336 Y106.407 F7800.000
G1 X114.126 Y107.197 E4.42649 F540.000
G1 X113.570 Y107.197 E4.45215
G1 X112.780 Y106.407 E4.50370
G1 X112.224 Y106.407 E4.52935
G1 X113.014 Y107.197 E4.58090
G1 X112.458 Y107.197 E4.60656
G1 X111.668 Y106.407 E4.65811
G1 X111.112 Y106.407 E4.68377
G1 X111.902 Y107.197 E4.73532
G1 X111.346 Y107.197 E4.76097
G1 X110.586 Y106.437 E4.81054
G1 X110.586 Y106.993 E4.83619
G1 X110.789 Y107.197 E4.84948
G92 E0
G1 X114.087 Y96.846 F7800.000
G1 X114.018 Y95.788 F7800.000
G1 X114.014 Y95.771 F7800.000
G1 X113.829 Y95.187 F7800.000
G1 X107.294 Y95.916 F7800.000
G1 X106.765 Y95.388 E0.03447 F540.000
G1 X106.917 Y94.984 E0.05439
G1 X107.758 Y95.825 E0.10927
G1 X107.904 Y95.415 E0.12936
G1 X107.069 Y94.579 E0.18385
G1 X107.235 Y94.190 E0.20340
G1 X108.076 Y95.031 E0.25826
G1 X108.291 Y94.689 E0.27687
G1 X107.519 Y93.917 E0.32725
G1 X107.816 Y93.659 E0.34543
G1 X108.530 Y94.373 E0.39203
G1 X108.814 Y94.101 E0.41018
G1 X108.114 Y93.400 E0.45587
G1 X108.411 Y93.142 E0.47406
G1 X109.125 Y93.855 E0.52062
G1 X109.491 Y93.665 E0.53964
G1 X108.796 Y92.971 E0.58496
G1 X109.260 Y92.879 E0.60677
G1 X109.885 Y93.504 E0.64756
G1 X110.367 Y93.430 E0.67006
G1 X109.724 Y92.786 E0.71203
G1 X110.188 Y92.694 E0.73385
G1 X110.901 Y93.407 E0.78039
G1 X111.535 Y93.485 E0.80985
G1 X110.677 Y92.628 E0.86579
G1 X111.301 Y92.695 E0.89475
G1 X114.595 Y95.989 E1.10965
G1 X114.392 Y95.231 E1.14587
G1 X112.014 Y92.853 E1.30103
G1 X113.337 Y93.619 F7800.000
G1 X113.700 Y93.982 E1.32468 F540.000
M106 S255
G92 E0
G1 Z0.600 F7800.000
G1 X98.140 Y104.003 F7800.000
G1 X97.270 Y105.144 E0.42996 F600.000
G1 X96.888 Y105.556 E0.59838
G1 X96.656 Y105.755 E0.68999
G1 X96.115 Y106.138 E0.88840
G1 X95.759 Y106.326 E1.00904
G1 X95.149 Y106.582 E1.20745
G1 X94.601 Y106.740 E1.37825
G1 X93.928 Y106.879 E1.58432
G1 X93.648 Y106.916 E1.66887
G1 X92.474 Y106.991 E2.02148
G1 X92.311 Y106.982 E2.07022
G1 X90.684 Y106.811 E2.56036
G1 X90.460 Y106.772 E2.62851
G1 X89.102 Y106.264 E3.06301
G1 X88.846 Y106.143 E3.14797
G1 X87.748 Y105.289 E3.56478
G1 X87.554 Y105.114 E3.64303
G1 X86.724 Y103.897 E4.08442
G1 X86.656 Y103.789 E4.12264
G1 X86.605 Y103.651 E4.16694
G1 X86.103 Y102.126 E4.64788
G1 X85.913 Y100.156 E5.24100
G1 X85.911 Y99.968 E5.29713
G1 X86.013 Y98.670 E5.68749
G1 X86.137 Y97.956 E5.90468
G1 X86.279 Y97.430 E6.06773
G1 X86.685 Y96.325 E6.42055
G1 X87.283 Y95.395 E6.75199
G1 X87.624 Y94.969 E6.91542
G1 X87.994 Y94.598 E7.07250
G1 X88.873 Y93.936 E7.40217
G1 X89.221 Y93.748 E7.52065
G1 X89.934 Y93.450 E7.75229
G1 X90.834 Y93.182 E8.03357
G1 X91.157 Y93.127 E8.13176
G1 X92.560 Y93.001 E8.55370
G1 X93.665 Y93.063 E8.88547
G1 X94.596 Y93.214 E9.16814
G1 X94.966 Y93.296 E9.28160
G1 X95.581 Y93.480 E9.47386
G1 X96.063 Y93.653 E9.62752
G1 X96.597 Y93.893 E9.80269
G1 X97.061 Y94.136 E9.95987
G1 X97.307 Y94.288 E10.04644
G1 X98.033 Y94.823 E10.31675
G1 X98.372 Y95.201 E10.46872
G1 X98.401 Y95.536 E10.56954
G1 X98.401 Y98.297 E11.39687
G1 X98.285 Y98.962 E11.59916
G1 X93.747 Y99.164 E12.96048
G1 X99.355 Y99.164 E14.64105
G92 E0
G1 X103.801 Y100.032 F7800.000
G1 X105.024 Y102.144 F7800.000
G1 X106.013 Y96.176 F7800.000
G1 X106.944 Y96.330 F7800.000
G1 X107.692 Y94.530 E0.58425 F600.000
G1 X108.361 Y93.835 E0.87317
G1 X108.811 Y93.462 E1.04831
G1 X109.091 Y93.352 E1.13847
G1 X109.898 Y93.124 E1.38994
G1 X110.672 Y93.005 E1.62452
G1 X111.450 Y93.093 E1.85918
G1 X111.729 Y93.149 E1.94450
G1 X112.293 Y93.380 E2.12695
G1 X112.581 Y93.529 E2.22431
G1 X113.048 Y93.917 E2.40604
G1 X113.239 Y94.099 E2.48521
G1 X113.634 Y94.703 E2.70122
G1 X113.718 Y94.844 E2.75057
G1 X113.988 Y95.689 E3.01629
G1 X114.026 Y95.889 E3.07740
G1 X114.117 Y96.979 E3.40517
G1 X114.117 Y105.956 E6.09506
G1 X114.036 Y106.536 E6.27054
G1 X113.087 Y106.802 E6.56585
G1 X110.135 Y106.802 E7.45040
G92 E0
G1 Z0.900 F7800.000
G1 X98.140 Y104.003 F7800.000
G1 X97.270 Y105.144 E0.42996 F600.000
G1 X96.888 Y105.556 E0.59838
G1 X96.656 Y105.755 E0.68999
G1 X96.115 Y106.138 E0.88840
G1 X95.759 Y106.326 E1.00904
G1 X95.149 Y106.582 E1.20745
G1 X94.601 Y106.740 E1.37825
G1 X93.928 Y106.879 E1.58432
G1 X93.648 Y106.916 E1.66887
G1 X92.474 Y106.991 E2.02148
G1 X92.311 Y106.982 E2.07022
G1 X90.684 Y106.811 E2.56036
G1 X90.460 Y106.772 E2.62850
G1 X89.102 Y106.264 E3.06301
G1 X88.846 Y106.143 E3.14797
G1 X87.748 Y105.289 E3.56478
G1 X87.554 Y105.114 E3.64303
G1 X86.724 Y103.897 E4.08442
G1 X86.656 Y103.789 E4.12264
G1 X86.605 Y103.651 E4.16694
G1 X86.103 Y102.126 E4.64788
G1 X85.913 Y100.156 E5.24100
G1 X85.911 Y99.968 E5.29713
G1 X86.013 Y98.670 E5.68749
G1 X86.137 Y97.956 E5.90468
G1 X86.279 Y97.430 E6.06773
G1 X86.685 Y96.325 E6.42055
G1 X87.283 Y95.395 E6.75199
G1 X87.624 Y94.969 E6.91542
G1 X87.994 Y94.598 E7.07250
G1 X88.873 Y93.936 E7.40217
G1 X89.221 Y93.748 E7.52065
G1 X89.934 Y93.450 E7.75229
G1 X90.834 Y93.182 E8.03357
G1 X91.157 Y93.127 E8.13176
G1 X92.560 Y93.001 E8.55370
G1 X93.665 Y93.063 E8.88547
G1 X94.596 Y93.214 E9.16814
G1 X94.966 Y93.296 E9.28160
G1 X95.581 Y93.480 E9.47386
G1 X96.063 Y93.653 E9.62752
G1 X96.597 Y93.893 E9.80269
G1 X97.061 Y94.136 E9.95987
G1 X97.307 Y94.288 E10.04644
G1 X98.033 Y94.823 E10.31675
G1 X98.372 Y95.201 E10.46872
G1 X98.401 Y95.536 E10.56954
G1 X98.401 Y98.297 E11.39687
G1 X98.285 Y98.962 E11.59916
G1 X93.747 Y99.164 E12.96048
G1 X99.355 Y99.164 E14.64105
G92 E0
G1 X103.801 Y100.032 F7800.000
G1 X105.024 Y102.144 F7800.000
G1 X106.013 Y96.176 F7800.000
G1 X106.944 Y96.330 F7800.000
G1 X107.692 Y94.530 E0.58425 F600.000
G1 X108.361 Y93.835 E0.87317
G1 X108.811 Y93.462 E1.04831
G1 X109.091 Y93.352 E1.13847
G1 X109.898 Y93.124 E1.38994
G1 X110.672 Y93.005 E1.62452
G1 X111.450 Y93.093 E1.85918
G1 X111.729 Y93.149 E1.94450
G1 X112.293 Y93.380 E2.12695
G1 X112.581 Y93.529 E2.22431
G1 X113.048 Y93.917 E2.40604
G1 X113.239 Y94.099 E2.48521
G1 X113.634 Y94.703 E2.70122
G1 X113.718 Y94.844 E2.75057
G1 X113.988 Y95.689 E3.01629
G1 X114.026 Y95.889 E3.07740
G1 X114.117 Y96.979 E3.40517
G1 X114.117 Y105.956 E6.09506
G1 X114.036 Y106.536 E6.27054
G1 X113.087 Y106.802 E6.56585
G1 X110.135 Y106.802 E7.45040
G92 E0
G1 Z1.200 F7800.000
G1 X98.140 Y104.003 F7800.000
G1 X97.270 Y105.144 E0.42996 F600.000
G1 X96.888 Y105.556 E0.59838
G1 X96.656 Y105.755 E0.68999
G1 X96.115 Y106.138 E0.88840
G1 X95.759 Y106.326 E1.00904
G1 X95.149 Y106.582 E1.20745
G1 X94.601 Y106.740 E1.37825
G1 X93.928 Y106.879 E1.58432
G1 X93.648 Y106.916 E1.66887
G1 X92.474 Y106.991 E2.02148
G1 X92.311 Y106.982 E2.07022
G1 X90.684 Y106.811 E2.56036
G1 X90.460 Y106.772 E2.62851
G1 X89.102 Y106.264 E3.06301
G1 X88.846 Y106.143 E3.14797
G1 X87.748 Y105.289 E3.56478
G1 X87.554 Y105.114 E3.64303
G1 X86.724 Y103.897 E4.08442
G1 X86.656 Y103.789 E4.12264
G1 X86.605 Y103.651 E4.16694
G1 X86.103 Y102.126 E4.64788
G1 X85.913 Y100.156 E5.24100
G1 X85.911 Y99.968 E5.29713
G1 X86.013 Y98.670 E5.68749
G1 X86.137 Y97.956 E5.90468
G1 X86.279 Y97.430 E6.06773
G1 X86.685 Y96.325 E6.42055
G1 X87.283 Y95.395 E6.75199
G1 X87.624 Y94.969 E6.91542
G1 X87.994 Y94.598 E7.07250
G1 X88.873 Y93.936 E7.40217
