; generated by Slic3r 1.2.9 on 2016-03-11 at 01:24:54

; external perimeters extrusion width = 1.54mm
; perimeters extrusion width = 2.62mm
; infill extrusion width = 6.27mm
; solid infill extrusion width = 2.62mm
; top infill extrusion width = 2.62mm

M107
M104 S30 ; set temperature
G28 ; home all axes
G1 Z5 F5000 ; lift nozzle
M302
M92 E10000
M500
M501
G1 E100
M109 S30 ; wait for temperature to be reached
G21 ; set units to millimeters
G90 ; use absolute coordinates
M82 ; use absolute distances for extrusion
G92 E0
G1 Z0.300 F7800.000
G1 X96.441 Y99.807 F7800.000
G1 X90.721 Y99.807 E0.25887 F378.000
G1 X90.721 Y98.522 E0.31701
G1 X95.289 Y98.522 E0.52371
G1 X95.289 Y95.430 E0.66364
G1 X94.603 Y94.866 E0.70381
G1 X93.875 Y94.436 E0.74206
G1 X93.038 Y94.084 E0.78312
G1 X92.126 Y93.824 E0.82603
G1 X91.170 Y93.668 E0.86987
G1 X90.164 Y93.615 E0.91549
G1 X88.491 Y93.806 E0.99167
G1 X87.059 Y94.387 E1.06157
G1 X85.889 Y95.358 E1.13037
G1 X85.028 Y96.660 E1.20097
G1 X84.516 Y98.231 E1.27576
G1 X84.347 Y100.064 E1.35908
G1 X84.506 Y101.895 E1.44221
G1 X84.989 Y103.443 E1.51561
G1 X85.801 Y104.705 E1.58353
G1 X86.928 Y105.636 E1.64964
G1 X88.338 Y106.191 E1.71823
G1 X90.013 Y106.374 E1.79448
G1 X91.122 Y106.306 E1.84472
G1 X92.106 Y106.102 E1.89020
G1 X92.971 Y105.758 E1.93231
G1 X93.719 Y105.261 E1.97299
G1 X94.351 Y104.600 E2.01436
G1 X94.762 Y103.944 E2.04937
G1 X96.299 Y104.397 E2.12187
G1 X95.800 Y105.266 E2.16719
G1 X95.020 Y106.137 E2.22013
G1 X94.086 Y106.789 E2.27163
G1 X92.967 Y107.245 E2.32632
G1 X91.629 Y107.522 E2.38814
G1 X90.077 Y107.614 E2.45849
G1 X87.895 Y107.393 E2.55776
G1 X86.083 Y106.736 E2.64496
G1 X84.627 Y105.648 E2.72722
G1 X83.557 Y104.161 E2.81010
G1 X82.912 Y102.303 E2.89909
G1 X82.694 Y100.062 E3.00099
G1 X82.794 Y98.552 E3.06945
G1 X83.091 Y97.183 E3.13284
G1 X83.585 Y95.956 E3.19267
G1 X84.264 Y94.893 E3.24976
G1 X85.117 Y94.012 E3.30524
G1 X86.145 Y93.309 E3.36161
G1 X87.338 Y92.797 E3.42032
G1 X88.679 Y92.489 E3.48258
G1 X90.172 Y92.385 E3.55032
G1 X91.351 Y92.452 E3.60375
G1 X91.485 Y92.459 E3.60984 F378.000
G1 X92.732 Y92.680 E3.66714
G1 X93.913 Y93.048 E3.72308
G1 X94.999 Y93.550 E3.77725
G1 X95.965 Y94.172 E3.82921
G1 X96.747 Y94.857 E3.87624
G1 X96.747 Y99.807 E4.10023
G1 X96.672 Y99.807 E4.10358
G1 X96.521 Y95.656 F7800.000
G1 X94.461 Y93.597 E4.23631 F540.000
G1 X93.945 Y94.180 F7800.000
G1 X92.703 Y92.937 E4.31634 F540.000
G1 X92.015 Y92.798 E4.34832
G1 X93.040 Y93.823 E4.41435
G1 X93.501 Y93.186 F7800.000
G1 X96.521 Y96.206 E4.60890 F540.000
G1 X96.521 Y96.755 E4.63392
G1 X95.515 Y95.749 E4.69875
G1 X95.515 Y96.298 E4.72377
G1 X96.521 Y97.304 E4.78860
G1 X96.521 Y97.853 E4.81361
G1 X95.515 Y96.847 E4.87844
G1 X95.515 Y97.396 E4.90346
G1 X96.521 Y98.402 E4.96829
G1 X96.521 Y98.951 E4.99331
G1 X95.515 Y97.945 E5.05814
G1 X95.515 Y98.494 E5.08315
G1 X96.521 Y99.500 E5.14798
G1 X96.052 Y99.581 E5.16964
G1 X95.219 Y98.748 E5.22332
G1 X94.670 Y98.748 E5.24834
G1 X95.503 Y99.581 E5.30202
G1 X94.954 Y99.581 E5.32704
G1 X94.121 Y98.748 E5.38072
G1 X93.572 Y98.748 E5.40574
G1 X94.405 Y99.581 E5.45942
G1 X93.856 Y99.581 E5.48444
G1 X93.023 Y98.748 E5.53812
G1 X92.473 Y98.748 E5.56314
G1 X93.307 Y99.581 E5.61682
G1 X92.757 Y99.581 E5.64183
G1 X91.924 Y98.748 E5.69551
G1 X91.375 Y98.748 E5.72053
G1 X92.208 Y99.581 E5.77421
G1 X91.659 Y99.581 E5.79923
G1 X90.947 Y98.868 E5.84516
G92 E0
G1 X85.106 Y95.137 F7800.000
G1 X85.106 Y95.137 F7800.000
G1 X91.615 Y93.497 F7800.000
G1 X90.769 Y92.650 E0.05457 F540.000
G1 X90.187 Y92.617 E0.08112
G1 X90.997 Y93.428 E0.13336
G1 X90.418 Y93.398 E0.15978
G1 X89.662 Y92.642 E0.20850
G1 X89.149 Y92.677 E0.23196
G1 X89.898 Y93.427 E0.28026
G1 X89.405 Y93.483 E0.30286
G1 X88.636 Y92.714 E0.35244
G1 X88.190 Y92.817 E0.37331
G1 X88.913 Y93.540 E0.41990
G1 X88.435 Y93.612 E0.44188
G1 X87.743 Y92.919 E0.48649
G1 X87.304 Y93.030 E0.50711
G1 X88.045 Y93.770 E0.55483
G1 X87.654 Y93.929 E0.57403
G1 X86.920 Y93.195 E0.62134
G1 X86.536 Y93.359 E0.64039
G1 X87.264 Y94.087 E0.68729
G1 X86.898 Y94.271 E0.70592
G1 X86.161 Y93.534 E0.75344
G1 X85.835 Y93.756 E0.77144
G1 X86.598 Y94.520 E0.82064
G1 X86.298 Y94.769 E0.83841
G1 X85.508 Y93.979 E0.88929
G1 X85.204 Y94.224 E0.90708
G1 X85.998 Y95.018 E0.95820
G1 X85.709 Y95.278 E0.97592
G1 X84.930 Y94.499 E1.02613
G1 X84.655 Y94.774 E1.04382
G1 X85.490 Y95.609 E1.09763
G1 X85.272 Y95.939 E1.11568
G1 X84.390 Y95.058 E1.17249
G1 X84.176 Y95.393 E1.19061
G1 X85.053 Y96.270 E1.24712
G1 X84.835 Y96.600 E1.26517
G1 X83.962 Y95.728 E1.32138
G1 X83.756 Y96.071 E1.33961
G1 X84.698 Y97.013 E1.40029
G1 X84.563 Y97.427 E1.42014
G1 X83.599 Y96.463 E1.48227
G1 X83.441 Y96.854 E1.50150
G1 X84.428 Y97.841 E1.56509
G1 X84.294 Y98.256 E1.58497
G1 X83.291 Y97.254 E1.64956
G1 X83.193 Y97.705 E1.67059
G1 X84.247 Y98.759 E1.73851
G1 X84.201 Y99.261 E1.76151
G1 X83.095 Y98.156 E1.83276
G1 X83.010 Y98.620 E1.85427
G1 X84.155 Y99.764 E1.92799
G1 X84.132 Y100.291 E1.95201
G1 X82.977 Y99.135 E2.02647
G1 X82.943 Y99.650 E2.04999
G1 X84.184 Y100.892 E2.13001
G1 X84.237 Y101.494 E2.15752
G1 X82.943 Y100.200 E2.24088
G1 X83.002 Y100.808 E2.26872
G1 X84.308 Y102.114 E2.35289
G1 X84.557 Y102.912 E2.39096
G1 X83.061 Y101.416 E2.48736
G1 X83.120 Y102.024 E2.51520
G1 X84.855 Y103.760 E2.62702
G1 X83.655 Y103.657 F7800.000
G1 X86.672 Y106.675 E2.82143 F540.000
G1 X87.068 Y105.972 F7800.000
G1 X88.293 Y107.198 E2.90039 F540.000
G1 X88.904 Y107.260 E2.92838
G1 X87.974 Y106.329 E2.98834
G1 X88.657 Y106.463 E3.02003
G1 X89.516 Y107.322 E3.07537
G1 X90.127 Y107.383 E3.10336
G1 X89.273 Y106.530 E3.15837
G1 X89.889 Y106.597 E3.18661
G1 X90.651 Y107.358 E3.23568
G1 X91.169 Y107.328 E3.25933
G1 X90.412 Y106.571 E3.30808
G1 X90.930 Y106.539 E3.33171
G1 X91.685 Y107.295 E3.38038
G1 X92.140 Y107.201 E3.40155
G1 X91.403 Y106.463 E3.44905
G1 X91.858 Y106.369 E3.47022
G1 X92.595 Y107.106 E3.51774
G1 X93.037 Y106.999 E3.53846
G1 X92.285 Y106.248 E3.58691
G1 X92.678 Y106.091 E3.60617
G1 X93.427 Y106.840 E3.65444
G1 X93.818 Y106.681 E3.67363
G1 X93.065 Y105.929 E3.72212
G1 X93.395 Y105.710 E3.74017
G1 X94.176 Y106.490 E3.79047
G1 X94.499 Y106.265 E3.80844
G1 X93.725 Y105.490 E3.85832
G1 X94.014 Y105.230 E3.87604
G1 X94.819 Y106.036 E3.92791
G1 X95.094 Y105.761 E3.94561
G1 X94.282 Y104.950 E3.99788
G1 X94.543 Y104.661 E4.01559
G1 X95.356 Y105.474 E4.06796
G1 X95.615 Y105.184 E4.08568
G1 X94.754 Y104.323 E4.14114
G1 X95.365 Y104.385 E4.16911
G1 X95.819 Y104.839 E4.19835
G92 E0
G1 X95.055 Y104.936 F7800.000
G1 X95.055 Y104.936 F7800.000
G1 X87.534 Y106.987 F7800.000
G1 X83.362 Y102.816 E0.26877 F540.000
G1 X84.694 Y105.246 F7800.000
G1 X85.044 Y105.596 E0.29134 F540.000
G92 E0
G1 X83.569 Y100.062 F7800.000
G1 X83.724 Y98.064 F7800.000
G1 X84.303 Y96.313 F7800.000
G1 X84.900 Y95.395 F7800.000
G1 X85.106 Y95.137 F7800.000
G1 X92.272 Y93.604 F7800.000
G1 X91.350 Y92.683 E0.05937 F540.000
G1 X96.122 Y94.709 F7800.000
G1 X96.521 Y95.107 E0.08506 F540.000
G92 E0
G1 X96.972 Y94.755 F7800.000
G1 X101.039 Y94.755 F7800.000
G1 X102.914 Y92.352 F7800.000
G1 X105.106 Y92.352 F7800.000
G1 X106.724 Y96.832 F7800.000
G1 X106.724 Y102.512 E0.25698 F378.000
G1 X106.671 Y104.320 E0.33884 F378.000
G1 X106.616 Y105.392 E0.38739
G1 X107.021 Y105.520 E0.40661
G1 X115.162 Y92.577 E1.09848
G1 X117.306 Y92.577 E1.19553
G1 X117.306 Y107.423 E1.86730
G1 X115.891 Y107.423 E1.93132
G1 X115.891 Y97.618 E2.37499
G1 X115.906 Y96.856 E2.40947
G1 X116.021 Y94.524 E2.51513
G1 X115.617 Y94.395 E2.53433
G1 X107.389 Y107.423 E3.23156
G1 X105.331 Y107.423 E3.32468
G1 X105.331 Y92.577 E3.99645
G1 X106.724 Y92.577 E4.05948
G1 X106.724 Y96.601 E4.24159
G1 X105.786 Y92.803 F7800.000
G1 X106.499 Y93.516 E4.28798 F540.000
G1 X106.499 Y94.070 E4.31350
G1 X105.557 Y93.129 E4.37474
G1 X105.557 Y93.684 E4.40026
G1 X106.499 Y94.625 E4.46150
G1 X106.499 Y95.180 E4.48702
G1 X105.557 Y94.238 E4.54826
G1 X105.557 Y94.793 E4.57377
G1 X106.499 Y95.734 E4.63502
G1 X106.499 Y96.289 E4.66053
G1 X105.557 Y95.348 E4.72177
G1 X105.557 Y95.902 E4.74729
G1 X106.499 Y96.843 E4.80853
G1 X106.499 Y97.398 E4.83405
G1 X105.557 Y96.457 E4.89529
G1 X105.557 Y97.011 E4.92081
G1 X106.499 Y97.952 E4.98205
G1 X106.499 Y98.507 E5.00757
G1 X105.557 Y97.566 E5.06881
G1 X105.557 Y98.120 E5.09432
G1 X106.499 Y99.062 E5.15557
G1 X106.499 Y99.616 E5.18108
G1 X105.557 Y98.675 E5.24232
G1 X105.557 Y99.230 E5.26784
G1 X106.499 Y100.171 E5.32908
G1 X106.499 Y100.725 E5.35460
G1 X105.557 Y99.784 E5.41584
G1 X105.557 Y100.339 E5.44136
G1 X106.499 Y101.280 E5.50260
G1 X106.499 Y101.834 E5.52812
G1 X105.557 Y100.893 E5.58936
G1 X105.557 Y101.448 E5.61487
G1 X106.499 Y102.389 E5.67611
G1 X106.488 Y102.933 E5.70117
G1 X105.557 Y102.002 E5.76174
G1 X105.557 Y102.557 E5.78726
G1 X106.472 Y103.472 E5.84679
G1 X106.456 Y104.010 E5.87158
G1 X105.557 Y103.112 E5.93006
G1 X105.557 Y103.666 E5.95558
G1 X106.437 Y104.546 E6.01281
G1 X106.410 Y105.073 E6.03712
G1 X105.557 Y104.221 E6.09259
G1 X105.557 Y104.775 E6.11811
G1 X107.564 Y106.782 E6.24868
G1 X107.779 Y106.442 E6.26717
G1 X107.099 Y105.762 E6.31142
G1 X107.313 Y105.421 E6.32993
G1 X107.993 Y106.102 E6.37420
G1 X108.208 Y105.762 E6.39270
G1 X107.527 Y105.081 E6.43702
G1 X107.741 Y104.741 E6.45552
G1 X108.423 Y105.422 E6.49987
G1 X108.637 Y105.082 E6.51837
G1 X107.955 Y104.400 E6.56275
G1 X108.169 Y104.060 E6.58125
G1 X108.852 Y104.742 E6.62567
G1 X109.067 Y104.402 E6.64417
G1 X108.383 Y103.719 E6.68862
G1 X108.598 Y103.379 E6.70712
G1 X109.281 Y104.062 E6.75160
G1 X109.496 Y103.723 E6.77010
G1 X108.812 Y103.038 E6.81462
G1 X109.026 Y102.698 E6.83313
G1 X109.710 Y103.383 E6.87768
G1 X109.925 Y103.043 E6.89618
G1 X109.240 Y102.358 E6.94076
G1 X109.454 Y102.017 E6.95927
G1 X110.140 Y102.703 E7.00389
G1 X110.354 Y102.363 E7.02238
G1 X109.668 Y101.677 E7.06704
G1 X109.882 Y101.336 E7.08554
G1 X110.569 Y102.023 E7.13023
G1 X110.784 Y101.683 E7.14873
G1 X110.097 Y100.996 E7.19345
G1 X110.311 Y100.655 E7.21196
G1 X110.998 Y101.343 E7.25671
G1 X111.213 Y101.003 E7.27521
G1 X110.525 Y100.315 E7.32000
G1 X110.739 Y99.975 E7.33851
G1 X111.428 Y100.663 E7.38333
G1 X111.642 Y100.323 E7.40183
G1 X110.953 Y99.634 E7.44669
G1 X111.167 Y99.294 E7.46519
G1 X111.857 Y99.984 E7.51008
G1 X112.072 Y99.644 E7.52858
G1 X111.381 Y98.953 E7.57351
G1 X111.595 Y98.613 E7.59201
G1 X112.286 Y99.304 E7.63697
G1 X112.501 Y98.964 E7.65547
G1 X111.810 Y98.272 E7.70047
G1 X112.024 Y97.932 E7.71897
G1 X112.716 Y98.624 E7.76400
G1 X112.930 Y98.284 E7.78250
G1 X112.238 Y97.592 E7.82756
G1 X112.452 Y97.251 E7.84607
G1 X113.145 Y97.944 E7.89116
G1 X113.360 Y97.604 E7.90966
G1 X112.666 Y96.911 E7.95479
G1 X112.880 Y96.570 E7.97330
G1 X113.574 Y97.264 E8.01846
G1 X113.789 Y96.924 E8.03696
G1 X113.094 Y96.230 E8.08216
G1 X113.309 Y95.889 E8.10066
G1 X114.004 Y96.584 E8.14589
G1 X114.218 Y96.245 E8.16439
G1 X113.523 Y95.549 E8.20966
G1 X113.737 Y95.209 E8.22817
G1 X114.433 Y95.905 E8.27347
G1 X114.648 Y95.565 E8.29196
G1 X113.951 Y94.868 E8.33730
G1 X114.165 Y94.528 E8.35580
G1 X114.862 Y95.225 E8.40117
G1 X115.077 Y94.885 E8.41967
G1 X114.379 Y94.187 E8.46507
G1 X114.593 Y93.847 E8.48358
G1 X115.292 Y94.545 E8.52902
G1 X115.506 Y94.205 E8.54752
G1 X114.807 Y93.506 E8.59299
G1 X115.022 Y93.166 E8.61149
G1 X117.081 Y95.225 E8.74547
G1 X117.081 Y94.670 E8.77099
G1 X115.236 Y92.825 E8.89103
G1 X115.768 Y92.803 E8.91554
G1 X117.081 Y94.116 E9.00096
G1 X117.081 Y93.561 E9.02648
G1 X116.322 Y92.803 E9.07582
G1 X116.877 Y92.803 E9.10133
G1 X117.081 Y93.007 E9.11458
G1 X116.224 Y94.923 F7800.000
G1 X117.081 Y95.779 E9.17034 F540.000
G1 X117.081 Y96.334 E9.19586
G1 X116.198 Y95.451 E9.25331
G1 X116.171 Y95.979 E9.27766
G1 X117.081 Y96.889 E9.33682
G1 X117.081 Y97.443 E9.36234
G1 X116.145 Y96.508 E9.42319
G1 X116.127 Y97.044 E9.44787
G1 X117.081 Y97.998 E9.50994
G1 X117.081 Y98.552 E9.53546
G1 X116.117 Y97.589 E9.59813
G1 X116.117 Y98.144 E9.62365
G1 X117.081 Y99.107 E9.68632
G1 X117.081 Y99.661 E9.71184
G1 X116.117 Y98.698 E9.77451
G1 X116.117 Y99.253 E9.80003
G1 X117.081 Y100.216 E9.86270
G1 X117.081 Y100.770 E9.88822
G1 X116.117 Y99.807 E9.95089
G1 X116.117 Y100.362 E9.97641
G1 X117.081 Y101.325 E10.03908
G1 X117.081 Y101.880 E10.06460
G1 X116.117 Y100.917 E10.12727
G1 X116.117 Y101.471 E10.15279
G1 X117.081 Y102.434 E10.21546
G1 X117.081 Y102.989 E10.24098
G1 X116.117 Y102.026 E10.30365
G1 X116.117 Y102.580 E10.32917
G1 X117.081 Y103.543 E10.39184
G1 X117.081 Y104.098 E10.41736
G1 X116.117 Y103.135 E10.48003
G1 X116.117 Y103.689 E10.50555
G1 X117.081 Y104.652 E10.56822
G1 X117.081 Y105.207 E10.59374
G1 X116.117 Y104.244 E10.65641
G1 X116.117 Y104.798 E10.68193
G1 X117.081 Y105.762 E10.74460
G1 X117.081 Y106.316 E10.77012
G1 X116.117 Y105.353 E10.83279
G1 X116.117 Y105.908 E10.85831
G1 X117.081 Y106.871 E10.92098
G1 X116.852 Y107.197 E10.93930
G1 X116.117 Y106.462 E10.98712
G1 X116.117 Y107.017 E11.01264
G1 X116.298 Y107.197 E11.02437
G92 E0
G1 X107.138 Y106.370 F7800.000
G1 X107.138 Y106.370 F7800.000
G1 X106.864 Y106.470 F7800.000
G1 X106.962 Y106.648 F7800.000
G1 X107.349 Y107.122 F7800.000
G1 X105.557 Y105.330 E0.11660 F540.000
G1 X105.557 Y105.884 E0.14212
G1 X106.870 Y107.197 E0.22754
G1 X106.316 Y107.197 E0.25306
G1 X105.557 Y106.439 E0.30239
G1 X105.557 Y106.993 E0.32791
G1 X105.761 Y107.197 E0.34116
M106 S255
G92 E0
G1 Z0.600 F7800.000
G1 X95.757 Y104.003 F7800.000
G1 X94.886 Y105.144 E0.42996 F600.000
G1 X94.504 Y105.556 E0.59838
G1 X94.272 Y105.755 E0.68999
G1 X93.732 Y106.138 E0.88840
G1 X93.376 Y106.326 E1.00904
G1 X92.765 Y106.582 E1.20745
G1 X92.218 Y106.740 E1.37825
G1 X91.544 Y106.879 E1.58432
G1 X91.264 Y106.916 E1.66887
G1 X90.090 Y106.991 E2.02148
G1 X89.928 Y106.982 E2.07022
G1 X88.301 Y106.811 E2.56036
G1 X88.077 Y106.772 E2.62851
G1 X86.719 Y106.264 E3.06301
G1 X86.462 Y106.143 E3.14797
G1 X85.364 Y105.289 E3.56478
G1 X85.170 Y105.114 E3.64303
G1 X84.341 Y103.897 E4.08442
G1 X84.272 Y103.789 E4.12264
G1 X84.221 Y103.651 E4.16694
G1 X83.719 Y102.126 E4.64788
G1 X83.529 Y100.156 E5.24100
G1 X83.527 Y99.968 E5.29713
G1 X83.630 Y98.670 E5.68749
G1 X83.753 Y97.956 E5.90468
G1 X83.895 Y97.430 E6.06773
G1 X84.302 Y96.325 E6.42055
G1 X84.900 Y95.395 E6.75199
G1 X85.241 Y94.969 E6.91542
G1 X85.611 Y94.598 E7.07250
G1 X86.490 Y93.936 E7.40217
G1 X86.837 Y93.748 E7.52065
G1 X87.551 Y93.450 E7.75229
G1 X88.451 Y93.182 E8.03357
G1 X88.774 Y93.127 E8.13176
G1 X90.176 Y93.001 E8.55370
G1 X91.282 Y93.063 E8.88547
G1 X92.213 Y93.214 E9.16814
G1 X92.582 Y93.296 E9.28160
G1 X93.197 Y93.480 E9.47386
G1 X93.680 Y93.653 E9.62752
G1 X94.213 Y93.893 E9.80269
G1 X94.678 Y94.136 E9.95987
G1 X94.924 Y94.288 E10.04644
G1 X95.650 Y94.823 E10.31675
G1 X95.988 Y95.201 E10.46872
G1 X96.018 Y95.536 E10.56954
G1 X96.018 Y98.297 E11.39687
G1 X95.902 Y98.962 E11.59916
G1 X91.363 Y99.164 E12.96048
G1 X96.972 Y99.164 E14.64105
G92 E0
G1 X101.039 Y94.755 F7800.000
G1 X102.914 Y92.352 F7800.000
G1 X105.106 Y92.352 F7800.000
G1 X106.028 Y92.352 F7800.000
G1 X106.028 Y102.501 E3.04120 F600.000
G1 X105.978 Y105.185 E3.84543
G1 X106.364 Y106.390 E4.22466
G1 X106.553 Y106.422 E4.28197
G1 X106.853 Y106.449 E4.37217
G1 X107.675 Y105.726 E4.70041
G1 X114.952 Y94.181 E8.78972
G1 X115.676 Y93.507 E9.08590
G1 X116.075 Y93.535 E9.20580
G1 X116.307 Y93.577 E9.27644
G1 X116.659 Y94.729 E9.63746
G1 X116.599 Y97.625 E10.50543
G1 X116.599 Y107.648 E13.50886
G92 E0
G1 Z0.900 F7800.000
G1 X95.757 Y104.003 F7800.000
G1 X94.886 Y105.144 E0.42996 F600.000
G1 X94.504 Y105.556 E0.59838
G1 X94.272 Y105.755 E0.68999
G1 X93.732 Y106.138 E0.88840
G1 X93.376 Y106.326 E1.00904
G1 X92.765 Y106.582 E1.20745
G1 X92.218 Y106.740 E1.37825
G1 X91.544 Y106.879 E1.58432
G1 X91.264 Y106.916 E1.66887
G1 X90.090 Y106.991 E2.02148
G1 X89.928 Y106.982 E2.07022
G1 X88.301 Y106.811 E2.56036
G1 X88.077 Y106.772 E2.62850
G1 X86.719 Y106.264 E3.06301
G1 X86.462 Y106.143 E3.14797
G1 X85.364 Y105.289 E3.56478
G1 X85.170 Y105.114 E3.64303
G1 X84.341 Y103.897 E4.08442
G1 X84.272 Y103.789 E4.12264
G1 X84.221 Y103.651 E4.16694
G1 X83.719 Y102.126 E4.64788
G1 X83.529 Y100.156 E5.24100
G1 X83.527 Y99.968 E5.29713
