; generated by Slic3r 1.2.9 on 2016-03-11 at 01:24:55

; external perimeters extrusion width = 1.54mm
; perimeters extrusion width = 2.62mm
; infill extrusion width = 6.27mm
; solid infill extrusion width = 2.62mm
; top infill extrusion width = 2.62mm

M107
M104 S30 ; set temperature
G28 ; home all axes
G1 Z5 F5000 ; lift nozzle
M302
M92 E10000
M500
M501
G1 E100
M109 S30 ; wait for temperature to be reached
G21 ; set units to millimeters
G90 ; use absolute coordinates
M82 ; use absolute distances for extrusion
G92 E0
G1 Z0.300 F7800.000
G1 X118.134 Y101.825 F7800.000
G1 X117.896 Y102.916 E0.05051 F378.000
G1 X117.408 Y104.124 E0.10949
G1 X116.738 Y105.169 E0.16566
G1 X115.897 Y106.032 E0.22019
G1 X114.881 Y106.716 E0.27560
G1 X113.708 Y107.214 E0.33325
G1 X112.396 Y107.514 E0.39415
G1 X110.947 Y107.614 E0.45990
G1 X108.783 Y107.390 E0.55834
G1 X106.979 Y106.725 E0.64535
G1 X105.520 Y105.621 E0.72813
G1 X104.444 Y104.124 E0.81155
G1 X103.794 Y102.275 E0.90022
G1 X103.576 Y100.061 E1.00090
G1 X103.673 Y98.562 E1.06888
G1 X103.966 Y97.196 E1.13211
G1 X104.452 Y95.965 E1.19199
G1 X105.119 Y94.896 E1.24902
G1 X105.957 Y94.011 E1.30414
G1 X106.969 Y93.308 E1.35990
G1 X108.141 Y92.797 E1.41776
G1 X109.458 Y92.489 E1.47895
G1 X110.922 Y92.386 E1.54535
G1 X112.280 Y92.483 E1.60698
G1 X112.374 Y92.490 E1.61122 F378.000
G1 X113.685 Y92.802 E1.67219
G1 X114.857 Y93.319 E1.73018
G1 X115.875 Y94.028 E1.78630
G1 X116.720 Y94.915 E1.84175
G1 X117.397 Y95.983 E1.89896
G1 X117.892 Y97.209 E1.95880
G1 X118.190 Y98.570 E2.02180
G1 X118.289 Y100.065 E2.08963
G1 X118.183 Y101.599 E2.15922
G1 X116.502 Y101.448 F7800.000
G1 X116.464 Y101.868 E2.17832 F378.000
G1 X115.972 Y103.408 E2.25148
G1 X115.144 Y104.678 E2.32008
G1 X114.009 Y105.623 E2.38690
G1 X112.605 Y106.188 E2.45540
G1 X110.944 Y106.374 E2.53100
G1 X109.271 Y106.191 E2.60715
G1 X107.858 Y105.634 E2.67589
G1 X106.717 Y104.701 E2.74257
G1 X105.885 Y103.438 E2.81101
G1 X105.391 Y101.890 E2.88453
G1 X105.228 Y100.065 E2.96745
G1 X105.393 Y98.242 E3.05026
G1 X105.892 Y96.676 E3.12465
G1 X106.731 Y95.372 E3.19481
G1 X107.873 Y94.394 E3.26286
G1 X109.275 Y93.808 E3.33161 F378.000
G1 X110.921 Y93.615 E3.40661
G1 X112.605 Y93.801 E3.48327
G1 X114.021 Y94.368 E3.55228
G1 X115.156 Y95.317 E3.61922
G1 X115.978 Y96.605 E3.68837
G1 X116.466 Y98.190 E3.76340
G1 X116.627 Y100.065 E3.84858
G1 X116.523 Y101.218 E3.90093
G1 X117.318 Y96.489 F7800.000
G1 X114.109 Y93.279 E4.10918 F540.000
G1 X113.667 Y93.944 F7800.000
G1 X112.496 Y92.773 E4.18516 F540.000
G1 X113.222 Y92.946 F7800.000
G1 X115.455 Y95.179 E4.33011 F540.000
G1 X115.313 Y95.037 F7800.000
G1 X117.684 Y97.408 E4.48398 F540.000
G1 X117.839 Y98.116 E4.51724
G1 X116.205 Y96.482 E4.62328
G1 X116.451 Y97.281 E4.66165
G1 X117.973 Y98.803 E4.76041
G1 X118.013 Y99.396 E4.78766
G1 X116.690 Y98.073 E4.87351
G1 X116.742 Y98.678 E4.90137
G1 X118.052 Y99.988 E4.98642
G1 X118.038 Y100.527 E5.01114
G1 X116.794 Y99.283 E5.09188
G1 X116.846 Y99.888 E5.11974
G1 X118.004 Y101.046 E5.19489
G1 X117.970 Y101.565 E5.21875
G1 X116.816 Y100.411 E5.29363
G1 X116.770 Y100.918 E5.31700
G1 X117.875 Y102.023 E5.38875
G1 X117.776 Y102.478 E5.41007
G1 X116.724 Y101.425 E5.47837
G1 X116.664 Y101.918 E5.50114
G1 X117.674 Y102.928 E5.56673
G1 X117.515 Y103.322 E5.58622
G1 X116.530 Y102.337 E5.65018
G1 X116.396 Y102.756 E5.67036
G1 X117.356 Y103.716 E5.73269
G1 X117.190 Y104.103 E5.75202
G1 X116.262 Y103.175 E5.81228
G1 X116.101 Y103.567 E5.83172
G1 X116.974 Y104.440 E5.88841
G1 X116.758 Y104.777 E5.90677
G1 X115.882 Y103.902 E5.96360
G1 X115.664 Y104.236 E5.98194
G1 X116.528 Y105.100 E6.03800
G1 X116.252 Y105.377 E6.05595
G1 X115.446 Y104.571 E6.10823
G1 X115.202 Y104.880 E6.12630
G1 X115.975 Y105.653 E6.17646
G1 X115.699 Y105.930 E6.19441
G1 X114.900 Y105.132 E6.24621
G1 X114.599 Y105.383 E6.26423
G1 X115.369 Y106.153 E6.31424
G1 X115.039 Y106.376 E6.33252
G1 X114.297 Y105.634 E6.38066
G1 X113.967 Y105.857 E6.39894
G1 X114.690 Y106.580 E6.44584
G1 X114.301 Y106.745 E6.46519
G1 X113.572 Y106.016 E6.51249
G1 X113.178 Y106.174 E6.53200
G1 X113.913 Y106.909 E6.57969
G1 X113.498 Y107.047 E6.59977
G1 X112.784 Y106.333 E6.64610
G1 X112.335 Y106.437 E6.66725
G1 X113.048 Y107.150 E6.71351
G1 X112.597 Y107.253 E6.73469
G1 X111.837 Y106.493 E6.78401
G1 X111.340 Y106.549 E6.80696
G1 X112.105 Y107.313 E6.85657
G1 X111.587 Y107.349 E6.88036
G1 X110.838 Y106.600 E6.92899
G1 X110.217 Y106.531 E6.95767
G1 X111.070 Y107.385 E7.01304
G1 X110.460 Y107.328 E7.04115
G1 X109.596 Y106.463 E7.09726
G1 X108.908 Y106.329 E7.12939
G1 X109.843 Y107.264 E7.19008
G1 X109.227 Y107.200 E7.21853
G1 X107.996 Y105.969 E7.29841
G1 X107.597 Y106.676 F7800.000
G1 X104.539 Y103.619 E7.49684 F540.000
G1 X104.240 Y102.766 F7800.000
G1 X108.473 Y107.000 E7.77155 F540.000
G1 X105.942 Y105.574 F7800.000
G1 X105.588 Y105.220 E7.79453 F540.000
G1 X105.700 Y103.673 F7800.000
G1 X104.000 Y101.973 E7.90485 F540.000
G1 X103.939 Y101.360 E7.93314
G1 X105.431 Y102.851 E8.02991
G1 X105.171 Y102.039 E8.06905
G1 X103.879 Y100.746 E8.15291
G1 X103.818 Y100.133 E8.18120
G1 X105.116 Y101.430 E8.26539
G1 X105.061 Y100.823 E8.29336
G1 X103.828 Y99.589 E8.37341
G1 X103.862 Y99.070 E8.39728
G1 X105.007 Y100.215 E8.47161
G1 X105.042 Y99.697 E8.49546
G1 X103.895 Y98.551 E8.56983
G1 X103.990 Y98.092 E8.59133
G1 X105.087 Y99.190 E8.66257
G1 X105.133 Y98.683 E8.68594
G1 X104.087 Y97.636 E8.75383
G1 X104.187 Y97.184 E8.77511
G1 X105.194 Y98.191 E8.84044
G1 X105.328 Y97.771 E8.86064
G1 X104.344 Y96.787 E8.92449
G1 X104.500 Y96.391 E8.94405
G1 X105.462 Y97.352 E9.00643
G1 X105.595 Y96.932 E9.02663
G1 X104.661 Y95.998 E9.08726
G1 X104.873 Y95.658 E9.10568
G1 X105.751 Y96.535 E9.16263
G1 X105.967 Y96.199 E9.18100
G1 X105.086 Y95.317 E9.23820
G1 X105.303 Y94.981 E9.25655
G1 X106.184 Y95.862 E9.31372
G1 X106.400 Y95.525 E9.33209
G1 X105.572 Y94.697 E9.38581
G1 X105.849 Y94.421 E9.40375
G1 X106.631 Y95.203 E9.45452
G1 X106.929 Y94.948 E9.47252
G1 X106.125 Y94.144 E9.52468
G1 X106.444 Y93.910 E9.54283
G1 X107.227 Y94.693 E9.59367
G1 X107.525 Y94.438 E9.61167
G1 X106.770 Y93.683 E9.66068
G1 X107.107 Y93.467 E9.67905
G1 X107.833 Y94.193 E9.72617
G1 X108.223 Y94.030 E9.74557
G1 X107.492 Y93.299 E9.79302
G1 X107.877 Y93.131 E9.81230
G1 X108.613 Y93.867 E9.86008
G1 X109.003 Y93.704 E9.87947
G1 X108.279 Y92.980 E9.92646
G1 X108.727 Y92.875 E9.94758
G1 X109.424 Y93.572 E9.99280
G1 X109.919 Y93.514 E10.01566
G1 X109.175 Y92.770 E10.06392
G1 X109.654 Y92.696 E10.08615
G1 X110.414 Y93.456 E10.13545
G1 X110.909 Y93.398 E10.15831
G1 X110.171 Y92.660 E10.20621
G1 X110.687 Y92.623 E10.22997
G1 X111.507 Y93.443 E10.28315
G1 X112.129 Y93.512 E10.31186
G1 X111.260 Y92.643 E10.36826
G1 X111.855 Y92.685 E10.39568
G1 X112.751 Y93.581 E10.45377
G1 X115.498 Y94.116 F7800.000
G1 X116.337 Y94.954 E10.50819 F540.000
G92 E0
G1 X103.450 Y98.531 F7800.000
G1 X91.016 Y102.771 F7800.000
G1 X89.512 Y103.073 F7800.000
G1 X88.170 Y102.884 F7800.000
G1 X87.701 Y102.658 F7800.000
G1 X86.060 Y105.440 F7800.000
G1 X81.905 Y102.067 F7800.000
G1 X81.711 Y100.062 E0.09117 F378.000
G1 X81.810 Y98.552 E0.15963
G1 X82.108 Y97.183 E0.22302
G1 X82.602 Y95.956 E0.28285
G1 X83.281 Y94.893 E0.33994
G1 X84.133 Y94.012 E0.39542
G1 X85.162 Y93.309 E0.45179
G1 X86.354 Y92.797 E0.51050
G1 X87.695 Y92.489 E0.57276
G1 X89.189 Y92.385 E0.64050
G1 X90.368 Y92.452 E0.69393
G1 X90.502 Y92.459 E0.70002 F378.000
G1 X91.749 Y92.680 E0.75732
G1 X92.929 Y93.048 E0.81327
G1 X94.016 Y93.550 E0.86744
G1 X94.981 Y94.172 E0.91939
G1 X95.763 Y94.857 E0.96643
G1 X95.763 Y99.807 E1.19041
G1 X89.737 Y99.807 E1.46308
G1 X89.737 Y98.522 E1.52123
G1 X94.305 Y98.522 E1.72793
G1 X94.305 Y95.430 E1.86785
G1 X93.619 Y94.866 E1.90802
G1 X92.891 Y94.436 E1.94628
G1 X92.055 Y94.084 E1.98733
G1 X91.143 Y93.824 E2.03025
G1 X90.187 Y93.668 E2.07409
G1 X89.180 Y93.615 E2.11970
G1 X87.507 Y93.806 E2.19588
G1 X86.076 Y94.387 E2.26578
G1 X84.906 Y95.358 E2.33458
G1 X84.045 Y96.660 E2.40519
G1 X83.532 Y98.231 E2.47998
G1 X83.363 Y100.064 E2.56329
G1 X83.522 Y101.895 E2.64642
G1 X84.005 Y103.443 E2.71983
G1 X84.818 Y104.705 E2.78774
G1 X85.944 Y105.636 E2.85386
G1 X87.355 Y106.191 E2.92244
G1 X89.030 Y106.374 E2.99869
G1 X90.138 Y106.306 E3.04894
G1 X91.122 Y106.102 E3.09441
G1 X91.987 Y105.758 E3.13652
G1 X92.736 Y105.261 E3.17721
G1 X93.368 Y104.600 E3.21857
G1 X93.778 Y103.944 E3.25359
G1 X95.315 Y104.397 E3.32609
G1 X94.817 Y105.266 E3.37140
G1 X94.036 Y106.137 E3.42434
G1 X93.103 Y106.789 E3.47585
G1 X91.984 Y107.245 E3.53053
G1 X90.646 Y107.522 E3.59235
G1 X89.094 Y107.614 E3.66271
G1 X86.911 Y107.393 E3.76197
G1 X85.099 Y106.736 E3.84918
G1 X83.644 Y105.648 E3.93143
G1 X82.574 Y104.161 E4.01432
G1 X81.928 Y102.297 E4.10357
G1 X82.671 Y103.657 F7800.000
G1 X85.689 Y106.675 E4.29799 F540.000
G1 X86.085 Y105.972 F7800.000
G1 X87.310 Y107.198 E4.37694 F540.000
G1 X86.550 Y106.987 E4.41287
G1 X82.379 Y102.816 E4.68164
G1 X82.136 Y102.024 E4.71936
G1 X83.872 Y103.760 E4.83118
G1 X83.574 Y102.912 F7800.000
G1 X82.077 Y101.416 E4.92758 F540.000
G1 X82.019 Y100.808 E4.95541
G1 X83.325 Y102.114 E5.03959
G1 X83.253 Y101.494 E5.06805
G1 X81.960 Y100.200 E5.15142
G1 X81.959 Y99.650 E5.17645
G1 X83.201 Y100.892 E5.25647
G1 X83.149 Y100.291 E5.28398
G1 X81.993 Y99.135 E5.35844
G1 X82.027 Y98.620 E5.38196
G1 X83.171 Y99.764 E5.45569
G1 X83.218 Y99.261 E5.47869
G1 X82.112 Y98.156 E5.54994
G1 X82.210 Y97.705 E5.57097
G1 X83.264 Y98.759 E5.63889
G1 X83.310 Y98.256 E5.66190
G1 X82.308 Y97.254 E5.72649
G1 X82.457 Y96.854 E5.74593
G1 X83.444 Y97.841 E5.80952
G1 X83.579 Y97.427 E5.82936
G1 X82.615 Y96.463 E5.89150
G1 X82.773 Y96.071 E5.91073
G1 X83.715 Y97.013 E5.97141
G1 X83.851 Y96.600 E5.99120
G1 X82.979 Y95.728 E6.04741
G1 X83.193 Y95.393 E6.06553
G1 X84.070 Y96.270 E6.12204
G1 X84.288 Y95.939 E6.14009
G1 X83.407 Y95.058 E6.19690
G1 X83.672 Y94.774 E6.21460
G1 X84.507 Y95.609 E6.26841
G1 X84.726 Y95.278 E6.28647
G1 X83.946 Y94.499 E6.33668
G1 X84.221 Y94.224 E6.35437
G1 X85.014 Y95.018 E6.40549
G1 X85.314 Y94.769 E6.42326
G1 X84.525 Y93.979 E6.47414
G1 X84.851 Y93.756 E6.49214
G1 X85.615 Y94.520 E6.54134
G1 X85.915 Y94.271 E6.55911
G1 X85.177 Y93.534 E6.60662
G1 X85.552 Y93.359 E6.62546
G1 X86.280 Y94.087 E6.67236
G1 X86.671 Y93.929 E6.69157
G1 X85.937 Y93.195 E6.73887
G1 X86.321 Y93.030 E6.75792
G1 X87.061 Y93.770 E6.80564
G1 X87.452 Y93.612 E6.82485
G1 X86.760 Y92.919 E6.86946
G1 X87.206 Y92.817 E6.89034
G1 X87.929 Y93.540 E6.93692
G1 X88.422 Y93.483 E6.95952
G1 X87.652 Y92.714 E7.00910
G1 X88.165 Y92.677 E7.03251
G1 X88.915 Y93.427 E7.08082
G1 X89.435 Y93.398 E7.10455
G1 X88.679 Y92.642 E7.15327
G1 X89.203 Y92.617 E7.17720
G1 X90.014 Y93.428 E7.22944
G1 X90.632 Y93.497 F7800.000
G1 X89.785 Y92.650 E7.28401 F540.000
G1 X90.367 Y92.683 E7.31056
G1 X91.288 Y93.604 E7.36992
G1 X92.056 Y93.823 F7800.000
G1 X91.032 Y92.798 E7.43595 F540.000
G1 X91.720 Y92.937 E7.46793
G1 X92.962 Y94.180 E7.54797
G1 X93.477 Y93.597 F7800.000
G1 X95.537 Y95.656 E7.68069 F540.000
G1 X95.537 Y95.107 F7800.000
G1 X95.138 Y94.709 E7.70638 F540.000
G1 X92.518 Y93.186 F7800.000
G1 X95.537 Y96.206 E7.90094 F540.000
G1 X95.537 Y96.755 E7.92596
G1 X94.531 Y95.749 E7.99078
G1 X94.531 Y96.298 E8.01580
G1 X95.537 Y97.304 E8.08063
G1 X95.537 Y97.853 E8.10565
G1 X94.531 Y96.847 E8.17048
G1 X94.531 Y97.396 E8.19550
G1 X95.537 Y98.402 E8.26032
G1 X95.537 Y98.951 E8.28534
G1 X94.531 Y97.945 E8.35017
G1 X94.531 Y98.494 E8.37519
G1 X95.537 Y99.500 E8.44002
G1 X95.069 Y99.581 E8.46167
G1 X94.236 Y98.748 E8.51535
G1 X93.686 Y98.748 E8.54037
G1 X94.520 Y99.581 E8.59405
G1 X93.970 Y99.581 E8.61907
G1 X93.137 Y98.748 E8.67275
G1 X92.588 Y98.748 E8.69777
G1 X93.421 Y99.581 E8.75145
G1 X92.872 Y99.581 E8.77647
G1 X92.039 Y98.748 E8.83015
G1 X91.490 Y98.748 E8.85517
G1 X92.323 Y99.581 E8.90885
G1 X91.774 Y99.581 E8.93387
G1 X90.941 Y98.748 E8.98755
G1 X90.392 Y98.748 E9.01257
G1 X91.225 Y99.581 E9.06625
G1 X90.676 Y99.581 E9.09127
G1 X89.963 Y98.868 E9.13719
G92 E0
G1 X94.123 Y104.854 F7800.000
G1 X94.123 Y104.854 F7800.000
G1 X94.127 Y104.863 F7800.000
G1 X94.141 Y104.859 F7800.000
G1 X94.382 Y104.385 F7800.000
G1 X94.835 Y104.839 E0.02924 F540.000
G1 X94.632 Y105.184 E0.04751
G1 X93.771 Y104.323 E0.10297
G1 X93.559 Y104.661 E0.12112
G1 X94.372 Y105.474 E0.17349
G1 X94.110 Y105.761 E0.19120
G1 X93.299 Y104.950 E0.24347
G1 X93.030 Y105.230 E0.26116
G1 X93.836 Y106.036 E0.31304
G1 X93.515 Y106.265 E0.33098
G1 X92.741 Y105.490 E0.38086
G1 X92.411 Y105.710 E0.39891
G1 X93.192 Y106.490 E0.44921
G1 X92.834 Y106.681 E0.46770
G1 X92.082 Y105.929 E0.51619
G1 X91.695 Y106.091 E0.53530
G1 X92.444 Y106.840 E0.58356
G1 X92.054 Y106.999 E0.60276
G1 X91.302 Y106.248 E0.65120
G1 X90.874 Y106.369 E0.67146
G1 X91.612 Y107.106 E0.71898
G1 X91.157 Y107.201 E0.74015
G1 X90.419 Y106.463 E0.78765
G1 X89.946 Y106.539 E0.80949
G1 X90.702 Y107.295 E0.85816
G1 X90.185 Y107.328 E0.88172
G1 X89.429 Y106.571 E0.93048
G1 X88.906 Y106.597 E0.95434
G1 X89.667 Y107.358 E1.00341
G1 X89.143 Y107.383 E1.02731
G1 X88.289 Y106.530 E1.08232
G1 X87.673 Y106.463 E1.11057
G1 X88.532 Y107.322 E1.16591
G1 X87.921 Y107.260 E1.19389
G1 X86.990 Y106.329 E1.25385
G1 X84.061 Y105.596 F7800.000
G1 X83.711 Y105.246 E1.27642 F540.000
M106 S255
G92 E0
G1 Z0.600 F7800.000
G1 X94.773 Y104.003 F7800.000
G1 X93.903 Y105.144 E0.42996 F600.000
G1 X93.521 Y105.556 E0.59838
G1 X93.289 Y105.755 E0.68999
G1 X92.748 Y106.138 E0.88840
G1 X92.392 Y106.326 E1.00904
G1 X91.782 Y106.582 E1.20745
G1 X91.234 Y106.740 E1.37825
G1 X90.561 Y106.879 E1.58432
G1 X90.281 Y106.916 E1.66887
G1 X89.107 Y106.991 E2.02148
G1 X88.944 Y106.982 E2.07022
G1 X87.317 Y106.811 E2.56036
G1 X87.093 Y106.772 E2.62851
G1 X85.735 Y106.264 E3.06301
G1 X85.479 Y106.143 E3.14797
G1 X84.381 Y105.289 E3.56478
G1 X84.187 Y105.114 E3.64303
G1 X83.357 Y103.897 E4.08442
G1 X83.289 Y103.789 E4.12264
G1 X83.238 Y103.651 E4.16694
G1 X82.736 Y102.126 E4.64788
G1 X82.546 Y100.156 E5.24100
G1 X82.544 Y99.968 E5.29713
G1 X82.646 Y98.670 E5.68749
G1 X82.770 Y97.956 E5.90468
G1 X82.912 Y97.430 E6.06773
G1 X83.318 Y96.325 E6.42055
G1 X83.916 Y95.395 E6.75199
G1 X84.257 Y94.969 E6.91542
G1 X84.627 Y94.598 E7.07250
G1 X85.506 Y93.936 E7.40217
G1 X85.854 Y93.748 E7.52065
G1 X86.567 Y93.450 E7.75229
G1 X87.467 Y93.182 E8.03357
G1 X87.790 Y93.127 E8.13176
G1 X89.193 Y93.001 E8.55370
G1 X90.298 Y93.063 E8.88547
G1 X91.229 Y93.214 E9.16814
G1 X91.599 Y93.296 E9.28160
G1 X92.214 Y93.480 E9.47386
G1 X92.696 Y93.653 E9.62752
G1 X93.230 Y93.893 E9.80269
G1 X93.694 Y94.136 E9.95987
G1 X93.940 Y94.288 E10.04644
G1 X94.666 Y94.823 E10.31675
G1 X95.005 Y95.201 E10.46872
G1 X95.034 Y95.536 E10.56954
G1 X95.034 Y98.297 E11.39687
G1 X94.918 Y98.962 E11.59916
G1 X90.380 Y99.164 E12.96048
G1 X95.988 Y99.164 E14.64105
G92 E0
G1 X95.988 Y100.032 F7800.000
G1 X99.673 Y99.825 F7800.000
G1 X103.350 Y100.065 F7800.000
G1 X104.404 Y100.047 F7800.000
G1 X104.509 Y98.678 E0.41153 F600.000
G1 X104.628 Y97.973 E0.62586
G1 X104.770 Y97.439 E0.79152
G1 X105.171 Y96.327 E1.14548
G1 X105.760 Y95.391 E1.47684
G1 X106.075 Y94.989 E1.62985
G1 X106.267 Y94.779 E1.71523
G1 X106.459 Y94.596 E1.79480
G1 X107.318 Y93.933 E2.11989
G1 X107.644 Y93.754 E2.23137
G1 X108.358 Y93.449 E2.46387
G1 X109.004 Y93.240 E2.66725
G1 X109.555 Y93.127 E2.83582
G1 X110.921 Y93.002 E3.24710
G1 X112.276 Y93.123 E3.65472
G1 X112.863 Y93.240 E3.83388
G1 X113.472 Y93.433 E4.02546
G1 X114.229 Y93.752 E4.27154
G1 X114.525 Y93.910 E4.37211
G1 X115.402 Y94.580 E4.70267
G1 X115.584 Y94.750 E4.77748
G1 X115.777 Y94.962 E4.86333
G1 X116.113 Y95.390 E5.02623
G1 X116.704 Y96.339 E5.36129
G1 X117.101 Y97.454 E5.71594
G1 X117.271 Y98.145 E5.92928
G1 X117.354 Y98.688 E6.09399
G1 X117.457 Y100.065 E6.50779
G1 X117.351 Y101.445 E6.92233
G1 X117.232 Y102.140 E7.13363
G1 X117.091 Y102.667 E7.29724
G1 X116.693 Y103.754 E7.64415
G1 X116.107 Y104.668 E7.96933
G1 X115.793 Y105.061 E8.12006
G1 X115.595 Y105.273 E8.20699
G1 X115.408 Y105.446 E8.28338
G1 X114.544 Y106.094 E8.60708
G1 X114.228 Y106.261 E8.71417
G1 X113.498 Y106.563 E8.95086
