; generated by Slic3r 1.2.9 on 2016-03-11 at 01:24:56

; external perimeters extrusion width = 1.54mm
; perimeters extrusion width = 2.62mm
; infill extrusion width = 6.27mm
; solid infill extrusion width = 2.62mm
; top infill extrusion width = 2.62mm

M107
M104 S30 ; set temperature
G28 ; home all axes
G1 Z5 F5000 ; lift nozzle
M302
M92 E10000
M500
M501
G1 E100
M109 S30 ; wait for temperature to be reached
G21 ; set units to millimeters
G90 ; use absolute coordinates
M82 ; use absolute distances for extrusion
G92 E0
G1 Z0.300 F7800.000
G1 X84.168 Y104.569 F7800.000
G1 X83.875 Y104.161 E0.02275 F378.000
G1 X83.229 Y102.303 E0.11174
G1 X83.012 Y100.062 E0.21364
G1 X83.111 Y98.552 E0.28209
G1 X83.409 Y97.183 E0.34549
G1 X83.903 Y95.956 E0.40532
G1 X84.582 Y94.893 E0.46241
G1 X85.434 Y94.012 E0.51788
G1 X86.463 Y93.309 E0.57426
G1 X87.655 Y92.797 E0.63296
G1 X88.996 Y92.489 E0.69523
G1 X90.490 Y92.385 E0.76296
G1 X91.669 Y92.452 E0.81640
G1 X91.803 Y92.459 E0.82248 F378.000
G1 X93.050 Y92.680 E0.87979
G1 X94.230 Y93.048 E0.93573
G1 X95.317 Y93.550 E0.98990
G1 X96.282 Y94.172 E1.04186
G1 X97.064 Y94.857 E1.08889
G1 X97.064 Y99.807 E1.31287
G1 X91.038 Y99.807 E1.58555
G1 X91.038 Y98.522 E1.64369
G1 X95.606 Y98.522 E1.85039
G1 X95.606 Y95.430 E1.99032
G1 X94.920 Y94.866 E2.03049
G1 X94.192 Y94.436 E2.06874
G1 X93.356 Y94.084 E2.10980
G1 X92.444 Y93.824 E2.15271
G1 X91.488 Y93.668 E2.19655
G1 X90.481 Y93.615 E2.24217
G1 X88.808 Y93.806 E2.31835
G1 X87.377 Y94.387 E2.38825
G1 X86.207 Y95.358 E2.45705
G1 X85.346 Y96.660 E2.52765
G1 X84.833 Y98.231 E2.60244
G1 X84.664 Y100.064 E2.68576
G1 X84.823 Y101.895 E2.76889
G1 X85.306 Y103.443 E2.84229
G1 X86.119 Y104.705 E2.91021
G1 X87.245 Y105.636 E2.97632
G1 X88.656 Y106.191 E3.04491
G1 X90.331 Y106.374 E3.12116
G1 X91.439 Y106.306 E3.17140
G1 X92.423 Y106.102 E3.21687
G1 X93.288 Y105.758 E3.25899
G1 X94.037 Y105.261 E3.29967
G1 X94.669 Y104.600 E3.34104
G1 X95.079 Y103.944 E3.37605
G1 X96.616 Y104.397 E3.44855
G1 X96.118 Y105.266 E3.49386
G1 X95.337 Y106.137 E3.54681
G1 X94.404 Y106.789 E3.59831
G1 X93.285 Y107.245 E3.65300
G1 X91.947 Y107.522 E3.71481
G1 X90.395 Y107.614 E3.78517
G1 X88.212 Y107.393 E3.88444
G1 X86.400 Y106.736 E3.97164
G1 X84.945 Y105.648 E4.05390
G1 X84.303 Y104.756 E4.10358
G1 X85.012 Y105.246 F7800.000
G1 X85.362 Y105.596 E4.12615 F540.000
G1 X85.173 Y103.760 F7800.000
G1 X83.437 Y102.024 E4.23797 F540.000
G1 X83.378 Y101.416 E4.26581
G1 X84.875 Y102.912 E4.36220
G1 X84.626 Y102.114 E4.40028
G1 X83.320 Y100.808 E4.48445
G1 X83.261 Y100.200 E4.51229
G1 X84.554 Y101.494 E4.59565
G1 X84.502 Y100.892 E4.62316
G1 X83.260 Y99.650 E4.70318
G1 X83.294 Y99.135 E4.72670
G1 X84.450 Y100.291 E4.80116
G1 X84.472 Y99.764 E4.82517
G1 X83.328 Y98.620 E4.89890
G1 X83.413 Y98.156 E4.92040
G1 X84.519 Y99.261 E4.99166
G1 X84.565 Y98.759 E5.01466
G1 X83.511 Y97.705 E5.08258
G1 X83.609 Y97.254 E5.10361
G1 X84.611 Y98.256 E5.16820
G1 X84.745 Y97.841 E5.18807
G1 X83.758 Y96.854 E5.25167
G1 X83.916 Y96.463 E5.27089
G1 X84.880 Y97.427 E5.33303
G1 X85.016 Y97.013 E5.35287
G1 X84.074 Y96.071 E5.41355
G1 X84.280 Y95.728 E5.43179
G1 X85.152 Y96.600 E5.48800
G1 X85.371 Y96.270 E5.50605
G1 X84.494 Y95.393 E5.56256
G1 X84.708 Y95.058 E5.58068
G1 X85.589 Y95.939 E5.63748
G1 X85.808 Y95.609 E5.65554
G1 X84.973 Y94.774 E5.70935
G1 X85.247 Y94.499 E5.72704
G1 X86.027 Y95.278 E5.77725
G1 X86.315 Y95.018 E5.79496
G1 X85.522 Y94.224 E5.84609
G1 X85.826 Y93.979 E5.86388
G1 X86.615 Y94.769 E5.91476
G1 X86.916 Y94.520 E5.93253
G1 X86.152 Y93.756 E5.98173
G1 X86.478 Y93.534 E5.99973
G1 X87.216 Y94.271 E6.04724
G1 X87.581 Y94.087 E6.06588
G1 X86.853 Y93.359 E6.11278
G1 X87.238 Y93.195 E6.13183
G1 X87.972 Y93.929 E6.17914
G1 X88.362 Y93.770 E6.19834
G1 X87.622 Y93.030 E6.24606
G1 X88.061 Y92.919 E6.26668
G1 X88.753 Y93.612 E6.31129
G1 X89.230 Y93.540 E6.33327
G1 X88.507 Y92.817 E6.37986
G1 X88.953 Y92.714 E6.40073
G1 X89.723 Y93.483 E6.45031
G1 X90.216 Y93.427 E6.47291
G1 X89.466 Y92.677 E6.52121
G1 X89.980 Y92.642 E6.54466
G1 X90.736 Y93.398 E6.59339
G1 X91.315 Y93.428 E6.61981
G1 X90.504 Y92.617 E6.67205
G1 X91.086 Y92.650 E6.69860
G1 X91.933 Y93.497 E6.75317
G1 X92.589 Y93.604 F7800.000
G1 X91.668 Y92.683 E6.81254 F540.000
G1 X93.357 Y93.823 F7800.000
G1 X92.333 Y92.798 E6.87856 F540.000
G1 X93.021 Y92.937 E6.91054
G1 X94.263 Y94.180 E6.99058
G1 X94.778 Y93.597 F7800.000
G1 X96.838 Y95.656 E7.12331 F540.000
G1 X96.838 Y95.107 F7800.000
G1 X96.439 Y94.709 E7.14900 F540.000
G1 X93.819 Y93.186 F7800.000
G1 X96.838 Y96.206 E7.34355 F540.000
G1 X96.838 Y96.755 E7.36857
G1 X95.832 Y95.749 E7.43340
G1 X95.832 Y96.298 E7.45842
G1 X96.838 Y97.304 E7.52324
G1 X96.838 Y97.853 E7.54826
G1 X95.832 Y96.847 E7.61309
G1 X95.832 Y97.396 E7.63811
G1 X96.838 Y98.402 E7.70294
G1 X96.838 Y98.951 E7.72796
G1 X95.832 Y97.945 E7.79278
G1 X95.832 Y98.494 E7.81780
G1 X96.838 Y99.500 E7.88263
G1 X96.370 Y99.581 E7.90429
G1 X95.537 Y98.748 E7.95797
G1 X94.987 Y98.748 E7.98298
G1 X95.821 Y99.581 E8.03667
G1 X95.271 Y99.581 E8.06168
G1 X94.438 Y98.748 E8.11536
G1 X93.889 Y98.748 E8.14038
G1 X94.722 Y99.581 E8.19406
G1 X94.173 Y99.581 E8.21908
G1 X93.340 Y98.748 E8.27276
G1 X92.791 Y98.748 E8.29778
G1 X93.624 Y99.581 E8.35146
G1 X93.075 Y99.581 E8.37648
G1 X92.242 Y98.748 E8.43016
G1 X91.693 Y98.748 E8.45518
G1 X92.526 Y99.581 E8.50886
G1 X91.977 Y99.581 E8.53388
G1 X91.264 Y98.868 E8.57980
G92 E0
G1 X95.424 Y104.854 F7800.000
G1 X95.424 Y104.854 F7800.000
G1 X95.428 Y104.863 F7800.000
G1 X95.442 Y104.859 F7800.000
G1 X96.136 Y104.839 F7800.000
G1 X95.683 Y104.385 E0.02924 F540.000
G1 X95.072 Y104.323 E0.05721
G1 X95.933 Y105.184 E0.11267
G1 X95.673 Y105.474 E0.13039
G1 X94.860 Y104.661 E0.18275
G1 X94.600 Y104.950 E0.20047
G1 X95.411 Y105.761 E0.25274
G1 X95.137 Y106.036 E0.27043
G1 X94.331 Y105.230 E0.32231
G1 X94.042 Y105.490 E0.34003
G1 X94.816 Y106.265 E0.38991
G1 X94.493 Y106.490 E0.40788
G1 X93.712 Y105.710 E0.45818
G1 X93.383 Y105.929 E0.47623
G1 X94.135 Y106.681 E0.52472
G1 X93.745 Y106.840 E0.54391
G1 X92.996 Y106.091 E0.59218
G1 X92.603 Y106.248 E0.61144
G1 X93.355 Y106.999 E0.65989
G1 X92.913 Y107.106 E0.68061
G1 X92.175 Y106.369 E0.72813
G1 X91.720 Y106.463 E0.74929
G1 X92.458 Y107.201 E0.79680
G1 X92.003 Y107.295 E0.81797
G1 X91.247 Y106.539 E0.86664
G1 X90.730 Y106.571 E0.89026
G1 X91.486 Y107.328 E0.93902
G1 X90.968 Y107.358 E0.96267
G1 X90.207 Y106.597 E1.01174
G1 X89.590 Y106.530 E1.03998
G1 X90.444 Y107.383 E1.09499
G1 X89.833 Y107.322 E1.12298
G1 X88.974 Y106.463 E1.17832
G1 X88.291 Y106.329 E1.21001
G1 X89.222 Y107.260 E1.26997
G1 X88.611 Y107.198 E1.29796
G1 X87.386 Y105.972 E1.37691
G1 X86.990 Y106.675 F7800.000
G1 X83.972 Y103.657 E1.57133 F540.000
G1 X83.680 Y102.816 F7800.000
G1 X87.851 Y106.987 E1.84010 F540.000
G92 E0
G1 X96.301 Y105.398 F7800.000
G1 X100.183 Y106.116 F7800.000
G1 X103.225 Y92.352 F7800.000
G1 X109.680 Y92.352 F7800.000
G1 X111.573 Y94.245 F7800.000
G1 X107.488 Y98.331 F7800.000
G1 X107.263 Y95.911 F7800.000
G1 X107.263 Y98.556 E0.11969 F378.000
G1 X111.956 Y98.556 E0.33206 F378.000
G1 X113.423 Y98.695 E0.39873
G1 X114.648 Y99.103 E0.45715
G1 X115.649 Y99.777 E0.51177
G1 X116.391 Y100.677 E0.56454
G1 X116.837 Y101.766 E0.61778
G1 X116.987 Y103.055 E0.67651
G1 X116.838 Y104.347 E0.73536
G1 X116.394 Y105.415 E0.78768
G1 X115.658 Y106.272 E0.83882
G1 X114.646 Y106.907 E0.89287
G1 X113.374 Y107.292 E0.95303
G1 X111.825 Y107.423 E1.02334
G1 X105.642 Y107.423 E1.30314
G1 X105.642 Y92.577 E1.97491
G1 X107.263 Y92.577 E2.04826
G1 X107.263 Y95.680 E2.18866
G1 X107.263 Y99.743 F7800.000
G1 X111.692 Y99.743 E2.38906 F378.000
G1 X113.696 Y100.098 E2.48116
G1 X114.951 Y101.210 E2.55703
G1 X115.363 Y103.035 E2.64167
G1 X114.939 Y104.800 E2.72384
G1 X113.653 Y105.872 E2.79961
G1 X111.605 Y106.214 E2.89358
G1 X107.263 Y106.214 E3.09004
G1 X107.263 Y99.974 E3.37239
G1 X107.037 Y99.898 F7800.000
G1 X105.868 Y98.729 E3.44798 F540.000
G1 X105.868 Y99.280 E3.47317
G1 X107.037 Y100.449 E3.54875
G1 X107.037 Y101.000 E3.57394
G1 X105.868 Y99.831 E3.64953
G1 X105.868 Y100.382 E3.67472
G1 X107.037 Y101.551 E3.75031
G1 X107.037 Y102.102 E3.77549
G1 X105.868 Y100.933 E3.85108
G1 X105.868 Y101.484 E3.87627
G1 X107.037 Y102.653 E3.95186
G1 X107.037 Y103.204 E3.97704
G1 X105.868 Y102.035 E4.05263
G1 X105.868 Y102.586 E4.07782
G1 X107.037 Y103.755 E4.15341
G1 X107.037 Y104.306 E4.17860
G1 X105.868 Y103.137 E4.25418
G1 X105.868 Y103.688 E4.27937
G1 X107.037 Y104.857 E4.35496
G1 X107.037 Y105.408 E4.38015
G1 X105.868 Y104.239 E4.45573
G1 X105.868 Y104.790 E4.48092
G1 X107.037 Y105.959 E4.55651
G1 X106.967 Y106.440 E4.57874
G1 X107.724 Y107.197 E4.62769
G1 X108.275 Y107.197 E4.65288
G1 X107.518 Y106.440 E4.70183
G1 X107.037 Y106.510 E4.72406
G1 X105.868 Y105.341 E4.79965
G1 X105.868 Y105.891 E4.82484
G1 X107.173 Y107.197 E4.90925
G1 X106.622 Y107.197 E4.93444
G1 X105.868 Y106.442 E4.98322
G1 X105.868 Y106.993 E5.00841
G1 X106.071 Y107.197 E5.02157
G1 X108.069 Y106.440 F7800.000
G1 X108.826 Y107.197 E5.07052 F540.000
G1 X109.377 Y107.197 E5.09571
G1 X108.620 Y106.440 E5.14466
G1 X109.171 Y106.440 E5.16985
G1 X109.928 Y107.197 E5.21880
G1 X110.479 Y107.197 E5.24399
G1 X109.722 Y106.440 E5.29293
G1 X110.273 Y106.440 E5.31812
G1 X111.030 Y107.197 E5.36707
G1 X111.581 Y107.197 E5.39226
G1 X110.824 Y106.440 E5.44121
G1 X111.375 Y106.440 E5.46640
G1 X112.114 Y107.178 E5.51415
G1 X112.622 Y107.136 E5.53746
G1 X111.872 Y106.386 E5.58592
G1 X112.344 Y106.307 E5.60781
G1 X113.130 Y107.093 E5.65859
G1 X113.598 Y107.009 E5.68030
G1 X112.817 Y106.228 E5.73079
G1 X113.289 Y106.150 E5.75268
G1 X114.020 Y106.881 E5.79997
G1 X114.443 Y106.753 E5.82017
G1 X113.740 Y106.050 E5.86562
G1 X114.041 Y105.800 E5.88350
G1 X114.813 Y106.572 E5.93343
G1 X115.152 Y106.360 E5.95170
G1 X114.341 Y105.549 E6.00410
G1 X114.642 Y105.299 E6.02199
G1 X115.485 Y106.142 E6.07650
G1 X115.757 Y105.863 E6.09431
G1 X114.942 Y105.048 E6.14696
G1 X115.172 Y104.727 E6.16501
G1 X116.011 Y105.566 E6.21927
G1 X116.246 Y105.250 E6.23727
G1 X115.279 Y104.283 E6.29979
G1 X115.385 Y103.838 E6.32069
G1 X116.407 Y104.860 E6.38676
G1 X116.569 Y104.471 E6.40603
G1 X115.492 Y103.394 E6.47566
G1 X115.595 Y102.946 E6.49667
G1 X116.658 Y104.009 E6.56540
G1 X116.716 Y103.515 E6.58812
G1 X115.434 Y102.234 E6.67095
G1 X115.274 Y101.523 E6.70430
G1 X116.742 Y102.991 E6.79926
G1 X115.656 Y100.252 F7800.000
G1 X115.271 Y99.867 E6.82417 F540.000
G1 X114.014 Y99.161 F7800.000
G1 X116.507 Y101.654 E6.98533 F540.000
G1 X116.670 Y102.368 E7.01879
G1 X113.212 Y98.910 E7.24237
G1 X112.603 Y98.852 E7.27031
G1 X113.584 Y99.833 E7.33372
G1 X112.914 Y99.714 E7.36481
G1 X111.995 Y98.795 E7.42427
G1 X111.431 Y98.782 E7.45005
G1 X112.245 Y99.596 E7.50266
G1 X111.615 Y99.517 E7.53167
G1 X110.880 Y98.782 E7.57920
G1 X110.329 Y98.782 E7.60438
G1 X111.064 Y99.517 E7.65191
G1 X110.513 Y99.517 E7.67710
G1 X109.778 Y98.782 E7.72463
G1 X109.227 Y98.782 E7.74982
G1 X109.962 Y99.517 E7.79734
G1 X109.411 Y99.517 E7.82253
G1 X108.676 Y98.782 E7.87006
G1 X108.125 Y98.782 E7.89525
G1 X108.860 Y99.517 E7.94277
G1 X108.309 Y99.517 E7.96796
G1 X107.574 Y98.782 E8.01549
G1 X107.037 Y98.796 E8.04005
G1 X105.868 Y97.627 E8.11564
G1 X105.868 Y98.178 E8.14083
G1 X107.207 Y99.517 E8.22742
G1 X107.758 Y99.517 F7800.000
G1 X107.023 Y98.782 E8.27495 F540.000
G1 X107.037 Y98.245 E8.29951
G1 X105.868 Y97.076 E8.37509
G1 X105.868 Y96.525 E8.40028
G1 X107.037 Y97.694 E8.47587
G1 X107.037 Y97.143 E8.50106
G1 X105.868 Y95.974 E8.57665
G1 X105.868 Y95.423 E8.60183
G1 X107.037 Y96.592 E8.67742
G1 X107.037 Y96.041 E8.70261
G1 X105.868 Y94.872 E8.77820
G1 X105.868 Y94.321 E8.80338
G1 X107.037 Y95.490 E8.87897
G1 X107.037 Y94.939 E8.90416
G1 X105.868 Y93.770 E8.97975
G1 X105.868 Y93.219 E9.00494
G1 X107.037 Y94.388 E9.08052
G1 X107.037 Y93.837 E9.10571
G1 X106.003 Y92.803 E9.17256
G1 X106.554 Y92.803 E9.19775
G1 X107.037 Y93.286 E9.22898
M106 S255
G92 E0
G1 Z0.600 F7800.000
G1 X96.074 Y104.003 F7800.000
G1 X95.204 Y105.144 E0.42996 F600.000
G1 X94.822 Y105.556 E0.59838
G1 X94.590 Y105.755 E0.68999
G1 X94.049 Y106.138 E0.88840
G1 X93.693 Y106.326 E1.00904
G1 X93.083 Y106.582 E1.20745
G1 X92.535 Y106.740 E1.37825
G1 X91.862 Y106.879 E1.58432
G1 X91.582 Y106.916 E1.66887
G1 X90.408 Y106.991 E2.02148
G1 X90.245 Y106.982 E2.07022
G1 X88.618 Y106.811 E2.56036
G1 X88.394 Y106.772 E2.62851
G1 X87.036 Y106.264 E3.06301
G1 X86.780 Y106.143 E3.14797
G1 X85.682 Y105.289 E3.56478
G1 X85.488 Y105.114 E3.64303
G1 X84.658 Y103.897 E4.08442
G1 X84.590 Y103.789 E4.12264
G1 X84.539 Y103.651 E4.16694
G1 X84.037 Y102.126 E4.64788
G1 X83.847 Y100.156 E5.24100
G1 X83.845 Y99.968 E5.29713
G1 X83.947 Y98.670 E5.68749
G1 X84.071 Y97.956 E5.90468
G1 X84.213 Y97.430 E6.06773
G1 X84.619 Y96.325 E6.42055
G1 X85.217 Y95.395 E6.75199
G1 X85.558 Y94.969 E6.91542
G1 X85.928 Y94.598 E7.07250
G1 X86.807 Y93.936 E7.40217
G1 X87.155 Y93.748 E7.52065
G1 X87.868 Y93.450 E7.75229
G1 X88.768 Y93.182 E8.03357
G1 X89.091 Y93.127 E8.13176
G1 X90.494 Y93.001 E8.55370
G1 X91.599 Y93.063 E8.88547
G1 X92.530 Y93.214 E9.16814
G1 X92.900 Y93.296 E9.28160
G1 X93.515 Y93.480 E9.47386
G1 X93.997 Y93.653 E9.62752
G1 X94.531 Y93.893 E9.80269
G1 X94.995 Y94.136 E9.95987
G1 X95.241 Y94.288 E10.04644
G1 X95.967 Y94.823 E10.31675
G1 X96.306 Y95.201 E10.46872
G1 X96.335 Y95.536 E10.56954
G1 X96.335 Y98.297 E11.39687
G1 X96.219 Y98.962 E11.59916
G1 X91.681 Y99.164 E12.96048
G1 X97.289 Y99.164 E14.64105
G92 E0
G1 X101.337 Y94.240 F7800.000
G1 X107.488 Y91.256 F7800.000
G1 X111.573 Y94.245 F7800.000
G1 X107.488 Y98.331 F7800.000
G1 X107.303 Y102.637 F7800.000
G1 X106.452 Y98.331 E1.31513 F600.000
G1 X106.452 Y92.352 E3.10672
G1 X106.614 Y99.149 F7800.000
G1 X111.816 Y99.156 E4.66536 F600.000
G1 X113.285 Y99.350 E5.10941
G1 X113.743 Y99.466 E5.25112
G1 X114.182 Y99.645 E5.39308
G1 X114.337 Y99.734 E5.44674
G1 X115.130 Y100.349 E5.74739
G1 X115.384 Y100.612 E5.85684
G1 X115.717 Y101.080 E6.02917
G1 X116.002 Y101.981 E6.31226
G1 X116.169 Y103.055 E6.63799
G1 X115.991 Y104.127 E6.96347
G1 X115.708 Y104.993 E7.23646
G1 X115.371 Y105.435 E7.40300
G1 X115.136 Y105.666 E7.50172
G1 X114.343 Y106.241 E7.79522
G1 X114.134 Y106.354 E7.86654
G1 X113.699 Y106.519 E8.00592
G1 X113.246 Y106.625 E8.14537
G1 X111.799 Y106.807 E8.58221
G1 X111.586 Y106.818 E8.64628
G1 X107.488 Y106.818 E9.87423
G1 X106.526 Y106.539 E10.17449
G1 X106.452 Y105.989 E10.34085
G1 X106.452 Y99.968 E12.14502
G1 X106.614 Y99.149 E12.39502
G92 E0
G1 Z0.900 F7800.000
G1 X96.074 Y104.003 F7800.000
G1 X95.204 Y105.144 E0.42996 F600.000
G1 X94.822 Y105.556 E0.59838
G1 X94.590 Y105.755 E0.68999
G1 X94.049 Y106.138 E0.88840
G1 X93.693 Y106.326 E1.00904
G1 X93.083 Y106.582 E1.20745
G1 X92.535 Y106.740 E1.37825
G1 X91.862 Y106.879 E1.58432
G1 X91.582 Y106.916 E1.66887
G1 X90.408 Y106.991 E2.02148
G1 X90.245 Y106.982 E2.07022
G1 X88.618 Y106.811 E2.56036
G1 X88.394 Y106.772 E2.62850
G1 X87.036 Y106.264 E3.06301
G1 X86.780 Y106.143 E3.14797
G1 X85.682 Y105.289 E3.56478
G1 X85.488 Y105.114 E3.64303
G1 X84.658 Y103.897 E4.08442
G1 X84.590 Y103.789 E4.12264
G1 X84.539 Y103.651 E4.16694
G1 X84.037 Y102.126 E4.64788
G1 X83.847 Y100.156 E5.24100
G1 X83.845 Y99.968 E5.29713
G1 X83.947 Y98.670 E5.68749
G1 X84.071 Y97.956 E5.90468
G1 X84.213 Y97.430 E6.06773
G1 X84.619 Y96.325 E6.42055
G1 X85.217 Y95.395 E6.75199
G1 X85.558 Y94.969 E6.91542
G1 X85.928 Y94.598 E7.07250
G1 X86.807 Y93.936 E7.40217
G1 X87.155 Y93.748 E7.52065
G1 X87.868 Y93.450 E7.75229
G1 X88.768 Y93.182 E8.03357
G1 X89.091 Y93.127 E8.13176
G1 X90.494 Y93.001 E8.55370
G1 X91.599 Y93.063 E8.88547
G1 X92.530 Y93.214 E9.16814
G1 X92.900 Y93.296 E9.28160
G1 X93.515 Y93.480 E9.47386
G1 X93.997 Y93.653 E9.62752
G1 X94.531 Y93.893 E9.80269
G1 X94.995 Y94.136 E9.95987
G1 X95.241 Y94.288 E10.04644
G1 X95.967 Y94.823 E10.31675
G1 X96.306 Y95.201 E10.46872
G1 X96.335 Y95.536 E10.56954
G1 X96.335 Y98.297 E11.39687
G1 X96.219 Y98.962 E11.59916
G1 X91.681 Y99.164 E12.96048
G1 X97.289 Y99.164 E14.64105
G92 E0
G1 X101.337 Y94.240 F7800.000
G1 X107.488 Y91.256 F7800.000
