; generated by Slic3r 1.2.9 on 2016-03-11 at 01:25:00

; external perimeters extrusion width = 1.54mm
; perimeters extrusion width = 2.62mm
; infill extrusion width = 6.27mm
; solid infill extrusion width = 2.62mm
; top infill extrusion width = 2.62mm

M107
M104 S30 ; set temperature
G28 ; home all axes
G1 Z5 F5000 ; lift nozzle
M302
M92 E10000
M500
M501
G1 E100
M109 S30 ; wait for temperature to be reached
G21 ; set units to millimeters
G90 ; use absolute coordinates
M82 ; use absolute distances for extrusion
G92 E0
G1 Z0.300 F7800.000
G1 X82.954 Y100.251 F7800.000
G1 X82.936 Y100.062 E0.00863 F378.000
G1 X83.035 Y98.552 E0.07708
G1 X83.333 Y97.183 E0.14048
G1 X83.827 Y95.956 E0.20031
G1 X84.506 Y94.893 E0.25740
G1 X85.358 Y94.012 E0.31288
G1 X86.387 Y93.309 E0.36925
G1 X87.579 Y92.797 E0.42796
G1 X88.920 Y92.489 E0.49022
G1 X90.414 Y92.385 E0.55796
G1 X91.593 Y92.452 E0.61139
G1 X91.727 Y92.459 E0.61748 F378.000
G1 X92.974 Y92.680 E0.67478
G1 X94.154 Y93.048 E0.73072
G1 X95.241 Y93.550 E0.78489
G1 X96.206 Y94.172 E0.83685
G1 X96.988 Y94.857 E0.88388
G1 X96.988 Y99.807 E1.10787
G1 X90.962 Y99.807 E1.38054
G1 X90.962 Y98.522 E1.43868
G1 X95.530 Y98.522 E1.64538
G1 X95.530 Y95.430 E1.78531
G1 X94.844 Y94.866 E1.82548
G1 X94.116 Y94.436 E1.86374
G1 X93.280 Y94.084 E1.90479
G1 X92.368 Y93.824 E1.94770
G1 X91.412 Y93.668 E1.99154
G1 X90.405 Y93.615 E2.03716
G1 X88.732 Y93.806 E2.11334
G1 X87.301 Y94.387 E2.18324
G1 X86.131 Y95.358 E2.25204
G1 X85.270 Y96.660 E2.32265
G1 X84.757 Y98.231 E2.39743
G1 X84.588 Y100.064 E2.48075
G1 X84.747 Y101.895 E2.56388
G1 X85.230 Y103.443 E2.63728
G1 X86.043 Y104.705 E2.70520
G1 X87.169 Y105.636 E2.77131
G1 X88.580 Y106.191 E2.83990
G1 X90.255 Y106.374 E2.91615
G1 X91.363 Y106.306 E2.96640
G1 X92.347 Y106.102 E3.01187
G1 X93.212 Y105.758 E3.05398
G1 X93.961 Y105.261 E3.09467
G1 X94.593 Y104.600 E3.13603
G1 X95.003 Y103.944 E3.17104
G1 X96.540 Y104.397 E3.24355
G1 X96.042 Y105.266 E3.28886
G1 X95.261 Y106.137 E3.34180
G1 X94.328 Y106.789 E3.39331
G1 X93.209 Y107.245 E3.44799
G1 X91.871 Y107.522 E3.50981
G1 X90.319 Y107.614 E3.58016
G1 X88.136 Y107.393 E3.67943
G1 X86.324 Y106.736 E3.76664
G1 X84.869 Y105.648 E3.84889
G1 X83.799 Y104.161 E3.93177
G1 X83.153 Y102.303 E4.02077
G1 X82.976 Y100.481 E4.10358
G1 X83.604 Y102.816 F7800.000
G1 X87.775 Y106.987 E4.37235 F540.000
G1 X86.914 Y106.675 F7800.000
G1 X83.896 Y103.657 E4.56676 F540.000
G1 X85.097 Y103.760 F7800.000
G1 X83.361 Y102.024 E4.67859 F540.000
G1 X83.302 Y101.416 E4.70643
G1 X84.799 Y102.912 E4.80282
G1 X84.550 Y102.114 E4.84090
G1 X83.244 Y100.808 E4.92507
G1 X83.185 Y100.200 E4.95290
G1 X84.478 Y101.494 E5.03627
G1 X84.426 Y100.892 E5.06378
G1 X83.184 Y99.650 E5.14379
G1 X83.218 Y99.135 E5.16732
G1 X84.374 Y100.291 E5.24178
G1 X84.396 Y99.764 E5.26579
G1 X83.252 Y98.620 E5.33952
G1 X83.337 Y98.156 E5.36102
G1 X84.443 Y99.261 E5.43227
G1 X84.489 Y98.759 E5.45527
G1 X83.435 Y97.705 E5.52320
G1 X83.533 Y97.254 E5.54423
G1 X84.535 Y98.256 E5.60882
G1 X84.669 Y97.841 E5.62869
G1 X83.682 Y96.854 E5.69228
G1 X83.840 Y96.463 E5.71151
G1 X84.804 Y97.427 E5.77365
G1 X84.940 Y97.013 E5.79349
G1 X83.998 Y96.071 E5.85417
G1 X84.204 Y95.728 E5.87241
G1 X85.076 Y96.600 E5.92861
G1 X85.295 Y96.270 E5.94667
G1 X84.418 Y95.393 E6.00317
G1 X84.632 Y95.058 E6.02129
G1 X85.513 Y95.939 E6.07810
G1 X85.732 Y95.609 E6.09616
G1 X84.897 Y94.774 E6.14997
G1 X85.171 Y94.499 E6.16766
G1 X85.951 Y95.278 E6.21787
G1 X86.239 Y95.018 E6.23558
G1 X85.446 Y94.224 E6.28670
G1 X85.750 Y93.979 E6.30450
G1 X86.539 Y94.769 E6.35538
G1 X86.840 Y94.520 E6.37315
G1 X86.076 Y93.756 E6.42234
G1 X86.402 Y93.534 E6.44035
G1 X87.140 Y94.271 E6.48786
G1 X87.505 Y94.087 E6.50650
G1 X86.777 Y93.359 E6.55339
G1 X87.162 Y93.195 E6.57244
G1 X87.896 Y93.929 E6.61975
G1 X88.286 Y93.770 E6.63896
G1 X87.546 Y93.030 E6.68668
G1 X87.985 Y92.919 E6.70729
G1 X88.677 Y93.612 E6.75191
G1 X89.154 Y93.540 E6.77389
G1 X88.431 Y92.817 E6.82048
G1 X88.877 Y92.714 E6.84135
G1 X89.647 Y93.483 E6.89092
G1 X90.140 Y93.427 E6.91352
G1 X89.390 Y92.677 E6.96183
G1 X89.904 Y92.642 E6.98528
G1 X90.660 Y93.398 E7.03400
G1 X91.239 Y93.428 E7.06043
G1 X90.428 Y92.617 E7.11267
G1 X91.010 Y92.650 E7.13922
G1 X91.857 Y93.497 E7.19379
G1 X92.513 Y93.604 F7800.000
G1 X91.592 Y92.683 E7.25315 F540.000
G1 X93.281 Y93.823 F7800.000
G1 X92.257 Y92.798 E7.31918 F540.000
G1 X92.945 Y92.937 E7.35116
G1 X94.187 Y94.180 E7.43120
G1 X94.702 Y93.597 F7800.000
G1 X96.762 Y95.656 E7.56392 F540.000
G1 X96.762 Y95.107 F7800.000
G1 X96.363 Y94.709 E7.58961 F540.000
G1 X93.743 Y93.186 F7800.000
G1 X96.762 Y96.206 E7.78417 F540.000
G1 X96.762 Y96.755 E7.80919
G1 X95.756 Y95.749 E7.87401
G1 X95.756 Y96.298 E7.89903
G1 X96.762 Y97.304 E7.96386
G1 X96.762 Y97.853 E7.98888
G1 X95.756 Y96.847 E8.05371
G1 X95.756 Y97.396 E8.07872
G1 X96.762 Y98.402 E8.14355
G1 X96.762 Y98.951 E8.16857
G1 X95.756 Y97.945 E8.23340
G1 X95.756 Y98.494 E8.25842
G1 X96.762 Y99.500 E8.32325
G1 X96.294 Y99.581 E8.34490
G1 X95.461 Y98.748 E8.39858
G1 X94.911 Y98.748 E8.42360
G1 X95.745 Y99.581 E8.47728
G1 X95.195 Y99.581 E8.50230
G1 X94.362 Y98.748 E8.55598
G1 X93.813 Y98.748 E8.58100
G1 X94.646 Y99.581 E8.63468
G1 X94.097 Y99.581 E8.65970
G1 X93.264 Y98.748 E8.71338
G1 X92.715 Y98.748 E8.73840
G1 X93.548 Y99.581 E8.79208
G1 X92.999 Y99.581 E8.81710
G1 X92.166 Y98.748 E8.87078
G1 X91.617 Y98.748 E8.89580
G1 X92.450 Y99.581 E8.94948
G1 X91.901 Y99.581 E8.97450
G1 X91.188 Y98.868 E9.02042
G92 E0
G1 X95.348 Y104.854 F7800.000
G1 X95.348 Y104.854 F7800.000
G1 X95.352 Y104.863 F7800.000
G1 X95.366 Y104.859 F7800.000
G1 X96.060 Y104.839 F7800.000
G1 X95.607 Y104.385 E0.02924 F540.000
G1 X94.996 Y104.323 E0.05721
G1 X95.857 Y105.184 E0.11267
G1 X95.597 Y105.474 E0.13039
G1 X94.784 Y104.661 E0.18275
G1 X94.524 Y104.950 E0.20047
G1 X95.335 Y105.761 E0.25274
G1 X95.061 Y106.036 E0.27043
G1 X94.255 Y105.230 E0.32231
G1 X93.966 Y105.490 E0.34003
G1 X94.740 Y106.265 E0.38991
G1 X94.417 Y106.490 E0.40788
G1 X93.636 Y105.710 E0.45818
G1 X93.307 Y105.929 E0.47623
G1 X94.059 Y106.681 E0.52472
G1 X93.669 Y106.840 E0.54391
G1 X92.920 Y106.091 E0.59218
G1 X92.527 Y106.248 E0.61144
G1 X93.279 Y106.999 E0.65989
G1 X92.837 Y107.106 E0.68061
G1 X92.099 Y106.369 E0.72813
G1 X91.644 Y106.463 E0.74929
G1 X92.382 Y107.201 E0.79680
G1 X91.927 Y107.295 E0.81797
G1 X91.171 Y106.539 E0.86664
G1 X90.654 Y106.571 E0.89026
G1 X91.410 Y107.328 E0.93902
G1 X90.892 Y107.358 E0.96267
G1 X90.131 Y106.597 E1.01174
G1 X89.514 Y106.530 E1.03998
G1 X90.368 Y107.383 E1.09499
G1 X89.757 Y107.322 E1.12297
G1 X88.898 Y106.463 E1.17832
G1 X88.215 Y106.329 E1.21001
G1 X89.146 Y107.260 E1.26997
G1 X88.535 Y107.198 E1.29796
G1 X87.310 Y105.972 E1.37691
G1 X85.286 Y105.596 F7800.000
G1 X84.936 Y105.246 E1.39948 F540.000
G92 E0
G1 X93.274 Y107.461 F7800.000
G1 X98.797 Y106.874 F7800.000
G1 X100.980 Y102.967 F7800.000
G1 X100.940 Y102.395 F7800.000
G1 X101.116 Y101.906 F7800.000
G1 X105.371 Y102.711 F7800.000
G1 X115.571 Y99.524 F7800.000
G1 X115.332 Y99.675 E0.01276 F378.000
G1 X114.968 Y99.867 E0.03138
G1 X114.171 Y100.205 E0.07054
G1 X113.312 Y100.480 E0.11138
G1 X110.212 Y101.222 E0.25561
G1 X109.265 Y101.487 E0.30010
G1 X108.618 Y101.724 E0.33127
G1 X108.159 Y101.967 E0.35478
G1 X107.772 Y102.246 E0.37638
G1 X107.456 Y102.568 E0.39679
G1 X107.221 Y102.947 E0.41695
G1 X107.081 Y103.384 E0.43773
G1 X107.034 Y103.877 E0.46014
G1 X107.151 Y104.675 E0.49664
G1 X107.509 Y105.346 E0.53107
G1 X108.100 Y105.864 E0.56660
G1 X108.889 Y106.224 E0.60586
G1 X109.860 Y106.434 E0.65080
G1 X111.013 Y106.503 E0.70307
G1 X112.072 Y106.441 E0.75110
G1 X112.979 Y106.250 E0.79302
G1 X113.734 Y105.925 E0.83020
G1 X114.342 Y105.449 E0.86515
G1 X114.802 Y104.813 E0.90067
G1 X115.036 Y104.221 E0.92945
G1 X116.621 Y104.500 E1.00226
G1 X116.273 Y105.373 E1.04479
G1 X115.665 Y106.231 E1.09237
G1 X114.889 Y106.848 E1.13722
G1 X113.887 Y107.270 E1.18644
G1 X112.601 Y107.528 E1.24578
G1 X111.035 Y107.615 E1.31673
G1 X109.351 Y107.499 E1.39311
G1 X107.966 Y107.157 E1.45770
G1 X106.876 Y106.595 E1.51318
G1 X106.094 Y105.839 E1.56237
G1 X105.628 Y104.901 E1.60977
G1 X105.470 Y103.754 E1.66217
G1 X105.499 Y103.243 E1.68534
G1 X105.589 Y102.768 E1.70719
G1 X105.737 Y102.338 E1.72778
G1 X105.942 Y101.947 E1.74776
G1 X106.199 Y101.589 E1.76770
G1 X106.509 Y101.265 E1.78800
G1 X106.891 Y100.966 E1.80993
G1 X107.362 Y100.681 E1.83484
G1 X107.923 Y100.413 E1.86296
G1 X108.626 Y100.153 E1.89692
G1 X109.528 Y99.890 E1.93940
G1 X112.526 Y99.180 E2.07884
G1 X113.081 Y99.030 E2.10483
G1 X113.587 Y98.855 E2.12905
G1 X114.044 Y98.655 E2.15162
G1 X114.450 Y98.420 E2.17286
G1 X114.798 Y98.141 E2.19303
G1 X115.085 Y97.817 E2.21264
G1 X115.299 Y97.431 E2.23260
G1 X115.426 Y96.981 E2.25375
G1 X115.467 Y96.467 E2.27706
G1 X115.337 Y95.589 E2.31726
G1 X114.937 Y94.847 E2.35540
G1 X114.278 Y94.270 E2.39502
G1 X113.401 Y93.866 E2.43873
G1 X112.331 Y93.629 E2.48831
G1 X111.067 Y93.551 E2.54559
G1 X109.837 Y93.624 E2.60136
G1 X108.779 Y93.847 E2.65029
G1 X107.892 Y94.225 E2.69391
G1 X107.181 Y94.774 E2.73455
G1 X106.654 Y95.498 E2.77508
G1 X106.394 Y96.185 E2.80831
G1 X104.867 Y95.880 E2.87878
G1 X105.813 Y94.045 E2.97218
G1 X107.872 Y92.808 E3.08088
G1 X110.998 Y92.386 E3.22363
G1 X112.562 Y92.495 E3.29456
G1 X112.805 Y92.512 E3.30557 F378.000
G1 X114.309 Y92.886 E3.37574
G1 X115.507 Y93.502 E3.43667
G1 X116.373 Y94.330 E3.49088
G1 X116.889 Y95.351 E3.54264
G1 X117.064 Y96.593 E3.59941
G1 X117.040 Y97.090 E3.62192
G1 X116.967 Y97.546 E3.64282
G1 X116.845 Y97.953 E3.66202
G1 X116.682 Y98.320 E3.68021
G1 X116.483 Y98.653 E3.69777
G1 X116.246 Y98.952 E3.71501
G1 X115.974 Y99.220 E3.73231
G1 X115.759 Y99.391 E3.74474
G1 X114.352 Y99.910 F7800.000
G1 X113.531 Y99.089 E3.79761 F540.000
G1 X113.919 Y98.928 E3.81673
G1 X114.738 Y99.747 E3.86946
G1 X115.109 Y99.569 E3.88821
G1 X114.283 Y98.743 E3.94143
G1 X114.620 Y98.531 E3.95956
G1 X115.455 Y99.367 E4.01337
G1 X115.772 Y99.135 E4.03126
G1 X114.924 Y98.287 E4.08585
G1 X115.183 Y97.996 E4.10355
G1 X116.056 Y98.869 E4.15980
G1 X116.304 Y98.568 E4.17756
G1 X115.396 Y97.661 E4.23601
G1 X115.558 Y97.274 E4.25512
G1 X116.507 Y98.223 E4.31624
G1 X116.666 Y97.833 E4.33541
G1 X115.659 Y96.825 E4.40031
G1 X115.684 Y96.302 E4.42417
G1 X116.775 Y97.393 E4.49439
G1 X116.827 Y96.896 E4.51712
G1 X115.589 Y95.658 E4.59688
G1 X115.157 Y94.677 F7800.000
G1 X116.783 Y96.303 E4.70159 F540.000
G1 X116.692 Y95.664 E4.73099
G1 X114.128 Y93.099 E4.89617
G1 X115.391 Y93.813 F7800.000
G1 X116.233 Y94.655 E4.95039 F540.000
G1 X114.868 Y94.388 F7800.000
G1 X113.394 Y92.914 E5.04533 F540.000
G1 X112.665 Y92.734 E5.07950
G1 X113.589 Y93.658 E5.13900
G1 X112.881 Y93.499 E5.17203
G1 X112.075 Y92.693 E5.22394
G1 X111.485 Y92.652 E5.25087
G1 X112.224 Y93.390 E5.29840
G1 X111.638 Y93.354 E5.32510
G1 X110.901 Y92.617 E5.37259
G1 X110.417 Y92.682 E5.39482
G1 X111.064 Y93.329 E5.43649
G1 X110.547 Y93.360 E5.46012
G1 X109.934 Y92.747 E5.49957
G1 X109.450 Y92.813 E5.52180
G1 X110.029 Y93.391 E5.55904
G1 X109.556 Y93.468 E5.58083
G1 X108.967 Y92.878 E5.61881
G1 X108.483 Y92.943 E5.64104
G1 X109.103 Y93.563 E5.68097
G1 X108.668 Y93.677 E5.70146
G1 X107.999 Y93.009 E5.74449
G1 X107.626 Y93.184 E5.76329
G1 X108.283 Y93.841 E5.80559
G1 X107.898 Y94.005 E5.82464
G1 X107.283 Y93.390 E5.86425
G1 X106.940 Y93.596 E5.88247
G1 X107.572 Y94.228 E5.92319
G1 X107.263 Y94.467 E5.94102
G1 X106.597 Y93.802 E5.98387
G1 X106.254 Y94.008 E6.00208
G1 X106.975 Y94.728 E6.04849
G1 X106.744 Y95.046 E6.06638
G1 X105.937 Y94.239 E6.11836
G1 X105.749 Y94.600 E6.13689
G1 X106.513 Y95.364 E6.18609
G1 X106.345 Y95.745 E6.20505
G1 X105.562 Y94.962 E6.25545
G1 X105.375 Y95.324 E6.27401
G1 X105.886 Y95.835 E6.30690
G92 E0
G1 X107.363 Y101.585 F7800.000
G1 X107.363 Y101.585 F7800.000
G1 X107.934 Y100.628 F7800.000
G1 X108.762 Y101.455 E0.05329 F540.000
G1 X108.383 Y101.625 E0.07220
G1 X107.563 Y100.805 E0.12501
G1 X107.210 Y101.001 E0.14340
G1 X108.030 Y101.821 E0.19621
G1 X107.711 Y102.051 E0.21411
G1 X106.880 Y101.220 E0.26769
G1 X106.580 Y101.469 E0.28544
G1 X107.431 Y102.320 E0.34023
G1 X107.189 Y102.627 E0.35803
G1 X106.317 Y101.755 E0.41420
G1 X106.094 Y102.081 E0.43218
G1 X106.995 Y102.981 E0.49017
G1 X106.861 Y103.397 E0.51005
G1 X105.914 Y102.450 E0.57105
G1 X105.786 Y102.870 E0.59107
G1 X106.813 Y103.897 E0.65722
G1 X106.887 Y104.521 E0.68581
G1 X105.715 Y103.349 E0.76130
G1 X105.732 Y103.915 E0.78709
G1 X107.238 Y105.420 E0.88408
G1 X107.871 Y106.054 F7800.000
G1 X108.966 Y107.149 E0.95460 F540.000
G1 X108.828 Y106.461 E0.98652
G1 X109.654 Y107.288 E1.03972
G1 X110.243 Y107.328 E1.06663
G1 X109.529 Y106.613 E1.11264
G1 X110.147 Y106.683 E1.14099
G1 X110.833 Y107.368 E1.18513
G1 X111.386 Y107.373 E1.21035
G1 X110.731 Y106.718 E1.25255
G1 X111.272 Y106.710 E1.27718
G1 X111.906 Y107.344 E1.31805
G1 X112.426 Y107.315 E1.34177
G1 X111.790 Y106.679 E1.38276
G1 X112.274 Y106.614 E1.40498
G1 X112.910 Y107.250 E1.44596
G1 X113.367 Y107.158 E1.46719
G1 X112.727 Y106.518 E1.50840
G1 X113.151 Y106.394 E1.52854
G1 X113.824 Y107.067 E1.57186
G1 X114.219 Y106.912 E1.59116
G1 X113.535 Y106.229 E1.63518
G1 X113.897 Y106.042 E1.65374
G1 X114.605 Y106.750 E1.69932
G1 X114.954 Y106.550 E1.71763
G1 X114.205 Y105.801 E1.76587
G1 X114.506 Y105.552 E1.78363
G1 X115.260 Y106.307 E1.83221
G1 X115.547 Y106.045 E1.84990
G1 X114.736 Y105.234 E1.90211
G1 X114.967 Y104.916 E1.92001
G1 X115.782 Y105.731 E1.97253
G1 X116.010 Y105.410 E1.99046
G1 X115.130 Y104.531 E2.04709
G1 X115.739 Y104.590 E2.07492
G1 X116.189 Y105.040 E2.10393
G92 E0
G1 X115.026 Y98.952 F7800.000
G1 X115.026 Y98.952 F7800.000
G1 X113.123 Y99.230 F7800.000
G1 X113.953 Y100.060 E0.05342 F540.000
G1 X113.537 Y100.193 E0.07330
G1 X112.694 Y99.350 E0.12763
G1 X112.255 Y99.459 E0.14824
G1 X113.109 Y100.314 E0.20327
G1 X112.666 Y100.420 E0.22401
G1 X111.811 Y99.564 E0.27910
G1 X111.367 Y99.670 E0.29987
G1 X112.223 Y100.526 E0.35502
G1 X111.780 Y100.632 E0.37576
G1 X110.923 Y99.775 E0.43097
G1 X110.479 Y99.880 E0.45174
G1 X111.337 Y100.738 E0.50701
G1 X110.895 Y100.844 E0.52775
G1 X110.036 Y99.985 E0.58307
G1 X109.592 Y100.090 E0.60384
G1 X110.452 Y100.950 E0.65923
G1 X110.015 Y101.062 E0.67975
G1 X109.164 Y100.211 E0.73458
G1 X108.739 Y100.335 E0.75473
G1 X109.586 Y101.182 E0.80929
G1 X109.163 Y101.308 E0.82939
G1 X108.333 Y100.478 E0.88288
G1 X105.820 Y104.551 F7800.000
G1 X108.237 Y106.968 E1.03855 F540.000
G1 X107.150 Y106.430 F7800.000
G1 X106.237 Y105.517 E1.09737 F540.000
M106 S255
G92 E0
G1 Z0.600 F7800.000
G1 X95.998 Y104.003 F7800.000
G1 X95.128 Y105.144 E0.42996 F600.000
G1 X94.746 Y105.556 E0.59838
G1 X94.514 Y105.755 E0.68999
G1 X93.973 Y106.138 E0.88840
G1 X93.617 Y106.326 E1.00904
G1 X93.007 Y106.582 E1.20745
G1 X92.459 Y106.740 E1.37825
G1 X91.786 Y106.879 E1.58432
G1 X91.506 Y106.916 E1.66887
G1 X90.332 Y106.991 E2.02148
G1 X90.169 Y106.982 E2.07022
G1 X88.542 Y106.811 E2.56036
G1 X88.318 Y106.772 E2.62851
G1 X86.960 Y106.264 E3.06301
G1 X86.704 Y106.143 E3.14797
G1 X85.606 Y105.289 E3.56478
G1 X85.412 Y105.114 E3.64303
G1 X84.582 Y103.897 E4.08442
G1 X84.514 Y103.789 E4.12264
G1 X84.463 Y103.651 E4.16694
G1 X83.961 Y102.126 E4.64788
G1 X83.771 Y100.156 E5.24100
G1 X83.769 Y99.968 E5.29713
G1 X83.871 Y98.670 E5.68749
G1 X83.995 Y97.956 E5.90468
G1 X84.137 Y97.430 E6.06773
G1 X84.543 Y96.325 E6.42055
G1 X85.141 Y95.395 E6.75199
G1 X85.482 Y94.969 E6.91542
G1 X85.852 Y94.598 E7.07250
G1 X86.731 Y93.936 E7.40217
G1 X87.079 Y93.748 E7.52065
G1 X87.792 Y93.450 E7.75229
G1 X88.692 Y93.182 E8.03357
G1 X89.015 Y93.127 E8.13176
G1 X90.418 Y93.001 E8.55370
G1 X91.523 Y93.063 E8.88547
G1 X92.454 Y93.214 E9.16814
G1 X92.824 Y93.296 E9.28160
G1 X93.439 Y93.480 E9.47386
G1 X93.921 Y93.653 E9.62752
G1 X94.455 Y93.893 E9.80269
G1 X94.919 Y94.136 E9.95987
G1 X95.165 Y94.288 E10.04644
G1 X95.891 Y94.823 E10.31675
G1 X96.230 Y95.201 E10.46872
G1 X96.259 Y95.536 E10.56954
G1 X96.259 Y98.297 E11.39687
G1 X96.143 Y98.962 E11.59916
G1 X91.605 Y99.164 E12.96048
G1 X97.213 Y99.164 E14.64105
G92 E0
G1 X102.391 Y106.469 F7800.000
