; generated by Slic3r 1.2.9 on 2016-03-11 at 01:25:06

; external perimeters extrusion width = 1.54mm
; perimeters extrusion width = 2.62mm
; infill extrusion width = 6.27mm
; solid infill extrusion width = 2.62mm
; top infill extrusion width = 2.62mm

M107
M104 S30 ; set temperature
G28 ; home all axes
G1 Z5 F5000 ; lift nozzle
M302
M92 E10000
M500
M501
G1 E100
M109 S30 ; wait for temperature to be reached
G21 ; set units to millimeters
G90 ; use absolute coordinates
M82 ; use absolute distances for extrusion
G92 E0
G1 Z0.300 F7800.000
G1 X95.298 Y104.109 F7800.000
G1 X96.275 Y104.397 E0.04609 F378.000
G1 X95.777 Y105.266 E0.09140
G1 X94.996 Y106.137 E0.14435
G1 X94.063 Y106.789 E0.19585
G1 X92.944 Y107.245 E0.25054
G1 X91.606 Y107.522 E0.31235
G1 X90.054 Y107.614 E0.38271
G1 X87.871 Y107.393 E0.48198
G1 X86.059 Y106.736 E0.56918
G1 X84.604 Y105.648 E0.65144
G1 X83.534 Y104.161 E0.73432
G1 X82.888 Y102.303 E0.82331
G1 X82.671 Y100.062 E0.92521
G1 X82.770 Y98.552 E0.99366
G1 X83.068 Y97.183 E1.05706
G1 X83.562 Y95.956 E1.11689
G1 X84.241 Y94.893 E1.17398
G1 X85.093 Y94.012 E1.22946
G1 X86.122 Y93.309 E1.28583
G1 X87.314 Y92.797 E1.34453
G1 X88.655 Y92.489 E1.40680
G1 X90.149 Y92.385 E1.47454
G1 X91.328 Y92.452 E1.52797
G1 X91.462 Y92.459 E1.53406 F378.000
G1 X92.709 Y92.680 E1.59136
G1 X93.889 Y93.048 E1.64730
G1 X94.976 Y93.550 E1.70147
G1 X95.941 Y94.172 E1.75343
G1 X96.723 Y94.857 E1.80046
G1 X96.723 Y99.807 E2.02445
G1 X90.697 Y99.807 E2.29712
G1 X90.697 Y98.522 E2.35526
G1 X95.265 Y98.522 E2.56196
G1 X95.265 Y95.430 E2.70189
G1 X94.579 Y94.866 E2.74206
G1 X93.851 Y94.436 E2.78031
G1 X93.015 Y94.084 E2.82137
G1 X92.103 Y93.824 E2.86428
G1 X91.147 Y93.668 E2.90812
G1 X90.140 Y93.615 E2.95374
G1 X88.467 Y93.806 E3.02992
G1 X87.036 Y94.387 E3.09982
G1 X85.866 Y95.358 E3.16862
G1 X85.005 Y96.660 E3.23923
G1 X84.492 Y98.231 E3.31401
G1 X84.323 Y100.064 E3.39733
G1 X84.482 Y101.895 E3.48046
G1 X84.965 Y103.443 E3.55386
G1 X85.778 Y104.705 E3.62178
G1 X86.904 Y105.636 E3.68789
G1 X88.315 Y106.191 E3.75648
G1 X89.990 Y106.374 E3.83273
G1 X91.098 Y106.306 E3.88298
G1 X92.082 Y106.102 E3.92845
G1 X92.947 Y105.758 E3.97056
G1 X93.696 Y105.261 E4.01125
G1 X94.328 Y104.600 E4.05261
G1 X94.738 Y103.944 E4.08762
G1 X95.076 Y104.044 E4.10358
G1 X95.795 Y104.839 F7800.000
G1 X95.342 Y104.385 E4.13282 F540.000
G1 X94.731 Y104.323 E4.16079
G1 X95.592 Y105.184 E4.21625
G1 X95.332 Y105.474 E4.23397
G1 X94.519 Y104.661 E4.28633
G1 X94.259 Y104.950 E4.30405
G1 X95.070 Y105.761 E4.35632
G1 X94.796 Y106.036 E4.37401
G1 X93.990 Y105.230 E4.42589
G1 X93.701 Y105.490 E4.44361
G1 X94.475 Y106.265 E4.49349
G1 X94.152 Y106.490 E4.51146
G1 X93.371 Y105.710 E4.56176
G1 X93.042 Y105.929 E4.57981
G1 X93.794 Y106.681 E4.62830
G1 X93.404 Y106.840 E4.64749
G1 X92.655 Y106.091 E4.69576
G1 X92.262 Y106.248 E4.71502
G1 X93.014 Y106.999 E4.76347
G1 X92.572 Y107.106 E4.78419
G1 X91.834 Y106.369 E4.83171
G1 X91.379 Y106.463 E4.85287
G1 X92.117 Y107.201 E4.90038
G1 X91.662 Y107.295 E4.92155
G1 X90.906 Y106.539 E4.97022
G1 X90.389 Y106.571 E4.99384
G1 X91.145 Y107.328 E5.04260
G1 X90.627 Y107.358 E5.06625
G1 X89.866 Y106.597 E5.11532
G1 X89.249 Y106.530 E5.14356
G1 X90.103 Y107.383 E5.19857
G1 X89.492 Y107.322 E5.22655
G1 X88.633 Y106.463 E5.28190
G1 X87.950 Y106.329 E5.31359
G1 X88.881 Y107.260 E5.37355
G1 X88.270 Y107.198 E5.40154
G1 X87.045 Y105.972 E5.48049
G1 X86.649 Y106.675 F7800.000
G1 X83.631 Y103.657 E5.67491 F540.000
G1 X83.339 Y102.816 F7800.000
G1 X87.510 Y106.987 E5.94368 F540.000
G1 X85.021 Y105.596 F7800.000
G1 X84.671 Y105.246 E5.96625 F540.000
G1 X84.832 Y103.760 F7800.000
G1 X83.096 Y102.024 E6.07807 F540.000
G1 X83.037 Y101.416 E6.10591
G1 X84.534 Y102.912 E6.20230
G1 X84.285 Y102.114 E6.24038
G1 X82.979 Y100.808 E6.32455
G1 X82.920 Y100.200 E6.35239
G1 X84.213 Y101.494 E6.43575
G1 X84.161 Y100.892 E6.46326
G1 X82.919 Y99.650 E6.54328
G1 X82.953 Y99.135 E6.56680
G1 X84.109 Y100.291 E6.64126
G1 X84.131 Y99.764 E6.66527
G1 X82.987 Y98.620 E6.73900
G1 X83.072 Y98.156 E6.76050
G1 X84.178 Y99.261 E6.83175
G1 X84.224 Y98.759 E6.85476
G1 X83.170 Y97.705 E6.92268
G1 X83.268 Y97.254 E6.94371
G1 X84.270 Y98.256 E7.00830
G1 X84.404 Y97.841 E7.02817
G1 X83.417 Y96.854 E7.09176
G1 X83.575 Y96.463 E7.11099
G1 X84.539 Y97.427 E7.17313
G1 X84.675 Y97.013 E7.19297
G1 X83.733 Y96.071 E7.25365
G1 X83.939 Y95.728 E7.27189
G1 X84.811 Y96.600 E7.32809
G1 X85.030 Y96.270 E7.34615
G1 X84.153 Y95.393 E7.40266
G1 X84.367 Y95.058 E7.42077
G1 X85.248 Y95.939 E7.47758
G1 X85.467 Y95.609 E7.49564
G1 X84.632 Y94.774 E7.54945
G1 X84.906 Y94.499 E7.56714
G1 X85.686 Y95.278 E7.61735
G1 X85.974 Y95.018 E7.63506
G1 X85.181 Y94.224 E7.68619
G1 X85.485 Y93.979 E7.70398
G1 X86.274 Y94.769 E7.75486
G1 X86.575 Y94.520 E7.77263
G1 X85.811 Y93.756 E7.82183
G1 X86.137 Y93.534 E7.83983
G1 X86.875 Y94.271 E7.88734
G1 X87.240 Y94.087 E7.90598
G1 X86.512 Y93.359 E7.95288
G1 X86.897 Y93.195 E7.97193
G1 X87.631 Y93.929 E8.01923
G1 X88.021 Y93.770 E8.03844
G1 X87.281 Y93.030 E8.08616
G1 X87.720 Y92.919 E8.10677
G1 X88.412 Y93.612 E8.15139
G1 X88.889 Y93.540 E8.17337
G1 X88.166 Y92.817 E8.21996
G1 X88.612 Y92.714 E8.24083
G1 X89.382 Y93.483 E8.29040
G1 X89.875 Y93.427 E8.31301
G1 X89.125 Y92.677 E8.36131
G1 X89.639 Y92.642 E8.38476
G1 X90.395 Y93.398 E8.43348
G1 X90.974 Y93.428 E8.45991
G1 X90.163 Y92.617 E8.51215
G1 X90.745 Y92.650 E8.53870
G1 X91.592 Y93.497 E8.59327
G1 X92.248 Y93.604 F7800.000
G1 X91.327 Y92.683 E8.65263 F540.000
G1 X93.016 Y93.823 F7800.000
G1 X91.992 Y92.798 E8.71866 F540.000
G1 X92.680 Y92.937 E8.75064
G1 X93.922 Y94.180 E8.83068
G1 X94.437 Y93.597 F7800.000
G1 X96.497 Y95.656 E8.96340 F540.000
G1 X96.497 Y95.107 F7800.000
G1 X96.098 Y94.709 E8.98909 F540.000
G1 X93.478 Y93.186 F7800.000
G1 X96.497 Y96.206 E9.18365 F540.000
G1 X96.497 Y96.755 E9.20867
G1 X95.491 Y95.749 E9.27349
G1 X95.491 Y96.298 E9.29851
G1 X96.497 Y97.304 E9.36334
G1 X96.497 Y97.853 E9.38836
G1 X95.491 Y96.847 E9.45319
G1 X95.491 Y97.396 E9.47821
G1 X96.497 Y98.402 E9.54303
G1 X96.497 Y98.951 E9.56805
G1 X95.491 Y97.945 E9.63288
G1 X95.491 Y98.494 E9.65790
G1 X96.497 Y99.500 E9.72273
G1 X96.029 Y99.581 E9.74438
G1 X95.196 Y98.748 E9.79806
G1 X94.646 Y98.748 E9.82308
G1 X95.480 Y99.581 E9.87676
G1 X94.930 Y99.581 E9.90178
G1 X94.097 Y98.748 E9.95546
G1 X93.548 Y98.748 E9.98048
G1 X94.381 Y99.581 E10.03416
G1 X93.832 Y99.581 E10.05918
G1 X92.999 Y98.748 E10.11286
G1 X92.450 Y98.748 E10.13788
G1 X93.283 Y99.581 E10.19156
G1 X92.734 Y99.581 E10.21658
G1 X91.901 Y98.748 E10.27026
G1 X91.352 Y98.748 E10.29528
G1 X92.185 Y99.581 E10.34896
G1 X91.636 Y99.581 E10.37398
G1 X90.923 Y98.868 E10.41990
G92 E0
G1 X96.948 Y100.032 F7800.000
G1 X102.316 Y100.032 F7800.000
G1 X103.280 Y96.803 F7800.000
G1 X109.611 Y98.692 F7800.000
G1 X109.836 Y95.641 F7800.000
G1 X109.836 Y92.577 E0.13862 F378.000
G1 X111.447 Y92.577 E0.21152
G1 X111.447 Y98.759 E0.49126
G1 X117.138 Y107.423 E0.96030 F378.000
G1 X115.401 Y107.423 E1.03891
G1 X110.664 Y99.942 E1.43957
G1 X105.899 Y107.423 E1.84090
G1 X104.161 Y107.423 E1.91951
G1 X109.836 Y98.759 E2.38815
G1 X109.836 Y95.872 E2.51881
G1 X111.221 Y93.007 F7800.000
G1 X111.017 Y92.803 E2.53207 F540.000
G1 X110.462 Y92.803 E2.55765
G1 X111.221 Y93.562 E2.60708
G1 X111.221 Y94.117 E2.63266
G1 X110.062 Y92.958 E2.70817
G1 X110.062 Y93.513 E2.73374
G1 X111.221 Y94.672 E2.80925
G1 X111.221 Y95.227 E2.83483
G1 X110.062 Y94.068 E2.91034
G1 X110.062 Y94.623 E2.93591
G1 X111.221 Y95.782 E3.01143
G1 X111.221 Y96.338 E3.03700
G1 X110.062 Y95.179 E3.11251
G1 X110.062 Y95.734 E3.13809
G1 X111.221 Y96.893 E3.21360
G1 X111.221 Y97.448 E3.23917
G1 X110.062 Y96.289 E3.31468
G1 X110.062 Y96.844 E3.34026
G1 X111.221 Y98.003 E3.41577
G1 X111.221 Y98.558 E3.44134
G1 X110.062 Y97.399 E3.51686
G1 X110.062 Y97.955 E3.54243
G1 X111.567 Y99.459 E3.64045
G1 X111.099 Y100.102 F7800.000
G1 X113.692 Y102.695 E3.80941 F540.000
G1 X113.016 Y103.129 F7800.000
G1 X115.818 Y105.931 E3.99194 F540.000
G1 X114.934 Y106.157 F7800.000
G1 X115.973 Y107.197 E4.05968 F540.000
G1 X116.528 Y107.197 E4.08526
G1 X113.975 Y104.643 E4.25162
G1 X114.755 Y104.313 F7800.000
G1 X112.057 Y101.616 E4.42736 F540.000
G1 X112.629 Y101.077 F7800.000
G1 X110.062 Y98.510 E4.59463 F540.000
G1 X109.945 Y98.948 E4.61552
G1 X110.630 Y99.633 E4.66014
G1 X110.414 Y99.972 E4.67866
G1 X109.725 Y99.283 E4.72352
G1 X109.505 Y99.619 E4.74199
G1 X110.198 Y100.311 E4.78709
G1 X109.982 Y100.650 E4.80561
G1 X109.286 Y99.954 E4.85095
G1 X109.066 Y100.290 E4.86942
G1 X109.766 Y100.989 E4.91500
G1 X109.550 Y101.328 E4.93353
G1 X108.846 Y100.625 E4.97934
G1 X108.627 Y100.961 E4.99782
G1 X109.334 Y101.668 E5.04388
G1 X109.118 Y102.007 E5.06240
G1 X108.407 Y101.296 E5.10870
G1 X108.187 Y101.632 E5.12717
G1 X108.901 Y102.346 E5.17371
G1 X108.685 Y102.685 E5.19224
G1 X107.967 Y101.967 E5.23902
G1 X107.748 Y102.302 E5.25749
G1 X108.469 Y103.024 E5.30451
G1 X108.253 Y103.363 E5.32304
G1 X107.528 Y102.638 E5.37030
G1 X107.308 Y102.973 E5.38877
G1 X108.037 Y103.703 E5.43627
G1 X107.821 Y104.042 E5.45480
G1 X107.088 Y103.309 E5.50254
G1 X106.869 Y103.644 E5.52101
G1 X107.605 Y104.381 E5.56899
G1 X107.389 Y104.720 E5.58752
G1 X106.649 Y103.980 E5.63574
G1 X106.429 Y104.315 E5.65421
G1 X107.173 Y105.059 E5.70268
G1 X106.957 Y105.398 E5.72120
G1 X106.210 Y104.651 E5.76991
G1 X105.990 Y104.986 E5.78838
G1 X106.741 Y105.738 E5.83732
G1 X106.525 Y106.077 E5.85585
G1 X105.770 Y105.322 E5.90503
G1 X105.550 Y105.657 E5.92350
G1 X106.309 Y106.416 E5.97293
G1 X106.093 Y106.755 E5.99145
G1 X105.331 Y105.993 E6.04112
G1 X105.111 Y106.328 E6.05959
G1 X105.877 Y107.094 E6.10950
G1 X105.425 Y107.197 E6.13086
G1 X104.891 Y106.664 E6.16562
G1 X104.672 Y106.999 E6.18409
G1 X104.870 Y107.197 E6.19699
M106 S255
G92 E0
G1 Z0.600 F7800.000
G1 X95.733 Y104.003 F7800.000
G1 X94.863 Y105.144 E0.42996 F600.000
G1 X94.481 Y105.556 E0.59838
G1 X94.249 Y105.755 E0.68999
G1 X93.708 Y106.138 E0.88840
G1 X93.352 Y106.326 E1.00904
G1 X92.742 Y106.582 E1.20745
G1 X92.194 Y106.740 E1.37825
G1 X91.521 Y106.879 E1.58432
G1 X91.241 Y106.916 E1.66887
G1 X90.067 Y106.991 E2.02148
G1 X89.904 Y106.982 E2.07022
G1 X88.277 Y106.811 E2.56036
G1 X88.053 Y106.772 E2.62851
G1 X86.695 Y106.264 E3.06301
G1 X86.439 Y106.143 E3.14797
G1 X85.341 Y105.289 E3.56478
G1 X85.147 Y105.114 E3.64303
G1 X84.317 Y103.897 E4.08442
G1 X84.249 Y103.789 E4.12264
G1 X84.198 Y103.651 E4.16694
G1 X83.696 Y102.126 E4.64788
G1 X83.506 Y100.156 E5.24100
G1 X83.504 Y99.968 E5.29713
G1 X83.606 Y98.670 E5.68749
G1 X83.730 Y97.956 E5.90468
G1 X83.872 Y97.430 E6.06773
G1 X84.278 Y96.325 E6.42055
G1 X84.876 Y95.395 E6.75199
G1 X85.217 Y94.969 E6.91542
G1 X85.587 Y94.598 E7.07250
G1 X86.466 Y93.936 E7.40217
G1 X86.814 Y93.748 E7.52065
G1 X87.527 Y93.450 E7.75229
G1 X88.427 Y93.182 E8.03357
G1 X88.750 Y93.127 E8.13176
G1 X90.153 Y93.001 E8.55370
G1 X91.258 Y93.063 E8.88547
G1 X92.189 Y93.214 E9.16814
G1 X92.559 Y93.296 E9.28160
G1 X93.174 Y93.480 E9.47386
G1 X93.656 Y93.653 E9.62752
G1 X94.190 Y93.893 E9.80269
G1 X94.654 Y94.136 E9.95987
G1 X94.900 Y94.288 E10.04644
G1 X95.626 Y94.823 E10.31675
G1 X95.965 Y95.201 E10.46872
G1 X95.994 Y95.536 E10.56954
G1 X95.994 Y98.297 E11.39687
G1 X95.878 Y98.962 E11.59916
G1 X91.340 Y99.164 E12.96048
G1 X96.948 Y99.164 E14.64105
G92 E0
G1 X101.543 Y94.755 F7800.000
G1 X107.419 Y92.352 F7800.000
G1 X109.611 Y92.352 F7800.000
G1 X110.641 Y92.352 F7800.000
G1 X110.641 Y99.209 E2.05473 F600.000
G1 X110.768 Y99.286 E2.09907
G1 X111.407 Y99.891 E2.36271
G1 X116.410 Y107.648 E5.12860
G1 X110.611 Y98.582 F7800.000
G1 X110.611 Y98.582 F7800.000
G1 X104.888 Y107.648 F7800.000
G1 X109.906 Y99.880 E7.89969 F600.000
G1 X110.519 Y99.287 E8.15525
G1 X111.672 Y98.560 E8.56368
G92 E0
G1 Z0.900 F7800.000
G1 X95.733 Y104.003 F7800.000
G1 X94.863 Y105.144 E0.42996 F600.000
G1 X94.481 Y105.556 E0.59838
G1 X94.249 Y105.755 E0.68999
G1 X93.708 Y106.138 E0.88840
G1 X93.352 Y106.326 E1.00904
G1 X92.742 Y106.582 E1.20745
G1 X92.194 Y106.740 E1.37825
G1 X91.521 Y106.879 E1.58432
G1 X91.241 Y106.916 E1.66887
G1 X90.067 Y106.991 E2.02148
G1 X89.904 Y106.982 E2.07022
G1 X88.277 Y106.811 E2.56036
G1 X88.053 Y106.772 E2.62850
G1 X86.695 Y106.264 E3.06301
G1 X86.439 Y106.143 E3.14797
G1 X85.341 Y105.289 E3.56478
G1 X85.147 Y105.114 E3.64303
G1 X84.317 Y103.897 E4.08442
G1 X84.249 Y103.789 E4.12264
G1 X84.198 Y103.651 E4.16694
G1 X83.696 Y102.126 E4.64788
G1 X83.506 Y100.156 E5.24100
G1 X83.504 Y99.968 E5.29713
G1 X83.606 Y98.670 E5.68749
G1 X83.730 Y97.956 E5.90468
G1 X83.872 Y97.430 E6.06773
G1 X84.278 Y96.325 E6.42055
G1 X84.876 Y95.395 E6.75199
G1 X85.217 Y94.969 E6.91542
G1 X85.587 Y94.598 E7.07250
G1 X86.466 Y93.936 E7.40217
G1 X86.814 Y93.748 E7.52065
G1 X87.527 Y93.450 E7.75229
G1 X88.427 Y93.182 E8.03357
G1 X88.750 Y93.127 E8.13176
G1 X90.153 Y93.001 E8.55370
G1 X91.258 Y93.063 E8.88547
G1 X92.189 Y93.214 E9.16814
G1 X92.559 Y93.296 E9.28160
G1 X93.174 Y93.480 E9.47386
G1 X93.656 Y93.653 E9.62752
G1 X94.190 Y93.893 E9.80269
G1 X94.654 Y94.136 E9.95987
G1 X94.900 Y94.288 E10.04644
G1 X95.626 Y94.823 E10.31675
G1 X95.965 Y95.201 E10.46872
G1 X95.994 Y95.536 E10.56954
G1 X95.994 Y98.297 E11.39687
G1 X95.878 Y98.962 E11.59916
G1 X91.340 Y99.164 E12.96048
G1 X96.948 Y99.164 E14.64105
G92 E0
G1 X101.543 Y94.755 F7800.000
G1 X107.419 Y92.352 F7800.000
G1 X109.611 Y92.352 F7800.000
G1 X110.641 Y92.352 F7800.000
G1 X110.641 Y99.209 E2.05473 F600.000
G1 X110.768 Y99.286 E2.09907
G1 X111.407 Y99.891 E2.36271
G1 X116.410 Y107.648 E5.12860
G1 X110.611 Y98.582 F7800.000
G1 X110.611 Y98.582 F7800.000
G1 X104.888 Y107.648 F7800.000
G1 X109.906 Y99.880 E7.89969 F600.000
G1 X110.519 Y99.287 E8.15525
G1 X111.672 Y98.560 E8.56368
G92 E0
G1 Z1.200 F7800.000
G1 X95.733 Y104.003 F7800.000
G1 X94.863 Y105.144 E0.42996 F600.000
G1 X94.481 Y105.556 E0.59838
G1 X94.249 Y105.755 E0.68999
G1 X93.708 Y106.138 E0.88840
G1 X93.352 Y106.326 E1.00904
G1 X92.742 Y106.582 E1.20745
G1 X92.194 Y106.740 E1.37825
G1 X91.521 Y106.879 E1.58432
G1 X91.241 Y106.916 E1.66887
G1 X90.067 Y106.991 E2.02148
G1 X89.904 Y106.982 E2.07022
G1 X88.277 Y106.811 E2.56036
G1 X88.053 Y106.772 E2.62851
G1 X86.695 Y106.264 E3.06301
G1 X86.439 Y106.143 E3.14797
G1 X85.341 Y105.289 E3.56478
G1 X85.147 Y105.114 E3.64303
G1 X84.317 Y103.897 E4.08442
G1 X84.249 Y103.789 E4.12264
G1 X84.198 Y103.651 E4.16694
G1 X83.696 Y102.126 E4.64788
G1 X83.506 Y100.156 E5.24100
G1 X83.504 Y99.968 E5.29713
G1 X83.606 Y98.670 E5.68749
G1 X83.730 Y97.956 E5.90468
G1 X83.872 Y97.430 E6.06773
G1 X84.278 Y96.325 E6.42055
G1 X84.876 Y95.395 E6.75199
G1 X85.217 Y94.969 E6.91542
G1 X85.587 Y94.598 E7.07250
G1 X86.466 Y93.936 E7.40217
G1 X86.814 Y93.748 E7.52065
G1 X87.527 Y93.450 E7.75229
G1 X88.427 Y93.182 E8.03357
G1 X88.750 Y93.127 E8.13176
G1 X90.153 Y93.001 E8.55370
G1 X91.258 Y93.063 E8.88547
G1 X92.189 Y93.214 E9.16814
G1 X92.559 Y93.296 E9.28160
G1 X93.174 Y93.480 E9.47386
G1 X93.656 Y93.653 E9.62752
G1 X94.190 Y93.893 E9.80269
G1 X94.654 Y94.136 E9.95987
G1 X94.900 Y94.288 E10.04644
G1 X95.626 Y94.823 E10.31675
G1 X95.965 Y95.201 E10.46872
G1 X95.994 Y95.536 E10.56954
G1 X95.994 Y98.297 E11.39687
G1 X95.878 Y98.962 E11.59916
G1 X91.340 Y99.164 E12.96048
G1 X96.948 Y99.164 E14.64105
G92 E0
G1 X101.543 Y94.755 F7800.000
G1 X107.419 Y92.352 F7800.000
G1 X109.611 Y92.352 F7800.000
G1 X110.641 Y92.352 F7800.000
G1 X110.641 Y99.209 E2.05473 F600.000
G1 X110.768 Y99.286 E2.09907
G1 X111.407 Y99.891 E2.36271
G1 X116.410 Y107.648 E5.12860
G1 X110.611 Y98.582 F7800.000
G1 X110.611 Y98.582 F7800.000
G1 X104.888 Y107.648 F7800.000
G1 X109.906 Y99.880 E7.89969 F600.000
G1 X110.519 Y99.287 E8.15525
G1 X111.672 Y98.560 E8.56368
G92 E0
G1 Z1.500 F7800.000
G1 X95.733 Y104.003 F7800.000
G1 X94.863 Y105.144 E0.42996 F600.000
G1 X94.481 Y105.556 E0.59838
G1 X94.249 Y105.755 E0.68999
G1 X93.708 Y106.138 E0.88840
G1 X93.352 Y106.326 E1.00904
G1 X92.742 Y106.582 E1.20745
G1 X92.194 Y106.740 E1.37825
G1 X91.521 Y106.879 E1.58432
G1 X91.241 Y106.916 E1.66887
G1 X90.067 Y106.991 E2.02148
