; generated by Slic3r 1.2.9 on 2016-03-11 at 01:25:08

; external perimeters extrusion width = 1.54mm
; perimeters extrusion width = 2.62mm
; infill extrusion width = 6.27mm
; solid infill extrusion width = 2.62mm
; top infill extrusion width = 2.62mm

M107
M104 S30 ; set temperature
G28 ; home all axes
G1 Z5 F5000 ; lift nozzle
M302
M92 E10000
M500
M501
G1 E100
M109 S30 ; wait for temperature to be reached
G21 ; set units to millimeters
G90 ; use absolute coordinates
M82 ; use absolute distances for extrusion
G92 E0
G1 Z0.300 F7800.000
G1 X115.104 Y95.579 F7800.000
G1 X110.363 Y107.423 E0.57728 F378.000
G1 X108.314 Y107.423 E0.67001
G1 X102.275 Y92.577 E1.39523
G1 X103.934 Y92.577 E1.47030
G1 X105.499 Y96.563 E1.66408
G1 X105.686 Y97.041 E1.68730 F378.000
G1 X112.936 Y97.041 E2.01536
G1 X114.677 Y92.577 E2.23217
G1 X116.306 Y92.577 E2.30587
G1 X115.190 Y95.365 E2.44174
G1 X112.495 Y98.207 F7800.000
G1 X110.219 Y104.086 E2.72701 F378.000
G1 X109.510 Y106.198 E2.82781
G1 X109.111 Y106.197 E2.84587
G1 X108.792 Y105.195 E2.89344
G1 X108.202 Y103.544 E2.97276
G1 X106.138 Y98.207 E3.23171
G1 X112.264 Y98.207 E3.50889 F378.000
G1 X111.372 Y97.267 F7800.000
G1 X112.087 Y97.981 E3.55504 F540.000
G1 X111.536 Y97.981 E3.58020
G1 X110.822 Y97.267 E3.62635
G1 X110.271 Y97.267 E3.65151
G1 X110.985 Y97.981 E3.69766
G1 X110.434 Y97.981 E3.72282
G1 X109.720 Y97.267 E3.76897
G1 X109.170 Y97.267 E3.79414
G1 X109.884 Y97.981 E3.84028
G1 X109.333 Y97.981 E3.86545
G1 X108.619 Y97.267 E3.91159
G1 X108.068 Y97.267 E3.93676
G1 X108.782 Y97.981 E3.98291
G1 X108.231 Y97.981 E4.00807
G1 X107.517 Y97.267 E4.05422
G1 X106.967 Y97.267 E4.07938
G1 X107.681 Y97.981 E4.12553
G1 X107.130 Y97.981 E4.15069
G1 X106.416 Y97.267 E4.19684
G1 X105.865 Y97.267 E4.22201
G1 X106.579 Y97.981 E4.26815
G1 X106.029 Y97.981 E4.29332
G1 X103.885 Y95.837 E4.43187
G1 X103.507 Y94.909 F7800.000
G1 X105.254 Y96.655 E4.54475 F540.000
G1 X104.898 Y95.749 F7800.000
G1 X103.129 Y93.980 E4.65904 F540.000
G1 X102.752 Y93.052 F7800.000
G1 X104.542 Y94.842 E4.77474 F540.000
G1 X104.186 Y93.936 F7800.000
G1 X103.053 Y92.803 E4.84796 F540.000
G1 X103.604 Y92.803 E4.87312
G1 X103.831 Y93.029 E4.88776
G1 X104.262 Y96.765 F7800.000
G1 X105.956 Y98.459 E4.99719 F540.000
G1 X105.017 Y98.622 F7800.000
G1 X106.650 Y100.255 E5.10272 F540.000
G1 X105.773 Y100.479 F7800.000
G1 X107.345 Y102.051 E5.20432 F540.000
G1 X106.528 Y102.335 F7800.000
G1 X108.034 Y103.842 E5.30168 F540.000
G1 X107.283 Y104.192 F7800.000
G1 X108.636 Y105.545 E5.38908 F540.000
G1 X108.038 Y106.049 F7800.000
G1 X109.187 Y107.197 E5.46328 F540.000
G1 X109.737 Y107.197 E5.48845
G1 X108.963 Y106.423 E5.53847
G1 X109.515 Y106.424 E5.56370
G1 X110.246 Y107.154 E5.61089
G1 X110.409 Y106.767 E5.63010
G1 X109.754 Y106.112 E5.67242
G1 X109.892 Y105.700 E5.69229
G1 X110.566 Y106.374 E5.73583
G1 X110.724 Y105.980 E5.75519
G1 X110.031 Y105.288 E5.79995
G1 X110.169 Y104.875 E5.81982
G1 X110.881 Y105.587 E5.86582
G1 X111.038 Y105.194 E5.88517
G1 X110.308 Y104.463 E5.93239
G1 X110.448 Y104.053 E5.95220
G1 X111.196 Y104.800 E6.00050
G1 X111.353 Y104.407 E6.01986
G1 X110.602 Y103.656 E6.06841
G1 X110.756 Y103.259 E6.08786
G1 X111.511 Y104.014 E6.13665
G1 X111.668 Y103.621 E6.15601
G1 X110.909 Y102.862 E6.20504
G1 X111.063 Y102.465 E6.22449
G1 X111.826 Y103.227 E6.27376
G1 X111.983 Y102.834 E6.29312
G1 X111.217 Y102.068 E6.34264
G1 X111.371 Y101.671 E6.36209
G1 X112.140 Y102.441 E6.41185
G1 X112.298 Y102.047 E6.43120
G1 X111.524 Y101.274 E6.48120
G1 X111.678 Y100.877 E6.50066
G1 X112.455 Y101.654 E6.55090
G1 X112.613 Y101.261 E6.57026
G1 X111.832 Y100.480 E6.62074
G1 X111.985 Y100.083 E6.64020
G1 X112.770 Y100.868 E6.69093
G1 X112.928 Y100.474 E6.71028
G1 X112.139 Y99.686 E6.76125
G1 X112.293 Y99.289 E6.78071
G1 X113.085 Y100.081 E6.83192
G1 X113.243 Y99.688 E6.85128
G1 X112.446 Y98.892 E6.90273
G1 X112.600 Y98.495 E6.92219
G1 X113.400 Y99.294 E6.97388
G1 X113.557 Y98.901 E6.99324
G1 X111.923 Y97.267 E7.09885
G1 X112.474 Y97.267 E7.12401
G1 X113.715 Y98.508 E7.20421
G1 X113.872 Y98.115 E7.22357
G1 X113.025 Y97.267 E7.27835
G1 X113.208 Y96.900 E7.29711
G1 X114.030 Y97.721 E7.35021
G1 X114.187 Y97.328 E7.36957
G1 X113.362 Y96.503 E7.42287
G1 X113.517 Y96.107 E7.44230
G1 X114.345 Y96.935 E7.49578
G1 X114.502 Y96.542 E7.51514
G1 X113.671 Y95.711 E7.56881
G1 X113.826 Y95.315 E7.58824
G1 X114.659 Y96.148 E7.64210
G1 X114.817 Y95.755 E7.66146
G1 X113.980 Y94.919 E7.71550
G1 X114.135 Y94.522 E7.73493
G1 X114.974 Y95.362 E7.78917
G1 X115.132 Y94.968 E7.80853
G1 X114.290 Y94.126 E7.86295
G1 X114.444 Y93.730 E7.88238
G1 X115.289 Y94.575 E7.93699
G1 X115.447 Y94.182 E7.95635
G1 X114.599 Y93.334 E8.01115
G1 X114.753 Y92.938 E8.03058
G1 X115.604 Y93.789 E8.08557
G1 X115.761 Y93.395 E8.10493
G1 X115.169 Y92.803 E8.14320
G1 X115.720 Y92.803 E8.16837
G1 X115.919 Y93.002 E8.18122
G92 E0
G1 X106.303 Y99.357 F7800.000
G1 X104.640 Y97.694 E0.10748 F540.000
G1 X105.395 Y99.550 F7800.000
G1 X106.998 Y101.153 E0.21104 F540.000
G1 X106.150 Y101.407 F7800.000
G1 X107.692 Y102.949 E0.31069 F540.000
G1 X106.906 Y103.264 F7800.000
G1 X108.340 Y104.698 E0.40340 F540.000
G1 X107.661 Y105.120 F7800.000
G1 X108.893 Y106.352 E0.48302 F540.000
G1 X108.416 Y106.977 F7800.000
G1 X108.636 Y107.197 E0.49723 F540.000
G92 E0
G1 X105.839 Y96.816 F7800.000
G1 X106.199 Y96.288 F7800.000
G1 X104.087 Y91.352 F7800.000
G1 X93.716 Y91.352 F7800.000
G1 X89.574 Y94.493 F7800.000
G1 X89.574 Y95.307 F7800.000
G1 X93.716 Y99.449 F7800.000
G1 X95.562 Y98.659 F7800.000
G1 X95.562 Y107.423 E0.39657 F378.000
G1 X93.941 Y107.423 E0.46992
G1 X93.941 Y100.959 E0.76241
G1 X85.208 Y100.959 E1.15757
G1 X85.208 Y107.423 E1.45006
G1 X83.587 Y107.423 E1.52341
G1 X83.587 Y92.577 E2.19518
G1 X85.208 Y92.577 E2.26853
G1 X85.208 Y99.674 E2.58967
G1 X93.941 Y99.674 E2.98483 F378.000
G1 X93.941 Y92.577 E3.30596
G1 X95.562 Y92.577 E3.37931
G1 X95.562 Y98.428 E3.64406
G1 X94.167 Y99.601 F7800.000
G1 X95.336 Y100.770 E3.72014 F540.000
G1 X95.336 Y100.216 E3.74565
G1 X94.167 Y99.047 E3.82173
G1 X94.167 Y98.492 E3.84725
G1 X95.336 Y99.661 E3.92333
G1 X95.336 Y99.107 E3.94884
G1 X94.167 Y97.938 E4.02492
G1 X94.167 Y97.383 E4.05044
G1 X95.336 Y98.552 E4.12652
G1 X95.336 Y97.998 E4.15203
G1 X94.167 Y96.829 E4.22811
G1 X94.167 Y96.274 E4.25363
G1 X95.336 Y97.443 E4.32970
G1 X95.336 Y96.889 E4.35522
G1 X94.167 Y95.719 E4.43130
G1 X94.167 Y95.165 E4.45682
G1 X95.336 Y96.334 E4.53289
G1 X95.336 Y95.779 E4.55841
G1 X94.167 Y94.610 E4.63449
G1 X94.167 Y94.056 E4.66001
G1 X95.336 Y95.225 E4.73608
G1 X95.336 Y94.670 E4.76160
G1 X94.167 Y93.501 E4.83768
G1 X94.167 Y92.947 E4.86320
G1 X95.336 Y94.116 E4.93927
G1 X95.336 Y93.561 E4.96479
G1 X94.578 Y92.803 E5.01413
G1 X95.132 Y92.803 E5.03965
G1 X95.336 Y93.007 E5.05290
G1 X93.911 Y99.900 F7800.000
G1 X95.336 Y101.325 E5.14563 F540.000
G1 X95.336 Y101.880 E5.17115
G1 X93.356 Y99.900 E5.29997
G1 X92.801 Y99.900 E5.32549
G1 X93.635 Y100.733 E5.37970
G1 X93.080 Y100.733 E5.40522
G1 X92.247 Y99.900 E5.45943
G1 X91.692 Y99.900 E5.48495
G1 X92.525 Y100.733 E5.53916
G1 X91.971 Y100.733 E5.56468
G1 X91.138 Y99.900 E5.61889
G1 X90.583 Y99.900 E5.64441
G1 X91.416 Y100.733 E5.69862
G1 X90.862 Y100.733 E5.72414
G1 X90.029 Y99.900 E5.77835
G1 X89.474 Y99.900 E5.80387
G1 X90.307 Y100.733 E5.85808
G1 X89.753 Y100.733 E5.88360
G1 X88.920 Y99.900 E5.93781
G1 X88.365 Y99.900 E5.96333
G1 X89.198 Y100.733 E6.01754
G1 X88.643 Y100.733 E6.04306
G1 X87.810 Y99.900 E6.09727
G1 X87.256 Y99.900 E6.12279
G1 X88.089 Y100.733 E6.17700
G1 X87.534 Y100.733 E6.20252
G1 X86.701 Y99.900 E6.25673
G1 X86.147 Y99.900 E6.28225
G1 X86.980 Y100.733 E6.33646
G1 X86.425 Y100.733 E6.36198
G1 X85.592 Y99.900 E6.41619
G1 X85.038 Y99.900 E6.44171
G1 X85.871 Y100.733 E6.49592
G1 X85.316 Y100.733 E6.52144
G1 X83.813 Y99.230 E6.61928
G1 X83.813 Y99.784 E6.64480
G1 X84.982 Y100.953 E6.72087
G1 X84.982 Y101.508 E6.74639
G1 X83.813 Y100.339 E6.82247
G1 X83.813 Y100.893 E6.84799
G1 X84.982 Y102.062 E6.92406
G1 X84.982 Y102.617 E6.94958
G1 X83.813 Y101.448 E7.02566
G1 X83.813 Y102.002 E7.05117
G1 X84.982 Y103.171 E7.12725
G1 X84.982 Y103.726 E7.15277
G1 X83.813 Y102.557 E7.22885
G1 X83.813 Y103.112 E7.25436
G1 X84.982 Y104.281 E7.33044
G1 X84.982 Y104.835 E7.35596
G1 X83.813 Y103.666 E7.43204
G1 X83.813 Y104.221 E7.45755
G1 X84.982 Y105.390 E7.53363
G1 X84.982 Y105.944 E7.55915
G1 X83.813 Y104.775 E7.63523
G1 X83.813 Y105.330 E7.66074
G1 X84.982 Y106.499 E7.73682
G1 X84.982 Y107.053 E7.76234
G1 X83.813 Y105.884 E7.83842
G1 X83.813 Y106.439 E7.86393
G1 X84.571 Y107.197 E7.91327
G1 X84.016 Y107.197 E7.93879
G1 X83.813 Y106.993 E7.95203
G1 X84.982 Y99.844 F7800.000
G1 X83.813 Y98.675 E8.02811 F540.000
G1 X83.813 Y98.120 E8.05363
G1 X84.982 Y99.290 E8.12971
G1 X84.982 Y98.735 E8.15522
G1 X83.813 Y97.566 E8.23130
G1 X83.813 Y97.011 E8.25682
G1 X84.982 Y98.180 E8.33290
G1 X84.982 Y97.626 E8.35841
G1 X83.813 Y96.457 E8.43449
G1 X83.813 Y95.902 E8.46001
G1 X84.982 Y97.071 E8.53609
G1 X84.982 Y96.517 E8.56160
G1 X83.813 Y95.348 E8.63768
G1 X83.813 Y94.793 E8.66320
G1 X84.982 Y95.962 E8.73928
G1 X84.982 Y95.408 E8.76479
G1 X83.813 Y94.238 E8.84087
G1 X83.813 Y93.684 E8.86639
G1 X84.982 Y94.853 E8.94246
G1 X84.982 Y94.298 E8.96798
G1 X83.813 Y93.129 E9.04406
G1 X84.041 Y92.803 E9.06238
G1 X84.982 Y93.744 E9.12361
G1 X84.982 Y93.189 E9.14913
G1 X84.595 Y92.803 E9.17427
G92 E0
G1 X84.433 Y93.352 F7800.000
G1 X84.433 Y93.352 F7800.000
G1 X94.167 Y101.265 F7800.000
G1 X95.336 Y102.434 E0.07608 F540.000
G1 X95.336 Y102.989 E0.10159
G1 X94.167 Y101.820 E0.17767
G1 X94.167 Y102.374 E0.20319
G1 X95.336 Y103.543 E0.27927
G1 X95.336 Y104.098 E0.30478
G1 X94.167 Y102.929 E0.38086
G1 X94.167 Y103.483 E0.40638
G1 X95.336 Y104.652 E0.48246
G1 X95.336 Y105.207 E0.50797
G1 X94.167 Y104.038 E0.58405
G1 X94.167 Y104.592 E0.60957
G1 X95.336 Y105.762 E0.68565
G1 X95.336 Y106.316 E0.71116
G1 X94.167 Y105.147 E0.78724
G1 X94.167 Y105.702 E0.81276
G1 X95.336 Y106.871 E0.88884
G1 X95.107 Y107.197 E0.90716
G1 X94.167 Y106.256 E0.96839
G1 X94.167 Y106.811 E0.99390
G1 X94.553 Y107.197 E1.01904
M106 S255
G92 E0
G1 Z0.600 F7800.000
G1 X107.318 Y100.633 F7800.000
G1 X104.941 Y97.168 E1.25890 F600.000
G1 X103.016 Y92.352 E2.81311
G92 E0
G1 X113.702 Y94.457 F7800.000
G1 X113.049 Y98.774 E1.30814 F600.000
G1 X110.865 Y104.320 E3.09418
G1 X110.157 Y106.245 E3.70872
G1 X109.889 Y106.723 E3.87305
G1 X109.346 Y106.810 E4.03793
G1 X108.776 Y106.736 E4.21016
G1 X108.482 Y106.225 E4.38678
G1 X107.566 Y103.781 E5.16886
G1 X105.580 Y98.775 E6.78268
G1 X105.443 Y97.900 E7.04819
G1 X105.839 Y97.746 E7.17570
G1 X106.466 Y97.624 E7.36708
G1 X112.166 Y97.624 E9.07506
G1 X112.782 Y97.741 E9.26297
G1 X113.182 Y97.894 E9.39110
G1 X113.677 Y97.165 E9.65512
G1 X115.579 Y92.352 E11.20582
G92 E0
G1 X112.782 Y96.816 F7800.000
G1 X112.782 Y96.816 F7800.000
G1 X110.574 Y93.584 F7800.000
G1 X108.043 Y93.584 F7800.000
G1 X105.451 Y91.817 F7800.000
G1 X104.087 Y91.352 F7800.000
G1 X101.940 Y91.352 F7800.000
G1 X98.979 Y93.544 F7800.000
G1 X97.787 Y92.352 F7800.000
G1 X95.787 Y91.352 F7800.000
G1 X93.716 Y91.352 F7800.000
G1 X91.716 Y92.352 F7800.000
G1 X89.574 Y94.493 F7800.000
G1 X87.433 Y92.352 F7800.000
G1 X85.433 Y92.352 F7800.000
G1 X84.397 Y92.352 F7800.000
G1 X84.397 Y99.449 E2.12659 F600.000
G1 X85.308 Y103.796 E3.45730
G92 E0
G1 X94.716 Y106.648 F7800.000
G1 X94.716 Y106.648 F7800.000
G1 X94.751 Y107.648 F7800.000
G1 X94.751 Y101.184 E1.93691 F600.000
G1 X94.569 Y100.316 E2.20250
G1 X94.751 Y99.449 E2.46808
G1 X94.751 Y92.352 E4.59467
G92 E0
G1 X84.433 Y93.352 F7800.000
G1 X84.397 Y93.387 F7800.000
G1 X84.397 Y106.612 F7800.000
G1 X84.433 Y106.648 F7800.000
G1 X84.397 Y107.648 F7800.000
G1 X84.397 Y101.184 E1.93691 F600.000
G1 X84.579 Y100.316 E2.20250
G1 X95.787 Y100.316 E5.56087
G92 E0
G1 Z0.900 F7800.000
G1 X107.318 Y100.633 F7800.000
G1 X104.941 Y97.168 E1.25890 F600.000
G1 X103.016 Y92.352 E2.81311
G92 E0
G1 X113.702 Y94.457 F7800.000
G1 X113.049 Y98.774 E1.30814 F600.000
G1 X110.865 Y104.320 E3.09418
G1 X110.157 Y106.245 E3.70872
G1 X109.889 Y106.723 E3.87305
G1 X109.346 Y106.810 E4.03793
G1 X108.776 Y106.736 E4.21016
G1 X108.482 Y106.225 E4.38678
G1 X107.566 Y103.781 E5.16886
G1 X105.580 Y98.775 E6.78268
G1 X105.443 Y97.900 E7.04819
G1 X105.839 Y97.746 E7.17570
G1 X106.466 Y97.624 E7.36708
G1 X112.166 Y97.624 E9.07506
G1 X112.782 Y97.741 E9.26297
G1 X113.182 Y97.894 E9.39110
G1 X113.677 Y97.165 E9.65512
G1 X115.579 Y92.352 E11.20582
G92 E0
G1 X112.782 Y96.816 F7800.000
G1 X112.782 Y96.816 F7800.000
G1 X110.574 Y93.584 F7800.000
G1 X108.043 Y93.584 F7800.000
G1 X105.451 Y91.817 F7800.000
G1 X104.087 Y91.352 F7800.000
G1 X101.940 Y91.352 F7800.000
G1 X98.979 Y93.544 F7800.000
G1 X97.787 Y92.352 F7800.000
G1 X95.787 Y91.352 F7800.000
G1 X93.716 Y91.352 F7800.000
G1 X91.716 Y92.352 F7800.000
G1 X89.574 Y94.493 F7800.000
G1 X87.433 Y92.352 F7800.000
G1 X85.433 Y92.352 F7800.000
G1 X84.397 Y92.352 F7800.000
G1 X84.397 Y99.449 E2.12659 F600.000
G1 X85.308 Y103.796 E3.45730
G92 E0
G1 X94.716 Y106.648 F7800.000
G1 X94.716 Y106.648 F7800.000
G1 X94.751 Y107.648 F7800.000
G1 X94.751 Y101.184 E1.93691 F600.000
G1 X94.569 Y100.316 E2.20250
G1 X94.751 Y99.449 E2.46808
G1 X94.751 Y92.352 E4.59467
G92 E0
G1 X84.433 Y93.352 F7800.000
G1 X84.397 Y93.387 F7800.000
G1 X84.397 Y106.612 F7800.000
G1 X84.433 Y106.648 F7800.000
G1 X84.397 Y107.648 F7800.000
G1 X84.397 Y101.184 E1.93691 F600.000
G1 X84.579 Y100.316 E2.20250
G1 X95.787 Y100.316 E5.56087
G92 E0
G1 Z1.200 F7800.000
G1 X107.318 Y100.633 F7800.000
G1 X104.941 Y97.168 E1.25890 F600.000
G1 X103.016 Y92.352 E2.81311
G92 E0
G1 X113.702 Y94.457 F7800.000
G1 X113.049 Y98.774 E1.30814 F600.000
G1 X110.865 Y104.320 E3.09418
G1 X110.157 Y106.245 E3.70872
G1 X109.889 Y106.723 E3.87305
G1 X109.346 Y106.810 E4.03793
G1 X108.776 Y106.736 E4.21016
G1 X108.482 Y106.225 E4.38678
G1 X107.566 Y103.781 E5.16886
G1 X105.580 Y98.775 E6.78268
G1 X105.443 Y97.900 E7.04819
G1 X105.839 Y97.746 E7.17570
G1 X106.466 Y97.624 E7.36708
G1 X112.166 Y97.624 E9.07506
G1 X112.782 Y97.741 E9.26297
G1 X113.182 Y97.894 E9.39110
G1 X113.677 Y97.165 E9.65512
G1 X115.579 Y92.352 E11.20582
G92 E0
G1 X101.940 Y91.352 F7800.000
G1 X93.716 Y91.352 F7800.000
G1 X89.574 Y94.493 F7800.000
G1 X87.433 Y92.352 F7800.000
G1 X85.433 Y92.352 F7800.000
G1 X84.397 Y92.352 F7800.000
G1 X84.397 Y99.449 E2.12659 F600.000
G1 X85.308 Y103.796 E3.45730
G92 E0
G1 X94.716 Y106.648 F7800.000
G1 X94.716 Y106.648 F7800.000
G1 X94.751 Y107.648 F7800.000
G1 X94.751 Y101.184 E1.93691 F600.000
G1 X94.569 Y100.316 E2.20250
G1 X94.751 Y99.449 E2.46808
G1 X94.751 Y92.352 E4.59467
G92 E0
G1 X84.433 Y93.352 F7800.000
G1 X84.397 Y93.387 F7800.000
G1 X84.397 Y106.612 F7800.000
G1 X84.433 Y106.648 F7800.000
G1 X84.397 Y107.648 F7800.000
G1 X84.397 Y101.184 E1.93691 F600.000
G1 X84.579 Y100.316 E2.20250
G1 X95.787 Y100.316 E5.56087
G92 E0
G1 Z1.500 F7800.000
G1 X107.318 Y100.633 F7800.000
G1 X104.941 Y97.168 E1.25889 F600.000
G1 X103.016 Y92.352 E2.81310
G92 E0
G1 X113.702 Y94.457 F7800.000
G1 X113.049 Y98.774 E1.30814 F600.000
G1 X110.865 Y104.320 E3.09418
G1 X110.157 Y106.245 E3.70872
G1 X109.889 Y106.723 E3.87305
G1 X109.346 Y106.810 E4.03793
G1 X108.776 Y106.736 E4.21016
G1 X108.482 Y106.225 E4.38678
G1 X107.566 Y103.781 E5.16886
G1 X105.580 Y98.775 E6.78268
G1 X105.443 Y97.900 E7.04819
G1 X105.839 Y97.746 E7.17570
G1 X106.466 Y97.624 E7.36708
G1 X112.166 Y97.624 E9.07506
G1 X112.782 Y97.741 E9.26297
G1 X113.182 Y97.894 E9.39110
G1 X113.677 Y97.165 E9.65512
G1 X115.579 Y92.352 E11.20582
G92 E0
G1 X101.940 Y91.352 F7800.000
G1 X93.716 Y91.352 F7800.000
G1 X89.574 Y94.493 F7800.000
G1 X87.433 Y92.352 F7800.000
G1 X85.433 Y92.352 F7800.000
G1 X84.397 Y92.352 F7800.000
G1 X84.397 Y99.449 E2.12659 F600.000
G1 X85.308 Y103.796 E3.45730
G92 E0
G1 X94.716 Y106.648 F7800.000
G1 X94.716 Y106.648 F7800.000
G1 X94.751 Y107.648 F7800.000
G1 X94.751 Y101.184 E1.93691 F600.000
G1 X94.569 Y100.316 E2.20250
G1 X94.751 Y99.449 E2.46808
G1 X94.751 Y92.352 E4.59467
G92 E0
G1 X84.433 Y93.352 F7800.000
