; generated by Slic3r 1.2.9 on 2016-03-11 at 01:25:09

; external perimeters extrusion width = 1.54mm
; perimeters extrusion width = 2.62mm
; infill extrusion width = 6.27mm
; solid infill extrusion width = 2.62mm
; top infill extrusion width = 2.62mm

M107
M104 S30 ; set temperature
G28 ; home all axes
G1 Z5 F5000 ; lift nozzle
M302
M92 E10000
M500
M501
G1 E100
M109 S30 ; wait for temperature to be reached
G21 ; set units to millimeters
G90 ; use absolute coordinates
M82 ; use absolute distances for extrusion
G92 E0
G1 Z0.300 F7800.000
G1 X104.503 Y104.671 F7800.000
G1 X104.503 Y92.577 E0.54724 F378.000
G1 X110.461 Y92.577 E0.81681
G1 X111.962 Y92.693 E0.88492
G1 X112.062 Y92.700 E0.88950 F378.000
G1 X113.389 Y93.064 E0.95176
G1 X114.453 Y93.663 E1.00700
G1 X115.228 Y94.467 E1.05752
G1 X115.692 Y95.456 E1.10697
G1 X115.849 Y96.650 E1.16145
G1 X115.746 Y97.552 E1.20255
G1 X115.439 Y98.339 E1.24073
G1 X114.929 Y99.016 E1.27910
G1 X114.226 Y99.561 E1.31933
G1 X113.340 Y99.946 E1.36307
G1 X112.221 Y100.177 E1.41478
G1 X112.197 Y100.600 E1.43391
G1 X113.051 Y100.878 E1.47453
G1 X113.721 Y101.267 E1.50959
G1 X114.256 Y101.778 E1.54309
G1 X114.647 Y102.398 E1.57623
G1 X114.883 Y103.110 E1.61018
G1 X114.960 Y103.901 E1.64615
G1 X114.398 Y105.853 E1.73806
G1 X112.718 Y107.019 E1.83056
G1 X109.805 Y107.423 E1.96367
G1 X104.503 Y107.423 E2.20356
G1 X104.503 Y104.902 E2.31763
G1 X106.124 Y99.729 F7800.000
G1 X106.124 Y93.786 E2.58655 F378.000
G1 X110.369 Y93.786 E2.77862 F378.000
G1 X111.544 Y93.866 E2.83193
G1 X112.512 Y94.113 E2.87712
G1 X113.262 Y94.537 E2.91610
G1 X113.793 Y95.139 E2.95242
G1 X114.107 Y95.902 E2.98978
G1 X114.212 Y96.831 E3.03204
G1 X113.758 Y98.445 E3.10792
G1 X112.387 Y99.420 E3.18405
G1 X110.214 Y99.729 E3.28335
G1 X106.355 Y99.729 E3.45797
G1 X106.355 Y100.895 F7800.000
G1 X109.827 Y100.895 E3.61506 F378.000
G1 X110.865 Y100.967 E3.66214
G1 X111.736 Y101.188 E3.70280
G1 X112.431 Y101.567 E3.73863
G1 X112.936 Y102.117 E3.77239
G1 X113.236 Y102.825 E3.80720
G1 X113.333 Y103.676 E3.84596
G1 X113.231 Y104.489 E3.88304
G1 X112.916 Y105.154 E3.91633
G1 X112.389 Y105.643 E3.94887
G1 X111.688 Y105.966 E3.98378
G1 X110.833 Y106.153 E4.02339
G1 X109.826 Y106.214 E4.06903
G1 X106.124 Y106.214 E4.23654
G1 X106.124 Y100.895 E4.47722
G1 X111.987 Y100.912 F7800.000
G1 X112.715 Y101.227 E4.55502 F540.000
G1 X112.047 Y99.839 F7800.000
G1 X112.483 Y99.763 E4.59847 F540.000
G1 X112.904 Y99.589 E4.64308
G1 X113.108 Y99.394 F7800.000
G1 X113.411 Y99.697 E4.66265 F540.000
G1 X113.795 Y99.530 E4.68179
G1 X113.284 Y99.019 E4.71480
G1 X113.606 Y98.790 E4.73286
G1 X114.173 Y99.357 E4.76952
G1 X114.484 Y99.117 E4.78747
G1 X113.928 Y98.561 E4.82337
G1 X114.058 Y98.141 E4.84351
G1 X114.793 Y98.875 E4.89099
G1 X115.030 Y98.561 E4.90897
G1 X114.179 Y97.710 E4.96395
G1 X114.300 Y97.280 E4.98438
G1 X115.261 Y98.241 E5.04648
G1 X115.415 Y97.844 E5.06593
G1 X114.421 Y96.850 E5.13020
G1 X114.385 Y96.263 E5.15709
G1 X115.542 Y97.420 E5.23190
G1 X115.599 Y96.926 E5.25465
G1 X114.264 Y95.591 E5.34095
G1 X115.055 Y94.729 F7800.000
G1 X114.116 Y93.791 E5.40164 F540.000
G1 X112.989 Y93.214 F7800.000
G1 X115.486 Y95.712 E5.56310 F540.000
G1 X115.569 Y96.346 E5.59234
G1 X112.230 Y93.006 E5.80826
G1 X111.568 Y92.895 E5.83892
G1 X112.535 Y93.862 E5.90140
G1 X111.795 Y93.673 E5.93629
G1 X110.971 Y92.849 E5.98955
G1 X110.374 Y92.804 E6.01692
G1 X111.180 Y93.609 E6.06899
G1 X110.589 Y93.569 E6.09608
G1 X109.823 Y92.803 E6.14559
G1 X109.272 Y92.803 E6.17078
G1 X110.029 Y93.560 E6.21973
G1 X109.478 Y93.560 E6.24491
G1 X108.721 Y92.803 E6.29386
G1 X108.170 Y92.803 E6.31905
G1 X108.927 Y93.560 E6.36800
G1 X108.376 Y93.560 E6.39319
G1 X107.619 Y92.803 E6.44213
G1 X107.068 Y92.803 E6.46732
G1 X107.825 Y93.560 E6.51627
G1 X107.274 Y93.560 E6.54146
G1 X106.517 Y92.803 E6.59040
G1 X105.966 Y92.803 E6.61559
G1 X106.723 Y93.560 E6.66454
G1 X106.172 Y93.560 E6.68973
G1 X105.415 Y92.803 E6.73868
G1 X104.864 Y92.803 E6.76386
G1 X105.898 Y93.837 E6.83074
G1 X105.898 Y94.388 E6.85592
G1 X104.729 Y93.219 E6.93151
G1 X104.729 Y93.770 E6.95670
G1 X105.898 Y94.939 E7.03228
G1 X105.898 Y95.490 E7.05747
G1 X104.729 Y94.321 E7.13305
G1 X104.729 Y94.872 E7.15824
G1 X105.898 Y96.041 E7.23382
G1 X105.898 Y96.592 E7.25901
G1 X104.729 Y95.423 E7.33460
G1 X104.729 Y95.974 E7.35978
G1 X105.898 Y97.143 E7.43537
G1 X105.898 Y97.694 E7.46056
G1 X104.729 Y96.525 E7.53614
G1 X104.729 Y97.076 E7.56133
G1 X105.898 Y98.245 E7.63691
G1 X105.898 Y98.796 E7.66210
G1 X104.729 Y97.627 E7.73769
G1 X104.729 Y98.178 E7.76287
G1 X105.898 Y99.347 E7.83846
G1 X105.898 Y99.898 E7.86365
G1 X104.729 Y98.729 E7.93923
G1 X104.729 Y99.280 E7.96442
G1 X106.118 Y100.669 E8.05423
G1 X105.898 Y101.000 F7800.000
G1 X104.729 Y99.831 E8.12982 F540.000
G1 X104.729 Y100.382 E8.15500
G1 X105.898 Y101.551 E8.23059
G1 X105.898 Y102.102 E8.25578
G1 X104.729 Y100.933 E8.33136
G1 X104.729 Y101.484 E8.35655
G1 X105.898 Y102.653 E8.43213
G1 X105.898 Y103.204 E8.45732
G1 X104.729 Y102.035 E8.53291
G1 X104.729 Y102.586 E8.55809
G1 X105.898 Y103.755 E8.63368
G1 X105.898 Y104.306 E8.65887
G1 X104.729 Y103.137 E8.73445
G1 X104.729 Y103.688 E8.75964
G1 X105.898 Y104.857 E8.83522
G1 X105.898 Y105.408 E8.86041
G1 X104.729 Y104.239 E8.93599
G1 X104.729 Y104.790 E8.96118
G1 X105.898 Y105.959 E9.03677
G1 X105.829 Y106.440 E9.05900
G1 X106.586 Y107.197 E9.10795
G1 X107.137 Y107.197 E9.13313
G1 X106.380 Y106.440 E9.18208
G1 X105.898 Y106.510 E9.20431
G1 X104.729 Y105.341 E9.27990
G1 X104.729 Y105.892 E9.30509
G1 X106.035 Y107.197 E9.38949
G1 X105.484 Y107.197 E9.41468
G1 X104.729 Y106.442 E9.46346
G1 X104.729 Y106.993 E9.48865
G1 X104.933 Y107.197 E9.50181
G1 X106.931 Y106.440 F7800.000
G1 X107.688 Y107.197 E9.55076 F540.000
G1 X108.239 Y107.197 E9.57595
G1 X107.482 Y106.440 E9.62489
G1 X108.033 Y106.440 E9.65008
G1 X108.790 Y107.197 E9.69903
G1 X109.341 Y107.197 E9.72422
G1 X108.584 Y106.440 E9.77317
G1 X109.135 Y106.440 E9.79835
G1 X109.888 Y107.194 E9.84709
G1 X110.372 Y107.127 E9.86942
G1 X109.686 Y106.440 E9.91382
G1 X110.209 Y106.412 E9.93778
G1 X110.856 Y107.060 E9.97962
G1 X111.340 Y106.992 E10.00195
G1 X110.728 Y106.381 E10.04148
G1 X111.189 Y106.290 E10.06294
G1 X111.824 Y106.925 E10.10397
G1 X112.307 Y106.858 E10.12630
G1 X111.641 Y106.191 E10.16940
G1 X112.029 Y106.028 E10.18864
G1 X112.757 Y106.756 E10.23568
G1 X113.082 Y106.530 E10.25378
G1 X112.406 Y105.855 E10.29745
G1 X112.710 Y105.608 E10.31536
G1 X113.407 Y106.305 E10.36042
G1 X113.732 Y106.079 E10.37852
G1 X112.996 Y105.342 E10.42614
G1 X113.208 Y105.003 E10.44442
G1 X114.057 Y105.853 E10.49936
G1 X114.278 Y105.523 E10.51752
G1 X113.385 Y104.630 E10.57527
G1 X113.488 Y104.182 E10.59628
G1 X114.401 Y105.095 E10.65533
G1 X114.525 Y104.667 E10.67568
G1 X113.549 Y103.692 E10.73874
G1 X113.504 Y103.096 E10.76608
G1 X114.648 Y104.240 E10.84004
G1 X114.710 Y103.751 E10.86256
G1 X113.331 Y102.371 E10.95175
G1 X112.874 Y101.364 F7800.000
G1 X114.610 Y103.100 E11.06399 F540.000
G1 X111.800 Y100.840 F7800.000
G1 X110.819 Y99.860 E11.12735 F540.000
G1 X111.302 Y99.792 E11.14962
G1 X111.897 Y100.387 E11.18812
G1 X111.204 Y100.796 F7800.000
G1 X110.337 Y99.929 E11.24419 F540.000
G1 X109.812 Y99.955 E11.26822
G1 X110.571 Y100.714 E11.31729
G1 X109.979 Y100.673 E11.34441
G1 X109.261 Y99.955 E11.39085
G1 X108.710 Y99.955 E11.41604
G1 X109.424 Y100.669 E11.46220
G1 X108.873 Y100.669 E11.48739
G1 X108.159 Y99.955 E11.53356
G1 X107.608 Y99.955 E11.55875
G1 X108.322 Y100.669 E11.60491
G1 X107.771 Y100.669 E11.63010
G1 X107.057 Y99.955 E11.67627
G1 X106.506 Y99.955 E11.70146
G1 X107.220 Y100.669 E11.74763
G1 X106.669 Y100.669 E11.77281
G1 X105.955 Y99.955 E11.81898
G92 E0
G1 X104.278 Y107.648 F7800.000
G1 X98.350 Y92.352 F7800.000
G1 X92.279 Y92.352 F7800.000
G1 X90.137 Y95.307 F7800.000
G1 X94.279 Y99.449 F7800.000
G1 X84.150 Y101.570 F7800.000
G1 X84.150 Y92.577 E0.40694 F378.000
G1 X85.771 Y92.577 E0.48029
G1 X85.771 Y99.674 E0.80143
G1 X94.504 Y99.674 E1.19659 F378.000
G1 X94.504 Y92.577 E1.51772
G1 X96.125 Y92.577 E1.59107
G1 X96.125 Y107.423 E2.26284
G1 X94.504 Y107.423 E2.33619
G1 X94.504 Y100.959 E2.62868
G1 X85.771 Y100.959 E3.02385
G1 X85.771 Y107.423 E3.31634
G1 X84.150 Y107.423 E3.38969
G1 X84.150 Y101.801 E3.64406
G1 X85.545 Y99.844 F7800.000
G1 X84.376 Y98.675 E3.72014 F540.000
G1 X84.376 Y98.120 E3.74565
G1 X85.545 Y99.290 E3.82173
G1 X85.545 Y98.735 E3.84725
G1 X84.376 Y97.566 E3.92333
G1 X84.376 Y97.011 E3.94884
G1 X85.545 Y98.180 E4.02492
G1 X85.545 Y97.626 E4.05044
G1 X84.376 Y96.457 E4.12652
G1 X84.376 Y95.902 E4.15203
G1 X85.545 Y97.071 E4.22811
G1 X85.545 Y96.517 E4.25363
G1 X84.376 Y95.348 E4.32970
G1 X84.376 Y94.793 E4.35522
G1 X85.545 Y95.962 E4.43130
G1 X85.545 Y95.408 E4.45682
G1 X84.376 Y94.238 E4.53289
G1 X84.376 Y93.684 E4.55841
G1 X85.545 Y94.853 E4.63449
G1 X85.545 Y94.298 E4.66001
G1 X84.376 Y93.129 E4.73608
G1 X84.604 Y92.803 E4.75441
G1 X85.545 Y93.744 E4.81564
G1 X85.545 Y93.189 E4.84115
G1 X85.158 Y92.803 E4.86630
G92 E0
G1 X95.279 Y93.352 F7800.000
G1 X95.279 Y93.352 F7800.000
G1 X95.314 Y93.387 F7800.000
G1 X95.350 Y93.352 F7800.000
G1 X95.899 Y93.007 F7800.000
G1 X95.695 Y92.803 E0.01325 F540.000
G1 X95.141 Y92.803 E0.03877
G1 X95.899 Y93.561 E0.08810
G1 X95.899 Y94.116 E0.11362
G1 X94.730 Y92.947 E0.18970
G1 X94.730 Y93.501 E0.21522
G1 X95.899 Y94.670 E0.29129
G1 X95.899 Y95.225 E0.31681
G1 X94.730 Y94.056 E0.39289
G1 X94.730 Y94.610 E0.41841
G1 X95.899 Y95.779 E0.49448
G1 X95.899 Y96.334 E0.52000
G1 X94.730 Y95.165 E0.59608
G1 X94.730 Y95.719 E0.62160
G1 X95.899 Y96.889 E0.69767
G1 X95.899 Y97.443 E0.72319
G1 X94.730 Y96.274 E0.79927
G1 X94.730 Y96.829 E0.82479
G1 X95.899 Y97.998 E0.90086
G1 X95.899 Y98.552 E0.92638
G1 X94.730 Y97.383 E1.00246
G1 X94.730 Y97.938 E1.02798
G1 X95.899 Y99.107 E1.10405
G1 X95.899 Y99.661 E1.12957
G1 X94.730 Y98.492 E1.20565
G1 X94.730 Y99.047 E1.23117
G1 X95.899 Y100.216 E1.30724
G1 X95.899 Y100.770 E1.33276
G1 X94.730 Y99.601 E1.40884
G1 X94.474 Y99.900 F7800.000
G1 X95.899 Y101.325 E1.50157 F540.000
G1 X95.899 Y101.880 E1.52709
G1 X93.919 Y99.900 E1.65591
G1 X93.364 Y99.900 E1.68143
G1 X94.198 Y100.733 E1.73564
G1 X93.643 Y100.733 E1.76116
G1 X92.810 Y99.900 E1.81537
G1 X92.255 Y99.900 E1.84089
G1 X93.088 Y100.733 E1.89510
G1 X92.534 Y100.733 E1.92062
G1 X91.701 Y99.900 E1.97483
G1 X91.146 Y99.900 E2.00035
G1 X91.979 Y100.733 E2.05456
G1 X91.425 Y100.733 E2.08008
G1 X90.592 Y99.900 E2.13429
G1 X90.037 Y99.900 E2.15981
G1 X90.870 Y100.733 E2.21402
G1 X90.316 Y100.733 E2.23954
G1 X89.483 Y99.900 E2.29375
G1 X88.928 Y99.900 E2.31927
G1 X89.761 Y100.733 E2.37348
G1 X89.206 Y100.733 E2.39900
G1 X88.373 Y99.900 E2.45321
G1 X87.819 Y99.900 E2.47873
G1 X88.652 Y100.733 E2.53294
G1 X88.097 Y100.733 E2.55846
G1 X87.264 Y99.900 E2.61267
G1 X86.710 Y99.900 E2.63819
G1 X87.543 Y100.733 E2.69241
G1 X86.988 Y100.733 E2.71792
G1 X86.155 Y99.900 E2.77214
G1 X85.601 Y99.900 E2.79765
G1 X86.434 Y100.733 E2.85187
G1 X85.879 Y100.733 E2.87738
G1 X84.376 Y99.230 E2.97522
G1 X84.376 Y99.784 E3.00074
G1 X85.545 Y100.953 E3.07682
G1 X85.545 Y101.508 E3.10233
G1 X84.376 Y100.339 E3.17841
G1 X84.376 Y100.893 E3.20393
G1 X85.545 Y102.062 E3.28001
G1 X85.545 Y102.617 E3.30552
G1 X84.376 Y101.448 E3.38160
G1 X84.376 Y102.002 E3.40712
G1 X85.545 Y103.171 E3.48319
G1 X85.545 Y103.726 E3.50871
G1 X84.376 Y102.557 E3.58479
G1 X84.376 Y103.112 E3.61031
G1 X85.545 Y104.281 E3.68638
G1 X85.545 Y104.835 E3.71190
G1 X84.376 Y103.666 E3.78798
G1 X84.376 Y104.221 E3.81350
G1 X85.545 Y105.390 E3.88957
G1 X85.545 Y105.944 E3.91509
G1 X84.376 Y104.775 E3.99117
G1 X84.376 Y105.330 E4.01669
G1 X85.545 Y106.499 E4.09276
G1 X85.545 Y107.053 E4.11828
G1 X84.376 Y105.884 E4.19436
G1 X84.376 Y106.439 E4.21988
G1 X85.134 Y107.197 E4.26921
G1 X84.579 Y107.197 E4.29473
G1 X84.376 Y106.993 E4.30798
G92 E0
G1 X84.996 Y106.648 F7800.000
G1 X84.996 Y106.648 F7800.000
G1 X95.116 Y107.197 F7800.000
G1 X94.730 Y106.811 E0.02514 F540.000
G1 X94.730 Y106.256 E0.05066
G1 X95.670 Y107.197 E0.11188
G1 X95.899 Y106.871 E0.13021
G1 X94.730 Y105.702 E0.20628
G1 X94.730 Y105.147 E0.23180
G1 X95.899 Y106.316 E0.30788
G1 X95.899 Y105.762 E0.33340
G1 X94.730 Y104.592 E0.40947
G1 X94.730 Y104.038 E0.43499
G1 X95.899 Y105.207 E0.51107
G1 X95.899 Y104.652 E0.53659
G1 X94.730 Y103.483 E0.61266
G1 X94.730 Y102.929 E0.63818
G1 X95.899 Y104.098 E0.71426
G1 X95.899 Y103.543 E0.73978
G1 X94.730 Y102.374 E0.81585
G1 X94.730 Y101.820 E0.84137
G1 X95.899 Y102.989 E0.91745
G1 X95.899 Y102.434 E0.94296
G1 X94.730 Y101.265 E1.01904
M106 S255
G92 E0
G1 Z0.600 F7800.000
G1 X106.152 Y103.801 F7800.000
G1 X105.314 Y99.504 E1.31181 F600.000
G1 X105.314 Y94.011 E2.95776
G1 X105.387 Y93.461 E3.12413
G1 X106.349 Y93.181 E3.42438
G1 X110.418 Y93.182 E4.64347
G1 X111.714 Y93.283 E5.03313
G1 X111.954 Y93.322 E5.10601
G1 X112.851 Y93.575 E5.38515
G1 X113.132 Y93.691 E5.47621
G1 X113.560 Y93.932 E5.62360
G1 X113.997 Y94.254 E5.78597
G1 X114.330 Y94.615 E5.93341
G1 X114.532 Y94.875 E6.03194
G1 X114.896 Y95.689 E6.29912
G1 X115.020 Y96.695 E6.60296
G1 X114.981 Y97.093 E6.72259
G1 X114.931 Y97.351 E6.80143
G1 X114.732 Y97.944 E6.98890
G1 X114.440 Y98.533 E7.18601
G1 X114.033 Y98.969 E7.36456
G1 X113.924 Y99.050 E7.40540
G1 X113.187 Y99.466 E7.65872
G1 X112.652 Y99.699 E7.83360
G1 X112.318 Y99.792 E7.93769
G1 X111.463 Y100.308 E8.23704
G1 X110.664 Y101.178 E8.59083
G1 X105.471 Y100.312 F7800.000
G1 X110.315 Y100.324 E10.04218 F600.000
G1 X110.891 Y100.303 E10.21478
G1 X111.447 Y100.326 E10.38163
G1 X111.821 Y100.739 E10.54857
G1 X111.954 Y100.848 E10.60022
G1 X112.242 Y101.022 E10.70087
G1 X112.797 Y101.282 E10.88451
G1 X113.370 Y101.734 E11.10325
G1 X113.722 Y102.215 E11.28198
G1 X113.970 Y102.718 E11.44985
G1 X114.094 Y103.277 E11.62150
G1 X114.135 Y103.825 E11.78630
G1 X113.987 Y104.547 E12.00708
G1 X113.900 Y104.847 E12.10049
G1 X113.707 Y105.357 E12.26404
G1 X113.368 Y105.704 E12.40935
G1 X112.868 Y106.106 E12.60159
G1 X112.462 Y106.363 E12.74542
G1 X111.791 Y106.549 E12.95423
G1 X110.970 Y106.696 E13.20420
G1 X109.763 Y106.818 E13.56765
G1 X106.349 Y106.818 E14.59055
G1 X105.387 Y106.539 E14.89081
G1 X105.314 Y105.989 E15.05718
G1 X105.314 Y101.120 E16.51615
G1 X105.471 Y100.312 E16.76283
G92 E0
G1 X104.278 Y92.352 F7800.000
G1 X96.350 Y91.352 F7800.000
G1 X94.279 Y91.352 F7800.000
G1 X90.137 Y94.493 F7800.000
G1 X87.996 Y92.352 F7800.000
G1 X85.996 Y92.352 F7800.000
G1 X84.960 Y92.352 F7800.000
G1 X84.960 Y99.449 E2.12659 F600.000
G1 X85.871 Y103.796 E3.45730
G92 E0
G1 X95.279 Y106.648 F7800.000
G1 X95.279 Y106.648 F7800.000
G1 X95.314 Y107.648 F7800.000
G1 X95.314 Y101.184 E1.93691 F600.000
G1 X95.132 Y100.316 E2.20250
G1 X95.314 Y99.449 E2.46808
G1 X95.314 Y92.352 E4.59467
G92 E0
G1 X84.996 Y93.352 F7800.000
G1 X84.960 Y93.387 F7800.000
G1 X84.960 Y106.612 F7800.000
G1 X84.996 Y106.648 F7800.000
G1 X84.960 Y107.648 F7800.000
G1 X84.960 Y101.184 E1.93691 F600.000
G1 X85.142 Y100.316 E2.20250
G1 X96.350 Y100.316 E5.56087
G92 E0
G1 Z0.900 F7800.000
G1 X106.152 Y103.801 F7800.000
G1 X105.314 Y99.504 E1.31181 F600.000
G1 X105.314 Y94.011 E2.95776
G1 X105.387 Y93.461 E3.12413
G1 X106.349 Y93.181 E3.42438
G1 X110.418 Y93.182 E4.64347
G1 X111.714 Y93.283 E5.03313
G1 X111.954 Y93.322 E5.10601
G1 X112.851 Y93.575 E5.38515
G1 X113.132 Y93.691 E5.47621
G1 X113.560 Y93.932 E5.62360
G1 X113.997 Y94.254 E5.78597
G1 X114.330 Y94.615 E5.93341
G1 X114.532 Y94.875 E6.03194
G1 X114.896 Y95.689 E6.29912
G1 X115.020 Y96.695 E6.60296
G1 X114.981 Y97.093 E6.72259
G1 X114.931 Y97.351 E6.80143
G1 X114.732 Y97.944 E6.98890
G1 X114.440 Y98.533 E7.18601
G1 X114.033 Y98.969 E7.36456
G1 X113.924 Y99.050 E7.40540
G1 X113.187 Y99.466 E7.65872
G1 X112.652 Y99.699 E7.83360
G1 X112.318 Y99.792 E7.93769
G1 X111.463 Y100.308 E8.23704
G1 X110.664 Y101.178 E8.59083
G92 E0
G1 X105.471 Y100.312 F7800.000
G1 X110.315 Y100.324 E1.45135 F600.000
G1 X110.891 Y100.303 E1.62395
G1 X111.447 Y100.326 E1.79079
G1 X111.821 Y100.739 E1.95774
G1 X111.954 Y100.848 E2.00938
G1 X112.242 Y101.022 E2.11003
G1 X112.797 Y101.282 E2.29368
