; generated by Slic3r 1.2.9 on 2016-03-11 at 01:25:16

; external perimeters extrusion width = 1.54mm
; perimeters extrusion width = 2.62mm
; infill extrusion width = 6.27mm
; solid infill extrusion width = 2.62mm
; top infill extrusion width = 2.62mm

M107
M104 S30 ; set temperature
G28 ; home all axes
G1 Z5 F5000 ; lift nozzle
M302
M92 E10000
M500
M501
G1 E100
M109 S30 ; wait for temperature to be reached
G21 ; set units to millimeters
G90 ; use absolute coordinates
M82 ; use absolute distances for extrusion
G92 E0
G1 Z0.300 F7800.000
G1 X109.477 Y99.261 F7800.000
G1 X109.477 Y92.577 E0.30246 F378.000
G1 X111.099 Y92.577 E0.37585
G1 X111.099 Y107.423 E1.04762
G1 X109.477 Y107.423 E1.12102 F378.000
G1 X109.477 Y99.492 E1.47988
G1 X110.873 Y93.007 F7800.000
G1 X110.670 Y92.803 E1.49329 F540.000
G1 X110.108 Y92.803 E1.51944
G1 X110.873 Y93.568 E1.56983
G1 X110.873 Y94.129 E1.59598
G1 X109.703 Y92.959 E1.67305
G1 X109.703 Y93.521 E1.69920
G1 X110.873 Y94.691 E1.77628
G1 X110.873 Y95.252 E1.80242
G1 X109.703 Y94.082 E1.87950
G1 X109.703 Y94.643 E1.90565
G1 X110.873 Y95.813 E1.98273
G1 X110.873 Y96.375 E2.00887
G1 X109.703 Y95.205 E2.08595
G1 X109.703 Y95.766 E2.11210
G1 X110.873 Y96.936 E2.18917
G1 X110.873 Y97.498 E2.21532
G1 X109.703 Y96.327 E2.29240
G1 X109.703 Y96.889 E2.31855
G1 X110.873 Y98.059 E2.39562
G1 X110.873 Y98.620 E2.42177
G1 X109.703 Y97.450 E2.49885
G1 X109.703 Y98.012 E2.52500
G1 X110.873 Y99.182 E2.60207
G1 X110.873 Y99.743 E2.62822
G1 X109.703 Y98.573 E2.70530
G1 X109.703 Y99.134 E2.73144
G1 X110.873 Y100.304 E2.80852
G1 X110.873 Y100.866 E2.83467
G1 X109.703 Y99.696 E2.91175
G1 X109.703 Y100.257 E2.93789
G1 X110.873 Y101.427 E3.01497
G1 X110.873 Y101.988 E3.04112
G1 X109.703 Y100.818 E3.11819
G1 X109.703 Y101.380 E3.14434
G1 X110.873 Y102.550 E3.22142
G1 X110.873 Y103.111 E3.24757
G1 X109.703 Y101.941 E3.32464
G1 X109.703 Y102.502 E3.35079
G1 X110.873 Y103.673 E3.42787
G1 X110.873 Y104.234 E3.45402
G1 X109.703 Y103.064 E3.53109
G1 X109.703 Y103.625 E3.55724
G1 X110.873 Y104.795 E3.63432
G1 X110.873 Y105.357 E3.66046
G1 X109.703 Y104.187 E3.73754
G1 X109.703 Y104.748 E3.76369
G1 X110.873 Y105.918 E3.84077
G1 X110.873 Y106.479 E3.86691
G1 X109.703 Y105.309 E3.94399
G1 X109.703 Y105.871 E3.97014
G1 X110.873 Y107.041 E4.04721
G1 X110.468 Y107.197 E4.06744
G1 X109.703 Y106.432 E4.11783
G1 X109.703 Y106.993 E4.14398
G1 X109.907 Y107.197 E4.15739
G92 E0
G1 X109.252 Y107.648 F7800.000
G1 X101.101 Y108.648 F7800.000
G1 X99.030 Y108.648 F7800.000
G1 X94.888 Y105.507 F7800.000
G1 X94.888 Y105.325 F7800.000
G1 X90.747 Y101.184 F7800.000
G1 X90.522 Y94.350 F7800.000
G1 X90.522 Y99.674 E0.24091 F378.000
G1 X99.255 Y99.674 E0.63607 F378.000
G1 X99.255 Y92.577 E0.95721
G1 X100.876 Y92.577 E1.03056
G1 X100.876 Y107.423 E1.70233
G1 X99.255 Y107.423 E1.77568
G1 X99.255 Y100.959 E2.06817
G1 X90.522 Y100.959 E2.46333
G1 X90.522 Y107.423 E2.75582
G1 X88.901 Y107.423 E2.82917
G1 X88.901 Y92.577 E3.50094
G1 X90.522 Y92.577 E3.57429
G1 X90.522 Y94.119 E3.64406
G1 X89.909 Y92.803 F7800.000
G1 X90.296 Y93.189 E3.66920 F540.000
G1 X90.296 Y93.744 E3.69472
G1 X89.355 Y92.803 E3.75595
G1 X89.127 Y93.129 E3.77427
G1 X90.296 Y94.298 E3.85035
G1 X90.296 Y94.853 E3.87587
G1 X89.127 Y93.684 E3.95194
G1 X89.127 Y94.238 E3.97746
G1 X90.296 Y95.408 E4.05354
G1 X90.296 Y95.962 E4.07906
G1 X89.127 Y94.793 E4.15513
G1 X89.127 Y95.348 E4.18065
G1 X90.296 Y96.517 E4.25673
G1 X90.296 Y97.071 E4.28224
G1 X89.127 Y95.902 E4.35832
G1 X89.127 Y96.457 E4.38384
G1 X90.296 Y97.626 E4.45992
G1 X90.296 Y98.180 E4.48543
G1 X89.127 Y97.011 E4.56151
G1 X89.127 Y97.566 E4.58703
G1 X90.296 Y98.735 E4.66311
G1 X90.296 Y99.290 E4.68862
G1 X89.127 Y98.120 E4.76470
G1 X89.127 Y98.675 E4.79022
G1 X90.296 Y99.844 E4.86630
G1 X89.127 Y106.993 F7800.000
G1 X89.330 Y107.197 E4.87954 F540.000
G1 X89.885 Y107.197 E4.90506
G1 X89.127 Y106.439 E4.95440
G1 X89.127 Y105.884 E4.97991
G1 X90.296 Y107.053 E5.05599
G1 X90.296 Y106.499 E5.08151
G1 X89.127 Y105.330 E5.15759
G1 X89.127 Y104.775 E5.18310
G1 X90.296 Y105.944 E5.25918
G1 X90.296 Y105.390 E5.28470
G1 X89.127 Y104.221 E5.36077
G1 X89.127 Y103.666 E5.38629
G1 X90.296 Y104.835 E5.46237
G1 X90.296 Y104.281 E5.48789
G1 X89.127 Y103.112 E5.56396
G1 X89.127 Y102.557 E5.58948
G1 X90.296 Y103.726 E5.66556
G1 X90.296 Y103.171 E5.69108
G1 X89.127 Y102.002 E5.76715
G1 X89.127 Y101.448 E5.79267
G1 X90.296 Y102.617 E5.86875
G1 X90.296 Y102.062 E5.89427
G1 X89.127 Y100.893 E5.97034
G1 X89.127 Y100.339 E5.99586
G1 X90.296 Y101.508 E6.07194
G1 X90.296 Y100.953 E6.09746
G1 X89.127 Y99.784 E6.17353
G1 X89.127 Y99.230 E6.19905
G1 X90.630 Y100.733 E6.29689
G1 X91.185 Y100.733 E6.32241
G1 X90.352 Y99.900 E6.37662
G1 X90.906 Y99.900 E6.40214
G1 X91.739 Y100.733 E6.45635
G1 X92.294 Y100.733 E6.48187
G1 X91.461 Y99.900 E6.53608
G1 X92.015 Y99.900 E6.56160
G1 X92.848 Y100.733 E6.61581
G1 X93.403 Y100.733 E6.64133
G1 X92.570 Y99.900 E6.69554
G1 X93.124 Y99.900 E6.72106
G1 X93.957 Y100.733 E6.77527
G1 X94.512 Y100.733 E6.80079
G1 X93.679 Y99.900 E6.85500
G1 X94.234 Y99.900 E6.88052
G1 X95.067 Y100.733 E6.93473
G1 X95.621 Y100.733 E6.96025
G1 X94.788 Y99.900 E7.01446
G1 X95.343 Y99.900 E7.03998
G1 X96.176 Y100.733 E7.09419
G1 X96.730 Y100.733 E7.11971
G1 X95.897 Y99.900 E7.17392
G1 X96.452 Y99.900 E7.19944
G1 X97.285 Y100.733 E7.25365
G1 X97.839 Y100.733 E7.27917
G1 X97.006 Y99.900 E7.33338
G1 X97.561 Y99.900 E7.35890
G1 X98.394 Y100.733 E7.41311
G1 X98.949 Y100.733 E7.43863
G1 X98.115 Y99.900 E7.49284
G1 X98.670 Y99.900 E7.51836
G1 X100.650 Y101.880 E7.64718
G1 X100.650 Y101.325 E7.67270
G1 X99.225 Y99.900 E7.76544
G1 X99.481 Y99.601 F7800.000
G1 X100.650 Y100.770 E7.84151 F540.000
G1 X100.650 Y100.216 E7.86703
G1 X99.481 Y99.047 E7.94311
G1 X99.481 Y98.492 E7.96862
G1 X100.650 Y99.661 E8.04470
G1 X100.650 Y99.107 E8.07022
G1 X99.481 Y97.938 E8.14630
G1 X99.481 Y97.383 E8.17181
G1 X100.650 Y98.552 E8.24789
G1 X100.650 Y97.998 E8.27341
G1 X99.481 Y96.829 E8.34949
G1 X99.481 Y96.274 E8.37500
G1 X100.650 Y97.443 E8.45108
G1 X100.650 Y96.889 E8.47660
G1 X99.481 Y95.719 E8.55268
G1 X99.481 Y95.165 E8.57819
G1 X100.650 Y96.334 E8.65427
G1 X100.650 Y95.779 E8.67979
G1 X99.481 Y94.610 E8.75587
G1 X99.481 Y94.056 E8.78138
G1 X100.650 Y95.225 E8.85746
G1 X100.650 Y94.670 E8.88298
G1 X99.481 Y93.501 E8.95905
G1 X99.481 Y92.947 E8.98457
G1 X100.650 Y94.116 E9.06065
G1 X100.650 Y93.561 E9.08617
G1 X99.892 Y92.803 E9.13550
G1 X100.446 Y92.803 E9.16102
G1 X100.650 Y93.007 E9.17427
G1 X99.481 Y101.265 F7800.000
G1 X100.650 Y102.434 E9.25035 F540.000
G1 X100.650 Y102.989 E9.27587
G1 X99.481 Y101.820 E9.35194
G1 X99.481 Y102.374 E9.37746
G1 X100.650 Y103.543 E9.45354
G1 X100.650 Y104.098 E9.47906
G1 X99.481 Y102.929 E9.55513
G1 X99.481 Y103.483 E9.58065
G1 X100.650 Y104.652 E9.65673
G1 X100.650 Y105.207 E9.68225
G1 X99.481 Y104.038 E9.75832
G1 X99.481 Y104.592 E9.78384
G1 X100.650 Y105.762 E9.85992
G1 X100.650 Y106.316 E9.88544
G1 X99.481 Y105.147 E9.96151
G1 X99.481 Y105.702 E9.98703
G1 X100.650 Y106.871 E10.06311
G1 X100.421 Y107.197 E10.08143
G1 X99.481 Y106.256 E10.14266
G1 X99.481 Y106.811 E10.16818
G1 X99.867 Y107.197 E10.19331
M106 S255
G92 E0
G1 Z0.600 F7800.000
G1 X110.288 Y107.648 F7800.000
G1 X110.288 Y92.352 E4.58339 F600.000
G92 E0
G1 X101.101 Y91.352 F7800.000
G1 X99.030 Y91.352 F7800.000
G1 X94.888 Y94.493 F7800.000
G1 X92.747 Y92.352 F7800.000
G1 X90.747 Y92.352 F7800.000
G1 X89.711 Y92.352 F7800.000
G1 X89.711 Y99.449 E2.12659 F600.000
G1 X90.622 Y103.796 E3.45730
G92 E0
G1 X100.030 Y106.648 F7800.000
G1 X100.030 Y106.648 F7800.000
G1 X100.065 Y107.648 F7800.000
G1 X100.065 Y101.184 E1.93691 F600.000
G1 X99.883 Y100.316 E2.20250
G1 X100.065 Y99.449 E2.46808
G1 X100.065 Y92.352 E4.59467
G92 E0
G1 X89.747 Y93.352 F7800.000
G1 X89.711 Y93.387 F7800.000
G1 X89.711 Y106.612 F7800.000
G1 X89.747 Y106.648 F7800.000
G1 X89.711 Y107.648 F7800.000
G1 X89.711 Y101.184 E1.93691 F600.000
G1 X89.893 Y100.316 E2.20250
G1 X101.101 Y100.316 E5.56087
G92 E0
G1 Z0.900 F7800.000
G1 X110.288 Y107.648 F7800.000
G1 X110.288 Y92.352 E4.58339 F600.000
G92 E0
G1 X101.101 Y91.352 F7800.000
G1 X99.030 Y91.352 F7800.000
G1 X94.888 Y94.493 F7800.000
G1 X92.747 Y92.352 F7800.000
G1 X90.747 Y92.352 F7800.000
G1 X89.711 Y92.352 F7800.000
G1 X89.711 Y99.449 E2.12659 F600.000
G1 X90.622 Y103.796 E3.45730
G92 E0
G1 X100.030 Y106.648 F7800.000
G1 X100.030 Y106.648 F7800.000
G1 X100.065 Y107.648 F7800.000
G1 X100.065 Y101.184 E1.93691 F600.000
G1 X99.883 Y100.316 E2.20250
G1 X100.065 Y99.449 E2.46808
G1 X100.065 Y92.352 E4.59467
G92 E0
G1 X89.747 Y93.352 F7800.000
G1 X89.711 Y93.387 F7800.000
G1 X89.711 Y106.612 F7800.000
G1 X89.747 Y106.648 F7800.000
G1 X89.711 Y107.648 F7800.000
G1 X89.711 Y101.184 E1.93691 F600.000
G1 X89.893 Y100.316 E2.20250
G1 X101.101 Y100.316 E5.56087
G92 E0
G1 Z1.200 F7800.000
G1 X110.288 Y107.648 F7800.000
G1 X110.288 Y92.352 E4.58339 F600.000
G92 E0
G1 X101.101 Y91.352 F7800.000
G1 X99.030 Y91.352 F7800.000
G1 X94.888 Y94.493 F7800.000
G1 X92.747 Y92.352 F7800.000
G1 X90.747 Y92.352 F7800.000
G1 X89.711 Y92.352 F7800.000
G1 X89.711 Y99.449 E2.12659 F600.000
G1 X90.622 Y103.796 E3.45730
G92 E0
G1 X100.030 Y106.648 F7800.000
G1 X100.030 Y106.648 F7800.000
G1 X100.065 Y107.648 F7800.000
G1 X100.065 Y101.184 E1.93691 F600.000
G1 X99.883 Y100.316 E2.20250
G1 X100.065 Y99.449 E2.46808
G1 X100.065 Y92.352 E4.59467
G92 E0
G1 X89.747 Y93.352 F7800.000
G1 X89.711 Y93.387 F7800.000
G1 X89.711 Y106.612 F7800.000
G1 X89.747 Y106.648 F7800.000
G1 X89.711 Y107.648 F7800.000
G1 X89.711 Y101.184 E1.93691 F600.000
G1 X89.893 Y100.316 E2.20250
G1 X101.101 Y100.316 E5.56087
G92 E0
G1 Z1.500 F7800.000
G1 X110.288 Y107.648 F7800.000
G1 X110.288 Y92.352 E4.58339 F600.000
G92 E0
G1 X101.101 Y91.352 F7800.000
G1 X99.030 Y91.352 F7800.000
G1 X94.888 Y94.493 F7800.000
G1 X92.747 Y92.352 F7800.000
G1 X90.747 Y92.352 F7800.000
G1 X89.711 Y92.352 F7800.000
G1 X89.711 Y99.449 E2.12659 F600.000
G1 X90.622 Y103.796 E3.45730
G92 E0
G1 X100.030 Y106.648 F7800.000
G1 X100.030 Y106.648 F7800.000
G1 X100.065 Y107.648 F7800.000
G1 X100.065 Y101.184 E1.93691 F600.000
G1 X99.883 Y100.316 E2.20250
G1 X100.065 Y99.449 E2.46808
G1 X100.065 Y92.352 E4.59467
G92 E0
G1 X89.747 Y93.352 F7800.000
G1 X89.711 Y93.387 F7800.000
G1 X89.711 Y106.612 F7800.000
G1 X89.747 Y106.648 F7800.000
G1 X89.711 Y107.648 F7800.000
G1 X89.711 Y101.184 E1.93691 F600.000
G1 X89.893 Y100.316 E2.20250
G1 X101.101 Y100.316 E5.56087
G92 E0
G1 Z1.800 F7800.000
G1 X110.288 Y107.648 F7800.000
G1 X110.288 Y92.352 E4.58339 F600.000
G92 E0
G1 X101.101 Y91.352 F7800.000
G1 X99.030 Y91.352 F7800.000
G1 X94.888 Y94.493 F7800.000
G1 X92.747 Y92.352 F7800.000
G1 X90.747 Y92.352 F7800.000
G1 X89.711 Y92.352 F7800.000
G1 X89.711 Y99.449 E2.12659 F600.000
G1 X90.622 Y103.796 E3.45730
G92 E0
G1 X100.030 Y106.648 F7800.000
G1 X100.030 Y106.648 F7800.000
G1 X100.065 Y107.648 F7800.000
G1 X100.065 Y101.184 E1.93691 F600.000
G1 X99.883 Y100.316 E2.20250
G1 X100.065 Y99.449 E2.46808
G1 X100.065 Y92.352 E4.59467
G92 E0
G1 X89.747 Y93.352 F7800.000
G1 X89.711 Y93.387 F7800.000
G1 X89.711 Y106.612 F7800.000
G1 X89.747 Y106.648 F7800.000
G1 X89.711 Y107.648 F7800.000
G1 X89.711 Y101.184 E1.93691 F600.000
G1 X89.893 Y100.316 E2.20250
G1 X101.101 Y100.316 E5.56087
G92 E0
G1 Z2.100 F7800.000
G1 X110.288 Y107.648 F7800.000
G1 X110.288 Y92.352 E4.58339 F600.000
G92 E0
G1 X101.101 Y91.352 F7800.000
G1 X99.030 Y91.352 F7800.000
G1 X94.888 Y94.493 F7800.000
G1 X92.747 Y92.352 F7800.000
G1 X90.747 Y92.352 F7800.000
G1 X89.711 Y92.352 F7800.000
G1 X89.711 Y99.449 E2.12659 F600.000
G1 X90.622 Y103.796 E3.45730
G92 E0
G1 X100.030 Y106.648 F7800.000
G1 X100.030 Y106.648 F7800.000
G1 X100.065 Y107.648 F7800.000
G1 X100.065 Y101.184 E1.93691 F600.000
G1 X99.883 Y100.316 E2.20250
G1 X100.065 Y99.449 E2.46808
G1 X100.065 Y92.352 E4.59467
G92 E0
G1 X89.747 Y93.352 F7800.000
G1 X89.711 Y93.387 F7800.000
G1 X89.711 Y106.612 F7800.000
G1 X89.747 Y106.648 F7800.000
G1 X89.711 Y107.648 F7800.000
G1 X89.711 Y101.184 E1.93691 F600.000
G1 X89.893 Y100.316 E2.20250
G1 X101.101 Y100.316 E5.56087
G92 E0
M107
M104 S0 ; turn off temperature
G28 X0  ; home X axis
M84     ; disable motors

; filament used = 123.5mm (0.9cm3)

; avoid_crossing_perimeters = 1
; bed_shape = 0x0,250x0,250x250,0x250
; bed_temperature = 0
; before_layer_gcode = 
; bridge_acceleration = 0
; bridge_fan_speed = 100
; brim_width = 0
; complete_objects = 0
; cooling = 1
; default_acceleration = 0
; disable_fan_first_layers = 1
; duplicate_distance = 6
; end_gcode = M104 S0 ; turn off temperature\nG28 X0  ; home X axis\nM84     ; disable motors\n
; extruder_clearance_height = 20
; extruder_clearance_radius = 20
; extruder_offset = 0x0
; extrusion_axis = E
; extrusion_multiplier = 3
; fan_always_on = 0
; fan_below_layer_time = 60
; filament_colour = #FFFFFF
; filament_diameter = 3.125
; first_layer_acceleration = 0
; first_layer_bed_temperature = 0
; first_layer_extrusion_width = 150%
; first_layer_speed = 90%
; first_layer_temperature = 30
; gcode_arcs = 0
; gcode_comments = 0
; gcode_flavor = reprap
; infill_acceleration = 0
; infill_first = 0
; layer_gcode = 
; max_fan_speed = 100
; max_print_speed = 80
; max_volumetric_speed = 0
; min_fan_speed = 35
; min_print_speed = 10
; min_skirt_length = 0
; notes = 
; nozzle_diameter = 1.54
; only_retract_when_crossing_perimeters = 1
; ooze_prevention = 0
; output_filename_format = [input_filename_base].gcode
; perimeter_acceleration = 0
; post_process = 
; pressure_advance = 0
; resolution = 0
; retract_before_travel = 2
; retract_layer_change = 1
; retract_length = 0
; retract_length_toolchange = 10
; retract_lift = 0
; retract_restart_extra = 0
; retract_restart_extra_toolchange = 0
; retract_speed = 0
; skirt_distance = 6
; skirt_height = 1
; skirts = 0
; slowdown_below_layer_time = 30
; spiral_vase = 0
; standby_temperature_delta = -5
; start_gcode = G28 ; home all axes\nG1 Z5 F5000 ; lift nozzle\nM302\nM92 E10000\nM500\nM501\nG1 E100
; temperature = 30
; threads = 2
; toolchange_gcode = 
; travel_speed = 130
; use_firmware_retraction = 0
; use_relative_e_distances = 0
; use_volumetric_e = 0
; vibration_limit = 0
; wipe = 0
; z_offset = 0
; dont_support_bridges = 1
; extrusion_width = 0
; first_layer_height = 100%
; infill_only_where_needed = 0
; interface_shells = 0
; layer_height = 0.3
; raft_layers = 0
; seam_position = random
; support_material = 0
; support_material_angle = 0
; support_material_contact_distance = 0.2
; support_material_enforce_layers = 0
; support_material_extruder = 1
; support_material_extrusion_width = 0
; support_material_interface_extruder = 1
; support_material_interface_layers = 3
; support_material_interface_spacing = 0
; support_material_interface_speed = 100%
; support_material_pattern = pillars
; support_material_spacing = 2.5
; support_material_speed = 7
; support_material_threshold = 0
; xy_size_compensation = 0
; bottom_solid_layers = 3
; bridge_flow_ratio = 1
; bridge_speed = 10
; external_fill_pattern = rectilinear
; external_perimeter_extrusion_width = 0
; external_perimeter_speed = 70%
; external_perimeters_first = 1
; extra_perimeters = 1
; fill_angle = 45
; fill_density = 60%
; fill_pattern = rectilinear
; gap_fill_speed = 10
; infill_every_layers = 1
; infill_extruder = 1
; infill_extrusion_width = 0
; infill_overlap = 15%
; infill_speed = 10
; overhangs = 1
; perimeter_extruder = 1
; perimeter_extrusion_width = 0
; perimeter_speed = 10
; perimeters = 1
; small_perimeter_speed = 70%
; solid_infill_below_area = 70
; solid_infill_every_layers = 0
; solid_infill_extruder = 1
; solid_infill_extrusion_width = 0
; solid_infill_speed = 10
; thin_walls = 1
; top_infill_extrusion_width = 0
; top_solid_infill_speed = 10
; top_solid_layers = 3
