; generated by Slic3r 1.2.9 on 2016-03-11 at 01:25:17

; external perimeters extrusion width = 1.54mm
; perimeters extrusion width = 2.62mm
; infill extrusion width = 6.27mm
; solid infill extrusion width = 2.62mm
; top infill extrusion width = 2.62mm

M107
M104 S30 ; set temperature
G28 ; home all axes
G1 Z5 F5000 ; lift nozzle
M302
M92 E10000
M500
M501
G1 E100
M109 S30 ; wait for temperature to be reached
G21 ; set units to millimeters
G90 ; use absolute coordinates
M82 ; use absolute distances for extrusion
G92 E0
G1 Z0.300 F7800.000
G1 X113.784 Y98.159 F7800.000
G1 X113.784 Y107.519 E0.42351 F378.000
G1 X109.221 Y107.519 E0.62999
G1 X109.221 Y106.277 E0.68619
G1 X112.173 Y106.277 E0.81976
G1 X112.173 Y96.973 E1.24076
G1 X112.098 Y96.025 E1.28380
G1 X111.866 Y95.217 E1.32182
G1 X111.469 Y94.566 E1.35635
G1 X110.927 Y94.089 E1.38899
G1 X110.269 Y93.804 E1.42145
G1 X109.508 Y93.710 E1.45616
G1 X108.798 Y93.796 E1.48849
G1 X108.167 Y94.055 E1.51938
G1 X107.622 Y94.484 E1.55076
G1 X107.187 Y95.060 E1.58341
G1 X106.873 Y95.757 E1.61802
G1 X106.732 Y96.352 E1.64567
G1 X105.181 Y96.095 E1.71680
G1 X105.903 Y94.173 E1.80967
G1 X107.355 Y92.911 E1.89674
G1 X109.506 Y92.483 E1.99599
G1 X110.675 Y92.611 E2.04917
G1 X110.743 Y92.618 E2.05228 F378.000
G1 X111.786 Y93.020 E2.10287
G1 X112.637 Y93.686 E2.15176
G1 X113.271 Y94.587 E2.20161
G1 X113.654 Y95.697 E2.25475
G1 X113.784 Y97.036 E2.31562
G1 X113.784 Y97.928 E2.35600
G1 X112.166 Y95.351 F7800.000
G1 X113.516 Y96.701 E2.44410 F540.000
G1 X113.558 Y97.299 E2.47176
G1 X112.336 Y96.077 E2.55154
G1 X112.384 Y96.680 E2.57949
G1 X113.558 Y97.855 E2.65614
G1 X113.558 Y98.411 E2.68180
G1 X112.399 Y97.252 E2.75742
G1 X112.399 Y97.808 E2.78308
G1 X113.558 Y98.967 E2.85871
G1 X113.558 Y99.523 E2.88436
G1 X112.399 Y98.364 E2.95999
G1 X112.399 Y98.920 E2.98565
G1 X113.558 Y100.079 E3.06128
G1 X113.558 Y100.636 E3.08693
G1 X112.399 Y99.476 E3.16256
G1 X112.399 Y100.033 E3.18821
G1 X113.558 Y101.192 E3.26384
G1 X113.558 Y101.748 E3.28950
G1 X112.399 Y100.589 E3.36513
G1 X112.399 Y101.145 E3.39078
G1 X113.558 Y102.304 E3.46641
G1 X113.558 Y102.860 E3.49206
G1 X112.399 Y101.701 E3.56769
G1 X112.399 Y102.257 E3.59335
G1 X113.558 Y103.416 E3.66898
G1 X113.558 Y103.972 E3.69463
G1 X112.399 Y102.813 E3.77026
G1 X112.399 Y103.369 E3.79591
G1 X113.558 Y104.528 E3.87154
G1 X113.558 Y105.084 E3.89720
G1 X112.399 Y103.925 E3.97283
G1 X112.399 Y104.481 E3.99848
G1 X113.558 Y105.640 E4.07411
G1 X113.558 Y106.196 E4.09976
G1 X112.399 Y105.037 E4.17539
G1 X112.399 Y105.593 E4.20105
G1 X113.558 Y106.752 E4.27668
G1 X113.531 Y107.281 E4.30109
G1 X112.399 Y106.149 E4.37492
G1 X112.197 Y106.503 F7800.000
G1 X112.987 Y107.293 E4.42647 F540.000
G1 X112.431 Y107.293 E4.45213
G1 X111.641 Y106.503 E4.50368
G1 X111.085 Y106.503 E4.52934
G1 X111.875 Y107.293 E4.58089
G1 X111.319 Y107.293 E4.60654
G1 X110.529 Y106.503 E4.65810
G1 X109.973 Y106.503 E4.68375
G1 X110.763 Y107.293 E4.73530
G1 X110.207 Y107.293 E4.76096
G1 X109.447 Y106.533 E4.81052
G1 X109.447 Y107.089 E4.83618
G1 X109.651 Y107.293 E4.84946
G92 E0
G1 X112.948 Y96.942 F7800.000
G1 X112.879 Y95.884 F7800.000
G1 X112.876 Y95.867 F7800.000
G1 X112.691 Y95.283 F7800.000
G1 X106.155 Y96.012 F7800.000
G1 X105.627 Y95.484 E0.03447 F540.000
G1 X105.778 Y95.080 E0.05439
G1 X106.619 Y95.921 E0.10927
G1 X106.765 Y95.511 E0.12935
G1 X105.930 Y94.676 E0.18385
G1 X106.097 Y94.286 E0.20339
G1 X106.938 Y95.127 E0.25826
G1 X107.152 Y94.785 E0.27687
G1 X106.380 Y94.013 E0.32724
G1 X106.678 Y93.755 E0.34543
G1 X107.392 Y94.469 E0.39202
G1 X107.675 Y94.197 E0.41017
G1 X106.975 Y93.496 E0.45586
G1 X107.273 Y93.238 E0.47405
G1 X107.986 Y93.951 E0.52060
G1 X108.352 Y93.761 E0.53963
G1 X107.658 Y93.067 E0.58494
G1 X108.122 Y92.975 E0.60676
G1 X108.747 Y93.600 E0.64755
G1 X109.229 Y93.526 E0.67005
G1 X108.585 Y92.882 E0.71202
G1 X109.049 Y92.790 E0.73384
G1 X109.762 Y93.503 E0.78038
G1 X110.396 Y93.581 E0.80984
G1 X109.539 Y92.724 E0.86578
G1 X110.163 Y92.791 E0.89474
G1 X113.456 Y96.085 E1.10963
G1 X113.254 Y95.327 E1.14585
G1 X110.876 Y92.949 E1.30102
G1 X112.199 Y93.715 F7800.000
G1 X112.561 Y94.078 E1.32467 F540.000
G92 E0
G1 X107.253 Y92.702 F7800.000
G1 X100.608 Y92.448 F7800.000
G1 X94.153 Y92.448 F7800.000
G1 X92.203 Y95.403 F7800.000
G1 X96.345 Y99.545 F7800.000
G1 X86.216 Y100.842 F7800.000
G1 X86.216 Y92.673 E0.36966 F378.000
G1 X87.837 Y92.673 E0.44301
G1 X87.837 Y99.770 E0.76414
G1 X96.570 Y99.770 E1.15930 F378.000
G1 X96.570 Y92.673 E1.48044
G1 X98.191 Y92.673 E1.55379
G1 X98.191 Y107.519 E2.22556
G1 X96.570 Y107.519 E2.29891
G1 X96.570 Y101.055 E2.59140
G1 X87.837 Y101.055 E2.98656
G1 X87.837 Y107.519 E3.27905
G1 X86.216 Y107.519 E3.35240
G1 X86.216 Y101.073 E3.64406
G1 X87.611 Y99.940 F7800.000
G1 X86.442 Y98.771 E3.72014 F540.000
G1 X86.442 Y98.216 E3.74565
G1 X87.611 Y99.386 E3.82173
G1 X87.611 Y98.831 E3.84725
G1 X86.442 Y97.662 E3.92333
G1 X86.442 Y97.107 E3.94884
G1 X87.611 Y98.276 E4.02492
G1 X87.611 Y97.722 E4.05044
G1 X86.442 Y96.553 E4.12652
G1 X86.442 Y95.998 E4.15203
G1 X87.611 Y97.167 E4.22811
G1 X87.611 Y96.613 E4.25363
G1 X86.442 Y95.444 E4.32970
G1 X86.442 Y94.889 E4.35522
G1 X87.611 Y96.058 E4.43130
G1 X87.611 Y95.504 E4.45682
G1 X86.442 Y94.334 E4.53289
G1 X86.442 Y93.780 E4.55841
G1 X87.611 Y94.949 E4.63449
G1 X87.611 Y94.394 E4.66001
G1 X86.442 Y93.225 E4.73608
G1 X86.670 Y92.899 E4.75441
G1 X87.611 Y93.840 E4.81564
G1 X87.611 Y93.285 E4.84116
G1 X87.224 Y92.899 E4.86630
G92 E0
G1 X97.345 Y93.448 F7800.000
G1 X97.345 Y93.448 F7800.000
G1 X97.380 Y93.483 F7800.000
G1 X97.416 Y93.448 F7800.000
G1 X97.965 Y93.103 F7800.000
G1 X97.761 Y92.899 E0.01325 F540.000
G1 X97.207 Y92.899 E0.03877
G1 X97.965 Y93.657 E0.08810
G1 X97.965 Y94.212 E0.11362
G1 X96.796 Y93.043 E0.18970
G1 X96.796 Y93.597 E0.21522
G1 X97.965 Y94.766 E0.29129
G1 X97.965 Y95.321 E0.31681
G1 X96.796 Y94.152 E0.39289
G1 X96.796 Y94.706 E0.41841
G1 X97.965 Y95.875 E0.49448
G1 X97.965 Y96.430 E0.52000
G1 X96.796 Y95.261 E0.59608
G1 X96.796 Y95.815 E0.62160
G1 X97.965 Y96.985 E0.69767
G1 X97.965 Y97.539 E0.72319
G1 X96.796 Y96.370 E0.79927
G1 X96.796 Y96.925 E0.82479
G1 X97.965 Y98.094 E0.90086
G1 X97.965 Y98.648 E0.92638
G1 X96.796 Y97.479 E1.00246
G1 X96.796 Y98.034 E1.02797
G1 X97.965 Y99.203 E1.10405
G1 X97.965 Y99.757 E1.12957
G1 X96.796 Y98.588 E1.20565
G1 X96.796 Y99.143 E1.23116
G1 X97.965 Y100.312 E1.30724
G1 X97.965 Y100.866 E1.33276
G1 X96.796 Y99.697 E1.40884
G1 X96.540 Y99.996 F7800.000
G1 X97.965 Y101.421 E1.50157 F540.000
G1 X97.965 Y101.976 E1.52709
G1 X95.985 Y99.996 E1.65591
G1 X95.430 Y99.996 E1.68143
G1 X96.264 Y100.829 E1.73564
G1 X95.709 Y100.829 E1.76116
G1 X94.876 Y99.996 E1.81537
G1 X94.321 Y99.996 E1.84089
G1 X95.154 Y100.829 E1.89510
G1 X94.600 Y100.829 E1.92062
G1 X93.767 Y99.996 E1.97483
G1 X93.212 Y99.996 E2.00035
G1 X94.045 Y100.829 E2.05456
G1 X93.491 Y100.829 E2.08008
G1 X92.658 Y99.996 E2.13429
G1 X92.103 Y99.996 E2.15981
G1 X92.936 Y100.829 E2.21402
G1 X92.382 Y100.829 E2.23954
G1 X91.549 Y99.996 E2.29375
G1 X90.994 Y99.996 E2.31927
G1 X91.827 Y100.829 E2.37348
G1 X91.272 Y100.829 E2.39900
G1 X90.439 Y99.996 E2.45321
G1 X89.885 Y99.996 E2.47873
G1 X90.718 Y100.829 E2.53294
G1 X90.163 Y100.829 E2.55846
G1 X89.330 Y99.996 E2.61267
G1 X88.776 Y99.996 E2.63819
G1 X89.609 Y100.829 E2.69240
G1 X89.054 Y100.829 E2.71792
G1 X88.221 Y99.996 E2.77213
G1 X87.667 Y99.996 E2.79765
G1 X88.500 Y100.829 E2.85186
G1 X87.945 Y100.829 E2.87738
G1 X86.442 Y99.326 E2.97522
G1 X86.442 Y99.880 E3.00074
G1 X87.611 Y101.049 E3.07681
G1 X87.611 Y101.604 E3.10233
G1 X86.442 Y100.435 E3.17841
G1 X86.442 Y100.989 E3.20393
G1 X87.611 Y102.158 E3.28000
G1 X87.611 Y102.713 E3.30552
G1 X86.442 Y101.544 E3.38160
G1 X86.442 Y102.098 E3.40712
G1 X87.611 Y103.267 E3.48319
G1 X87.611 Y103.822 E3.50871
G1 X86.442 Y102.653 E3.58479
G1 X86.442 Y103.208 E3.61031
G1 X87.611 Y104.377 E3.68638
G1 X87.611 Y104.931 E3.71190
G1 X86.442 Y103.762 E3.78798
G1 X86.442 Y104.317 E3.81350
G1 X87.611 Y105.486 E3.88957
G1 X87.611 Y106.040 E3.91509
G1 X86.442 Y104.871 E3.99117
G1 X86.442 Y105.426 E4.01668
G1 X87.611 Y106.595 E4.09276
G1 X87.611 Y107.149 E4.11828
G1 X86.442 Y105.980 E4.19436
G1 X86.442 Y106.535 E4.21987
G1 X87.200 Y107.293 E4.26921
G1 X86.645 Y107.293 E4.29473
G1 X86.442 Y107.089 E4.30797
G92 E0
G1 X87.062 Y106.744 F7800.000
G1 X87.062 Y106.744 F7800.000
G1 X97.182 Y107.293 F7800.000
G1 X96.796 Y106.907 E0.02514 F540.000
G1 X96.796 Y106.352 E0.05066
G1 X97.736 Y107.293 E0.11188
G1 X97.965 Y106.967 E0.13021
G1 X96.796 Y105.798 E0.20628
G1 X96.796 Y105.243 E0.23180
G1 X97.965 Y106.412 E0.30788
G1 X97.965 Y105.858 E0.33340
G1 X96.796 Y104.688 E0.40947
G1 X96.796 Y104.134 E0.43499
G1 X97.965 Y105.303 E0.51107
G1 X97.965 Y104.748 E0.53659
G1 X96.796 Y103.579 E0.61266
G1 X96.796 Y103.025 E0.63818
G1 X97.965 Y104.194 E0.71426
G1 X97.965 Y103.639 E0.73978
G1 X96.796 Y102.470 E0.81585
G1 X96.796 Y101.916 E0.84137
G1 X97.965 Y103.085 E0.91745
G1 X97.965 Y102.530 E0.94297
G1 X96.796 Y101.361 E1.01904
M106 S255
G92 E0
G1 Z0.600 F7800.000
G1 X105.805 Y96.426 F7800.000
G1 X106.554 Y94.626 E0.58426 F600.000
G1 X107.222 Y93.931 E0.87319
G1 X107.672 Y93.558 E1.04833
G1 X107.952 Y93.448 E1.13847
G1 X108.760 Y93.220 E1.38993
G1 X109.534 Y93.101 E1.62451
G1 X110.312 Y93.189 E1.85917
G1 X110.591 Y93.245 E1.94452
G1 X111.154 Y93.476 E2.12695
G1 X111.443 Y93.625 E2.22431
G1 X111.910 Y94.013 E2.40606
G1 X112.100 Y94.195 E2.48521
G1 X112.495 Y94.798 E2.70120
G1 X112.580 Y94.940 E2.75058
G1 X112.850 Y95.785 E3.01630
G1 X112.888 Y95.985 E3.07744
G1 X112.979 Y97.075 E3.40517
G1 X112.979 Y106.052 E6.09507
G1 X112.897 Y106.632 E6.27055
G1 X111.948 Y106.898 E6.56585
G1 X108.996 Y106.898 E7.45041
G92 E0
G1 X101.983 Y93.823 F7800.000
G1 X98.416 Y91.352 F7800.000
G1 X92.203 Y94.397 F7800.000
G1 X92.203 Y95.403 F7800.000
G1 X88.062 Y99.545 F7800.000
G1 X87.026 Y92.448 F7800.000
G1 X87.026 Y99.545 E2.12659 F600.000
G1 X87.937 Y103.892 E3.45730
G92 E0
G1 X97.345 Y106.744 F7800.000
G1 X97.345 Y106.744 F7800.000
G1 X97.380 Y107.744 F7800.000
G1 X97.380 Y101.280 E1.93691 F600.000
G1 X97.198 Y100.412 E2.20250
G1 X97.380 Y99.545 E2.46808
G1 X97.380 Y92.448 E4.59467
G92 E0
G1 X87.062 Y93.448 F7800.000
G1 X87.026 Y93.483 F7800.000
G1 X87.026 Y106.708 F7800.000
G1 X87.062 Y106.744 F7800.000
G1 X87.026 Y107.744 F7800.000
G1 X87.026 Y101.280 E1.93691 F600.000
G1 X87.208 Y100.412 E2.20250
G1 X98.416 Y100.412 E5.56087
G92 E0
G1 Z0.900 F7800.000
G1 X105.805 Y96.426 F7800.000
G1 X106.554 Y94.626 E0.58426 F600.000
G1 X107.222 Y93.931 E0.87319
G1 X107.672 Y93.558 E1.04833
G1 X107.952 Y93.448 E1.13847
G1 X108.760 Y93.220 E1.38993
G1 X109.534 Y93.101 E1.62451
G1 X110.312 Y93.189 E1.85917
G1 X110.591 Y93.245 E1.94452
G1 X111.154 Y93.476 E2.12695
G1 X111.443 Y93.625 E2.22432
G1 X111.910 Y94.013 E2.40606
G1 X112.100 Y94.195 E2.48521
G1 X112.495 Y94.798 E2.70120
G1 X112.580 Y94.940 E2.75058
G1 X112.850 Y95.785 E3.01630
G1 X112.888 Y95.985 E3.07744
G1 X112.979 Y97.075 E3.40517
G1 X112.979 Y106.052 E6.09507
G1 X112.897 Y106.632 E6.27055
G1 X111.948 Y106.898 E6.56585
G1 X108.996 Y106.898 E7.45041
G92 E0
G1 X101.983 Y93.823 F7800.000
G1 X98.416 Y91.352 F7800.000
G1 X92.203 Y94.397 F7800.000
G1 X92.203 Y95.403 F7800.000
G1 X88.062 Y99.545 F7800.000
G1 X87.026 Y92.448 F7800.000
G1 X87.026 Y99.545 E2.12659 F600.000
G1 X87.937 Y103.892 E3.45730
G92 E0
G1 X97.345 Y106.744 F7800.000
G1 X97.345 Y106.744 F7800.000
G1 X97.380 Y107.744 F7800.000
G1 X97.380 Y101.280 E1.93691 F600.000
G1 X97.198 Y100.412 E2.20250
G1 X97.380 Y99.545 E2.46808
G1 X97.380 Y92.448 E4.59467
G92 E0
G1 X87.062 Y93.448 F7800.000
G1 X87.026 Y93.483 F7800.000
G1 X87.026 Y106.708 F7800.000
G1 X87.062 Y106.744 F7800.000
G1 X87.026 Y107.744 F7800.000
G1 X87.026 Y101.280 E1.93691 F600.000
G1 X87.208 Y100.412 E2.20250
G1 X98.416 Y100.412 E5.56087
G92 E0
G1 Z1.200 F7800.000
G1 X105.805 Y96.426 F7800.000
G1 X106.554 Y94.626 E0.58426 F600.000
G1 X107.222 Y93.931 E0.87319
G1 X107.672 Y93.558 E1.04833
G1 X107.952 Y93.448 E1.13847
G1 X108.760 Y93.220 E1.38993
G1 X109.534 Y93.101 E1.62451
G1 X110.312 Y93.189 E1.85917
G1 X110.591 Y93.245 E1.94452
G1 X111.154 Y93.476 E2.12695
G1 X111.443 Y93.625 E2.22432
G1 X111.910 Y94.013 E2.40606
G1 X112.100 Y94.195 E2.48521
G1 X112.495 Y94.798 E2.70120
G1 X112.580 Y94.940 E2.75058
G1 X112.850 Y95.785 E3.01629
G1 X112.888 Y95.985 E3.07744
G1 X112.979 Y97.075 E3.40517
G1 X112.979 Y106.052 E6.09507
G1 X112.897 Y106.632 E6.27055
G1 X111.948 Y106.898 E6.56585
G1 X108.996 Y106.898 E7.45041
G92 E0
G1 X101.983 Y93.823 F7800.000
G1 X98.416 Y91.352 F7800.000
G1 X92.203 Y94.397 F7800.000
G1 X92.203 Y95.403 F7800.000
G1 X88.062 Y99.545 F7800.000
G1 X87.026 Y92.448 F7800.000
G1 X87.026 Y99.545 E2.12659 F600.000
G1 X87.937 Y103.892 E3.45730
G92 E0
G1 X97.345 Y106.744 F7800.000
G1 X97.345 Y106.744 F7800.000
G1 X97.380 Y107.744 F7800.000
G1 X97.380 Y101.280 E1.93691 F600.000
G1 X97.198 Y100.412 E2.20250
G1 X97.380 Y99.545 E2.46808
G1 X97.380 Y92.448 E4.59467
G92 E0
G1 X87.062 Y93.448 F7800.000
G1 X87.026 Y93.483 F7800.000
G1 X87.026 Y106.708 F7800.000
G1 X87.062 Y106.744 F7800.000
G1 X87.026 Y107.744 F7800.000
G1 X87.026 Y101.280 E1.93691 F600.000
G1 X87.208 Y100.412 E2.20250
G1 X98.416 Y100.412 E5.56087
G92 E0
G1 Z1.500 F7800.000
G1 X105.805 Y96.426 F7800.000
G1 X106.554 Y94.626 E0.58426 F600.000
G1 X107.222 Y93.931 E0.87319
G1 X107.672 Y93.558 E1.04833
G1 X107.952 Y93.448 E1.13847
G1 X108.760 Y93.220 E1.38993
G1 X109.534 Y93.101 E1.62451
G1 X110.312 Y93.189 E1.85917
G1 X110.591 Y93.245 E1.94452
G1 X111.154 Y93.476 E2.12695
G1 X111.443 Y93.625 E2.22432
G1 X111.910 Y94.013 E2.40606
G1 X112.100 Y94.195 E2.48521
G1 X112.495 Y94.798 E2.70120
G1 X112.580 Y94.940 E2.75058
G1 X112.850 Y95.785 E3.01629
G1 X112.888 Y95.985 E3.07744
G1 X112.979 Y97.075 E3.40517
G1 X112.979 Y106.052 E6.09507
G1 X112.897 Y106.632 E6.27055
G1 X111.948 Y106.898 E6.56585
G1 X108.996 Y106.898 E7.45041
G92 E0
G1 X101.983 Y93.823 F7800.000
G1 X98.416 Y91.352 F7800.000
G1 X92.203 Y94.397 F7800.000
G1 X92.203 Y95.403 F7800.000
G1 X88.062 Y99.545 F7800.000
G1 X87.026 Y92.448 F7800.000
G1 X87.026 Y99.545 E2.12659 F600.000
G1 X87.937 Y103.892 E3.45730
G92 E0
G1 X97.345 Y106.744 F7800.000
G1 X97.345 Y106.744 F7800.000
G1 X97.380 Y107.744 F7800.000
G1 X97.380 Y101.280 E1.93691 F600.000
G1 X97.198 Y100.412 E2.20250
G1 X97.380 Y99.545 E2.46808
G1 X97.380 Y92.448 E4.59467
G92 E0
G1 X87.062 Y93.448 F7800.000
G1 X87.026 Y93.483 F7800.000
G1 X87.026 Y106.708 F7800.000
G1 X87.062 Y106.744 F7800.000
G1 X87.026 Y107.744 F7800.000
G1 X87.026 Y101.280 E1.93691 F600.000
G1 X87.208 Y100.412 E2.20250
G1 X98.416 Y100.412 E5.56087
G92 E0
G1 Z1.800 F7800.000
G1 X105.805 Y96.426 F7800.000
G1 X106.554 Y94.626 E0.58426 F600.000
G1 X107.222 Y93.931 E0.87319
G1 X107.672 Y93.558 E1.04833
G1 X107.952 Y93.448 E1.13847
G1 X108.760 Y93.220 E1.38993
G1 X109.534 Y93.101 E1.62451
G1 X110.312 Y93.189 E1.85917
G1 X110.591 Y93.245 E1.94452
G1 X111.154 Y93.476 E2.12695
G1 X111.443 Y93.625 E2.22432
G1 X111.910 Y94.013 E2.40606
G1 X112.100 Y94.195 E2.48521
G1 X112.495 Y94.798 E2.70120
G1 X112.580 Y94.940 E2.75058
G1 X112.850 Y95.785 E3.01630
G1 X112.888 Y95.985 E3.07744
G1 X112.979 Y97.075 E3.40517
G1 X112.979 Y106.052 E6.09507
G1 X112.897 Y106.632 E6.27055
G1 X111.948 Y106.898 E6.56585
G1 X108.996 Y106.898 E7.45041
G92 E0
G1 X101.983 Y93.823 F7800.000
G1 X98.416 Y91.352 F7800.000
G1 X92.203 Y94.397 F7800.000
G1 X92.203 Y95.403 F7800.000
G1 X88.062 Y99.545 F7800.000
G1 X87.026 Y92.448 F7800.000
G1 X87.026 Y99.545 E2.12659 F600.000
G1 X87.937 Y103.892 E3.45730
G92 E0
G1 X97.345 Y106.744 F7800.000
G1 X97.345 Y106.744 F7800.000
G1 X97.380 Y107.744 F7800.000
G1 X97.380 Y101.280 E1.93691 F600.000
G1 X97.198 Y100.412 E2.20250
G1 X97.380 Y99.545 E2.46808
G1 X97.380 Y92.448 E4.59467
G92 E0
G1 X87.062 Y93.448 F7800.000
G1 X87.026 Y93.483 F7800.000
G1 X87.026 Y106.708 F7800.000
G1 X87.062 Y106.744 F7800.000
G1 X87.026 Y107.744 F7800.000
G1 X87.026 Y101.280 E1.93691 F600.000
G1 X87.208 Y100.412 E2.20250
G1 X98.416 Y100.412 E5.56087
G92 E0
