; generated by Slic3r 1.2.9 on 2016-03-11 at 01:25:18

; external perimeters extrusion width = 1.54mm
; perimeters extrusion width = 2.62mm
; infill extrusion width = 6.27mm
; solid infill extrusion width = 2.62mm
; top infill extrusion width = 2.62mm

M107
M104 S30 ; set temperature
G28 ; home all axes
G1 Z5 F5000 ; lift nozzle
M302
M92 E10000
M500
M501
G1 E100
M109 S30 ; wait for temperature to be reached
G21 ; set units to millimeters
G90 ; use absolute coordinates
M82 ; use absolute distances for extrusion
G92 E0
G1 Z0.300 F7800.000
G1 X113.001 Y105.239 F7800.000
G1 X115.135 Y107.423 E0.13816 F378.000
G1 X113.325 Y107.423 E0.22004
G1 X105.664 Y99.424 E0.72122
G1 X105.664 Y107.423 E1.08318
G1 X104.043 Y107.423 E1.15653
G1 X104.043 Y92.577 E1.82830
G1 X105.664 Y92.577 E1.90165
G1 X105.664 Y98.325 E2.16175
G1 X107.914 Y100.044 E2.28987 F378.000
G1 X114.071 Y92.577 E2.72782
G1 X116.049 Y92.577 E2.81729
G1 X108.872 Y101.015 E3.31850
G1 X112.839 Y105.074 E3.57535
G1 X112.729 Y106.359 F7800.000
G1 X113.567 Y107.197 E3.62983 F540.000
G1 X114.121 Y107.197 E3.65529
G1 X106.507 Y99.583 E4.15019
G1 X107.814 Y100.336 F7800.000
G1 X108.561 Y101.083 E4.19875 F540.000
G1 X108.816 Y100.784 E4.21681
G1 X108.124 Y100.092 E4.26176
G1 X108.375 Y99.789 E4.27985
G1 X109.070 Y100.484 E4.32507
G1 X109.325 Y100.185 E4.34313
G1 X108.625 Y99.485 E4.38863
G1 X108.875 Y99.181 E4.40672
G1 X109.579 Y99.886 E4.45250
G1 X109.834 Y99.586 E4.47056
G1 X109.126 Y98.878 E4.51662
G1 X109.376 Y98.574 E4.53471
G1 X110.089 Y99.287 E4.58104
G1 X110.343 Y98.988 E4.59910
G1 X109.626 Y98.271 E4.64571
G1 X109.877 Y97.967 E4.66380
G1 X110.598 Y98.688 E4.71068
G1 X110.853 Y98.389 E4.72875
G1 X110.127 Y97.663 E4.77591
G1 X110.377 Y97.360 E4.79400
G1 X111.107 Y98.090 E4.84144
G1 X111.362 Y97.790 E4.85950
G1 X110.628 Y97.056 E4.90722
G1 X110.878 Y96.753 E4.92531
G1 X111.616 Y97.491 E4.97330
G1 X111.871 Y97.192 E4.99137
G1 X111.128 Y96.449 E5.03964
G1 X111.379 Y96.145 E5.05773
G1 X112.126 Y96.892 E5.10627
G1 X112.380 Y96.593 E5.12434
G1 X111.629 Y95.842 E5.17316
G1 X111.879 Y95.538 E5.19125
G1 X112.635 Y96.294 E5.24035
G1 X112.889 Y95.994 E5.25842
G1 X112.130 Y95.235 E5.30780
G1 X112.380 Y94.931 E5.32588
G1 X113.144 Y95.695 E5.37554
G1 X113.399 Y95.396 E5.39360
G1 X112.630 Y94.627 E5.44354
G1 X112.881 Y94.324 E5.46163
G1 X113.653 Y95.096 E5.51184
G1 X113.908 Y94.797 E5.52990
G1 X113.131 Y94.020 E5.58039
G1 X113.381 Y93.716 E5.59848
G1 X114.162 Y94.497 E5.64924
G1 X114.417 Y94.198 E5.66731
G1 X113.632 Y93.413 E5.71835
G1 X113.882 Y93.109 E5.73644
G1 X114.672 Y93.899 E5.78776
G1 X114.926 Y93.599 E5.80582
G1 X114.133 Y92.806 E5.85742
G1 X114.684 Y92.803 E5.88275
G1 X115.181 Y93.300 E5.91507
G1 X115.238 Y92.803 E5.93807
G1 X115.436 Y93.001 E5.95092
G92 E0
G1 X104.889 Y93.352 F7800.000
G1 X104.889 Y93.352 F7800.000
G1 X105.438 Y93.007 F7800.000
G1 X105.235 Y92.803 E0.01341 F540.000
G1 X104.673 Y92.803 E0.03956
G1 X105.438 Y93.568 E0.08994
G1 X105.438 Y94.129 E0.11608
G1 X104.269 Y92.960 E0.19309
G1 X104.269 Y93.521 E0.21923
G1 X105.438 Y94.691 E0.29624
G1 X105.438 Y95.252 E0.32238
G1 X104.269 Y94.083 E0.39939
G1 X104.269 Y94.644 E0.42553
G1 X105.438 Y95.813 E0.50254
G1 X105.438 Y96.375 E0.52868
G1 X104.269 Y95.205 E0.60569
G1 X104.269 Y95.767 E0.63183
G1 X105.438 Y96.936 E0.70884
G1 X105.438 Y97.497 E0.73498
G1 X104.269 Y96.328 E0.81199
G1 X104.269 Y96.889 E0.83813
G1 X105.438 Y98.059 E0.91514
G1 X105.341 Y98.522 E0.93720
G1 X104.269 Y97.451 E1.00777
G1 X104.269 Y98.012 E1.03391
G1 X105.076 Y98.818 E1.08702
G1 X104.269 Y98.573 E1.12626
G1 X105.438 Y99.743 E1.20327
G1 X105.438 Y100.304 E1.22941
G1 X104.269 Y99.135 E1.30642
G1 X104.269 Y99.696 E1.33256
G1 X105.438 Y100.865 E1.40957
G1 X105.438 Y101.427 E1.43571
G1 X104.269 Y100.257 E1.51272
G1 X104.269 Y100.819 E1.53886
G1 X105.438 Y101.988 E1.61587
G1 X105.438 Y102.549 E1.64201
G1 X104.269 Y101.380 E1.71902
G1 X104.269 Y101.941 E1.74516
G1 X105.438 Y103.111 E1.82217
G1 X105.438 Y103.672 E1.84831
G1 X104.269 Y102.503 E1.92532
G1 X104.269 Y103.064 E1.95146
G1 X105.438 Y104.233 E2.02847
G1 X105.438 Y104.795 E2.05461
G1 X104.269 Y103.625 E2.13162
G1 X104.269 Y104.187 E2.15776
G1 X105.438 Y105.356 E2.23477
G1 X105.438 Y105.917 E2.26091
G1 X104.269 Y104.748 E2.33792
G1 X104.269 Y105.309 E2.36406
G1 X105.438 Y106.479 E2.44107
G1 X105.438 Y107.040 E2.46721
G1 X104.269 Y105.871 E2.54421
G1 X104.269 Y106.432 E2.57036
G1 X105.034 Y107.197 E2.62074
G1 X104.473 Y107.197 E2.64689
G1 X104.269 Y106.993 E2.66030
G92 E0
G1 X104.889 Y106.648 F7800.000
G1 X104.889 Y106.648 F7800.000
G1 X106.353 Y99.452 F7800.000
G1 X105.472 Y98.664 E0.11596 F540.000
G92 E0
G1 X105.889 Y99.984 F7800.000
G1 X105.889 Y108.648 F7800.000
G1 X103.818 Y108.648 F7800.000
G1 X99.854 Y105.684 F7800.000
G1 X97.890 Y107.648 F7800.000
G1 X95.890 Y107.648 F7800.000
G1 X94.044 Y105.603 F7800.000
G1 X94.044 Y100.959 E0.21015 F378.000
G1 X85.311 Y100.959 E0.60532
G1 X85.311 Y107.423 E0.89781
G1 X83.690 Y107.423 E0.97116
G1 X83.690 Y92.577 E1.64293
G1 X85.311 Y92.577 E1.71628
G1 X85.311 Y99.674 E2.03741
G1 X94.044 Y99.674 E2.43257 F378.000
G1 X94.044 Y92.577 E2.75371
G1 X95.665 Y92.577 E2.82706
G1 X95.665 Y107.423 E3.49883
G1 X94.044 Y107.423 E3.57217
G1 X94.044 Y105.834 E3.64406
G1 X94.656 Y107.197 F7800.000
G1 X94.270 Y106.811 E3.66920 F540.000
G1 X94.270 Y106.256 E3.69472
G1 X95.210 Y107.197 E3.75594
G1 X95.439 Y106.871 E3.77427
G1 X94.270 Y105.702 E3.85034
G1 X94.270 Y105.147 E3.87586
G1 X95.439 Y106.316 E3.95194
G1 X95.439 Y105.762 E3.97746
G1 X94.270 Y104.592 E4.05353
G1 X94.270 Y104.038 E4.07905
G1 X95.439 Y105.207 E4.15513
G1 X95.439 Y104.652 E4.18065
G1 X94.270 Y103.483 E4.25672
G1 X94.270 Y102.929 E4.28224
G1 X95.439 Y104.098 E4.35832
G1 X95.439 Y103.543 E4.38384
G1 X94.270 Y102.374 E4.45991
G1 X94.270 Y101.820 E4.48543
G1 X95.439 Y102.989 E4.56151
G1 X95.439 Y102.434 E4.58702
G1 X94.270 Y101.265 E4.66310
G1 X94.014 Y99.900 F7800.000
G1 X95.439 Y101.325 E4.75584 F540.000
G1 X95.439 Y101.880 E4.78136
G1 X93.459 Y99.900 E4.91018
G1 X92.904 Y99.900 E4.93570
G1 X93.738 Y100.733 E4.98991
G1 X93.183 Y100.733 E5.01543
G1 X92.350 Y99.900 E5.06964
G1 X91.795 Y99.900 E5.09516
G1 X92.628 Y100.733 E5.14937
G1 X92.074 Y100.733 E5.17489
G1 X91.241 Y99.900 E5.22910
G1 X90.686 Y99.900 E5.25462
G1 X91.519 Y100.733 E5.30883
G1 X90.965 Y100.733 E5.33435
G1 X90.132 Y99.900 E5.38856
G1 X89.577 Y99.900 E5.41408
G1 X90.410 Y100.733 E5.46829
G1 X89.856 Y100.733 E5.49381
G1 X89.023 Y99.900 E5.54802
G1 X88.468 Y99.900 E5.57354
G1 X89.301 Y100.733 E5.62775
G1 X88.746 Y100.733 E5.65327
G1 X87.913 Y99.900 E5.70748
G1 X87.359 Y99.900 E5.73300
G1 X88.192 Y100.733 E5.78721
G1 X87.637 Y100.733 E5.81273
G1 X86.804 Y99.900 E5.86694
G1 X86.250 Y99.900 E5.89246
G1 X87.083 Y100.733 E5.94667
G1 X86.528 Y100.733 E5.97219
G1 X85.695 Y99.900 E6.02640
G1 X85.141 Y99.900 E6.05192
G1 X85.974 Y100.733 E6.10613
G1 X85.419 Y100.733 E6.13165
G1 X83.916 Y99.230 E6.22948
G1 X83.916 Y99.784 E6.25500
G1 X85.085 Y100.953 E6.33108
G1 X85.085 Y101.508 E6.35660
G1 X83.916 Y100.339 E6.43267
G1 X83.916 Y100.893 E6.45819
G1 X85.085 Y102.062 E6.53427
G1 X85.085 Y102.617 E6.55979
G1 X83.916 Y101.448 E6.63586
G1 X83.916 Y102.002 E6.66138
G1 X85.085 Y103.171 E6.73746
G1 X85.085 Y103.726 E6.76298
G1 X83.916 Y102.557 E6.83905
G1 X83.916 Y103.112 E6.86457
G1 X85.085 Y104.281 E6.94065
G1 X85.085 Y104.835 E6.96617
G1 X83.916 Y103.666 E7.04224
G1 X83.916 Y104.221 E7.06776
G1 X85.085 Y105.390 E7.14384
G1 X85.085 Y105.944 E7.16936
G1 X83.916 Y104.775 E7.24543
G1 X83.916 Y105.330 E7.27095
G1 X85.085 Y106.499 E7.34703
G1 X85.085 Y107.053 E7.37255
G1 X83.916 Y105.884 E7.44862
G1 X83.916 Y106.439 E7.47414
G1 X84.674 Y107.197 E7.52348
G1 X84.119 Y107.197 E7.54899
G1 X83.916 Y106.993 E7.56224
G1 X85.085 Y99.844 F7800.000
G1 X83.916 Y98.675 E7.63832 F540.000
G1 X83.916 Y98.120 E7.66384
G1 X85.085 Y99.290 E7.73991
G1 X85.085 Y98.735 E7.76543
G1 X83.916 Y97.566 E7.84151
G1 X83.916 Y97.011 E7.86703
G1 X85.085 Y98.180 E7.94310
G1 X85.085 Y97.626 E7.96862
G1 X83.916 Y96.457 E8.04470
G1 X83.916 Y95.902 E8.07021
G1 X85.085 Y97.071 E8.14629
G1 X85.085 Y96.517 E8.17181
G1 X83.916 Y95.348 E8.24789
G1 X83.916 Y94.793 E8.27340
G1 X85.085 Y95.962 E8.34948
G1 X85.085 Y95.408 E8.37500
G1 X83.916 Y94.238 E8.45108
G1 X83.916 Y93.684 E8.47659
G1 X85.085 Y94.853 E8.55267
G1 X85.085 Y94.298 E8.57819
G1 X83.916 Y93.129 E8.65427
G1 X84.144 Y92.803 E8.67259
G1 X85.085 Y93.744 E8.73382
G1 X85.085 Y93.189 E8.75934
G1 X84.698 Y92.803 E8.78448
G92 E0
G1 X94.819 Y93.352 F7800.000
G1 X94.819 Y93.352 F7800.000
G1 X94.854 Y93.387 F7800.000
G1 X94.890 Y93.352 F7800.000
G1 X95.439 Y93.007 F7800.000
G1 X95.235 Y92.803 E0.01325 F540.000
G1 X94.681 Y92.803 E0.03877
G1 X95.439 Y93.561 E0.08810
G1 X95.439 Y94.116 E0.11362
G1 X94.270 Y92.947 E0.18970
G1 X94.270 Y93.501 E0.21522
G1 X95.439 Y94.670 E0.29129
G1 X95.439 Y95.225 E0.31681
G1 X94.270 Y94.056 E0.39289
G1 X94.270 Y94.610 E0.41841
G1 X95.439 Y95.779 E0.49448
G1 X95.439 Y96.334 E0.52000
G1 X94.270 Y95.165 E0.59608
G1 X94.270 Y95.719 E0.62160
G1 X95.439 Y96.889 E0.69767
G1 X95.439 Y97.443 E0.72319
G1 X94.270 Y96.274 E0.79927
G1 X94.270 Y96.829 E0.82479
G1 X95.439 Y97.998 E0.90086
G1 X95.439 Y98.552 E0.92638
G1 X94.270 Y97.383 E1.00246
G1 X94.270 Y97.938 E1.02797
G1 X95.439 Y99.107 E1.10405
G1 X95.439 Y99.661 E1.12957
G1 X94.270 Y98.492 E1.20565
G1 X94.270 Y99.047 E1.23116
G1 X95.439 Y100.216 E1.30724
G1 X95.439 Y100.770 E1.33276
G1 X94.270 Y99.601 E1.40884
M106 S255
G92 E0
G1 Z0.600 F7800.000
G1 X115.242 Y92.352 F7800.000
G1 X108.577 Y100.310 E3.11048 F600.000
G1 X108.130 Y100.775 E3.30375
G1 X108.580 Y101.587 E3.58188
G1 X114.443 Y107.648 E6.10884
G92 E0
G1 X104.889 Y106.648 F7800.000
G1 X104.889 Y106.648 F7800.000
G1 X105.786 Y102.575 F7800.000
G1 X104.854 Y98.214 E1.33630 F600.000
G1 X104.854 Y92.352 E3.09283
G1 X104.854 Y107.648 F7800.000
G1 X104.854 Y99.984 E5.38932 F600.000
G1 X105.043 Y99.099 E5.66049
G1 X105.213 Y99.099 E5.71145
G1 X106.400 Y99.495 E6.08643
G1 X107.387 Y100.377 E6.48307
G1 X109.855 Y101.699 E7.32204
G92 E0
G1 X105.889 Y98.214 F7800.000
G1 X105.889 Y98.214 F7800.000
G1 X107.606 Y97.365 F7800.000
G1 X109.006 Y93.468 F7800.000
G1 X107.889 Y92.352 F7800.000
G1 X105.889 Y91.352 F7800.000
G1 X103.818 Y91.352 F7800.000
G1 X101.818 Y92.352 F7800.000
G1 X99.854 Y94.316 F7800.000
G1 X97.890 Y92.352 F7800.000
G1 X95.890 Y91.352 F7800.000
G1 X93.819 Y91.352 F7800.000
G1 X91.819 Y92.352 F7800.000
G1 X89.677 Y94.493 F7800.000
G1 X87.536 Y92.352 F7800.000
G1 X85.536 Y92.352 F7800.000
G1 X84.500 Y92.352 F7800.000
G1 X84.500 Y99.449 E2.12659 F600.000
G1 X85.411 Y103.796 E3.45730
G92 E0
G1 X94.819 Y106.648 F7800.000
G1 X94.819 Y106.648 F7800.000
G1 X94.854 Y107.648 F7800.000
G1 X94.854 Y101.184 E1.93691 F600.000
G1 X94.672 Y100.316 E2.20250
G1 X94.854 Y99.449 E2.46808
G1 X94.854 Y92.352 E4.59467
G92 E0
G1 X84.536 Y93.352 F7800.000
G1 X84.500 Y93.387 F7800.000
G1 X84.500 Y106.612 F7800.000
G1 X84.536 Y106.648 F7800.000
G1 X84.500 Y107.648 F7800.000
G1 X84.500 Y101.184 E1.93691 F600.000
G1 X84.682 Y100.316 E2.20250
G1 X95.890 Y100.316 E5.56087
G92 E0
G1 Z0.900 F7800.000
G1 X115.242 Y92.352 F7800.000
G1 X108.577 Y100.310 E3.11048 F600.000
G1 X108.130 Y100.775 E3.30375
G1 X108.580 Y101.587 E3.58188
G1 X114.443 Y107.648 E6.10884
G92 E0
G1 X104.889 Y106.648 F7800.000
G1 X104.889 Y106.648 F7800.000
G1 X105.786 Y102.575 F7800.000
G1 X104.854 Y98.214 E1.33630 F600.000
G1 X104.854 Y92.352 E3.09283
G1 X104.854 Y107.648 F7800.000
G1 X104.854 Y99.984 E5.38932 F600.000
G1 X105.043 Y99.099 E5.66049
G1 X105.213 Y99.099 E5.71145
G1 X106.400 Y99.495 E6.08643
G1 X107.387 Y100.377 E6.48307
G1 X109.855 Y101.699 E7.32204
G92 E0
G1 X105.889 Y98.214 F7800.000
G1 X105.889 Y98.214 F7800.000
G1 X107.606 Y97.365 F7800.000
G1 X109.006 Y93.468 F7800.000
G1 X107.889 Y92.352 F7800.000
G1 X105.889 Y91.352 F7800.000
G1 X103.818 Y91.352 F7800.000
G1 X101.818 Y92.352 F7800.000
G1 X99.854 Y94.316 F7800.000
G1 X97.890 Y92.352 F7800.000
G1 X95.890 Y91.352 F7800.000
G1 X93.819 Y91.352 F7800.000
G1 X91.819 Y92.352 F7800.000
G1 X89.677 Y94.493 F7800.000
G1 X87.536 Y92.352 F7800.000
G1 X85.536 Y92.352 F7800.000
G1 X84.500 Y92.352 F7800.000
G1 X84.500 Y99.449 E2.12659 F600.000
G1 X85.411 Y103.796 E3.45730
G92 E0
G1 X94.819 Y106.648 F7800.000
G1 X94.819 Y106.648 F7800.000
G1 X94.854 Y107.648 F7800.000
G1 X94.854 Y101.184 E1.93691 F600.000
G1 X94.672 Y100.316 E2.20250
G1 X94.854 Y99.449 E2.46808
G1 X94.854 Y92.352 E4.59467
G92 E0
G1 X84.536 Y93.352 F7800.000
G1 X84.500 Y93.387 F7800.000
G1 X84.500 Y106.612 F7800.000
G1 X84.536 Y106.648 F7800.000
G1 X84.500 Y107.648 F7800.000
G1 X84.500 Y101.184 E1.93691 F600.000
G1 X84.682 Y100.316 E2.20250
G1 X95.890 Y100.316 E5.56087
G92 E0
G1 Z1.200 F7800.000
G1 X115.242 Y92.352 F7800.000
G1 X108.577 Y100.310 E3.11048 F600.000
G1 X108.130 Y100.775 E3.30375
G1 X108.580 Y101.587 E3.58188
G1 X114.443 Y107.648 E6.10884
G92 E0
G1 X104.889 Y106.648 F7800.000
G1 X104.889 Y106.648 F7800.000
G1 X105.786 Y102.575 F7800.000
G1 X104.854 Y98.214 E1.33630 F600.000
G1 X104.854 Y92.352 E3.09283
G1 X104.854 Y107.648 F7800.000
G1 X104.854 Y99.984 E5.38932 F600.000
G1 X105.043 Y99.099 E5.66049
G1 X105.213 Y99.099 E5.71145
G1 X106.400 Y99.495 E6.08643
G1 X107.387 Y100.377 E6.48307
G1 X109.855 Y101.699 E7.32204
G92 E0
G1 X105.889 Y98.214 F7800.000
G1 X105.889 Y98.214 F7800.000
G1 X107.606 Y97.365 F7800.000
G1 X109.006 Y93.468 F7800.000
G1 X107.889 Y92.352 F7800.000
G1 X105.889 Y91.352 F7800.000
G1 X103.818 Y91.352 F7800.000
G1 X101.818 Y92.352 F7800.000
G1 X99.854 Y94.316 F7800.000
G1 X97.890 Y92.352 F7800.000
G1 X95.890 Y91.352 F7800.000
G1 X93.819 Y91.352 F7800.000
G1 X91.819 Y92.352 F7800.000
G1 X89.677 Y94.493 F7800.000
G1 X87.536 Y92.352 F7800.000
G1 X85.536 Y92.352 F7800.000
G1 X84.500 Y92.352 F7800.000
G1 X84.500 Y99.449 E2.12659 F600.000
G1 X85.411 Y103.796 E3.45730
G92 E0
G1 X94.819 Y106.648 F7800.000
G1 X94.819 Y106.648 F7800.000
G1 X94.854 Y107.648 F7800.000
G1 X94.854 Y101.184 E1.93691 F600.000
G1 X94.672 Y100.316 E2.20250
G1 X94.854 Y99.449 E2.46808
G1 X94.854 Y92.352 E4.59467
G92 E0
G1 X84.536 Y93.352 F7800.000
G1 X84.500 Y93.387 F7800.000
G1 X84.500 Y106.612 F7800.000
G1 X84.536 Y106.648 F7800.000
G1 X84.500 Y107.648 F7800.000
G1 X84.500 Y101.184 E1.93691 F600.000
G1 X84.682 Y100.316 E2.20250
G1 X95.890 Y100.316 E5.56087
G92 E0
G1 Z1.500 F7800.000
G1 X115.242 Y92.352 F7800.000
G1 X108.577 Y100.310 E3.11048 F600.000
G1 X108.130 Y100.775 E3.30375
G1 X108.580 Y101.587 E3.58188
G1 X114.443 Y107.648 E6.10884
G92 E0
G1 X104.889 Y106.648 F7800.000
G1 X104.889 Y106.648 F7800.000
G1 X105.786 Y102.575 F7800.000
G1 X104.854 Y98.214 E1.33630 F600.000
G1 X104.854 Y92.352 E3.09283
G1 X104.854 Y107.648 F7800.000
G1 X104.854 Y99.984 E5.38932 F600.000
G1 X105.043 Y99.099 E5.66049
G1 X105.213 Y99.099 E5.71145
G1 X106.400 Y99.495 E6.08643
G1 X107.387 Y100.377 E6.48307
G1 X109.855 Y101.699 E7.32204
G92 E0
G1 X105.889 Y98.214 F7800.000
G1 X105.889 Y98.214 F7800.000
G1 X107.606 Y97.365 F7800.000
G1 X109.006 Y93.468 F7800.000
G1 X107.889 Y92.352 F7800.000
G1 X105.889 Y91.352 F7800.000
G1 X103.818 Y91.352 F7800.000
G1 X101.818 Y92.352 F7800.000
G1 X99.854 Y94.316 F7800.000
G1 X97.890 Y92.352 F7800.000
G1 X95.890 Y91.352 F7800.000
G1 X93.819 Y91.352 F7800.000
G1 X91.819 Y92.352 F7800.000
G1 X89.677 Y94.493 F7800.000
G1 X87.536 Y92.352 F7800.000
G1 X85.536 Y92.352 F7800.000
G1 X84.500 Y92.352 F7800.000
G1 X84.500 Y99.449 E2.12659 F600.000
G1 X85.411 Y103.796 E3.45730
G92 E0
G1 X94.819 Y106.648 F7800.000
G1 X94.819 Y106.648 F7800.000
G1 X94.854 Y107.648 F7800.000
G1 X94.854 Y101.184 E1.93691 F600.000
G1 X94.672 Y100.316 E2.20250
G1 X94.854 Y99.449 E2.46808
G1 X94.854 Y92.352 E4.59467
G92 E0
G1 X84.536 Y93.352 F7800.000
G1 X84.500 Y93.387 F7800.000
G1 X84.500 Y106.612 F7800.000
G1 X84.536 Y106.648 F7800.000
G1 X84.500 Y107.648 F7800.000
G1 X84.500 Y101.184 E1.93691 F600.000
G1 X84.682 Y100.316 E2.20250
G1 X95.890 Y100.316 E5.56087
G92 E0
G1 Z1.800 F7800.000
G1 X115.242 Y92.352 F7800.000
G1 X108.577 Y100.310 E3.11048 F600.000
