; generated by Slic3r 1.2.9 on 2016-03-11 at 01:25:18

; external perimeters extrusion width = 1.54mm
; perimeters extrusion width = 2.62mm
; infill extrusion width = 6.27mm
; solid infill extrusion width = 2.62mm
; top infill extrusion width = 2.62mm

M107
M104 S30 ; set temperature
G28 ; home all axes
G1 Z5 F5000 ; lift nozzle
M302
M92 E10000
M500
M501
G1 E100
M109 S30 ; wait for temperature to be reached
G21 ; set units to millimeters
G90 ; use absolute coordinates
M82 ; use absolute distances for extrusion
G92 E0
G1 Z0.300 F7800.000
G1 X109.189 Y92.577 F7800.000
G1 X114.850 Y92.577 E0.25616 F378.000
G1 X114.850 Y93.819 E0.31236
G1 X107.128 Y93.819 E0.66178 F378.000
G1 X107.128 Y107.423 E1.27735
G1 X105.507 Y107.423 E1.35070
G1 X105.507 Y92.577 E2.02247
G1 X108.958 Y92.577 E2.17862
G1 X114.624 Y93.007 F7800.000
G1 X114.421 Y92.803 E2.19195 F540.000
G1 X113.863 Y92.803 E2.21778
G1 X114.624 Y93.565 E2.26765
G1 X114.095 Y93.593 E2.29220
G1 X113.305 Y92.803 E2.34393
G1 X112.747 Y92.803 E2.36977
G1 X113.537 Y93.593 E2.42150
G1 X112.979 Y93.593 E2.44734
G1 X112.189 Y92.803 E2.49907
G1 X111.631 Y92.803 E2.52490
G1 X112.421 Y93.593 E2.57663
G1 X111.863 Y93.593 E2.60247
G1 X111.073 Y92.803 E2.65420
G1 X110.515 Y92.803 E2.68004
G1 X111.305 Y93.593 E2.73177
G1 X110.747 Y93.593 E2.75760
G1 X109.957 Y92.803 E2.80933
G1 X109.399 Y92.803 E2.83517
G1 X110.189 Y93.593 E2.88690
G1 X109.631 Y93.593 E2.91274
G1 X108.841 Y92.803 E2.96447
G1 X108.283 Y92.803 E2.99030
G1 X109.073 Y93.593 E3.04203
G1 X108.515 Y93.593 E3.06787
G1 X107.725 Y92.803 E3.11960
G1 X107.167 Y92.803 E3.14544
G1 X107.957 Y93.593 E3.19717
G1 X107.399 Y93.593 E3.22300
G1 X106.609 Y92.803 E3.27473
G1 X106.051 Y92.803 E3.30057
G1 X106.902 Y93.655 E3.35633
G1 X106.902 Y94.213 E3.38216
G1 X105.733 Y93.043 E3.45871
G1 X105.733 Y93.601 E3.48455
G1 X106.902 Y94.771 E3.56110
G1 X106.902 Y95.329 E3.58693
G1 X105.733 Y94.159 E3.66348
G1 X105.733 Y94.717 E3.68931
G1 X106.902 Y95.887 E3.76586
G1 X106.902 Y96.445 E3.79170
G1 X105.733 Y95.275 E3.86825
G1 X105.733 Y95.833 E3.89408
G1 X106.902 Y97.003 E3.97063
G1 X106.902 Y97.561 E3.99646
G1 X105.733 Y96.391 E4.07301
G1 X105.733 Y96.949 E4.09885
G1 X106.902 Y98.119 E4.17539
G1 X106.902 Y98.677 E4.20123
G1 X105.733 Y97.507 E4.27778
G1 X105.733 Y98.065 E4.30361
G1 X106.902 Y99.235 E4.38016
G1 X106.902 Y99.793 E4.40600
G1 X105.733 Y98.623 E4.48254
G1 X105.733 Y99.181 E4.50838
G1 X106.902 Y100.351 E4.58493
G1 X106.902 Y100.909 E4.61076
G1 X105.733 Y99.739 E4.68731
G1 X105.733 Y100.297 E4.71314
G1 X106.902 Y101.467 E4.78969
G1 X106.902 Y102.025 E4.81553
G1 X105.733 Y100.855 E4.89208
G1 X105.733 Y101.413 E4.91791
G1 X106.902 Y102.583 E4.99446
G1 X106.902 Y103.141 E5.02029
G1 X105.733 Y101.971 E5.09684
G1 X105.733 Y102.529 E5.12268
G1 X106.902 Y103.699 E5.19923
G1 X106.902 Y104.257 E5.22506
G1 X105.733 Y103.087 E5.30161
G1 X105.733 Y103.645 E5.32744
G1 X106.902 Y104.815 E5.40399
G1 X106.902 Y105.373 E5.42983
G1 X105.733 Y104.203 E5.50637
G1 X105.733 Y104.761 E5.53221
G1 X106.902 Y105.931 E5.60876
G1 X106.902 Y106.489 E5.63459
G1 X105.733 Y105.319 E5.71114
G1 X105.733 Y105.877 E5.73698
G1 X106.902 Y107.047 E5.81352
G1 X106.495 Y107.197 E5.83364
G1 X105.733 Y106.435 E5.88350
G1 X105.733 Y106.993 E5.90934
G1 X105.937 Y107.197 E5.92267
G92 E0
G1 X105.282 Y107.648 F7800.000
G1 X97.350 Y108.648 F7800.000
G1 X95.279 Y108.648 F7800.000
G1 X91.137 Y105.507 F7800.000
G1 X91.137 Y105.325 F7800.000
G1 X86.996 Y101.184 F7800.000
G1 X86.771 Y95.133 F7800.000
G1 X86.771 Y99.674 E0.20547 F378.000
G1 X95.504 Y99.674 E0.60063 F378.000
G1 X95.504 Y92.577 E0.92177
G1 X97.125 Y92.577 E0.99512
G1 X97.125 Y107.423 E1.66689
G1 X95.504 Y107.423 E1.74024
G1 X95.504 Y100.959 E2.03273
G1 X86.771 Y100.959 E2.42789
G1 X86.771 Y107.423 E2.72038
G1 X85.150 Y107.423 E2.79373
G1 X85.150 Y92.577 E3.46550
G1 X86.771 Y92.577 E3.53885
G1 X86.771 Y94.902 E3.64406
G1 X86.158 Y92.803 F7800.000
G1 X86.545 Y93.189 E3.66920 F540.000
G1 X86.545 Y93.744 E3.69472
G1 X85.604 Y92.803 E3.75595
G1 X85.376 Y93.129 E3.77427
G1 X86.545 Y94.298 E3.85035
G1 X86.545 Y94.853 E3.87587
G1 X85.376 Y93.684 E3.95194
G1 X85.376 Y94.238 E3.97746
G1 X86.545 Y95.408 E4.05354
G1 X86.545 Y95.962 E4.07906
G1 X85.376 Y94.793 E4.15513
G1 X85.376 Y95.348 E4.18065
G1 X86.545 Y96.517 E4.25673
G1 X86.545 Y97.071 E4.28225
G1 X85.376 Y95.902 E4.35832
G1 X85.376 Y96.457 E4.38384
G1 X86.545 Y97.626 E4.45992
G1 X86.545 Y98.180 E4.48543
G1 X85.376 Y97.011 E4.56151
G1 X85.376 Y97.566 E4.58703
G1 X86.545 Y98.735 E4.66311
G1 X86.545 Y99.290 E4.68862
G1 X85.376 Y98.120 E4.76470
G1 X85.376 Y98.675 E4.79022
G1 X86.545 Y99.844 E4.86630
G1 X85.376 Y106.993 F7800.000
G1 X85.579 Y107.197 E4.87954 F540.000
G1 X86.134 Y107.197 E4.90506
G1 X85.376 Y106.439 E4.95440
G1 X85.376 Y105.884 E4.97991
G1 X86.545 Y107.053 E5.05599
G1 X86.545 Y106.499 E5.08151
G1 X85.376 Y105.330 E5.15759
G1 X85.376 Y104.775 E5.18310
G1 X86.545 Y105.944 E5.25918
G1 X86.545 Y105.390 E5.28470
G1 X85.376 Y104.221 E5.36078
G1 X85.376 Y103.666 E5.38629
G1 X86.545 Y104.835 E5.46237
G1 X86.545 Y104.281 E5.48789
G1 X85.376 Y103.112 E5.56397
G1 X85.376 Y102.557 E5.58948
G1 X86.545 Y103.726 E5.66556
G1 X86.545 Y103.171 E5.69108
G1 X85.376 Y102.002 E5.76716
G1 X85.376 Y101.448 E5.79267
G1 X86.545 Y102.617 E5.86875
G1 X86.545 Y102.062 E5.89427
G1 X85.376 Y100.893 E5.97034
G1 X85.376 Y100.339 E5.99586
G1 X86.545 Y101.508 E6.07194
G1 X86.545 Y100.953 E6.09746
G1 X85.376 Y99.784 E6.17353
G1 X85.376 Y99.230 E6.19905
G1 X86.879 Y100.733 E6.29689
G1 X87.434 Y100.733 E6.32241
G1 X86.601 Y99.900 E6.37662
G1 X87.155 Y99.900 E6.40214
G1 X87.988 Y100.733 E6.45635
G1 X88.543 Y100.733 E6.48187
G1 X87.710 Y99.900 E6.53608
G1 X88.264 Y99.900 E6.56160
G1 X89.097 Y100.733 E6.61581
G1 X89.652 Y100.733 E6.64133
G1 X88.819 Y99.900 E6.69554
G1 X89.373 Y99.900 E6.72106
G1 X90.206 Y100.733 E6.77527
G1 X90.761 Y100.733 E6.80079
G1 X89.928 Y99.900 E6.85500
G1 X90.483 Y99.900 E6.88052
G1 X91.316 Y100.733 E6.93473
G1 X91.870 Y100.733 E6.96025
G1 X91.037 Y99.900 E7.01446
G1 X91.592 Y99.900 E7.03998
G1 X92.425 Y100.733 E7.09419
G1 X92.979 Y100.733 E7.11971
G1 X92.146 Y99.900 E7.17392
G1 X92.701 Y99.900 E7.19944
G1 X93.534 Y100.733 E7.25365
G1 X94.088 Y100.733 E7.27917
G1 X93.255 Y99.900 E7.33338
G1 X93.810 Y99.900 E7.35890
G1 X94.643 Y100.733 E7.41311
G1 X95.198 Y100.733 E7.43863
G1 X94.364 Y99.900 E7.49284
G1 X94.919 Y99.900 E7.51836
G1 X96.899 Y101.880 E7.64718
G1 X96.899 Y101.325 E7.67270
G1 X95.474 Y99.900 E7.76544
G1 X95.730 Y99.601 F7800.000
G1 X96.899 Y100.770 E7.84151 F540.000
G1 X96.899 Y100.216 E7.86703
G1 X95.730 Y99.047 E7.94311
G1 X95.730 Y98.492 E7.96862
G1 X96.899 Y99.661 E8.04470
G1 X96.899 Y99.107 E8.07022
G1 X95.730 Y97.938 E8.14630
G1 X95.730 Y97.383 E8.17181
G1 X96.899 Y98.552 E8.24789
G1 X96.899 Y97.998 E8.27341
G1 X95.730 Y96.829 E8.34949
G1 X95.730 Y96.274 E8.37500
G1 X96.899 Y97.443 E8.45108
G1 X96.899 Y96.889 E8.47660
G1 X95.730 Y95.719 E8.55268
G1 X95.730 Y95.165 E8.57819
G1 X96.899 Y96.334 E8.65427
G1 X96.899 Y95.779 E8.67979
G1 X95.730 Y94.610 E8.75587
G1 X95.730 Y94.056 E8.78138
G1 X96.899 Y95.225 E8.85746
G1 X96.899 Y94.670 E8.88298
G1 X95.730 Y93.501 E8.95905
G1 X95.730 Y92.947 E8.98457
G1 X96.899 Y94.116 E9.06065
G1 X96.899 Y93.561 E9.08617
G1 X96.141 Y92.803 E9.13550
G1 X96.695 Y92.803 E9.16102
G1 X96.899 Y93.007 E9.17427
G1 X95.730 Y101.265 F7800.000
G1 X96.899 Y102.434 E9.25035 F540.000
G1 X96.899 Y102.989 E9.27587
G1 X95.730 Y101.820 E9.35194
G1 X95.730 Y102.374 E9.37746
G1 X96.899 Y103.543 E9.45354
G1 X96.899 Y104.098 E9.47906
G1 X95.730 Y102.929 E9.55513
G1 X95.730 Y103.483 E9.58065
G1 X96.899 Y104.652 E9.65673
G1 X96.899 Y105.207 E9.68225
G1 X95.730 Y104.038 E9.75832
G1 X95.730 Y104.592 E9.78384
G1 X96.899 Y105.762 E9.85992
G1 X96.899 Y106.316 E9.88543
G1 X95.730 Y105.147 E9.96151
G1 X95.730 Y105.702 E9.98703
G1 X96.899 Y106.871 E10.06311
G1 X96.670 Y107.197 E10.08143
G1 X95.730 Y106.256 E10.14266
G1 X95.730 Y106.811 E10.16818
G1 X96.116 Y107.197 E10.19331
M106 S255
G92 E0
G1 Z0.600 F7800.000
G1 X106.318 Y107.648 F7800.000
G1 X106.318 Y94.044 E4.07639 F600.000
G1 X106.398 Y93.468 E4.25074
G1 X107.353 Y93.198 E4.54819
G1 X115.075 Y93.198 E6.86205
G92 E0
G1 X105.282 Y92.352 F7800.000
G1 X105.282 Y92.352 F7800.000
G1 X103.282 Y92.352 F7800.000
G1 X101.316 Y94.318 F7800.000
G1 X99.350 Y92.352 F7800.000
G1 X97.350 Y91.352 F7800.000
G1 X95.279 Y91.352 F7800.000
G1 X93.279 Y92.352 F7800.000
G1 X91.137 Y94.493 F7800.000
G1 X88.996 Y92.352 F7800.000
G1 X86.996 Y92.352 F7800.000
G1 X85.960 Y92.352 F7800.000
G1 X85.960 Y99.449 E2.12659 F600.000
G1 X86.871 Y103.796 E3.45730
G92 E0
G1 X96.279 Y106.648 F7800.000
G1 X96.279 Y106.648 F7800.000
G1 X96.314 Y107.648 F7800.000
G1 X96.314 Y101.184 E1.93691 F600.000
G1 X96.132 Y100.316 E2.20250
G1 X96.314 Y99.449 E2.46808
G1 X96.314 Y92.352 E4.59467
G92 E0
G1 X85.996 Y93.352 F7800.000
G1 X85.960 Y93.387 F7800.000
G1 X85.960 Y106.612 F7800.000
G1 X85.996 Y106.648 F7800.000
G1 X85.960 Y107.648 F7800.000
G1 X85.960 Y101.184 E1.93691 F600.000
G1 X86.142 Y100.316 E2.20250
G1 X97.350 Y100.316 E5.56087
G92 E0
G1 Z0.900 F7800.000
G1 X106.318 Y107.648 F7800.000
G1 X106.318 Y94.044 E4.07639 F600.000
G1 X106.398 Y93.468 E4.25074
G1 X107.353 Y93.198 E4.54819
G1 X115.075 Y93.198 E6.86205
G92 E0
G1 X105.282 Y92.352 F7800.000
G1 X105.282 Y92.352 F7800.000
G1 X103.282 Y92.352 F7800.000
G1 X101.316 Y94.318 F7800.000
G1 X99.350 Y92.352 F7800.000
G1 X97.350 Y91.352 F7800.000
G1 X95.279 Y91.352 F7800.000
G1 X93.279 Y92.352 F7800.000
G1 X91.137 Y94.493 F7800.000
G1 X88.996 Y92.352 F7800.000
G1 X86.996 Y92.352 F7800.000
G1 X85.960 Y92.352 F7800.000
G1 X85.960 Y99.449 E2.12659 F600.000
G1 X86.871 Y103.796 E3.45730
G92 E0
G1 X96.279 Y106.648 F7800.000
G1 X96.279 Y106.648 F7800.000
G1 X96.314 Y107.648 F7800.000
G1 X96.314 Y101.184 E1.93691 F600.000
G1 X96.132 Y100.316 E2.20250
G1 X96.314 Y99.449 E2.46808
G1 X96.314 Y92.352 E4.59467
G92 E0
G1 X85.996 Y93.352 F7800.000
G1 X85.960 Y93.387 F7800.000
G1 X85.960 Y106.612 F7800.000
G1 X85.996 Y106.648 F7800.000
G1 X85.960 Y107.648 F7800.000
G1 X85.960 Y101.184 E1.93691 F600.000
G1 X86.142 Y100.316 E2.20250
G1 X97.350 Y100.316 E5.56087
G92 E0
G1 Z1.200 F7800.000
G1 X106.318 Y107.648 F7800.000
G1 X106.318 Y94.044 E4.07639 F600.000
G1 X106.398 Y93.468 E4.25074
G1 X107.353 Y93.198 E4.54819
G1 X115.075 Y93.198 E6.86205
G92 E0
G1 X105.282 Y92.352 F7800.000
G1 X105.282 Y92.352 F7800.000
G1 X103.282 Y92.352 F7800.000
G1 X101.316 Y94.318 F7800.000
G1 X99.350 Y92.352 F7800.000
G1 X97.350 Y91.352 F7800.000
G1 X95.279 Y91.352 F7800.000
G1 X93.279 Y92.352 F7800.000
G1 X91.137 Y94.493 F7800.000
G1 X88.996 Y92.352 F7800.000
G1 X86.996 Y92.352 F7800.000
G1 X85.960 Y92.352 F7800.000
G1 X85.960 Y99.449 E2.12659 F600.000
G1 X86.871 Y103.796 E3.45730
G92 E0
G1 X96.279 Y106.648 F7800.000
G1 X96.279 Y106.648 F7800.000
G1 X96.314 Y107.648 F7800.000
G1 X96.314 Y101.184 E1.93691 F600.000
G1 X96.132 Y100.316 E2.20250
G1 X96.314 Y99.449 E2.46808
G1 X96.314 Y92.352 E4.59467
G92 E0
G1 X85.996 Y93.352 F7800.000
G1 X85.960 Y93.387 F7800.000
G1 X85.960 Y106.612 F7800.000
G1 X85.996 Y106.648 F7800.000
G1 X85.960 Y107.648 F7800.000
G1 X85.960 Y101.184 E1.93691 F600.000
G1 X86.142 Y100.316 E2.20250
G1 X97.350 Y100.316 E5.56087
G92 E0
G1 Z1.500 F7800.000
G1 X106.318 Y107.648 F7800.000
G1 X106.318 Y94.044 E4.07639 F600.000
G1 X106.398 Y93.468 E4.25074
G1 X107.353 Y93.198 E4.54819
G1 X115.075 Y93.198 E6.86205
G92 E0
G1 X105.282 Y92.352 F7800.000
G1 X105.282 Y92.352 F7800.000
G1 X103.282 Y92.352 F7800.000
G1 X101.316 Y94.318 F7800.000
G1 X99.350 Y92.352 F7800.000
G1 X97.350 Y91.352 F7800.000
G1 X95.279 Y91.352 F7800.000
G1 X93.279 Y92.352 F7800.000
G1 X91.137 Y94.493 F7800.000
G1 X88.996 Y92.352 F7800.000
G1 X86.996 Y92.352 F7800.000
G1 X85.960 Y92.352 F7800.000
G1 X85.960 Y99.449 E2.12659 F600.000
G1 X86.871 Y103.796 E3.45730
G92 E0
G1 X96.279 Y106.648 F7800.000
G1 X96.279 Y106.648 F7800.000
G1 X96.314 Y107.648 F7800.000
G1 X96.314 Y101.184 E1.93691 F600.000
G1 X96.132 Y100.316 E2.20250
G1 X96.314 Y99.449 E2.46808
G1 X96.314 Y92.352 E4.59467
G92 E0
G1 X85.996 Y93.352 F7800.000
G1 X85.960 Y93.387 F7800.000
G1 X85.960 Y106.612 F7800.000
G1 X85.996 Y106.648 F7800.000
G1 X85.960 Y107.648 F7800.000
G1 X85.960 Y101.184 E1.93691 F600.000
G1 X86.142 Y100.316 E2.20250
G1 X97.350 Y100.316 E5.56087
G92 E0
G1 Z1.800 F7800.000
G1 X106.318 Y107.648 F7800.000
G1 X106.318 Y94.044 E4.07639 F600.000
G1 X106.398 Y93.468 E4.25074
G1 X107.353 Y93.198 E4.54819
G1 X115.075 Y93.198 E6.86205
G92 E0
G1 X105.282 Y92.352 F7800.000
G1 X105.282 Y92.352 F7800.000
G1 X103.282 Y92.352 F7800.000
G1 X101.316 Y94.318 F7800.000
G1 X99.350 Y92.352 F7800.000
G1 X97.350 Y91.352 F7800.000
G1 X95.279 Y91.352 F7800.000
G1 X93.279 Y92.352 F7800.000
G1 X91.137 Y94.493 F7800.000
G1 X88.996 Y92.352 F7800.000
G1 X86.996 Y92.352 F7800.000
G1 X85.960 Y92.352 F7800.000
G1 X85.960 Y99.449 E2.12659 F600.000
G1 X86.871 Y103.796 E3.45730
G92 E0
G1 X96.279 Y106.648 F7800.000
G1 X96.279 Y106.648 F7800.000
G1 X96.314 Y107.648 F7800.000
G1 X96.314 Y101.184 E1.93691 F600.000
G1 X96.132 Y100.316 E2.20250
G1 X96.314 Y99.449 E2.46808
G1 X96.314 Y92.352 E4.59467
G92 E0
G1 X85.996 Y93.352 F7800.000
G1 X85.960 Y93.387 F7800.000
G1 X85.960 Y106.612 F7800.000
G1 X85.996 Y106.648 F7800.000
G1 X85.960 Y107.648 F7800.000
G1 X85.960 Y101.184 E1.93691 F600.000
G1 X86.142 Y100.316 E2.20250
G1 X97.350 Y100.316 E5.56087
G92 E0
G1 Z2.100 F7800.000
G1 X106.318 Y107.648 F7800.000
G1 X106.318 Y94.044 E4.07639 F600.000
G1 X106.398 Y93.468 E4.25074
G1 X107.353 Y93.198 E4.54819
G1 X115.075 Y93.198 E6.86205
G92 E0
G1 X105.282 Y92.352 F7800.000
G1 X105.282 Y92.352 F7800.000
G1 X103.282 Y92.352 F7800.000
G1 X101.316 Y94.318 F7800.000
G1 X99.350 Y92.352 F7800.000
G1 X97.350 Y91.352 F7800.000
G1 X95.279 Y91.352 F7800.000
G1 X93.279 Y92.352 F7800.000
G1 X91.137 Y94.493 F7800.000
G1 X88.996 Y92.352 F7800.000
G1 X86.996 Y92.352 F7800.000
G1 X85.960 Y92.352 F7800.000
G1 X85.960 Y99.449 E2.12659 F600.000
G1 X86.871 Y103.796 E3.45730
G92 E0
G1 X96.279 Y106.648 F7800.000
G1 X96.279 Y106.648 F7800.000
G1 X96.314 Y107.648 F7800.000
G1 X96.314 Y101.184 E1.93691 F600.000
G1 X96.132 Y100.316 E2.20250
G1 X96.314 Y99.449 E2.46808
G1 X96.314 Y92.352 E4.59467
G92 E0
G1 X85.996 Y93.352 F7800.000
G1 X85.960 Y93.387 F7800.000
G1 X85.960 Y106.612 F7800.000
G1 X85.996 Y106.648 F7800.000
G1 X85.960 Y107.648 F7800.000
G1 X85.960 Y101.184 E1.93691 F600.000
G1 X86.142 Y100.316 E2.20250
G1 X97.350 Y100.316 E5.56087
G92 E0
M107
M104 S0 ; turn off temperature
G28 X0  ; home X axis
M84     ; disable motors

; filament used = 139.0mm (1.1cm3)

; avoid_crossing_perimeters = 1
; bed_shape = 0x0,250x0,250x250,0x250
; bed_temperature = 0
; before_layer_gcode = 
; bridge_acceleration = 0
; bridge_fan_speed = 100
; brim_width = 0
; complete_objects = 0
; cooling = 1
; default_acceleration = 0
; disable_fan_first_layers = 1
; duplicate_distance = 6
; end_gcode = M104 S0 ; turn off temperature\nG28 X0  ; home X axis\nM84     ; disable motors\n
; extruder_clearance_height = 20
; extruder_clearance_radius = 20
; extruder_offset = 0x0
; extrusion_axis = E
; extrusion_multiplier = 3
; fan_always_on = 0
; fan_below_layer_time = 60
; filament_colour = #FFFFFF
; filament_diameter = 3.125
; first_layer_acceleration = 0
; first_layer_bed_temperature = 0
; first_layer_extrusion_width = 150%
; first_layer_speed = 90%
; first_layer_temperature = 30
; gcode_arcs = 0
; gcode_comments = 0
; gcode_flavor = reprap
; infill_acceleration = 0
; infill_first = 0
; layer_gcode = 
; max_fan_speed = 100
; max_print_speed = 80
; max_volumetric_speed = 0
; min_fan_speed = 35
; min_print_speed = 10
; min_skirt_length = 0
; notes = 
; nozzle_diameter = 1.54
; only_retract_when_crossing_perimeters = 1
; ooze_prevention = 0
; output_filename_format = [input_filename_base].gcode
; perimeter_acceleration = 0
; post_process = 
; pressure_advance = 0
; resolution = 0
; retract_before_travel = 2
; retract_layer_change = 1
; retract_length = 0
; retract_length_toolchange = 10
