; generated by Slic3r 1.2.9 on 2016-03-11 at 01:25:19

; external perimeters extrusion width = 1.54mm
; perimeters extrusion width = 2.62mm
; infill extrusion width = 6.27mm
; solid infill extrusion width = 2.62mm
; top infill extrusion width = 2.62mm

M107
M104 S30 ; set temperature
G28 ; home all axes
G1 Z5 F5000 ; lift nozzle
M302
M92 E10000
M500
M501
G1 E100
M109 S30 ; wait for temperature to be reached
G21 ; set units to millimeters
G90 ; use absolute coordinates
M82 ; use absolute distances for extrusion
G92 E0
G1 Z0.300 F7800.000
G1 X102.976 Y102.808 F7800.000
G1 X102.976 Y92.577 E0.46295 F378.000
G1 X104.369 Y92.577 E0.52598
G1 X104.369 Y102.555 E0.97750
G1 X104.298 Y105.674 E1.11864 F378.000
G1 X104.773 Y105.750 E1.14040
G1 X105.091 Y104.688 E1.19055
G1 X105.695 Y102.851 E1.27810
G1 X109.639 Y92.577 E1.77604
G1 X110.782 Y92.577 E1.82776
G1 X114.672 Y102.853 E2.32493
G1 X114.964 Y103.672 E2.36428
G1 X115.280 Y104.678 E2.41201
G1 X115.568 Y105.691 E2.45964
G1 X116.050 Y105.611 E2.48173
G1 X115.976 Y103.667 E2.56973
G1 X115.965 Y102.557 E2.61998
G1 X115.965 Y92.577 E3.07157
G1 X117.380 Y92.577 E3.13560
G1 X117.380 Y107.423 E3.80737
G1 X115.104 Y107.423 E3.91036
G1 X111.087 Y96.741 E4.42675
G1 X110.637 Y95.324 E4.49402
G1 X110.435 Y94.557 E4.52993
G1 X110.009 Y94.559 E4.54921
G1 X109.604 Y96.083 E4.62054
G1 X109.326 Y96.966 E4.66245
G1 X105.319 Y107.423 E5.16918
G1 X102.976 Y107.423 E5.27516
G1 X102.976 Y103.039 E5.47353
G1 X104.086 Y105.138 F7800.000
G1 X103.202 Y104.254 E5.53034 F540.000
G1 X103.202 Y103.707 E5.55524
G1 X104.098 Y104.603 E5.61285
G1 X104.111 Y104.067 E5.63720
G1 X103.202 Y103.159 E5.69558
G1 X103.202 Y102.611 E5.72049
G1 X104.123 Y103.531 E5.77966
G1 X104.135 Y102.996 E5.80401
G1 X103.202 Y102.063 E5.86398
G1 X103.202 Y101.515 E5.88888
G1 X104.143 Y102.456 E5.94937
G1 X104.143 Y101.909 E5.97427
G1 X103.202 Y100.967 E6.03477
G1 X103.202 Y100.420 E6.05967
G1 X104.143 Y101.361 E6.12017
G1 X104.143 Y100.813 E6.14507
G1 X103.202 Y99.872 E6.20556
G1 X103.202 Y99.324 E6.23046
G1 X104.143 Y100.265 E6.29096
G1 X104.143 Y99.717 E6.31586
G1 X103.202 Y98.776 E6.37636
G1 X103.202 Y98.228 E6.40126
G1 X104.143 Y99.169 E6.46175
G1 X104.143 Y98.622 E6.48665
G1 X103.202 Y97.680 E6.54715
G1 X103.202 Y97.133 E6.57205
G1 X104.143 Y98.074 E6.63255
G1 X104.143 Y97.526 E6.65745
G1 X103.202 Y96.585 E6.71794
G1 X103.202 Y96.037 E6.74285
G1 X104.143 Y96.978 E6.80334
G1 X104.143 Y96.430 E6.82824
G1 X103.202 Y95.489 E6.88874
G1 X103.202 Y94.941 E6.91364
G1 X104.143 Y95.882 E6.97414
G1 X104.143 Y95.335 E6.99904
G1 X103.202 Y94.394 E7.05953
G1 X103.202 Y93.846 E7.08443
G1 X104.143 Y94.787 E7.14493
G1 X104.143 Y94.239 E7.16983
G1 X103.202 Y93.298 E7.23033
G1 X103.255 Y92.803 E7.25295
G1 X104.143 Y93.691 E7.31005
G1 X104.143 Y93.143 E7.33495
G1 X103.803 Y92.803 E7.35683
G92 E0
G1 X110.006 Y93.784 F7800.000
G1 X110.209 Y93.644 F7800.000
G1 X110.209 Y93.406 F7800.000
G1 X110.172 Y93.352 F7800.000
G1 X110.377 Y92.803 F7800.000
G1 X110.719 Y93.145 E0.02197 F540.000
G1 X111.052 Y94.026 F7800.000
G1 X109.829 Y92.803 E0.10060 F540.000
G1 X109.633 Y93.155 E0.11891
G1 X111.386 Y94.908 E0.23158
G1 X110.767 Y94.836 E0.25991
G1 X111.720 Y95.789 E0.32117
G1 X110.996 Y95.614 F7800.000
G1 X112.054 Y96.671 E0.38915 F540.000
G1 X111.567 Y97.280 F7800.000
G1 X112.721 Y98.434 E0.46332 F540.000
G1 X112.228 Y99.036 F7800.000
G1 X113.389 Y100.197 E0.53794 F540.000
G1 X112.888 Y100.792 F7800.000
G1 X114.056 Y101.960 E0.61302 F540.000
G1 X113.549 Y102.549 F7800.000
G1 X114.700 Y103.700 E0.68703 F540.000
G1 X113.879 Y103.427 F7800.000
G1 X114.960 Y104.508 E0.75651 F540.000
G1 X114.209 Y104.305 E0.79186
G1 X115.192 Y105.287 E0.85502
G1 X114.539 Y105.183 E0.88505
G1 X115.410 Y106.053 E0.94100
G1 X115.777 Y105.873 E0.95961
G1 X117.101 Y107.197 E1.04475
G1 X117.154 Y106.702 E1.06737
G1 X116.247 Y105.795 E1.12570
G1 X116.266 Y105.266 E1.14976
G1 X117.154 Y106.154 E1.20688
G1 X117.154 Y105.606 E1.23178
G1 X116.244 Y104.696 E1.29028
G1 X116.223 Y104.127 E1.31618
G1 X117.154 Y105.059 E1.37607
G1 X117.154 Y104.511 E1.40097
G1 X116.202 Y103.558 E1.46220
G1 X116.196 Y103.005 E1.48735
G1 X117.154 Y103.963 E1.54893
G1 X117.154 Y103.415 E1.57383
G1 X116.191 Y102.452 E1.63574
G1 X116.191 Y101.904 E1.66064
G1 X117.154 Y102.867 E1.72255
G1 X117.154 Y102.320 E1.74745
G1 X116.191 Y101.356 E1.80936
G1 X116.191 Y100.809 E1.83426
G1 X117.154 Y101.772 E1.89617
G1 X117.154 Y101.224 E1.92107
G1 X116.191 Y100.261 E1.98298
G1 X116.191 Y99.713 E2.00788
G1 X117.154 Y100.676 E2.06979
G1 X117.154 Y100.128 E2.09469
G1 X116.191 Y99.165 E2.15660
G1 X116.191 Y98.617 E2.18150
G1 X117.154 Y99.580 E2.24341
G1 X117.154 Y99.033 E2.26832
G1 X116.191 Y98.070 E2.33023
G1 X116.191 Y97.522 E2.35513
G1 X117.154 Y98.485 E2.41704
G1 X117.154 Y97.937 E2.44194
G1 X116.191 Y96.974 E2.50385
G1 X116.191 Y96.426 E2.52875
G1 X117.154 Y97.389 E2.59066
G1 X117.154 Y96.841 E2.61556
G1 X116.191 Y95.878 E2.67747
G1 X116.191 Y95.330 E2.70237
G1 X117.154 Y96.293 E2.76428
G1 X117.154 Y95.746 E2.78918
G1 X116.191 Y94.783 E2.85109
G1 X116.191 Y94.235 E2.87599
G1 X117.154 Y95.198 E2.93790
G1 X117.154 Y94.650 E2.96281
G1 X116.191 Y93.687 E3.02472
G1 X116.191 Y93.139 E3.04962
G1 X117.154 Y94.102 E3.11153
G1 X117.154 Y93.554 E3.13643
G1 X116.403 Y92.803 E3.18473
G1 X116.951 Y92.803 E3.20963
G1 X117.154 Y93.007 E3.22272
G92 E0
G1 X110.409 Y93.782 F7800.000
G1 X110.409 Y93.782 F7800.000
G1 X112.387 Y97.553 F7800.000
G1 X111.251 Y96.416 E0.07308 F540.000
G1 X111.898 Y98.158 F7800.000
G1 X113.055 Y99.316 E0.14747 F540.000
G1 X112.558 Y99.914 F7800.000
G1 X113.722 Y101.079 E0.22233 F540.000
G1 X113.218 Y101.671 F7800.000
G1 X114.390 Y102.842 E0.29763 F540.000
G1 X115.307 Y105.950 F7800.000
G1 X116.554 Y107.197 E0.37777 F540.000
G1 X116.006 Y107.197 E0.40267
G1 X114.870 Y106.061 E0.47571
G1 X115.200 Y106.939 F7800.000
G1 X115.458 Y107.197 E0.49231 F540.000
G92 E0
G1 X104.826 Y106.544 F7800.000
G1 X104.826 Y106.544 F7800.000
G1 X104.321 Y105.921 F7800.000
G1 X105.302 Y106.902 E0.06307 F540.000
G1 X105.454 Y106.506 E0.08235
G1 X104.921 Y105.973 E0.11660
G1 X105.047 Y105.551 E0.13660
G1 X105.605 Y106.110 E0.17249
G1 X105.757 Y105.714 E0.19177
G1 X105.174 Y105.130 E0.22928
G1 X105.300 Y104.709 E0.24928
G1 X105.909 Y105.318 E0.28843
G1 X106.061 Y104.922 E0.30771
G1 X105.435 Y104.296 E0.34792
G1 X105.571 Y103.884 E0.36764
G1 X106.213 Y104.525 E0.40889
G1 X106.364 Y104.129 E0.42817
G1 X105.706 Y103.472 E0.47046
G1 X105.842 Y103.059 E0.49019
G1 X106.516 Y103.733 E0.53352
G1 X106.668 Y103.337 E0.55280
G1 X105.986 Y102.656 E0.59659
G1 X106.138 Y102.260 E0.61587
G1 X106.820 Y102.941 E0.65965
G1 X106.971 Y102.545 E0.67893
G1 X106.290 Y101.864 E0.72271
G1 X106.442 Y101.468 E0.74198
G1 X107.123 Y102.149 E0.78574
G1 X107.275 Y101.753 E0.80502
G1 X106.594 Y101.072 E0.84877
G1 X106.746 Y100.677 E0.86804
G1 X107.427 Y101.357 E0.91178
G1 X107.578 Y100.961 E0.93106
G1 X106.898 Y100.281 E0.97478
G1 X107.050 Y99.885 E0.99406
G1 X107.730 Y100.565 E1.03777
G1 X107.882 Y100.169 E1.05705
G1 X107.202 Y99.489 E1.10075
G1 X107.354 Y99.093 E1.12002
G1 X108.034 Y99.773 E1.16371
G1 X108.186 Y99.377 E1.18299
G1 X107.506 Y98.697 E1.22667
G1 X107.658 Y98.301 E1.24594
G1 X108.337 Y98.981 E1.28961
G1 X108.489 Y98.585 E1.30888
G1 X107.810 Y97.906 E1.35254
G1 X107.962 Y97.510 E1.37181
G1 X108.641 Y98.189 E1.41545
G1 X108.793 Y97.793 E1.43473
G1 X108.114 Y97.114 E1.47836
G1 X108.266 Y96.718 E1.49763
G1 X108.944 Y97.396 E1.54125
G1 X109.096 Y97.000 E1.56052
G1 X108.418 Y96.322 E1.60413
G1 X108.570 Y95.926 E1.62340
G1 X109.230 Y96.587 E1.66585
G1 X109.361 Y96.170 E1.68571
G1 X108.722 Y95.530 E1.72682
G1 X108.874 Y95.135 E1.74610
G1 X109.480 Y95.741 E1.78507
G1 X109.595 Y95.308 E1.80543
G1 X109.026 Y94.739 E1.84203
G1 X109.178 Y94.343 E1.86130
G1 X109.710 Y94.875 E1.89554
G1 X109.825 Y94.443 E1.91589
G1 X109.330 Y93.947 E1.94775
G1 X109.482 Y93.551 E1.96703
G1 X110.263 Y94.332 E2.01724
G92 E0
G1 X110.006 Y93.784 F7800.000
G1 X110.006 Y93.784 F7800.000
G1 X104.074 Y105.674 F7800.000
G1 X103.202 Y104.802 E0.05603 F540.000
G1 X103.202 Y105.350 E0.08093
G1 X105.049 Y107.197 E0.19966
G1 X104.502 Y107.197 E0.22456
G1 X103.202 Y105.898 E0.30808
G1 X103.202 Y106.446 E0.33298
G1 X103.954 Y107.197 E0.38128
G1 X103.406 Y107.197 E0.40618
G1 X103.202 Y106.993 E0.41927
G92 E0
G1 X102.751 Y107.648 F7800.000
G1 X100.751 Y107.648 F7800.000
G1 X96.820 Y107.648 F7800.000
G1 X94.820 Y107.648 F7800.000
G1 X94.595 Y102.832 F7800.000
G1 X94.595 Y107.423 E0.20774 F378.000
G1 X92.974 Y107.423 E0.28109
G1 X92.974 Y100.959 E0.57358
G1 X84.241 Y100.959 E0.96875
G1 X84.241 Y107.423 E1.26124
G1 X82.620 Y107.423 E1.33459
G1 X82.620 Y92.577 E2.00636
G1 X84.241 Y92.577 E2.07971
G1 X84.241 Y99.674 E2.40084
G1 X92.974 Y99.674 E2.79600 F378.000
G1 X92.974 Y92.577 E3.11714
G1 X94.595 Y92.577 E3.19048
G1 X94.595 Y102.601 E3.64406
G1 X93.200 Y101.265 F7800.000
G1 X94.369 Y102.434 E3.72014 F540.000
G1 X94.369 Y102.989 E3.74565
G1 X93.200 Y101.820 E3.82173
G1 X93.200 Y102.374 E3.84725
G1 X94.369 Y103.543 E3.92333
G1 X94.369 Y104.098 E3.94884
G1 X93.200 Y102.929 E4.02492
G1 X93.200 Y103.483 E4.05044
G1 X94.369 Y104.652 E4.12651
G1 X94.369 Y105.207 E4.15203
G1 X93.200 Y104.038 E4.22811
G1 X93.200 Y104.592 E4.25363
G1 X94.369 Y105.762 E4.32970
G1 X94.369 Y106.316 E4.35522
G1 X93.200 Y105.147 E4.43130
G1 X93.200 Y105.702 E4.45682
G1 X94.369 Y106.871 E4.53289
G1 X94.140 Y107.197 E4.55122
G1 X93.200 Y106.256 E4.61245
G1 X93.200 Y106.811 E4.63796
G1 X93.586 Y107.197 E4.66310
G1 X92.944 Y99.900 F7800.000
G1 X94.369 Y101.325 E4.75584 F540.000
G1 X94.369 Y101.880 E4.78136
G1 X92.389 Y99.900 E4.91018
G1 X91.834 Y99.900 E4.93570
G1 X92.668 Y100.733 E4.98991
G1 X92.113 Y100.733 E5.01543
G1 X91.280 Y99.900 E5.06964
G1 X90.725 Y99.900 E5.09516
G1 X91.558 Y100.733 E5.14937
G1 X91.004 Y100.733 E5.17489
G1 X90.171 Y99.900 E5.22910
G1 X89.616 Y99.900 E5.25462
G1 X90.449 Y100.733 E5.30883
G1 X89.895 Y100.733 E5.33435
G1 X89.062 Y99.900 E5.38856
G1 X88.507 Y99.900 E5.41408
G1 X89.340 Y100.733 E5.46829
G1 X88.786 Y100.733 E5.49381
G1 X87.953 Y99.900 E5.54802
G1 X87.398 Y99.900 E5.57354
G1 X88.231 Y100.733 E5.62775
G1 X87.676 Y100.733 E5.65327
G1 X86.843 Y99.900 E5.70748
G1 X86.289 Y99.900 E5.73300
G1 X87.122 Y100.733 E5.78721
G1 X86.567 Y100.733 E5.81273
G1 X85.734 Y99.900 E5.86694
G1 X85.180 Y99.900 E5.89246
G1 X86.013 Y100.733 E5.94667
G1 X85.458 Y100.733 E5.97219
G1 X84.625 Y99.900 E6.02640
G1 X84.071 Y99.900 E6.05192
G1 X84.904 Y100.733 E6.10613
G1 X84.349 Y100.733 E6.13165
G1 X82.846 Y99.230 E6.22948
G1 X82.846 Y99.784 E6.25500
G1 X84.015 Y100.953 E6.33108
G1 X84.015 Y101.508 E6.35660
G1 X82.846 Y100.339 E6.43267
G1 X82.846 Y100.893 E6.45819
G1 X84.015 Y102.062 E6.53427
G1 X84.015 Y102.617 E6.55979
G1 X82.846 Y101.448 E6.63586
G1 X82.846 Y102.002 E6.66138
G1 X84.015 Y103.171 E6.73746
G1 X84.015 Y103.726 E6.76298
G1 X82.846 Y102.557 E6.83905
G1 X82.846 Y103.112 E6.86457
G1 X84.015 Y104.281 E6.94065
G1 X84.015 Y104.835 E6.96617
G1 X82.846 Y103.666 E7.04224
G1 X82.846 Y104.221 E7.06776
G1 X84.015 Y105.390 E7.14384
G1 X84.015 Y105.944 E7.16936
G1 X82.846 Y104.775 E7.24543
G1 X82.846 Y105.330 E7.27095
G1 X84.015 Y106.499 E7.34703
G1 X84.015 Y107.053 E7.37255
G1 X82.846 Y105.884 E7.44862
G1 X82.846 Y106.439 E7.47414
G1 X83.604 Y107.197 E7.52348
G1 X83.049 Y107.197 E7.54899
G1 X82.846 Y106.993 E7.56224
G1 X84.015 Y99.844 F7800.000
G1 X82.846 Y98.675 E7.63832 F540.000
G1 X82.846 Y98.120 E7.66384
G1 X84.015 Y99.290 E7.73991
G1 X84.015 Y98.735 E7.76543
G1 X82.846 Y97.566 E7.84151
G1 X82.846 Y97.011 E7.86703
G1 X84.015 Y98.180 E7.94310
G1 X84.015 Y97.626 E7.96862
G1 X82.846 Y96.457 E8.04470
G1 X82.846 Y95.902 E8.07021
G1 X84.015 Y97.071 E8.14629
G1 X84.015 Y96.517 E8.17181
G1 X82.846 Y95.348 E8.24789
G1 X82.846 Y94.793 E8.27340
G1 X84.015 Y95.962 E8.34948
G1 X84.015 Y95.408 E8.37500
G1 X82.846 Y94.238 E8.45108
G1 X82.846 Y93.684 E8.47659
G1 X84.015 Y94.853 E8.55267
G1 X84.015 Y94.298 E8.57819
G1 X82.846 Y93.129 E8.65427
G1 X83.074 Y92.803 E8.67259
G1 X84.015 Y93.744 E8.73382
G1 X84.015 Y93.189 E8.75934
G1 X83.628 Y92.803 E8.78448
G92 E0
G1 X93.749 Y93.352 F7800.000
G1 X93.749 Y93.352 F7800.000
G1 X93.784 Y93.387 F7800.000
G1 X93.820 Y93.352 F7800.000
G1 X94.369 Y93.007 F7800.000
G1 X94.165 Y92.803 E0.01325 F540.000
G1 X93.611 Y92.803 E0.03877
G1 X94.369 Y93.561 E0.08810
G1 X94.369 Y94.116 E0.11362
G1 X93.200 Y92.947 E0.18970
G1 X93.200 Y93.501 E0.21522
G1 X94.369 Y94.670 E0.29129
G1 X94.369 Y95.225 E0.31681
G1 X93.200 Y94.056 E0.39289
G1 X93.200 Y94.610 E0.41841
G1 X94.369 Y95.779 E0.49448
G1 X94.369 Y96.334 E0.52000
G1 X93.200 Y95.165 E0.59608
G1 X93.200 Y95.719 E0.62160
G1 X94.369 Y96.889 E0.69767
G1 X94.369 Y97.443 E0.72319
G1 X93.200 Y96.274 E0.79927
G1 X93.200 Y96.829 E0.82479
G1 X94.369 Y97.998 E0.90086
G1 X94.369 Y98.552 E0.92638
G1 X93.200 Y97.383 E1.00246
G1 X93.200 Y97.938 E1.02797
G1 X94.369 Y99.107 E1.10405
G1 X94.369 Y99.661 E1.12957
G1 X93.200 Y98.492 E1.20565
G1 X93.200 Y99.047 E1.23116
G1 X94.369 Y100.216 E1.30724
G1 X94.369 Y100.770 E1.33276
G1 X93.200 Y99.601 E1.40884
M106 S255
G92 E0
G1 Z0.600 F7800.000
G1 X116.673 Y92.352 F7800.000
G1 X116.673 Y102.553 E3.05684 F600.000
G1 X116.711 Y105.387 E3.90611
G1 X116.412 Y106.455 E4.23829
G1 X116.000 Y106.527 E4.36362
G1 X115.714 Y106.542 E4.44953
G1 X115.002 Y105.643 E4.79316
G1 X114.400 Y103.861 E5.35686
G1 X114.107 Y103.060 E5.61227
G1 X111.649 Y96.547 E7.69838
G1 X110.985 Y94.592 E8.31689
G1 X110.257 Y93.677 E8.66743
G1 X110.209 Y93.644 E8.68492
G1 X109.444 Y94.587 E9.04859
G1 X108.721 Y96.755 E9.73345
G1 X106.301 Y103.066 E11.75884
G1 X105.368 Y105.723 E12.60259
G1 X104.731 Y106.569 E12.91989
G1 X104.355 Y106.559 E13.03285
G1 X103.919 Y106.480 E13.16539
G1 X103.640 Y105.463 E13.48158
G1 X103.673 Y102.547 E14.35514
G1 X103.673 Y92.352 E17.41018
G92 E0
G1 X94.820 Y91.352 F7800.000
G1 X92.749 Y91.352 F7800.000
G1 X88.607 Y94.493 F7800.000
G1 X86.466 Y92.352 F7800.000
G1 X84.466 Y92.352 F7800.000
G1 X83.430 Y92.352 F7800.000
G1 X83.430 Y99.449 E2.12659 F600.000
G1 X84.341 Y103.796 E3.45730
G92 E0
G1 X93.749 Y106.648 F7800.000
G1 X93.749 Y106.648 F7800.000
G1 X93.784 Y107.648 F7800.000
G1 X93.784 Y101.184 E1.93691 F600.000
G1 X93.602 Y100.316 E2.20250
G1 X93.784 Y99.449 E2.46808
G1 X93.784 Y92.352 E4.59467
G92 E0
G1 X83.466 Y93.352 F7800.000
G1 X83.430 Y93.387 F7800.000
G1 X83.430 Y106.612 F7800.000
G1 X83.466 Y106.648 F7800.000
G1 X83.430 Y107.648 F7800.000
G1 X83.430 Y101.184 E1.93691 F600.000
G1 X83.612 Y100.316 E2.20250
G1 X94.820 Y100.316 E5.56087
G92 E0
G1 Z0.900 F7800.000
G1 X116.673 Y92.352 F7800.000
G1 X116.673 Y102.553 E3.05684 F600.000
G1 X116.711 Y105.387 E3.90611
G1 X116.412 Y106.455 E4.23829
G1 X116.000 Y106.527 E4.36362
G1 X115.714 Y106.542 E4.44953
G1 X115.002 Y105.643 E4.79316
G1 X114.400 Y103.861 E5.35686
G1 X114.107 Y103.060 E5.61227
G1 X111.649 Y96.547 E7.69838
G1 X110.985 Y94.592 E8.31689
G1 X110.257 Y93.677 E8.66743
G1 X110.209 Y93.644 E8.68492
G1 X109.444 Y94.587 E9.04859
G1 X108.721 Y96.755 E9.73345
G1 X106.301 Y103.066 E11.75884
G1 X105.368 Y105.723 E12.60259
G1 X104.731 Y106.569 E12.91989
G1 X104.355 Y106.559 E13.03285
G1 X103.919 Y106.480 E13.16539
G1 X103.640 Y105.463 E13.48158
G1 X103.673 Y102.547 E14.35514
G1 X103.673 Y92.352 E17.41017
G92 E0
G1 X94.820 Y91.352 F7800.000
G1 X92.749 Y91.352 F7800.000
G1 X88.607 Y94.493 F7800.000
G1 X86.466 Y92.352 F7800.000
G1 X84.466 Y92.352 F7800.000
G1 X83.430 Y92.352 F7800.000
G1 X83.430 Y99.449 E2.12659 F600.000
G1 X84.341 Y103.796 E3.45730
G92 E0
G1 X93.749 Y106.648 F7800.000
G1 X93.749 Y106.648 F7800.000
G1 X93.784 Y107.648 F7800.000
G1 X93.784 Y101.184 E1.93691 F600.000
G1 X93.602 Y100.316 E2.20250
G1 X93.784 Y99.449 E2.46808
G1 X93.784 Y92.352 E4.59467
G92 E0
G1 X83.466 Y93.352 F7800.000
G1 X83.430 Y93.387 F7800.000
G1 X83.430 Y106.612 F7800.000
G1 X83.466 Y106.648 F7800.000
G1 X83.430 Y107.648 F7800.000
G1 X83.430 Y101.184 E1.93691 F600.000
G1 X83.612 Y100.316 E2.20250
G1 X94.820 Y100.316 E5.56087
G92 E0
G1 Z1.200 F7800.000
G1 X116.673 Y92.352 F7800.000
