; generated by Slic3r 1.2.9 on 2016-03-11 at 01:25:21

; external perimeters extrusion width = 1.54mm
; perimeters extrusion width = 2.62mm
; infill extrusion width = 6.27mm
; solid infill extrusion width = 2.62mm
; top infill extrusion width = 2.62mm

M107
M104 S30 ; set temperature
G28 ; home all axes
G1 Z5 F5000 ; lift nozzle
M302
M92 E10000
M500
M501
G1 E100
M109 S30 ; wait for temperature to be reached
G21 ; set units to millimeters
G90 ; use absolute coordinates
M82 ; use absolute distances for extrusion
G92 E0
G1 Z0.300 F7800.000
G1 X115.455 Y105.318 F7800.000
G1 X114.758 Y106.032 E0.04512 F378.000
G1 X113.743 Y106.716 E0.10054
G1 X112.570 Y107.214 E0.15818
G1 X111.258 Y107.514 E0.21909
G1 X109.808 Y107.614 E0.28484
G1 X107.644 Y107.390 E0.38327
G1 X105.840 Y106.725 E0.47028
G1 X104.381 Y105.621 E0.55307
G1 X103.305 Y104.124 E0.63649
G1 X102.656 Y102.275 E0.72516
G1 X102.437 Y100.061 E0.82583
G1 X102.535 Y98.562 E0.89381
G1 X102.827 Y97.196 E0.95705
G1 X103.313 Y95.965 E1.01692
G1 X103.981 Y94.896 E1.07395
G1 X104.819 Y94.011 E1.12908
G1 X105.831 Y93.308 E1.18483
G1 X107.003 Y92.797 E1.24269
G1 X108.320 Y92.489 E1.30389
G1 X109.783 Y92.386 E1.37029
G1 X111.249 Y92.491 E1.43679
G1 X112.546 Y92.802 E1.49713 F378.000
G1 X113.719 Y93.319 E1.55513
G1 X114.736 Y94.028 E1.61125
G1 X115.582 Y94.915 E1.66670
G1 X116.258 Y95.983 E1.72391
G1 X116.753 Y97.209 E1.78374
G1 X117.051 Y98.570 E1.84675
G1 X117.151 Y100.065 E1.91457
G1 X117.052 Y101.563 E1.98251
G1 X116.758 Y102.916 E2.04514
G1 X116.270 Y104.124 E2.10412
G1 X115.612 Y105.150 E2.15925
G1 X114.269 Y104.274 F7800.000
G1 X114.005 Y104.678 E2.18107 F378.000
G1 X112.871 Y105.623 E2.24789
G1 X111.466 Y106.188 E2.31639
G1 X109.806 Y106.374 E2.39200
G1 X108.133 Y106.191 E2.46814
G1 X106.720 Y105.634 E2.53688
G1 X105.578 Y104.701 E2.60356
G1 X104.747 Y103.438 E2.67200
G1 X104.253 Y101.890 E2.74552
G1 X104.089 Y100.065 E2.82844
G1 X104.254 Y98.242 E2.91125
G1 X104.754 Y96.676 E2.98564
G1 X105.592 Y95.372 E3.05580
G1 X106.735 Y94.394 E3.12386
G1 X108.136 Y93.808 E3.19260 F378.000
G1 X109.783 Y93.615 E3.26760
G1 X111.466 Y93.801 E3.34426
G1 X112.882 Y94.368 E3.41327
G1 X114.017 Y95.317 E3.48021
G1 X114.839 Y96.605 E3.54936
G1 X115.327 Y98.190 E3.62439
G1 X115.488 Y100.065 E3.70957
G1 X115.326 Y101.868 E3.79148
G1 X114.833 Y103.408 E3.86464
G1 X114.395 Y104.081 E3.90095
G92 E0
G1 X114.798 Y104.881 F7800.000
G1 X114.798 Y104.881 F7800.000
G1 X107.334 Y106.999 F7800.000
G1 X103.101 Y102.766 E0.27471 F540.000
G1 X103.400 Y103.619 F7800.000
G1 X106.458 Y106.676 E0.47314 F540.000
G1 X106.857 Y105.969 F7800.000
G1 X108.088 Y107.200 E0.55301 F540.000
G1 X108.705 Y107.264 E0.58147
G1 X107.770 Y106.329 E0.64215
G1 X108.457 Y106.463 E0.67429
G1 X109.322 Y107.328 E0.73040
G1 X109.932 Y107.385 E0.75851
G1 X109.078 Y106.531 E0.81388
G1 X109.699 Y106.600 E0.84256
G1 X110.449 Y107.349 E0.89119
G1 X110.966 Y107.313 E0.91498
G1 X110.202 Y106.549 E0.96458
G1 X110.699 Y106.493 E0.98754
G1 X111.459 Y107.253 E1.03686
G1 X111.909 Y107.150 E1.05804
G1 X111.196 Y106.437 E1.10430
G1 X111.645 Y106.333 E1.12545
G1 X112.359 Y107.047 E1.17178
G1 X112.774 Y106.909 E1.19186
G1 X112.039 Y106.174 E1.23956
G1 X112.434 Y106.016 E1.25906
G1 X113.163 Y106.745 E1.30636
G1 X113.551 Y106.580 E1.32571
G1 X112.828 Y105.857 E1.37261
G1 X113.158 Y105.634 E1.39089
G1 X113.900 Y106.376 E1.43903
G1 X114.231 Y106.153 E1.45731
G1 X113.460 Y105.383 E1.50732
G1 X113.762 Y105.132 E1.52533
G1 X114.560 Y105.930 E1.57714
G1 X114.837 Y105.653 E1.59508
G1 X114.064 Y104.880 E1.64525
G1 X114.307 Y104.571 E1.66331
G1 X115.113 Y105.377 E1.71560
G1 X115.390 Y105.100 E1.73354
G1 X114.526 Y104.236 E1.78961
G1 X114.744 Y103.902 E1.80795
G1 X115.620 Y104.777 E1.86477
G1 X115.836 Y104.440 E1.88314
G1 X114.962 Y103.567 E1.93983
G1 X115.123 Y103.175 E1.95928
G1 X116.052 Y104.103 E2.01954
G1 X116.217 Y103.716 E2.03886
G1 X115.257 Y102.756 E2.10119
G1 X115.391 Y102.337 E2.12137
G1 X116.377 Y103.322 E2.18533
G1 X116.536 Y102.928 E2.20482
G1 X115.525 Y101.918 E2.27041
G1 X115.585 Y101.425 E2.29318
G1 X116.638 Y102.478 E2.36147
G1 X116.737 Y102.023 E2.38280
G1 X115.631 Y100.918 E2.45455
G1 X115.677 Y100.411 E2.47792
G1 X116.831 Y101.565 E2.55281
G1 X116.865 Y101.046 E2.57667
G1 X115.707 Y99.888 E2.65182
G1 X115.655 Y99.283 E2.67968
G1 X116.899 Y100.527 E2.76042
G1 X116.914 Y99.988 E2.78514
G1 X115.603 Y98.678 E2.87018
G1 X115.551 Y98.073 E2.89804
G1 X116.874 Y99.396 E2.98389
G1 X116.835 Y98.803 E3.01114
G1 X115.313 Y97.281 E3.10989
G1 X115.067 Y96.482 E3.14826
G1 X116.701 Y98.116 E3.25429
G1 X116.545 Y97.408 E3.28755
G1 X114.174 Y95.037 E3.44143
G1 X114.317 Y95.179 F7800.000
G1 X112.082 Y92.945 E3.58643 F540.000
G1 X111.355 Y92.771 F7800.000
G1 X112.529 Y93.944 E3.66257 F540.000
G1 X112.970 Y93.279 F7800.000
G1 X116.179 Y96.489 E3.87083 F540.000
G1 X115.199 Y94.956 F7800.000
G1 X114.359 Y94.116 E3.92533 F540.000
G1 X111.612 Y93.581 F7800.000
G1 X110.717 Y92.685 E3.98343 F540.000
G1 X110.121 Y92.643 E4.01084
G1 X110.990 Y93.512 E4.06724
G1 X110.368 Y93.443 E4.09596
G1 X109.549 Y92.623 E4.14914
G1 X109.032 Y92.660 E4.17290
G1 X109.770 Y93.398 E4.22079
G1 X109.275 Y93.456 E4.24366
G1 X108.515 Y92.696 E4.29296
G1 X108.037 Y92.770 E4.31519
G1 X108.780 Y93.514 E4.36344
G1 X108.285 Y93.572 E4.38631
G1 X107.588 Y92.875 E4.43153
G1 X107.140 Y92.980 E4.45265
G1 X107.864 Y93.704 E4.49963
G1 X107.474 Y93.867 E4.51903
G1 X106.738 Y93.131 E4.56681
G1 X106.353 Y93.299 E4.58608
G1 X107.084 Y94.030 E4.63354
G1 X106.694 Y94.193 E4.65294
G1 X105.968 Y93.467 E4.70007
G1 X105.631 Y93.683 E4.71843
G1 X106.387 Y94.438 E4.76744
G1 X106.089 Y94.693 E4.78544
G1 X105.305 Y93.910 E4.83629
G1 X104.987 Y94.144 E4.85444
G1 X105.791 Y94.948 E4.90660
G1 X105.493 Y95.203 E4.92460
G1 X104.710 Y94.421 E4.97537
G1 X104.434 Y94.697 E4.99331
G1 X105.262 Y95.525 E5.04703
G1 X105.045 Y95.862 E5.06539
G1 X104.164 Y94.981 E5.12256
G1 X103.947 Y95.317 E5.14092
G1 X104.829 Y96.199 E5.19812
G1 X104.612 Y96.535 E5.21648
G1 X103.735 Y95.658 E5.27344
G1 X103.522 Y95.998 E5.29186
G1 X104.457 Y96.933 E5.35250
G1 X104.323 Y97.352 E5.37269
G1 X103.362 Y96.391 E5.43507
G1 X103.205 Y96.787 E5.45463
G1 X104.189 Y97.771 E5.51849
G1 X104.056 Y98.191 E5.53868
G1 X103.049 Y97.184 E5.60402
G1 X102.948 Y97.636 E5.62529
G1 X103.995 Y98.683 E5.69319
G1 X103.949 Y99.190 E5.71655
G1 X102.851 Y98.092 E5.78780
G1 X102.757 Y98.551 E5.80929
G1 X103.903 Y99.697 E5.88367
G1 X103.868 Y100.215 E5.90751
G1 X102.723 Y99.070 E5.98184
G1 X102.689 Y99.589 E6.00572
G1 X103.923 Y100.823 E6.08576
G1 X103.977 Y101.430 E6.11374
G1 X102.680 Y100.133 E6.19792
G1 X102.740 Y100.746 E6.22622
G1 X104.033 Y102.039 E6.31008
G1 X104.292 Y102.851 E6.34922
G1 X102.801 Y101.360 E6.44599
G1 X102.861 Y101.973 E6.47429
G1 X104.562 Y103.674 E6.58462
G1 X104.449 Y105.220 F7800.000
G1 X104.803 Y105.574 E6.60760 F540.000
G92 E0
G1 X103.103 Y104.229 F7800.000
G1 X99.193 Y105.603 F7800.000
G1 X97.241 Y107.648 F7800.000
G1 X95.049 Y107.648 F7800.000
G1 X93.203 Y103.955 F7800.000
G1 X93.203 Y100.959 E0.13558 F378.000
G1 X84.470 Y100.959 E0.53074
G1 X84.470 Y107.423 E0.82323
G1 X82.849 Y107.423 E0.89658
G1 X82.849 Y92.577 E1.56835
G1 X84.470 Y92.577 E1.64170
G1 X84.470 Y99.674 E1.96283
G1 X93.203 Y99.674 E2.35799 F378.000
G1 X93.203 Y92.577 E2.67913
G1 X94.824 Y92.577 E2.75248
G1 X94.824 Y107.423 E3.42425
G1 X93.203 Y107.423 E3.49760
G1 X93.203 Y104.186 E3.64406
G1 X93.429 Y101.265 F7800.000
G1 X94.598 Y102.434 E3.72014 F540.000
G1 X94.598 Y102.989 E3.74565
G1 X93.429 Y101.820 E3.82173
G1 X93.429 Y102.374 E3.84725
G1 X94.598 Y103.543 E3.92333
G1 X94.598 Y104.098 E3.94884
G1 X93.429 Y102.929 E4.02492
G1 X93.429 Y103.483 E4.05044
G1 X94.598 Y104.652 E4.12651
G1 X94.598 Y105.207 E4.15203
G1 X93.429 Y104.038 E4.22811
G1 X93.429 Y104.592 E4.25363
G1 X94.598 Y105.762 E4.32970
G1 X94.598 Y106.316 E4.35522
G1 X93.429 Y105.147 E4.43130
G1 X93.429 Y105.702 E4.45682
G1 X94.598 Y106.871 E4.53289
G1 X94.369 Y107.197 E4.55122
G1 X93.429 Y106.256 E4.61244
G1 X93.429 Y106.811 E4.63796
G1 X93.815 Y107.197 E4.66310
G1 X93.173 Y99.900 F7800.000
G1 X94.598 Y101.325 E4.75584 F540.000
G1 X94.598 Y101.880 E4.78135
G1 X92.618 Y99.900 E4.91018
G1 X92.063 Y99.900 E4.93569
G1 X92.897 Y100.733 E4.98991
G1 X92.342 Y100.733 E5.01542
G1 X91.509 Y99.900 E5.06964
G1 X90.954 Y99.900 E5.09516
G1 X91.787 Y100.733 E5.14937
G1 X91.233 Y100.733 E5.17489
G1 X90.400 Y99.900 E5.22910
G1 X89.845 Y99.900 E5.25462
G1 X90.678 Y100.733 E5.30883
G1 X90.124 Y100.733 E5.33435
G1 X89.291 Y99.900 E5.38856
G1 X88.736 Y99.900 E5.41408
G1 X89.569 Y100.733 E5.46829
G1 X89.015 Y100.733 E5.49381
G1 X88.182 Y99.900 E5.54802
G1 X87.627 Y99.900 E5.57354
G1 X88.460 Y100.733 E5.62775
G1 X87.905 Y100.733 E5.65327
G1 X87.072 Y99.900 E5.70748
G1 X86.518 Y99.900 E5.73300
G1 X87.351 Y100.733 E5.78721
G1 X86.796 Y100.733 E5.81273
G1 X85.963 Y99.900 E5.86694
G1 X85.409 Y99.900 E5.89246
G1 X86.242 Y100.733 E5.94667
G1 X85.687 Y100.733 E5.97219
G1 X84.854 Y99.900 E6.02640
G1 X84.300 Y99.900 E6.05192
G1 X85.133 Y100.733 E6.10613
G1 X84.578 Y100.733 E6.13165
G1 X83.075 Y99.230 E6.22948
G1 X83.075 Y99.784 E6.25500
G1 X84.244 Y100.953 E6.33108
G1 X84.244 Y101.508 E6.35660
G1 X83.075 Y100.339 E6.43267
G1 X83.075 Y100.893 E6.45819
G1 X84.244 Y102.062 E6.53427
G1 X84.244 Y102.617 E6.55979
G1 X83.075 Y101.448 E6.63586
G1 X83.075 Y102.002 E6.66138
G1 X84.244 Y103.171 E6.73746
G1 X84.244 Y103.726 E6.76298
G1 X83.075 Y102.557 E6.83905
G1 X83.075 Y103.112 E6.86457
G1 X84.244 Y104.281 E6.94065
G1 X84.244 Y104.835 E6.96617
G1 X83.075 Y103.666 E7.04224
G1 X83.075 Y104.221 E7.06776
G1 X84.244 Y105.390 E7.14384
G1 X84.244 Y105.944 E7.16936
G1 X83.075 Y104.775 E7.24543
G1 X83.075 Y105.330 E7.27095
G1 X84.244 Y106.499 E7.34703
G1 X84.244 Y107.053 E7.37255
G1 X83.075 Y105.884 E7.44862
G1 X83.075 Y106.439 E7.47414
G1 X83.833 Y107.197 E7.52348
G1 X83.278 Y107.197 E7.54899
G1 X83.075 Y106.993 E7.56224
G1 X84.244 Y99.844 F7800.000
G1 X83.075 Y98.675 E7.63832 F540.000
G1 X83.075 Y98.120 E7.66384
G1 X84.244 Y99.290 E7.73991
G1 X84.244 Y98.735 E7.76543
G1 X83.075 Y97.566 E7.84151
G1 X83.075 Y97.011 E7.86702
G1 X84.244 Y98.180 E7.94310
G1 X84.244 Y97.626 E7.96862
G1 X83.075 Y96.457 E8.04470
G1 X83.075 Y95.902 E8.07021
G1 X84.244 Y97.071 E8.14629
G1 X84.244 Y96.517 E8.17181
G1 X83.075 Y95.348 E8.24789
G1 X83.075 Y94.793 E8.27340
G1 X84.244 Y95.962 E8.34948
G1 X84.244 Y95.408 E8.37500
G1 X83.075 Y94.238 E8.45108
G1 X83.075 Y93.684 E8.47659
G1 X84.244 Y94.853 E8.55267
G1 X84.244 Y94.298 E8.57819
G1 X83.075 Y93.129 E8.65427
G1 X83.303 Y92.803 E8.67259
G1 X84.244 Y93.744 E8.73382
G1 X84.244 Y93.189 E8.75934
G1 X83.857 Y92.803 E8.78448
G92 E0
G1 X93.978 Y93.352 F7800.000
G1 X93.978 Y93.352 F7800.000
G1 X94.013 Y93.387 F7800.000
G1 X94.049 Y93.352 F7800.000
G1 X94.598 Y93.007 F7800.000
G1 X94.394 Y92.803 E0.01325 F540.000
G1 X93.840 Y92.803 E0.03877
G1 X94.598 Y93.561 E0.08810
G1 X94.598 Y94.116 E0.11362
G1 X93.429 Y92.947 E0.18970
G1 X93.429 Y93.501 E0.21522
G1 X94.598 Y94.670 E0.29129
G1 X94.598 Y95.225 E0.31681
G1 X93.429 Y94.056 E0.39289
G1 X93.429 Y94.610 E0.41841
G1 X94.598 Y95.779 E0.49448
G1 X94.598 Y96.334 E0.52000
G1 X93.429 Y95.165 E0.59608
G1 X93.429 Y95.719 E0.62160
G1 X94.598 Y96.889 E0.69767
G1 X94.598 Y97.443 E0.72319
G1 X93.429 Y96.274 E0.79927
G1 X93.429 Y96.829 E0.82479
G1 X94.598 Y97.998 E0.90086
G1 X94.598 Y98.552 E0.92638
G1 X93.429 Y97.383 E1.00246
G1 X93.429 Y97.938 E1.02798
G1 X94.598 Y99.107 E1.10405
G1 X94.598 Y99.661 E1.12957
G1 X93.429 Y98.492 E1.20565
G1 X93.429 Y99.047 E1.23117
G1 X94.598 Y100.216 E1.30724
G1 X94.598 Y100.770 E1.33276
G1 X93.429 Y99.601 E1.40884
M106 S255
G92 E0
G1 Z0.600 F7800.000
G1 X103.265 Y100.047 F7800.000
G1 X103.370 Y98.678 E0.41153 F600.000
G1 X103.490 Y97.973 E0.62588
G1 X103.632 Y97.439 E0.79152
G1 X104.033 Y96.328 E1.14547
G1 X104.621 Y95.391 E1.47686
G1 X104.936 Y94.989 E1.62983
G1 X105.128 Y94.779 E1.71524
G1 X105.320 Y94.596 E1.79480
G1 X106.179 Y93.933 E2.11988
G1 X106.506 Y93.754 E2.23139
G1 X107.219 Y93.449 E2.46386
G1 X107.865 Y93.240 E2.66727
G1 X108.416 Y93.127 E2.83584
G1 X109.783 Y93.002 E3.24709
G1 X111.138 Y93.123 E3.65471
G1 X111.724 Y93.240 E3.83387
G1 X112.334 Y93.433 E4.02548
G1 X113.090 Y93.752 E4.27153
G1 X113.386 Y93.910 E4.37210
G1 X114.263 Y94.580 E4.70267
G1 X114.445 Y94.750 E4.77747
G1 X114.639 Y94.962 E4.86330
G1 X114.974 Y95.390 E5.02624
G1 X115.566 Y96.339 E5.36128
G1 X115.963 Y97.454 E5.71595
G1 X116.133 Y98.145 E5.92930
G1 X116.215 Y98.688 E6.09398
G1 X116.318 Y100.065 E6.50780
G1 X116.213 Y101.445 E6.92234
G1 X116.094 Y102.140 E7.13364
G1 X115.952 Y102.667 E7.29723
G1 X115.554 Y103.754 E7.64416
G1 X114.969 Y104.668 E7.96932
G1 X114.654 Y105.061 E8.12007
G1 X114.457 Y105.273 E8.20699
G1 X114.269 Y105.446 E8.28338
G1 X113.405 Y106.094 E8.60709
G1 X113.089 Y106.261 E8.71416
G1 X112.359 Y106.563 E8.95085
G1 X111.729 Y106.761 E9.14868
G1 X111.163 Y106.873 E9.32168
G1 X109.819 Y106.992 E9.72604
G1 X108.095 Y106.812 E10.24542
G1 X107.871 Y106.773 E10.31349
G1 X106.509 Y106.264 E10.74920
G1 X106.181 Y106.101 E10.85884
G1 X105.145 Y105.287 E11.25388
G1 X104.928 Y105.088 E11.34191
G1 X104.018 Y103.753 E11.82619
G1 X103.482 Y102.162 E12.32902
G1 X103.440 Y101.938 E12.39748
G1 X103.265 Y100.047 E12.96634
G92 E0
G1 X102.311 Y98.531 F7800.000
G1 X97.241 Y92.352 F7800.000
G1 X90.786 Y92.352 F7800.000
G1 X86.887 Y92.352 F7800.000
G1 X84.695 Y92.352 F7800.000
G1 X83.659 Y92.352 F7800.000
G1 X83.659 Y99.449 E2.12659 F600.000
G1 X84.570 Y103.796 E3.45730
G92 E0
G1 X93.978 Y106.648 F7800.000
G1 X93.978 Y106.648 F7800.000
G1 X94.013 Y107.648 F7800.000
G1 X94.013 Y101.184 E1.93691 F600.000
G1 X93.831 Y100.316 E2.20250
G1 X94.013 Y99.449 E2.46808
G1 X94.013 Y92.352 E4.59467
G92 E0
G1 X83.695 Y93.352 F7800.000
G1 X83.659 Y93.387 F7800.000
G1 X83.659 Y106.612 F7800.000
G1 X83.695 Y106.648 F7800.000
G1 X83.659 Y107.648 F7800.000
G1 X83.659 Y101.184 E1.93691 F600.000
G1 X83.841 Y100.316 E2.20250
G1 X95.049 Y100.316 E5.56087
G92 E0
G1 Z0.900 F7800.000
G1 X103.265 Y100.047 F7800.000
G1 X103.370 Y98.678 E0.41153 F600.000
G1 X103.490 Y97.973 E0.62588
G1 X103.632 Y97.439 E0.79152
G1 X104.033 Y96.328 E1.14547
G1 X104.621 Y95.391 E1.47686
G1 X104.936 Y94.989 E1.62983
G1 X105.128 Y94.779 E1.71524
G1 X105.320 Y94.596 E1.79480
G1 X106.179 Y93.933 E2.11988
G1 X106.506 Y93.754 E2.23139
G1 X107.219 Y93.449 E2.46386
G1 X107.865 Y93.240 E2.66727
G1 X108.416 Y93.127 E2.83584
G1 X109.783 Y93.002 E3.24709
G1 X111.138 Y93.123 E3.65471
G1 X111.724 Y93.240 E3.83387
G1 X112.334 Y93.433 E4.02548
G1 X113.090 Y93.752 E4.27153
G1 X113.386 Y93.910 E4.37210
G1 X114.263 Y94.580 E4.70267
G1 X114.445 Y94.750 E4.77747
G1 X114.639 Y94.962 E4.86330
G1 X114.974 Y95.390 E5.02624
G1 X115.566 Y96.339 E5.36128
G1 X115.963 Y97.454 E5.71595
G1 X116.133 Y98.145 E5.92930
G1 X116.215 Y98.688 E6.09398
G1 X116.318 Y100.065 E6.50780
G1 X116.213 Y101.445 E6.92234
G1 X116.094 Y102.140 E7.13364
G1 X115.952 Y102.667 E7.29723
G1 X115.554 Y103.754 E7.64416
G1 X114.969 Y104.668 E7.96932
G1 X114.654 Y105.061 E8.12007
G1 X114.457 Y105.273 E8.20699
G1 X114.269 Y105.446 E8.28338
G1 X113.405 Y106.094 E8.60709
G1 X113.089 Y106.261 E8.71416
G1 X112.359 Y106.563 E8.95085
G1 X111.729 Y106.761 E9.14868
G1 X111.163 Y106.873 E9.32168
G1 X109.819 Y106.992 E9.72604
G1 X108.095 Y106.812 E10.24542
G1 X107.871 Y106.773 E10.31349
G1 X106.509 Y106.264 E10.74920
G1 X106.181 Y106.101 E10.85884
G1 X105.145 Y105.287 E11.25388
G1 X104.928 Y105.088 E11.34191
G1 X104.018 Y103.753 E11.82619
G1 X103.482 Y102.162 E12.32902
G1 X103.440 Y101.938 E12.39748
G1 X103.265 Y100.047 E12.96634
G92 E0
G1 X102.311 Y98.531 F7800.000
G1 X97.241 Y92.352 F7800.000
G1 X90.786 Y92.352 F7800.000
G1 X86.887 Y92.352 F7800.000
G1 X84.695 Y92.352 F7800.000
G1 X83.659 Y92.352 F7800.000
G1 X83.659 Y99.449 E2.12659 F600.000
G1 X84.570 Y103.796 E3.45730
G92 E0
G1 X93.978 Y106.648 F7800.000
G1 X93.978 Y106.648 F7800.000
G1 X94.013 Y107.648 F7800.000
G1 X94.013 Y101.184 E1.93691 F600.000
G1 X93.831 Y100.316 E2.20250
G1 X94.013 Y99.449 E2.46808
G1 X94.013 Y92.352 E4.59467
G92 E0
