; generated by Slic3r 1.2.9 on 2016-03-11 at 01:25:22

; external perimeters extrusion width = 1.54mm
; perimeters extrusion width = 2.62mm
; infill extrusion width = 6.27mm
; solid infill extrusion width = 2.62mm
; top infill extrusion width = 2.62mm

M107
M104 S30 ; set temperature
G28 ; home all axes
G1 Z5 F5000 ; lift nozzle
M302
M92 E10000
M500
M501
G1 E100
M109 S30 ; wait for temperature to be reached
G21 ; set units to millimeters
G90 ; use absolute coordinates
M82 ; use absolute distances for extrusion
G92 E0
G1 Z0.300 F7800.000
G1 X115.348 Y105.194 F7800.000
G1 X115.256 Y105.415 E0.01082 F378.000
G1 X114.520 Y106.273 E0.06196
G1 X113.508 Y106.907 E0.11601
G1 X112.235 Y107.292 E0.17617
G1 X110.687 Y107.423 E0.24648
G1 X104.503 Y107.423 E0.52628
G1 X104.503 Y92.577 E1.19805
G1 X106.124 Y92.577 E1.27140
G1 X106.124 Y98.556 E1.54195
G1 X110.818 Y98.556 E1.75432 F378.000
G1 X112.285 Y98.695 E1.82099
G1 X113.509 Y99.103 E1.87941
G1 X114.511 Y99.777 E1.93403
G1 X115.253 Y100.677 E1.98681
G1 X115.699 Y101.766 E2.04004
G1 X115.849 Y103.055 E2.09877
G1 X115.699 Y104.347 E2.15762
G1 X115.436 Y104.981 E2.18867
G1 X113.849 Y104.600 F7800.000
G1 X113.801 Y104.800 E2.19800 F378.000
G1 X112.515 Y105.872 E2.27376
G1 X110.466 Y106.214 E2.36774
G1 X106.124 Y106.214 E2.56419
G1 X106.124 Y99.743 E2.85700
G1 X110.553 Y99.743 E3.05740 F378.000
G1 X112.557 Y100.098 E3.14950
G1 X113.812 Y101.210 E3.22538
G1 X114.224 Y103.035 E3.31002
G1 X113.903 Y104.375 E3.37240
G1 X115.604 Y102.991 F7800.000
G1 X114.135 Y101.523 E3.46735 F540.000
G1 X114.296 Y102.234 E3.50070
G1 X115.577 Y103.516 E3.58353
G1 X115.520 Y104.009 E3.60625
G1 X114.457 Y102.946 E3.67499
G1 X114.353 Y103.394 E3.69599
G1 X115.430 Y104.471 E3.76563
G1 X115.269 Y104.860 E3.78490
G1 X114.247 Y103.838 E3.85098
G1 X114.140 Y104.283 E3.87187
G1 X115.107 Y105.250 E3.93440
G1 X114.873 Y105.566 E3.95240
G1 X114.033 Y104.727 E4.00666
G1 X113.804 Y105.048 E4.02472
G1 X114.618 Y105.863 E4.07736
G1 X114.346 Y106.142 E4.09518
G1 X113.503 Y105.299 E4.14969
G1 X113.203 Y105.549 E4.16757
G1 X114.013 Y106.360 E4.21997
G1 X113.675 Y106.572 E4.23825
G1 X112.902 Y105.800 E4.28818
G1 X112.602 Y106.050 E4.30606
G1 X113.305 Y106.753 E4.35150
G1 X112.882 Y106.881 E4.37171
G1 X112.150 Y106.150 E4.41900
G1 X111.678 Y106.228 E4.44089
G1 X112.459 Y107.009 E4.49138
G1 X111.991 Y107.093 E4.51310
G1 X111.206 Y106.307 E4.56388
G1 X110.734 Y106.386 E4.58576
G1 X111.483 Y107.136 E4.63423
G1 X110.975 Y107.178 E4.65754
G1 X110.237 Y106.440 E4.70528
G1 X109.686 Y106.440 E4.73047
G1 X110.443 Y107.197 E4.77942
G1 X109.892 Y107.197 E4.80461
G1 X109.135 Y106.440 E4.85356
G1 X108.584 Y106.440 E4.87875
G1 X109.341 Y107.197 E4.92770
G1 X108.790 Y107.197 E4.95289
G1 X108.033 Y106.440 E5.00184
G1 X107.482 Y106.440 E5.02703
G1 X108.239 Y107.197 E5.07597
G1 X107.688 Y107.197 E5.10116
G1 X106.931 Y106.440 E5.15011
G1 X106.380 Y106.440 E5.17530
G1 X107.137 Y107.197 E5.22425
G1 X106.586 Y107.197 E5.24944
G1 X104.729 Y105.341 E5.36947
G1 X104.729 Y104.790 E5.39466
G1 X105.898 Y105.959 E5.47025
G1 X105.898 Y105.408 E5.49543
G1 X104.729 Y104.239 E5.57102
G1 X104.729 Y103.688 E5.59621
G1 X105.898 Y104.857 E5.67180
G1 X105.898 Y104.306 E5.69698
G1 X104.729 Y103.137 E5.77257
G1 X104.729 Y102.586 E5.79776
G1 X105.898 Y103.755 E5.87335
G1 X105.898 Y103.204 E5.89854
G1 X104.729 Y102.035 E5.97412
G1 X104.729 Y101.484 E5.99931
G1 X105.898 Y102.653 E6.07490
G1 X105.898 Y102.102 E6.10009
G1 X104.729 Y100.933 E6.17567
G1 X104.729 Y100.382 E6.20086
G1 X105.898 Y101.551 E6.27645
G1 X105.898 Y101.000 E6.30164
G1 X104.729 Y99.831 E6.37722
G1 X104.729 Y99.280 E6.40241
G1 X105.898 Y100.449 E6.47800
G1 X105.898 Y99.898 E6.50319
G1 X104.729 Y98.729 E6.57877
G1 X104.729 Y98.178 E6.60396
G1 X106.069 Y99.517 E6.69055
G1 X106.620 Y99.517 E6.71574
G1 X105.885 Y98.782 E6.76327
G1 X105.898 Y98.245 E6.78783
G1 X104.729 Y97.076 E6.86342
G1 X104.729 Y97.627 E6.88861
G1 X105.898 Y98.796 E6.96419
G1 X106.436 Y98.782 E6.98876
G1 X107.171 Y99.517 E7.03628
G1 X107.722 Y99.517 E7.06147
G1 X106.986 Y98.782 E7.10900
G1 X107.537 Y98.782 E7.13419
G1 X108.273 Y99.517 E7.18171
G1 X108.824 Y99.517 E7.20690
G1 X108.088 Y98.782 E7.25443
G1 X108.639 Y98.782 E7.27962
G1 X109.375 Y99.517 E7.32714
G1 X109.926 Y99.517 E7.35233
G1 X109.190 Y98.782 E7.39986
G1 X109.741 Y98.782 E7.42505
G1 X110.477 Y99.517 E7.47257
G1 X111.106 Y99.596 E7.50158
G1 X110.292 Y98.782 E7.55420
G1 X110.856 Y98.795 E7.57998
G1 X111.776 Y99.714 E7.63943
G1 X112.445 Y99.833 E7.67052
G1 X111.465 Y98.852 E7.73393
G1 X112.073 Y98.910 E7.76187
G1 X115.531 Y102.368 E7.98545
G1 X115.369 Y101.654 E8.01891
G1 X112.876 Y99.161 E8.18007
G1 X114.132 Y99.867 F7800.000
G1 X114.518 Y100.252 E8.20499 F540.000
G92 E0
G1 X114.577 Y101.076 F7800.000
G1 X114.577 Y101.076 F7800.000
G1 X105.898 Y97.694 F7800.000
G1 X104.729 Y96.525 E0.07559 F540.000
G1 X104.729 Y95.974 E0.10078
G1 X105.898 Y97.143 E0.17636
G1 X105.898 Y96.592 E0.20155
G1 X104.729 Y95.423 E0.27714
G1 X104.729 Y94.872 E0.30233
G1 X105.898 Y96.041 E0.37791
G1 X105.898 Y95.490 E0.40310
G1 X104.729 Y94.321 E0.47869
G1 X104.729 Y93.770 E0.50388
G1 X105.898 Y94.939 E0.57946
G1 X105.898 Y94.388 E0.60465
G1 X104.729 Y93.219 E0.68024
G1 X104.864 Y92.803 E0.70023
G1 X105.898 Y93.837 E0.76708
G1 X105.898 Y93.286 E0.79227
G1 X105.415 Y92.803 E0.82350
G1 X104.729 Y106.993 F7800.000
G1 X104.933 Y107.197 E0.83666 F540.000
G1 X105.484 Y107.197 E0.86185
G1 X104.729 Y106.442 E0.91064
G1 X104.729 Y105.891 E0.93582
G1 X106.035 Y107.197 E1.02023
G92 E0
G1 X104.278 Y107.648 F7800.000
G1 X96.350 Y108.648 F7800.000
G1 X94.279 Y108.648 F7800.000
G1 X90.137 Y105.507 F7800.000
G1 X90.137 Y105.325 F7800.000
G1 X94.279 Y101.184 F7800.000
G1 X84.150 Y99.337 F7800.000
G1 X84.150 Y92.577 E0.30590 F378.000
G1 X85.771 Y92.577 E0.37925
G1 X85.771 Y99.674 E0.70038
G1 X94.504 Y99.674 E1.09554 F378.000
G1 X94.504 Y92.577 E1.41668
G1 X96.125 Y92.577 E1.49003
G1 X96.125 Y107.423 E2.16180
G1 X94.504 Y107.423 E2.23515
G1 X94.504 Y100.959 E2.52764
G1 X85.771 Y100.959 E2.92280
G1 X85.771 Y107.423 E3.21529
G1 X84.150 Y107.423 E3.28864
G1 X84.150 Y99.568 E3.64406
G1 X85.545 Y99.844 F7800.000
G1 X84.376 Y98.675 E3.72014 F540.000
G1 X84.376 Y98.120 E3.74565
G1 X85.545 Y99.290 E3.82173
G1 X85.545 Y98.735 E3.84725
G1 X84.376 Y97.566 E3.92333
G1 X84.376 Y97.011 E3.94884
G1 X85.545 Y98.180 E4.02492
G1 X85.545 Y97.626 E4.05044
G1 X84.376 Y96.457 E4.12652
G1 X84.376 Y95.902 E4.15203
G1 X85.545 Y97.071 E4.22811
G1 X85.545 Y96.517 E4.25363
G1 X84.376 Y95.348 E4.32970
G1 X84.376 Y94.793 E4.35522
G1 X85.545 Y95.962 E4.43130
G1 X85.545 Y95.408 E4.45682
G1 X84.376 Y94.238 E4.53289
G1 X84.376 Y93.684 E4.55841
G1 X85.545 Y94.853 E4.63449
G1 X85.545 Y94.298 E4.66001
G1 X84.376 Y93.129 E4.73608
G1 X84.604 Y92.803 E4.75441
G1 X85.545 Y93.744 E4.81564
G1 X85.545 Y93.189 E4.84115
G1 X85.158 Y92.803 E4.86630
G92 E0
G1 X95.279 Y93.352 F7800.000
G1 X95.279 Y93.352 F7800.000
G1 X95.314 Y93.387 F7800.000
G1 X95.350 Y93.352 F7800.000
G1 X95.899 Y93.007 F7800.000
G1 X95.695 Y92.803 E0.01325 F540.000
G1 X95.141 Y92.803 E0.03877
G1 X95.899 Y93.561 E0.08810
G1 X95.899 Y94.116 E0.11362
G1 X94.730 Y92.947 E0.18970
G1 X94.730 Y93.501 E0.21522
G1 X95.899 Y94.670 E0.29129
G1 X95.899 Y95.225 E0.31681
G1 X94.730 Y94.056 E0.39289
G1 X94.730 Y94.610 E0.41841
G1 X95.899 Y95.779 E0.49448
G1 X95.899 Y96.334 E0.52000
G1 X94.730 Y95.165 E0.59608
G1 X94.730 Y95.719 E0.62160
G1 X95.899 Y96.889 E0.69767
G1 X95.899 Y97.443 E0.72319
G1 X94.730 Y96.274 E0.79927
G1 X94.730 Y96.829 E0.82479
G1 X95.899 Y97.998 E0.90086
G1 X95.899 Y98.552 E0.92638
G1 X94.730 Y97.383 E1.00246
G1 X94.730 Y97.938 E1.02798
G1 X95.899 Y99.107 E1.10405
G1 X95.899 Y99.661 E1.12957
G1 X94.730 Y98.492 E1.20565
G1 X94.730 Y99.047 E1.23117
G1 X95.899 Y100.216 E1.30724
G1 X95.899 Y100.770 E1.33276
G1 X94.730 Y99.601 E1.40884
G1 X94.474 Y99.900 F7800.000
G1 X95.899 Y101.325 E1.50157 F540.000
G1 X95.899 Y101.880 E1.52709
G1 X93.919 Y99.900 E1.65591
G1 X93.364 Y99.900 E1.68143
G1 X94.198 Y100.733 E1.73564
G1 X93.643 Y100.733 E1.76116
G1 X92.810 Y99.900 E1.81537
G1 X92.255 Y99.900 E1.84089
G1 X93.088 Y100.733 E1.89510
G1 X92.534 Y100.733 E1.92062
G1 X91.701 Y99.900 E1.97483
G1 X91.146 Y99.900 E2.00035
G1 X91.979 Y100.733 E2.05456
G1 X91.425 Y100.733 E2.08008
G1 X90.592 Y99.900 E2.13429
G1 X90.037 Y99.900 E2.15981
G1 X90.870 Y100.733 E2.21402
G1 X90.316 Y100.733 E2.23954
G1 X89.483 Y99.900 E2.29375
G1 X88.928 Y99.900 E2.31927
G1 X89.761 Y100.733 E2.37348
G1 X89.206 Y100.733 E2.39900
G1 X88.373 Y99.900 E2.45321
G1 X87.819 Y99.900 E2.47873
G1 X88.652 Y100.733 E2.53294
G1 X88.097 Y100.733 E2.55846
G1 X87.264 Y99.900 E2.61267
G1 X86.710 Y99.900 E2.63819
G1 X87.543 Y100.733 E2.69241
G1 X86.988 Y100.733 E2.71792
G1 X86.155 Y99.900 E2.77214
G1 X85.601 Y99.900 E2.79765
G1 X86.434 Y100.733 E2.85187
G1 X85.879 Y100.733 E2.87738
G1 X84.376 Y99.230 E2.97522
G1 X84.376 Y99.784 E3.00074
G1 X85.545 Y100.953 E3.07682
G1 X85.545 Y101.508 E3.10233
G1 X84.376 Y100.339 E3.17841
G1 X84.376 Y100.893 E3.20393
G1 X85.545 Y102.062 E3.28001
G1 X85.545 Y102.617 E3.30552
G1 X84.376 Y101.448 E3.38160
G1 X84.376 Y102.002 E3.40712
G1 X85.545 Y103.171 E3.48319
G1 X85.545 Y103.726 E3.50871
G1 X84.376 Y102.557 E3.58479
G1 X84.376 Y103.112 E3.61031
G1 X85.545 Y104.281 E3.68638
G1 X85.545 Y104.835 E3.71190
G1 X84.376 Y103.666 E3.78798
G1 X84.376 Y104.221 E3.81350
G1 X85.545 Y105.390 E3.88957
G1 X85.545 Y105.944 E3.91509
G1 X84.376 Y104.775 E3.99117
G1 X84.376 Y105.330 E4.01669
G1 X85.545 Y106.499 E4.09276
G1 X85.545 Y107.053 E4.11828
G1 X84.376 Y105.884 E4.19436
G1 X84.376 Y106.439 E4.21988
G1 X85.134 Y107.197 E4.26921
G1 X84.579 Y107.197 E4.29473
G1 X84.376 Y106.993 E4.30798
G92 E0
G1 X84.996 Y106.648 F7800.000
G1 X84.996 Y106.648 F7800.000
G1 X95.116 Y107.197 F7800.000
G1 X94.730 Y106.811 E0.02514 F540.000
G1 X94.730 Y106.256 E0.05066
G1 X95.670 Y107.197 E0.11188
G1 X95.899 Y106.871 E0.13021
G1 X94.730 Y105.702 E0.20628
G1 X94.730 Y105.147 E0.23180
G1 X95.899 Y106.316 E0.30788
G1 X95.899 Y105.762 E0.33340
G1 X94.730 Y104.592 E0.40947
G1 X94.730 Y104.038 E0.43499
G1 X95.899 Y105.207 E0.51107
G1 X95.899 Y104.652 E0.53659
G1 X94.730 Y103.483 E0.61266
G1 X94.730 Y102.929 E0.63818
G1 X95.899 Y104.098 E0.71426
G1 X95.899 Y103.543 E0.73978
G1 X94.730 Y102.374 E0.81585
G1 X94.730 Y101.820 E0.84137
G1 X95.899 Y102.989 E0.91745
G1 X95.899 Y102.434 E0.94296
G1 X94.730 Y101.265 E1.01904
M106 S255
G92 E0
G1 Z0.600 F7800.000
G1 X106.165 Y102.637 F7800.000
G1 X105.314 Y98.331 E1.31513 F600.000
G1 X105.314 Y92.352 E3.10672
G1 X105.476 Y99.149 F7800.000
G1 X110.677 Y99.156 E4.66536 F600.000
G1 X112.146 Y99.350 E5.10941
G1 X112.605 Y99.466 E5.25115
G1 X113.044 Y99.645 E5.39310
G1 X113.199 Y99.734 E5.44676
G1 X113.992 Y100.349 E5.74740
G1 X114.246 Y100.612 E5.85687
G1 X114.579 Y101.080 E6.02919
G1 X114.863 Y101.981 E6.31226
G1 X115.031 Y103.055 E6.63802
G1 X114.853 Y104.127 E6.96349
G1 X114.570 Y104.993 E7.23646
G1 X114.232 Y105.435 E7.40303
G1 X113.998 Y105.666 E7.50174
G1 X113.205 Y106.241 E7.79522
G1 X112.995 Y106.354 E7.86657
G1 X112.561 Y106.519 E8.00594
G1 X112.107 Y106.625 E8.14537
G1 X110.661 Y106.807 E8.58224
G1 X110.447 Y106.818 E8.64631
G1 X106.349 Y106.818 E9.87426
G1 X105.387 Y106.539 E10.17451
G1 X105.314 Y105.989 E10.34088
G1 X105.314 Y99.968 E12.14505
G1 X105.476 Y99.149 E12.39505
G92 E0
G1 X104.278 Y92.352 F7800.000
G1 X96.350 Y91.352 F7800.000
G1 X94.279 Y91.352 F7800.000
G1 X90.137 Y94.493 F7800.000
G1 X87.996 Y92.352 F7800.000
G1 X85.996 Y92.352 F7800.000
G1 X84.960 Y92.352 F7800.000
G1 X84.960 Y99.449 E2.12659 F600.000
G1 X85.871 Y103.796 E3.45730
G92 E0
G1 X95.279 Y106.648 F7800.000
G1 X95.279 Y106.648 F7800.000
G1 X95.314 Y107.648 F7800.000
G1 X95.314 Y101.184 E1.93691 F600.000
G1 X95.132 Y100.316 E2.20250
G1 X95.314 Y99.449 E2.46808
G1 X95.314 Y92.352 E4.59467
G92 E0
G1 X84.996 Y93.352 F7800.000
G1 X84.960 Y93.387 F7800.000
G1 X84.960 Y106.612 F7800.000
G1 X84.996 Y106.648 F7800.000
G1 X84.960 Y107.648 F7800.000
G1 X84.960 Y101.184 E1.93691 F600.000
G1 X85.142 Y100.316 E2.20250
G1 X96.350 Y100.316 E5.56087
G92 E0
G1 Z0.900 F7800.000
G1 X106.165 Y102.637 F7800.000
G1 X105.314 Y98.331 E1.31513 F600.000
G1 X105.314 Y92.352 E3.10672
G1 X105.476 Y99.149 F7800.000
G1 X110.677 Y99.156 E4.66536 F600.000
G1 X112.146 Y99.350 E5.10941
G1 X112.605 Y99.466 E5.25115
G1 X113.044 Y99.645 E5.39310
G1 X113.199 Y99.734 E5.44676
G1 X113.992 Y100.349 E5.74740
G1 X114.246 Y100.612 E5.85687
G1 X114.579 Y101.080 E6.02919
G1 X114.863 Y101.981 E6.31226
G1 X115.031 Y103.055 E6.63802
G1 X114.853 Y104.127 E6.96349
G1 X114.570 Y104.993 E7.23646
G1 X114.232 Y105.435 E7.40303
G1 X113.998 Y105.666 E7.50174
G1 X113.205 Y106.241 E7.79522
G1 X112.995 Y106.354 E7.86657
G1 X112.561 Y106.519 E8.00594
G1 X112.107 Y106.625 E8.14537
G1 X110.661 Y106.807 E8.58224
G1 X110.447 Y106.818 E8.64631
G1 X106.349 Y106.818 E9.87426
G1 X105.387 Y106.539 E10.17451
G1 X105.314 Y105.989 E10.34088
G1 X105.314 Y99.968 E12.14505
G1 X105.476 Y99.149 E12.39505
G92 E0
G1 X104.278 Y92.352 F7800.000
G1 X96.350 Y91.352 F7800.000
G1 X94.279 Y91.352 F7800.000
G1 X90.137 Y94.493 F7800.000
G1 X87.996 Y92.352 F7800.000
G1 X85.996 Y92.352 F7800.000
G1 X84.960 Y92.352 F7800.000
G1 X84.960 Y99.449 E2.12659 F600.000
G1 X85.871 Y103.796 E3.45730
G92 E0
G1 X95.279 Y106.648 F7800.000
G1 X95.279 Y106.648 F7800.000
G1 X95.314 Y107.648 F7800.000
G1 X95.314 Y101.184 E1.93691 F600.000
G1 X95.132 Y100.316 E2.20250
G1 X95.314 Y99.449 E2.46808
G1 X95.314 Y92.352 E4.59467
G92 E0
G1 X84.996 Y93.352 F7800.000
G1 X84.960 Y93.387 F7800.000
G1 X84.960 Y106.612 F7800.000
G1 X84.996 Y106.648 F7800.000
G1 X84.960 Y107.648 F7800.000
G1 X84.960 Y101.184 E1.93691 F600.000
G1 X85.142 Y100.316 E2.20250
G1 X96.350 Y100.316 E5.56087
G92 E0
G1 Z1.200 F7800.000
G1 X106.165 Y102.637 F7800.000
G1 X105.314 Y98.331 E1.31513 F600.000
G1 X105.314 Y92.352 E3.10672
G1 X105.476 Y99.149 F7800.000
G1 X110.677 Y99.156 E4.66536 F600.000
G1 X112.146 Y99.350 E5.10941
G1 X112.605 Y99.466 E5.25115
G1 X113.044 Y99.645 E5.39310
G1 X113.199 Y99.734 E5.44676
G1 X113.992 Y100.349 E5.74740
G1 X114.246 Y100.612 E5.85687
G1 X114.579 Y101.080 E6.02920
G1 X114.863 Y101.981 E6.31226
G1 X115.031 Y103.055 E6.63802
G1 X114.853 Y104.127 E6.96349
G1 X114.570 Y104.993 E7.23646
G1 X114.232 Y105.435 E7.40303
G1 X113.998 Y105.666 E7.50174
G1 X113.205 Y106.241 E7.79522
G1 X112.995 Y106.354 E7.86657
G1 X112.561 Y106.519 E8.00594
G1 X112.107 Y106.625 E8.14537
G1 X110.661 Y106.807 E8.58224
G1 X110.447 Y106.818 E8.64631
G1 X106.349 Y106.818 E9.87426
G1 X105.387 Y106.539 E10.17451
G1 X105.314 Y105.989 E10.34088
G1 X105.314 Y99.968 E12.14505
G1 X105.476 Y99.149 E12.39505
G92 E0
G1 X104.278 Y92.352 F7800.000
G1 X96.350 Y91.352 F7800.000
G1 X94.279 Y91.352 F7800.000
G1 X90.137 Y94.493 F7800.000
G1 X87.996 Y92.352 F7800.000
G1 X85.996 Y92.352 F7800.000
G1 X84.960 Y92.352 F7800.000
G1 X84.960 Y99.449 E2.12659 F600.000
G1 X85.871 Y103.796 E3.45730
G92 E0
G1 X95.279 Y106.648 F7800.000
G1 X95.279 Y106.648 F7800.000
G1 X95.314 Y107.648 F7800.000
G1 X95.314 Y101.184 E1.93691 F600.000
G1 X95.132 Y100.316 E2.20250
G1 X95.314 Y99.449 E2.46808
G1 X95.314 Y92.352 E4.59467
G92 E0
G1 X84.996 Y93.352 F7800.000
G1 X84.960 Y93.387 F7800.000
G1 X84.960 Y106.612 F7800.000
G1 X84.996 Y106.648 F7800.000
G1 X84.960 Y107.648 F7800.000
G1 X84.960 Y101.184 E1.93691 F600.000
G1 X85.142 Y100.316 E2.20250
G1 X96.350 Y100.316 E5.56087
G92 E0
G1 Z1.500 F7800.000
G1 X106.165 Y102.637 F7800.000
G1 X105.314 Y98.331 E1.31513 F600.000
G1 X105.314 Y92.352 E3.10672
G1 X105.476 Y99.149 F7800.000
G1 X110.677 Y99.156 E4.66536 F600.000
G1 X112.146 Y99.350 E5.10941
G1 X112.605 Y99.466 E5.25115
G1 X113.044 Y99.645 E5.39310
G1 X113.199 Y99.734 E5.44676
G1 X113.992 Y100.349 E5.74740
G1 X114.246 Y100.612 E5.85687
G1 X114.579 Y101.080 E6.02920
G1 X114.863 Y101.981 E6.31226
G1 X115.031 Y103.055 E6.63802
G1 X114.853 Y104.127 E6.96349
G1 X114.570 Y104.993 E7.23646
G1 X114.232 Y105.435 E7.40303
G1 X113.998 Y105.666 E7.50174
G1 X113.205 Y106.241 E7.79522
G1 X112.995 Y106.354 E7.86657
