; generated by Slic3r 1.2.9 on 2016-03-11 at 01:25:28

; external perimeters extrusion width = 1.54mm
; perimeters extrusion width = 2.62mm
; infill extrusion width = 6.27mm
; solid infill extrusion width = 2.62mm
; top infill extrusion width = 2.62mm

M107
M104 S30 ; set temperature
G28 ; home all axes
G1 Z5 F5000 ; lift nozzle
M302
M92 E10000
M500
M501
G1 E100
M109 S30 ; wait for temperature to be reached
G21 ; set units to millimeters
G90 ; use absolute coordinates
M82 ; use absolute distances for extrusion
G92 E0
G1 Z0.300 F7800.000
G1 X104.529 Y102.079 F7800.000
G1 X108.395 Y92.577 E0.46418 F378.000
G1 X110.239 Y92.577 E0.54763
G1 X115.936 Y106.586 E1.23192
G1 X116.277 Y107.423 E1.27283 F378.000
G1 X114.585 Y107.423 E1.34938
G1 X110.447 Y96.800 E1.86524
G1 X109.525 Y94.056 E1.99625
G1 X109.130 Y94.056 E2.01413
G1 X108.207 Y96.800 E2.14515
G1 X104.047 Y107.423 E2.66137
G1 X102.356 Y107.423 E2.73789
G1 X104.442 Y102.293 E2.98848
G1 X102.945 Y107.197 F7800.000
G1 X102.746 Y106.998 E3.00127 F540.000
G1 X102.904 Y106.609 E3.02038
G1 X103.493 Y107.197 E3.05820
G1 X103.953 Y107.110 E3.07950
G1 X103.063 Y106.219 E3.13674
G1 X103.221 Y105.830 E3.15585
G1 X104.107 Y106.716 E3.21281
G1 X104.261 Y106.322 E3.23202
G1 X103.379 Y105.440 E3.28871
G1 X103.538 Y105.051 E3.30782
G1 X104.415 Y105.928 E3.36424
G1 X104.570 Y105.535 E3.38346
G1 X103.696 Y104.662 E3.43960
G1 X103.855 Y104.272 E3.45871
G1 X104.724 Y105.141 E3.51458
G1 X104.878 Y104.747 E3.53380
G1 X104.013 Y103.883 E3.58939
G1 X104.171 Y103.493 E3.60850
G1 X105.032 Y104.354 E3.66383
G1 X105.186 Y103.960 E3.68304
G1 X104.330 Y103.104 E3.73809
G1 X104.488 Y102.714 E3.75720
G1 X105.340 Y103.566 E3.81198
G1 X105.495 Y103.173 E3.83120
G1 X104.647 Y102.325 E3.88571
G1 X104.805 Y101.935 E3.90482
G1 X105.649 Y102.779 E3.95905
G1 X105.803 Y102.385 E3.97827
G1 X104.964 Y101.546 E4.03223
G1 X105.122 Y101.157 E4.05134
G1 X105.957 Y101.992 E4.10502
G1 X106.111 Y101.598 E4.12424
G1 X105.280 Y100.767 E4.17765
G1 X105.439 Y100.378 E4.19676
G1 X106.265 Y101.204 E4.24991
G1 X106.420 Y100.811 E4.26912
G1 X105.597 Y99.988 E4.32199
G1 X105.756 Y99.599 E4.34110
G1 X106.574 Y100.417 E4.39370
G1 X106.728 Y100.023 E4.41292
G1 X105.914 Y99.209 E4.46524
G1 X106.072 Y98.820 E4.48435
G1 X106.882 Y99.630 E4.53640
G1 X107.036 Y99.236 E4.55562
G1 X106.231 Y98.431 E4.60739
G1 X106.389 Y98.041 E4.62650
G1 X107.190 Y98.842 E4.67801
G1 X107.345 Y98.449 E4.69723
G1 X106.548 Y97.652 E4.74846
G1 X106.706 Y97.262 E4.76757
G1 X107.499 Y98.055 E4.81852
G1 X107.653 Y97.661 E4.83774
G1 X106.864 Y96.873 E4.88843
G1 X107.023 Y96.483 E4.90754
G1 X107.807 Y97.268 E4.95795
G1 X107.961 Y96.874 E4.97717
G1 X107.181 Y96.094 E5.02731
G1 X107.340 Y95.704 E5.04642
G1 X108.103 Y96.468 E5.09550
G1 X108.241 Y96.058 E5.11516
G1 X107.498 Y95.315 E5.16292
G1 X107.657 Y94.926 E5.18203
G1 X108.379 Y95.648 E5.22846
G1 X108.517 Y95.238 E5.24812
G1 X107.815 Y94.536 E5.29324
G1 X107.973 Y94.147 E5.31235
G1 X108.655 Y94.828 E5.35615
G1 X108.793 Y94.418 E5.37581
G1 X108.132 Y93.757 E5.41828
G1 X108.290 Y93.368 E5.43740
G1 X108.930 Y94.008 E5.47855
G1 X109.300 Y93.830 F7800.000
G1 X108.449 Y92.978 E5.53328 F540.000
G1 X108.821 Y92.803 E5.55199
G1 X110.888 Y94.870 E5.68485
G1 X110.209 Y95.286 F7800.000
G1 X111.639 Y96.717 E5.77679 F540.000
G1 X110.791 Y96.965 F7800.000
G1 X112.390 Y98.563 E5.87955 F540.000
G1 X111.491 Y98.760 F7800.000
G1 X113.141 Y100.410 E5.98565 F540.000
G1 X112.190 Y100.555 F7800.000
G1 X113.892 Y102.257 E6.09509 F540.000
G1 X113.517 Y101.334 F7800.000
G1 X111.840 Y99.657 E6.20285 F540.000
G1 X112.766 Y99.487 F7800.000
G1 X111.141 Y97.862 E6.30729 F540.000
G1 X112.014 Y97.640 F7800.000
G1 X110.486 Y96.111 E6.40555 F540.000
G1 X111.263 Y95.793 F7800.000
G1 X109.932 Y94.461 E6.49116 F540.000
G1 X110.512 Y93.946 F7800.000
G1 X109.369 Y92.803 E6.56466 F540.000
G1 X109.917 Y92.803 E6.58956
G1 X110.137 Y93.023 E6.60371
G1 X112.539 Y101.452 F7800.000
G1 X114.268 Y103.180 E6.71481 F540.000
G1 X114.643 Y104.104 F7800.000
G1 X112.889 Y102.350 E6.82758 F540.000
G1 X113.239 Y103.247 F7800.000
G1 X115.019 Y105.027 E6.94201 F540.000
G1 X115.394 Y105.951 F7800.000
G1 X113.588 Y104.145 E7.05811 F540.000
G1 X113.938 Y105.042 F7800.000
G1 X115.770 Y106.874 E7.17588 F540.000
G1 X115.545 Y107.197 E7.19377
G1 X114.288 Y105.939 E7.27462
G1 X114.637 Y106.837 F7800.000
G1 X114.997 Y107.197 E7.29777 F540.000
G92 E0
G1 X114.431 Y107.648 F7800.000
G1 X104.200 Y108.648 F7800.000
G1 X99.038 Y106.423 F7800.000
G1 X97.814 Y107.648 F7800.000
G1 X95.814 Y107.648 F7800.000
G1 X93.968 Y105.608 F7800.000
G1 X93.968 Y100.959 E0.21036 F378.000
G1 X85.235 Y100.959 E0.60552
G1 X85.235 Y107.423 E0.89801
G1 X83.614 Y107.423 E0.97136
G1 X83.614 Y92.577 E1.64313
G1 X85.235 Y92.577 E1.71648
G1 X85.235 Y99.674 E2.03761
G1 X93.968 Y99.674 E2.43278 F378.000
G1 X93.968 Y92.577 E2.75391
G1 X95.589 Y92.577 E2.82726
G1 X95.589 Y107.423 E3.49903
G1 X93.968 Y107.423 E3.57238
G1 X93.968 Y105.839 E3.64406
G1 X94.580 Y107.197 F7800.000
G1 X94.194 Y106.811 E3.66920 F540.000
G1 X94.194 Y106.256 E3.69472
G1 X95.134 Y107.197 E3.75594
G1 X95.363 Y106.871 E3.77427
G1 X94.194 Y105.702 E3.85034
G1 X94.194 Y105.147 E3.87586
G1 X95.363 Y106.316 E3.95194
G1 X95.363 Y105.762 E3.97746
G1 X94.194 Y104.592 E4.05353
G1 X94.194 Y104.038 E4.07905
G1 X95.363 Y105.207 E4.15513
G1 X95.363 Y104.652 E4.18065
G1 X94.194 Y103.483 E4.25672
G1 X94.194 Y102.929 E4.28224
G1 X95.363 Y104.098 E4.35832
G1 X95.363 Y103.543 E4.38384
G1 X94.194 Y102.374 E4.45991
G1 X94.194 Y101.820 E4.48543
G1 X95.363 Y102.989 E4.56151
G1 X95.363 Y102.434 E4.58702
G1 X94.194 Y101.265 E4.66310
G1 X93.938 Y99.900 F7800.000
G1 X95.363 Y101.325 E4.75584 F540.000
G1 X95.363 Y101.880 E4.78136
G1 X93.383 Y99.900 E4.91018
G1 X92.828 Y99.900 E4.93570
G1 X93.662 Y100.733 E4.98991
G1 X93.107 Y100.733 E5.01543
G1 X92.274 Y99.900 E5.06964
G1 X91.719 Y99.900 E5.09516
G1 X92.552 Y100.733 E5.14937
G1 X91.998 Y100.733 E5.17489
G1 X91.165 Y99.900 E5.22910
G1 X90.610 Y99.900 E5.25462
G1 X91.443 Y100.733 E5.30883
G1 X90.889 Y100.733 E5.33435
G1 X90.056 Y99.900 E5.38856
G1 X89.501 Y99.900 E5.41408
G1 X90.334 Y100.733 E5.46829
G1 X89.780 Y100.733 E5.49381
G1 X88.947 Y99.900 E5.54802
G1 X88.392 Y99.900 E5.57354
G1 X89.225 Y100.733 E5.62775
G1 X88.670 Y100.733 E5.65327
G1 X87.837 Y99.900 E5.70748
G1 X87.283 Y99.900 E5.73300
G1 X88.116 Y100.733 E5.78721
G1 X87.561 Y100.733 E5.81273
G1 X86.728 Y99.900 E5.86694
G1 X86.174 Y99.900 E5.89246
G1 X87.007 Y100.733 E5.94667
G1 X86.452 Y100.733 E5.97219
G1 X85.619 Y99.900 E6.02640
G1 X85.065 Y99.900 E6.05192
G1 X85.898 Y100.733 E6.10613
G1 X85.343 Y100.733 E6.13165
G1 X83.840 Y99.230 E6.22949
G1 X83.840 Y99.784 E6.25500
G1 X85.009 Y100.953 E6.33108
G1 X85.009 Y101.508 E6.35660
G1 X83.840 Y100.339 E6.43268
G1 X83.840 Y100.893 E6.45819
G1 X85.009 Y102.062 E6.53427
G1 X85.009 Y102.617 E6.55979
G1 X83.840 Y101.448 E6.63586
G1 X83.840 Y102.002 E6.66138
G1 X85.009 Y103.171 E6.73746
G1 X85.009 Y103.726 E6.76298
G1 X83.840 Y102.557 E6.83905
G1 X83.840 Y103.112 E6.86457
G1 X85.009 Y104.281 E6.94065
G1 X85.009 Y104.835 E6.96617
G1 X83.840 Y103.666 E7.04224
G1 X83.840 Y104.221 E7.06776
G1 X85.009 Y105.390 E7.14384
G1 X85.009 Y105.944 E7.16936
G1 X83.840 Y104.775 E7.24543
G1 X83.840 Y105.330 E7.27095
G1 X85.009 Y106.499 E7.34703
G1 X85.009 Y107.053 E7.37255
G1 X83.840 Y105.884 E7.44862
G1 X83.840 Y106.439 E7.47414
G1 X84.598 Y107.197 E7.52348
G1 X84.043 Y107.197 E7.54899
G1 X83.840 Y106.993 E7.56224
G1 X85.009 Y99.844 F7800.000
G1 X83.840 Y98.675 E7.63832 F540.000
G1 X83.840 Y98.120 E7.66384
G1 X85.009 Y99.290 E7.73991
G1 X85.009 Y98.735 E7.76543
G1 X83.840 Y97.566 E7.84151
G1 X83.840 Y97.011 E7.86703
G1 X85.009 Y98.180 E7.94310
G1 X85.009 Y97.626 E7.96862
G1 X83.840 Y96.457 E8.04470
G1 X83.840 Y95.902 E8.07021
G1 X85.009 Y97.071 E8.14629
G1 X85.009 Y96.517 E8.17181
G1 X83.840 Y95.348 E8.24789
G1 X83.840 Y94.793 E8.27340
G1 X85.009 Y95.962 E8.34948
G1 X85.009 Y95.408 E8.37500
G1 X83.840 Y94.238 E8.45108
G1 X83.840 Y93.684 E8.47659
G1 X85.009 Y94.853 E8.55267
G1 X85.009 Y94.298 E8.57819
G1 X83.840 Y93.129 E8.65427
G1 X84.068 Y92.803 E8.67259
G1 X85.009 Y93.744 E8.73382
G1 X85.009 Y93.189 E8.75934
G1 X84.622 Y92.803 E8.78448
G92 E0
G1 X94.743 Y93.352 F7800.000
G1 X94.743 Y93.352 F7800.000
G1 X94.778 Y93.387 F7800.000
G1 X94.814 Y93.352 F7800.000
G1 X95.363 Y93.007 F7800.000
G1 X95.159 Y92.803 E0.01325 F540.000
G1 X94.605 Y92.803 E0.03877
G1 X95.363 Y93.561 E0.08810
G1 X95.363 Y94.116 E0.11362
G1 X94.194 Y92.947 E0.18970
G1 X94.194 Y93.501 E0.21522
G1 X95.363 Y94.670 E0.29129
G1 X95.363 Y95.225 E0.31681
G1 X94.194 Y94.056 E0.39289
G1 X94.194 Y94.610 E0.41841
G1 X95.363 Y95.779 E0.49448
G1 X95.363 Y96.334 E0.52000
G1 X94.194 Y95.165 E0.59608
G1 X94.194 Y95.719 E0.62160
G1 X95.363 Y96.889 E0.69767
G1 X95.363 Y97.443 E0.72319
G1 X94.194 Y96.274 E0.79927
G1 X94.194 Y96.829 E0.82479
G1 X95.363 Y97.998 E0.90086
G1 X95.363 Y98.552 E0.92638
G1 X94.194 Y97.383 E1.00246
G1 X94.194 Y97.938 E1.02797
G1 X95.363 Y99.107 E1.10405
G1 X95.363 Y99.661 E1.12957
G1 X94.194 Y98.492 E1.20565
G1 X94.194 Y99.047 E1.23116
G1 X95.363 Y100.216 E1.30724
G1 X95.363 Y100.770 E1.33276
G1 X94.194 Y99.601 E1.40884
M106 S255
G92 E0
G1 Z0.600 F7800.000
G1 X115.518 Y107.648 F7800.000
G1 X111.105 Y96.562 E3.57549 F600.000
G1 X110.159 Y94.013 E4.39000
G1 X109.719 Y93.349 E4.62869
G1 X109.292 Y93.316 E4.75724
G1 X108.917 Y93.353 E4.87012
G1 X108.486 Y94.010 E5.10552
G1 X107.541 Y96.558 E5.91986
G1 X103.114 Y107.648 E9.49798
G92 E0
G1 X102.021 Y107.648 F7800.000
G1 X95.814 Y91.352 F7800.000
G1 X93.743 Y91.352 F7800.000
G1 X89.601 Y94.493 F7800.000
G1 X89.601 Y95.307 F7800.000
G1 X85.460 Y99.449 F7800.000
G1 X84.424 Y92.352 F7800.000
G1 X84.424 Y99.449 E2.12659 F600.000
G1 X85.335 Y103.796 E3.45730
G92 E0
G1 X94.743 Y106.648 F7800.000
G1 X94.743 Y106.648 F7800.000
G1 X94.778 Y107.648 F7800.000
G1 X94.778 Y101.184 E1.93691 F600.000
G1 X94.596 Y100.316 E2.20250
G1 X94.778 Y99.449 E2.46808
G1 X94.778 Y92.352 E4.59467
G92 E0
G1 X84.460 Y93.352 F7800.000
G1 X84.424 Y93.387 F7800.000
G1 X84.424 Y106.612 F7800.000
G1 X84.460 Y106.648 F7800.000
G1 X84.424 Y107.648 F7800.000
G1 X84.424 Y101.184 E1.93691 F600.000
G1 X84.606 Y100.316 E2.20250
G1 X95.814 Y100.316 E5.56087
G92 E0
G1 Z0.900 F7800.000
G1 X115.518 Y107.648 F7800.000
G1 X111.105 Y96.562 E3.57549 F600.000
G1 X110.159 Y94.013 E4.39000
G1 X109.719 Y93.349 E4.62869
G1 X109.292 Y93.316 E4.75724
G1 X108.917 Y93.353 E4.87012
G1 X108.486 Y94.010 E5.10552
G1 X107.541 Y96.558 E5.91986
G1 X103.114 Y107.648 E9.49798
G92 E0
G1 X102.021 Y107.648 F7800.000
G1 X95.814 Y91.352 F7800.000
G1 X93.743 Y91.352 F7800.000
G1 X89.601 Y94.493 F7800.000
G1 X89.601 Y95.307 F7800.000
G1 X85.460 Y99.449 F7800.000
G1 X84.424 Y92.352 F7800.000
G1 X84.424 Y99.449 E2.12659 F600.000
G1 X85.335 Y103.796 E3.45730
G92 E0
G1 X94.743 Y106.648 F7800.000
G1 X94.743 Y106.648 F7800.000
G1 X94.778 Y107.648 F7800.000
G1 X94.778 Y101.184 E1.93691 F600.000
G1 X94.596 Y100.316 E2.20250
G1 X94.778 Y99.449 E2.46808
G1 X94.778 Y92.352 E4.59467
G92 E0
G1 X84.460 Y93.352 F7800.000
G1 X84.424 Y93.387 F7800.000
G1 X84.424 Y106.612 F7800.000
G1 X84.460 Y106.648 F7800.000
G1 X84.424 Y107.648 F7800.000
G1 X84.424 Y101.184 E1.93691 F600.000
G1 X84.606 Y100.316 E2.20250
G1 X95.814 Y100.316 E5.56087
G92 E0
G1 Z1.200 F7800.000
G1 X115.518 Y107.648 F7800.000
G1 X111.105 Y96.562 E3.57549 F600.000
G1 X110.159 Y94.013 E4.39000
G1 X109.719 Y93.349 E4.62869
G1 X109.292 Y93.316 E4.75724
G1 X108.917 Y93.353 E4.87012
G1 X108.486 Y94.010 E5.10552
G1 X107.541 Y96.558 E5.91986
G1 X103.114 Y107.648 E9.49798
G92 E0
G1 X102.021 Y107.648 F7800.000
G1 X95.814 Y91.352 F7800.000
G1 X93.743 Y91.352 F7800.000
G1 X89.601 Y94.493 F7800.000
G1 X89.601 Y95.307 F7800.000
G1 X85.460 Y99.449 F7800.000
G1 X84.424 Y92.352 F7800.000
G1 X84.424 Y99.449 E2.12659 F600.000
G1 X85.335 Y103.796 E3.45730
G92 E0
G1 X94.743 Y106.648 F7800.000
G1 X94.743 Y106.648 F7800.000
G1 X94.778 Y107.648 F7800.000
G1 X94.778 Y101.184 E1.93691 F600.000
G1 X94.596 Y100.316 E2.20250
G1 X94.778 Y99.449 E2.46808
G1 X94.778 Y92.352 E4.59467
G92 E0
G1 X84.460 Y93.352 F7800.000
G1 X84.424 Y93.387 F7800.000
G1 X84.424 Y106.612 F7800.000
G1 X84.460 Y106.648 F7800.000
G1 X84.424 Y107.648 F7800.000
G1 X84.424 Y101.184 E1.93691 F600.000
G1 X84.606 Y100.316 E2.20250
G1 X95.814 Y100.316 E5.56087
G92 E0
G1 Z1.500 F7800.000
G1 X115.518 Y107.648 F7800.000
G1 X111.105 Y96.562 E3.57549 F600.000
G1 X110.159 Y94.013 E4.39000
G1 X109.719 Y93.349 E4.62869
G1 X109.292 Y93.316 E4.75724
G1 X108.917 Y93.353 E4.87012
G1 X108.486 Y94.010 E5.10552
G1 X107.541 Y96.558 E5.91986
G1 X103.114 Y107.648 E9.49798
G92 E0
G1 X102.021 Y107.648 F7800.000
G1 X95.814 Y91.352 F7800.000
G1 X93.743 Y91.352 F7800.000
G1 X89.601 Y94.493 F7800.000
G1 X89.601 Y95.307 F7800.000
G1 X85.460 Y99.449 F7800.000
G1 X84.424 Y92.352 F7800.000
G1 X84.424 Y99.449 E2.12659 F600.000
G1 X85.335 Y103.796 E3.45730
G92 E0
G1 X94.743 Y106.648 F7800.000
G1 X94.743 Y106.648 F7800.000
G1 X94.778 Y107.648 F7800.000
G1 X94.778 Y101.184 E1.93691 F600.000
G1 X94.596 Y100.316 E2.20250
G1 X94.778 Y99.449 E2.46808
G1 X94.778 Y92.352 E4.59467
G92 E0
G1 X84.460 Y93.352 F7800.000
G1 X84.424 Y93.387 F7800.000
G1 X84.424 Y106.612 F7800.000
G1 X84.460 Y106.648 F7800.000
G1 X84.424 Y107.648 F7800.000
G1 X84.424 Y101.184 E1.93691 F600.000
G1 X84.606 Y100.316 E2.20250
G1 X95.814 Y100.316 E5.56087
G92 E0
G1 Z1.800 F7800.000
G1 X115.518 Y107.648 F7800.000
G1 X111.105 Y96.562 E3.57549 F600.000
G1 X110.159 Y94.013 E4.39000
G1 X109.719 Y93.349 E4.62869
G1 X109.292 Y93.316 E4.75724
G1 X108.917 Y93.353 E4.87012
G1 X108.486 Y94.010 E5.10552
G1 X107.541 Y96.558 E5.91986
G1 X103.114 Y107.648 E9.49798
G92 E0
G1 X102.021 Y107.648 F7800.000
G1 X95.814 Y91.352 F7800.000
G1 X93.743 Y91.352 F7800.000
G1 X89.601 Y94.493 F7800.000
G1 X89.601 Y95.307 F7800.000
G1 X85.460 Y99.449 F7800.000
G1 X84.424 Y92.352 F7800.000
G1 X84.424 Y99.449 E2.12659 F600.000
G1 X85.335 Y103.796 E3.45730
G92 E0
G1 X94.743 Y106.648 F7800.000
G1 X94.743 Y106.648 F7800.000
G1 X94.778 Y107.648 F7800.000
G1 X94.778 Y101.184 E1.93691 F600.000
G1 X94.596 Y100.316 E2.20250
G1 X94.778 Y99.449 E2.46808
G1 X94.778 Y92.352 E4.59467
G92 E0
G1 X84.460 Y93.352 F7800.000
G1 X84.424 Y93.387 F7800.000
G1 X84.424 Y106.612 F7800.000
G1 X84.460 Y106.648 F7800.000
G1 X84.424 Y107.648 F7800.000
G1 X84.424 Y101.184 E1.93691 F600.000
G1 X84.606 Y100.316 E2.20250
G1 X95.814 Y100.316 E5.56087
G92 E0
G1 Z2.100 F7800.000
G1 X115.518 Y107.648 F7800.000
G1 X111.105 Y96.562 E3.57549 F600.000
G1 X110.159 Y94.013 E4.39000
G1 X109.719 Y93.349 E4.62869
G1 X109.292 Y93.316 E4.75724
G1 X108.917 Y93.353 E4.87012
G1 X108.486 Y94.010 E5.10552
G1 X107.541 Y96.558 E5.91986
G1 X103.114 Y107.648 E9.49798
G92 E0
G1 X102.021 Y107.648 F7800.000
G1 X95.814 Y91.352 F7800.000
G1 X93.743 Y91.352 F7800.000
G1 X89.601 Y94.493 F7800.000
G1 X89.601 Y95.307 F7800.000
G1 X85.460 Y99.449 F7800.000
G1 X84.424 Y92.352 F7800.000
G1 X84.424 Y99.449 E2.12659 F600.000
G1 X85.335 Y103.796 E3.45730
G92 E0
G1 X94.743 Y106.648 F7800.000
G1 X94.743 Y106.648 F7800.000
G1 X94.778 Y107.648 F7800.000
G1 X94.778 Y101.184 E1.93691 F600.000
G1 X94.596 Y100.316 E2.20250
G1 X94.778 Y99.449 E2.46808
G1 X94.778 Y92.352 E4.59467
G92 E0
G1 X84.460 Y93.352 F7800.000
G1 X84.424 Y93.387 F7800.000
G1 X84.424 Y106.612 F7800.000
G1 X84.460 Y106.648 F7800.000
G1 X84.424 Y107.648 F7800.000
G1 X84.424 Y101.184 E1.93691 F600.000
G1 X84.606 Y100.316 E2.20250
G1 X95.814 Y100.316 E5.56087
G92 E0
M107
M104 S0 ; turn off temperature
G28 X0  ; home X axis
M84     ; disable motors

; filament used = 156.2mm (1.2cm3)

; avoid_crossing_perimeters = 1
; bed_shape = 0x0,250x0,250x250,0x250
; bed_temperature = 0
; before_layer_gcode = 
; bridge_acceleration = 0
; bridge_fan_speed = 100
; brim_width = 0
; complete_objects = 0
; cooling = 1
; default_acceleration = 0
; disable_fan_first_layers = 1
; duplicate_distance = 6
; end_gcode = M104 S0 ; turn off temperature\nG28 X0  ; home X axis\nM84     ; disable motors\n
