; generated by Slic3r 1.2.9 on 2016-03-11 at 01:25:29

; external perimeters extrusion width = 1.54mm
; perimeters extrusion width = 2.62mm
; infill extrusion width = 6.27mm
; solid infill extrusion width = 2.62mm
; top infill extrusion width = 2.62mm

M107
M104 S30 ; set temperature
G28 ; home all axes
G1 Z5 F5000 ; lift nozzle
M302
M92 E10000
M500
M501
G1 E100
M109 S30 ; wait for temperature to be reached
G21 ; set units to millimeters
G90 ; use absolute coordinates
M82 ; use absolute distances for extrusion
G92 E0
G1 Z0.300 F7800.000
G1 X102.678 Y95.655 F7800.000
G1 X103.585 Y92.577 E0.14520 F378.000
G1 X105.717 Y92.577 E0.24168
G1 X107.115 Y97.654 E0.47997
G1 X108.636 Y103.285 E0.74391 F378.000
G1 X109.113 Y105.383 E0.84122
G1 X109.552 Y105.381 E0.86112
G1 X110.112 Y102.891 E0.97658
G1 X110.311 Y102.128 E1.01229
G1 X112.918 Y92.577 E1.46027
G1 X115.050 Y92.577 E1.55673
G1 X119.425 Y107.423 E2.25707
G1 X117.739 Y107.423 E2.33337
G1 X115.153 Y98.109 E2.77075
G1 X114.732 Y96.535 E2.84449
G1 X114.157 Y94.108 E2.95734
G1 X113.722 Y94.115 E2.97701
G1 X113.140 Y96.596 E3.09233
G1 X112.764 Y98.068 E3.16106
G1 X110.148 Y107.423 E3.60061
G1 X108.506 Y107.423 E3.67494
G1 X106.025 Y98.555 E4.09161
G1 X105.539 Y96.725 E4.17730
G1 X104.937 Y94.129 E4.29790
G1 X104.499 Y94.129 E4.31770
G1 X103.915 Y96.649 E4.43477
G1 X103.599 Y97.872 E4.49193
G1 X100.896 Y107.423 E4.94107
G1 X99.209 Y107.423 E5.01740
G1 X102.612 Y95.876 E5.56210
G1 X104.728 Y93.903 F7800.000
G1 X103.709 Y92.884 E5.62827 F540.000
G1 X103.583 Y93.312 E5.64875
G1 X104.306 Y94.034 E5.69570
G1 X104.202 Y94.484 E5.71690
G1 X103.457 Y93.740 E5.76526
G1 X103.331 Y94.167 E5.78574
G1 X104.097 Y94.934 E5.83553
G1 X103.993 Y95.383 E5.85673
G1 X103.205 Y94.595 E5.90794
G1 X103.079 Y95.023 E5.92842
G1 X103.889 Y95.833 E5.98105
G1 X103.785 Y96.282 E6.00225
G1 X102.953 Y95.450 E6.05630
G1 X102.827 Y95.878 E6.07678
G1 X103.679 Y96.730 E6.13215
G1 X103.565 Y97.170 E6.15303
G1 X102.701 Y96.306 E6.20920
G1 X102.575 Y96.733 E6.22968
G1 X103.452 Y97.610 E6.28665
G1 X103.334 Y98.047 E6.30742
G1 X102.449 Y97.161 E6.36496
G1 X102.323 Y97.589 E6.38545
G1 X103.212 Y98.478 E6.44325
G1 X103.090 Y98.910 E6.46386
G1 X102.197 Y98.016 E6.52191
G1 X102.071 Y98.444 E6.54240
G1 X102.968 Y99.341 E6.60071
G1 X102.846 Y99.773 E6.62132
G1 X101.944 Y98.872 E6.67988
G1 X101.818 Y99.299 E6.70037
G1 X102.724 Y100.205 E6.75919
G1 X102.602 Y100.636 E6.77980
G1 X101.692 Y99.727 E6.83887
G1 X101.566 Y100.155 E6.85936
G1 X102.479 Y101.068 E6.91869
G1 X102.357 Y101.499 E6.93930
G1 X101.440 Y100.582 E6.99888
G1 X101.314 Y101.010 E7.01937
G1 X102.235 Y101.931 E7.07921
G1 X102.113 Y102.363 E7.09982
G1 X101.188 Y101.438 E7.15991
G1 X101.062 Y101.865 E7.18040
G1 X101.991 Y102.794 E7.24075
G1 X101.869 Y103.226 E7.26136
G1 X100.936 Y102.293 E7.32196
G1 X100.810 Y102.721 E7.34245
G1 X101.747 Y103.657 E7.40331
G1 X101.624 Y104.089 E7.42392
G1 X100.684 Y103.148 E7.48503
G1 X100.558 Y103.576 E7.50552
G1 X101.502 Y104.521 E7.56689
G1 X101.380 Y104.952 E7.58750
G1 X100.432 Y104.004 E7.64912
G1 X100.306 Y104.431 E7.66961
G1 X101.258 Y105.384 E7.73149
G1 X101.136 Y105.815 E7.75210
G1 X100.179 Y104.859 E7.81423
G1 X100.053 Y105.287 E7.83472
G1 X101.014 Y106.247 E7.89711
G1 X100.891 Y106.679 E7.91772
G1 X99.927 Y105.714 E7.98036
G1 X99.801 Y106.142 E8.00085
G1 X100.769 Y107.110 E8.06375
G1 X100.303 Y107.197 E8.08557
G1 X99.675 Y106.570 E8.12633
G1 X99.549 Y106.997 E8.14681
G1 X99.749 Y107.197 E8.15979
G92 E0
G1 X100.310 Y106.648 F7800.000
G1 X100.310 Y106.648 F7800.000
G1 X108.094 Y105.022 F7800.000
G1 X110.056 Y106.983 E0.12747 F540.000
G1 X109.716 Y107.197 E0.14592
G1 X108.310 Y105.791 E0.23731
G1 X108.817 Y105.190 F7800.000
G1 X107.879 Y104.253 E0.29821 F540.000
G1 X108.491 Y103.757 F7800.000
G1 X107.449 Y102.715 E0.36591 F540.000
G1 X108.100 Y102.259 F7800.000
G1 X107.019 Y101.178 E0.43614 F540.000
G1 X106.804 Y100.409 E0.47282
G1 X107.895 Y101.500 E0.54372
G1 X107.690 Y100.741 E0.57982
G1 X106.589 Y99.640 E0.65137
G1 X106.374 Y98.871 E0.68805
G1 X107.485 Y99.983 E0.76026
G1 X107.280 Y99.224 E0.79637
G1 X106.165 Y98.108 E0.86887
G1 X105.965 Y97.355 E0.90470
G1 X107.076 Y98.465 E0.97688
G1 X106.870 Y97.706 E1.01303
G1 X105.765 Y96.601 E1.08483
G1 X106.659 Y96.942 F7800.000
G1 X105.596 Y95.878 E1.15393 F540.000
G1 X105.429 Y95.157 E1.18795
G1 X106.449 Y96.178 E1.25425
G1 X106.239 Y95.414 E1.29066
G1 X105.261 Y94.436 E1.35417
G1 X106.028 Y94.649 F7800.000
G1 X104.182 Y92.803 E1.47414 F540.000
G1 X104.735 Y92.803 E1.49958
G1 X105.818 Y93.885 E1.56991
G1 X105.607 Y93.121 E1.60632
G1 X105.289 Y92.803 E1.62699
G92 E0
G1 X105.127 Y93.353 F7800.000
G1 X105.127 Y93.353 F7800.000
G1 X114.431 Y94.192 F7800.000
G1 X115.610 Y95.371 E0.07663 F540.000
G1 X115.841 Y96.157 E0.11424
G1 X114.603 Y94.918 E0.19473
G1 X114.775 Y95.644 E0.22900
G1 X116.073 Y96.942 E0.31335
G1 X116.304 Y97.727 E0.35096
G1 X114.947 Y96.369 E0.43917
G1 X115.148 Y97.125 E0.47508
G1 X116.536 Y98.512 E0.56523
G1 X116.767 Y99.297 E0.60284
G1 X115.350 Y97.880 E0.69491
G1 X115.562 Y98.646 E0.73141
G1 X116.998 Y100.082 E0.82475
G1 X117.230 Y100.867 E0.86236
G1 X115.775 Y99.412 E0.95690
G1 X115.988 Y100.179 E0.99346
G1 X117.461 Y101.652 E1.08921
G1 X117.693 Y102.438 E1.12681
G1 X116.200 Y100.946 E1.22376
G1 X116.413 Y101.712 E1.26032
G1 X117.924 Y103.223 E1.35847
G1 X118.155 Y104.008 E1.39607
G1 X116.626 Y102.479 E1.49543
G1 X116.839 Y103.245 E1.53198
G1 X118.387 Y104.793 E1.63254
G1 X118.618 Y105.578 E1.67015
G1 X117.052 Y104.012 E1.77191
G1 X117.265 Y104.779 E1.80846
G1 X118.849 Y106.363 E1.91142
G1 X119.081 Y107.148 E1.94903
G1 X117.478 Y105.545 E2.05320
G1 X117.691 Y106.312 E2.08975
G1 X118.576 Y107.197 E2.14727
G92 E0
G1 X118.327 Y106.648 F7800.000
G1 X118.327 Y106.648 F7800.000
G1 X110.661 Y104.820 F7800.000
G1 X110.035 Y104.193 E0.04071 F540.000
G1 X110.136 Y103.741 E0.06200
G1 X110.782 Y104.387 E0.10398
G1 X110.903 Y103.954 E0.12462
G1 X110.238 Y103.289 E0.16786
G1 X110.341 Y102.838 E0.18910
G1 X111.024 Y103.522 E0.23351
G1 X111.145 Y103.089 E0.25416
G1 X110.455 Y102.399 E0.29898
G1 X110.572 Y101.961 E0.31978
G1 X111.266 Y102.656 E0.36493
G1 X111.387 Y102.224 E0.38557
G1 X110.690 Y101.526 E0.43087
G1 X110.809 Y101.091 E0.45158
G1 X111.508 Y101.791 E0.49703
G1 X111.629 Y101.358 E0.51767
G1 X110.928 Y100.656 E0.56327
G1 X111.046 Y100.221 E0.58398
G1 X111.750 Y100.925 E0.62973
G1 X111.871 Y100.493 E0.65037
G1 X111.165 Y99.786 E0.69626
G1 X111.284 Y99.351 E0.71698
G1 X111.992 Y100.060 E0.76302
G1 X112.113 Y99.627 E0.78367
G1 X111.403 Y98.916 E0.82986
G1 X111.521 Y98.481 E0.85058
G1 X112.234 Y99.195 E0.89692
G1 X112.356 Y98.762 E0.91756
G1 X111.640 Y98.046 E0.96405
G1 X111.759 Y97.611 E0.98477
G1 X112.477 Y98.329 E1.03141
G1 X112.594 Y97.893 E1.05216
G1 X111.877 Y97.176 E1.09873
G1 X111.996 Y96.741 E1.11945
G1 X112.707 Y97.452 E1.16562
G1 X112.819 Y97.011 E1.18654
G1 X112.115 Y96.306 E1.23230
G1 X112.234 Y95.871 E1.25302
G1 X112.931 Y96.569 E1.29834
G1 X113.036 Y96.120 E1.31950
G1 X112.352 Y95.436 E1.36395
G1 X112.471 Y95.001 E1.38467
G1 X113.142 Y95.672 E1.42824
G1 X113.247 Y95.223 E1.44940
G1 X112.590 Y94.566 E1.49210
G1 X112.708 Y94.131 E1.51282
G1 X113.352 Y94.775 E1.55465
G1 X113.457 Y94.326 E1.57581
G1 X112.827 Y93.696 E1.61676
G1 X112.946 Y93.261 E1.63748
G1 X113.577 Y93.892 E1.67851
G1 X114.123 Y93.884 E1.70356
G1 X113.065 Y92.826 E1.77231
G1 X113.595 Y92.803 E1.79671
G1 X115.379 Y94.586 E1.91259
G1 X115.147 Y93.801 F7800.000
G1 X114.149 Y92.803 E1.97746 F540.000
G1 X114.703 Y92.803 E2.00290
G1 X114.916 Y93.016 E2.01675
G92 E0
G1 X105.127 Y93.353 F7800.000
G1 X105.127 Y93.353 F7800.000
G1 X107.234 Y101.947 F7800.000
G1 X108.305 Y103.017 E0.06957 F540.000
G1 X107.664 Y103.484 F7800.000
G1 X108.654 Y104.474 E0.13387 F540.000
G1 X109.234 Y105.608 F7800.000
G1 X110.177 Y106.551 E0.19514 F540.000
G1 X110.298 Y106.118 E0.21579
G1 X109.730 Y105.550 E0.25272
G1 X109.831 Y105.097 E0.27401
G1 X110.419 Y105.685 E0.31220
G1 X110.540 Y105.253 E0.33285
G1 X109.933 Y104.645 E0.37230
G1 X108.525 Y106.559 F7800.000
G1 X109.162 Y107.197 E0.41374 F540.000
G92 E0
G1 X105.808 Y98.614 F7800.000
G1 X104.705 Y102.830 F7800.000
G1 X101.066 Y108.648 F7800.000
G1 X95.914 Y106.433 F7800.000
G1 X94.699 Y92.352 F7800.000
G1 X88.628 Y92.352 F7800.000
G1 X86.487 Y95.307 F7800.000
G1 X82.345 Y99.449 F7800.000
G1 X82.120 Y96.832 F7800.000
G1 X82.120 Y99.674 E0.12862 F378.000
G1 X90.853 Y99.674 E0.52378 F378.000
G1 X90.853 Y92.577 E0.84492
G1 X92.474 Y92.577 E0.91827
G1 X92.474 Y107.423 E1.59004
G1 X90.853 Y107.423 E1.66339
G1 X90.853 Y100.959 E1.95588
G1 X82.120 Y100.959 E2.35104
G1 X82.120 Y107.423 E2.64353
G1 X80.499 Y107.423 E2.71688
G1 X80.499 Y92.577 E3.38865
G1 X82.120 Y92.577 E3.46200
G1 X82.120 Y96.601 E3.64406
G1 X81.894 Y99.844 F7800.000
G1 X80.725 Y98.675 E3.72014 F540.000
G1 X80.725 Y98.120 E3.74565
G1 X81.894 Y99.290 E3.82173
G1 X81.894 Y98.735 E3.84725
G1 X80.725 Y97.566 E3.92333
G1 X80.725 Y97.011 E3.94884
G1 X81.894 Y98.180 E4.02492
G1 X81.894 Y97.626 E4.05044
G1 X80.725 Y96.457 E4.12652
G1 X80.725 Y95.902 E4.15203
G1 X81.894 Y97.071 E4.22811
G1 X81.894 Y96.517 E4.25363
G1 X80.725 Y95.348 E4.32970
G1 X80.725 Y94.793 E4.35522
G1 X81.894 Y95.962 E4.43130
G1 X81.894 Y95.408 E4.45682
G1 X80.725 Y94.238 E4.53289
G1 X80.725 Y93.684 E4.55841
G1 X81.894 Y94.853 E4.63449
G1 X81.894 Y94.298 E4.66001
G1 X80.725 Y93.129 E4.73608
G1 X80.953 Y92.803 E4.75441
G1 X81.894 Y93.744 E4.81564
G1 X81.894 Y93.189 E4.84115
G1 X81.508 Y92.803 E4.86630
G92 E0
G1 X91.628 Y93.352 F7800.000
G1 X91.628 Y93.352 F7800.000
G1 X91.664 Y93.387 F7800.000
G1 X91.699 Y93.352 F7800.000
G1 X92.248 Y93.007 F7800.000
G1 X92.045 Y92.803 E0.01325 F540.000
G1 X91.490 Y92.803 E0.03877
G1 X92.248 Y93.561 E0.08810
G1 X92.248 Y94.116 E0.11362
G1 X91.079 Y92.947 E0.18970
G1 X91.079 Y93.501 E0.21522
G1 X92.248 Y94.670 E0.29129
G1 X92.248 Y95.225 E0.31681
G1 X91.079 Y94.056 E0.39289
G1 X91.079 Y94.610 E0.41841
G1 X92.248 Y95.779 E0.49448
G1 X92.248 Y96.334 E0.52000
G1 X91.079 Y95.165 E0.59608
G1 X91.079 Y95.719 E0.62160
G1 X92.248 Y96.889 E0.69767
G1 X92.248 Y97.443 E0.72319
G1 X91.079 Y96.274 E0.79927
G1 X91.079 Y96.829 E0.82479
G1 X92.248 Y97.998 E0.90086
G1 X92.248 Y98.552 E0.92638
G1 X91.079 Y97.383 E1.00246
G1 X91.079 Y97.938 E1.02797
G1 X92.248 Y99.107 E1.10405
G1 X92.248 Y99.661 E1.12957
G1 X91.079 Y98.492 E1.20565
G1 X91.079 Y99.047 E1.23116
G1 X92.248 Y100.216 E1.30724
G1 X92.248 Y100.770 E1.33276
G1 X91.079 Y99.601 E1.40884
G1 X90.823 Y99.900 F7800.000
G1 X92.248 Y101.325 E1.50157 F540.000
G1 X92.248 Y101.880 E1.52709
G1 X90.269 Y99.900 E1.65591
G1 X89.714 Y99.900 E1.68143
G1 X90.547 Y100.733 E1.73564
G1 X89.993 Y100.733 E1.76116
G1 X89.159 Y99.900 E1.81537
G1 X88.605 Y99.900 E1.84089
G1 X89.438 Y100.733 E1.89510
G1 X88.883 Y100.733 E1.92062
G1 X88.050 Y99.900 E1.97483
G1 X87.496 Y99.900 E2.00035
G1 X88.329 Y100.733 E2.05456
G1 X87.774 Y100.733 E2.08008
G1 X86.941 Y99.900 E2.13429
G1 X86.387 Y99.900 E2.15981
G1 X87.220 Y100.733 E2.21402
G1 X86.665 Y100.733 E2.23954
G1 X85.832 Y99.900 E2.29375
G1 X85.277 Y99.900 E2.31927
G1 X86.111 Y100.733 E2.37348
G1 X85.556 Y100.733 E2.39900
G1 X84.723 Y99.900 E2.45321
G1 X84.168 Y99.900 E2.47873
G1 X85.001 Y100.733 E2.53294
G1 X84.447 Y100.733 E2.55846
G1 X83.614 Y99.900 E2.61267
G1 X83.059 Y99.900 E2.63819
G1 X83.892 Y100.733 E2.69240
G1 X83.338 Y100.733 E2.71792
G1 X82.505 Y99.900 E2.77213
G1 X81.950 Y99.900 E2.79765
G1 X82.783 Y100.733 E2.85186
G1 X82.229 Y100.733 E2.87738
G1 X80.725 Y99.230 E2.97522
G1 X80.725 Y99.784 E3.00074
G1 X81.894 Y100.953 E3.07681
G1 X81.894 Y101.508 E3.10233
G1 X80.725 Y100.339 E3.17841
G1 X80.725 Y100.893 E3.20393
G1 X81.894 Y102.062 E3.28000
G1 X81.894 Y102.617 E3.30552
G1 X80.725 Y101.448 E3.38160
G1 X80.725 Y102.002 E3.40712
G1 X81.894 Y103.171 E3.48319
G1 X81.894 Y103.726 E3.50871
G1 X80.725 Y102.557 E3.58479
G1 X80.725 Y103.112 E3.61031
G1 X81.894 Y104.281 E3.68638
G1 X81.894 Y104.835 E3.71190
G1 X80.725 Y103.666 E3.78798
G1 X80.725 Y104.221 E3.81350
G1 X81.894 Y105.390 E3.88957
G1 X81.894 Y105.944 E3.91509
G1 X80.725 Y104.775 E3.99117
G1 X80.725 Y105.330 E4.01669
G1 X81.894 Y106.499 E4.09276
G1 X81.894 Y107.053 E4.11828
G1 X80.725 Y105.884 E4.19436
G1 X80.725 Y106.439 E4.21988
G1 X81.483 Y107.197 E4.26921
G1 X80.929 Y107.197 E4.29473
G1 X80.725 Y106.993 E4.30798
G92 E0
G1 X81.345 Y106.648 F7800.000
G1 X81.345 Y106.648 F7800.000
G1 X91.465 Y107.197 F7800.000
G1 X91.079 Y106.811 E0.02514 F540.000
G1 X91.079 Y106.256 E0.05066
G1 X92.020 Y107.197 E0.11188
G1 X92.248 Y106.871 E0.13021
G1 X91.079 Y105.702 E0.20628
G1 X91.079 Y105.147 E0.23180
G1 X92.248 Y106.316 E0.30788
G1 X92.248 Y105.762 E0.33340
G1 X91.079 Y104.592 E0.40947
G1 X91.079 Y104.038 E0.43499
G1 X92.248 Y105.207 E0.51107
G1 X92.248 Y104.652 E0.53659
G1 X91.079 Y103.483 E0.61266
G1 X91.079 Y102.929 E0.63818
G1 X92.248 Y104.098 E0.71426
G1 X92.248 Y103.543 E0.73978
G1 X91.079 Y102.374 E0.81585
G1 X91.079 Y101.820 E0.84137
G1 X92.248 Y102.989 E0.91745
G1 X92.248 Y102.434 E0.94297
G1 X91.079 Y101.265 E1.01904
M106 S255
G92 E0
G1 Z0.600 F7800.000
G1 X118.644 Y107.648 F7800.000
G1 X115.859 Y97.917 E3.03301 F600.000
G1 X115.423 Y96.361 E3.51720
G1 X114.831 Y94.134 E4.20759
G1 X114.437 Y93.397 E4.45821
G1 X113.964 Y93.344 E4.60060
G1 X113.530 Y93.379 E4.73109
G1 X113.104 Y94.150 E4.99506
G1 X112.138 Y97.900 E6.15551
G1 X110.722 Y103.040 E7.75281
G1 X110.145 Y105.330 E8.46066
G1 X109.374 Y106.402 E8.85636
G1 X109.280 Y106.402 E8.88451
G1 X108.515 Y105.333 E9.27839
G1 X108.034 Y103.435 E9.86512
G1 X106.157 Y96.571 E11.99746
G1 X105.548 Y94.170 E12.73964
G1 X105.104 Y93.383 E13.01063
G1 X104.677 Y93.353 E13.13863
G1 X104.207 Y93.408 E13.28067
G1 X103.812 Y94.153 E13.53320
G1 X102.870 Y97.675 E14.62562
G1 X99.989 Y107.648 E17.73625
G92 E0
G1 X98.908 Y107.648 F7800.000
G1 X92.699 Y91.352 F7800.000
G1 X90.628 Y91.352 F7800.000
G1 X86.487 Y94.493 F7800.000
G1 X86.487 Y95.307 F7800.000
G1 X82.345 Y99.449 F7800.000
G1 X81.310 Y92.352 F7800.000
G1 X81.310 Y99.449 E2.12659 F600.000
G1 X82.220 Y103.796 E3.45730
G92 E0
G1 X91.628 Y106.648 F7800.000
G1 X91.628 Y106.648 F7800.000
G1 X91.664 Y107.648 F7800.000
G1 X91.664 Y101.184 E1.93691 F600.000
G1 X91.482 Y100.316 E2.20250
G1 X91.664 Y99.449 E2.46808
G1 X91.664 Y92.352 E4.59467
G92 E0
G1 X81.345 Y93.352 F7800.000
G1 X81.310 Y93.387 F7800.000
G1 X81.310 Y106.612 F7800.000
G1 X81.345 Y106.648 F7800.000
G1 X81.310 Y107.648 F7800.000
G1 X81.310 Y101.184 E1.93691 F600.000
G1 X81.491 Y100.316 E2.20250
G1 X92.699 Y100.316 E5.56087
G92 E0
G1 Z0.900 F7800.000
G1 X118.644 Y107.648 F7800.000
G1 X115.859 Y97.917 E3.03301 F600.000
G1 X115.423 Y96.361 E3.51721
G1 X114.831 Y94.134 E4.20759
G1 X114.437 Y93.397 E4.45821
G1 X113.964 Y93.344 E4.60061
G1 X113.530 Y93.379 E4.73109
G1 X113.104 Y94.150 E4.99506
G1 X112.138 Y97.900 E6.15550
G1 X110.722 Y103.040 E7.75281
G1 X110.145 Y105.330 E8.46066
G1 X109.374 Y106.402 E8.85636
G1 X109.280 Y106.402 E8.88451
G1 X108.515 Y105.333 E9.27838
G1 X108.033 Y103.432 E9.86606
G1 X106.157 Y96.571 E11.99746
G1 X105.548 Y94.170 E12.73964
G1 X105.104 Y93.383 E13.01063
G1 X104.677 Y93.353 E13.13863
G1 X104.207 Y93.408 E13.28067
G1 X103.812 Y94.153 E13.53320
G1 X102.870 Y97.675 E14.62562
G1 X99.989 Y107.648 E17.73626
G92 E0
G1 X98.908 Y107.648 F7800.000
G1 X92.699 Y91.352 F7800.000
G1 X90.628 Y91.352 F7800.000
G1 X86.487 Y94.493 F7800.000
G1 X86.487 Y95.307 F7800.000
G1 X82.345 Y99.449 F7800.000
G1 X81.310 Y92.352 F7800.000
G1 X81.310 Y99.449 E2.12659 F600.000
G1 X82.220 Y103.796 E3.45730
G92 E0
G1 X91.628 Y106.648 F7800.000
G1 X91.628 Y106.648 F7800.000
G1 X91.664 Y107.648 F7800.000
G1 X91.664 Y101.184 E1.93691 F600.000
G1 X91.482 Y100.316 E2.20250
G1 X91.664 Y99.449 E2.46808
G1 X91.664 Y92.352 E4.59467
G92 E0
G1 X81.345 Y93.352 F7800.000
G1 X81.310 Y93.387 F7800.000
G1 X81.310 Y106.612 F7800.000
G1 X81.345 Y106.648 F7800.000
G1 X81.310 Y107.648 F7800.000
G1 X81.310 Y101.184 E1.93691 F600.000
G1 X81.491 Y100.316 E2.20250
G1 X92.699 Y100.316 E5.56087
G92 E0
G1 Z1.200 F7800.000
G1 X118.644 Y107.648 F7800.000
