; generated by Slic3r 1.2.9 on 2016-03-11 at 01:25:30

; external perimeters extrusion width = 1.54mm
; perimeters extrusion width = 2.62mm
; infill extrusion width = 6.27mm
; solid infill extrusion width = 2.62mm
; top infill extrusion width = 2.62mm

M107
M104 S30 ; set temperature
G28 ; home all axes
G1 Z5 F5000 ; lift nozzle
M302
M92 E10000
M500
M501
G1 E100
M109 S30 ; wait for temperature to be reached
G21 ; set units to millimeters
G90 ; use absolute coordinates
M82 ; use absolute distances for extrusion
G92 E0
G1 Z0.300 F7800.000
G1 X113.261 Y104.239 F7800.000
G1 X115.545 Y107.423 E0.17731 F378.000
G1 X113.814 Y107.423 E0.25565
G1 X109.579 Y101.251 E0.59434
G1 X105.222 Y107.423 E0.93620
G1 X103.493 Y107.423 E1.01443
G1 X108.686 Y100.299 E1.41335
G1 X103.049 Y92.577 E1.84594
G1 X104.777 Y92.577 E1.92413
G1 X109.031 Y98.666 E2.26023
G1 X109.567 Y99.435 E2.30264 F378.000
G1 X114.258 Y92.577 E2.67860
G1 X115.993 Y92.577 E2.75711
G1 X110.490 Y100.376 E3.18902
G1 X113.126 Y104.051 E3.39367
G1 X112.962 Y104.318 F7800.000
G1 X108.933 Y100.289 E3.65491 F540.000
G1 X108.700 Y100.608 E3.67304
G1 X109.342 Y101.251 E3.71469
G1 X109.114 Y101.574 E3.73286
G1 X108.467 Y100.928 E3.77478
G1 X108.234 Y101.247 E3.79291
G1 X108.885 Y101.898 E3.83511
G1 X108.656 Y102.222 E3.85329
G1 X108.001 Y101.567 E3.89577
G1 X107.768 Y101.886 E3.91390
G1 X108.428 Y102.546 E3.95666
G1 X108.199 Y102.870 E3.97483
G1 X107.535 Y102.206 E4.01787
G1 X107.302 Y102.525 E4.03600
G1 X107.970 Y103.194 E4.07932
G1 X107.742 Y103.518 E4.09749
G1 X107.069 Y102.845 E4.14109
G1 X106.836 Y103.165 E4.15921
G1 X107.513 Y103.841 E4.20309
G1 X107.285 Y104.165 E4.22126
G1 X106.603 Y103.484 E4.26542
G1 X106.370 Y103.804 E4.28354
G1 X107.056 Y104.489 E4.32798
G1 X106.827 Y104.813 E4.34615
G1 X106.138 Y104.123 E4.39086
G1 X105.905 Y104.443 E4.40899
G1 X106.599 Y105.137 E4.45398
G1 X106.370 Y105.461 E4.47215
G1 X105.672 Y104.762 E4.51743
G1 X105.439 Y105.082 E4.53555
G1 X106.141 Y105.784 E4.58110
G1 X105.913 Y106.108 E4.59927
G1 X105.206 Y105.401 E4.64510
G1 X104.973 Y105.721 E4.66323
G1 X105.684 Y106.432 E4.70934
G1 X105.455 Y106.756 E4.72751
G1 X104.740 Y106.040 E4.77390
G1 X104.507 Y106.360 E4.79202
G1 X105.227 Y107.080 E4.83869
G1 X104.792 Y107.197 E4.85935
G1 X104.274 Y106.680 E4.89290
G1 X104.041 Y106.999 E4.91103
G1 X104.239 Y107.197 E4.92385
G92 E0
G1 X111.203 Y103.111 F7800.000
G1 X114.364 Y106.273 E0.20495 F540.000
G1 X113.619 Y106.632 F7800.000
G1 X114.184 Y107.197 E0.24158 F540.000
G1 X114.736 Y107.197 E0.26691
G1 X112.411 Y104.872 E0.41766
G1 X111.561 Y102.364 F7800.000
G1 X107.827 Y98.630 E0.65974 F540.000
G1 X108.013 Y97.711 F7800.000
G1 X104.840 Y94.538 E0.86543 F540.000
G1 X105.452 Y94.046 F7800.000
G1 X104.209 Y92.803 E0.94601 F540.000
G1 X103.657 Y92.803 E0.97133
G1 X106.732 Y95.878 E1.17071
G1 X106.333 Y96.584 F7800.000
G1 X110.200 Y100.451 E1.42141 F540.000
G1 X110.429 Y100.127 E1.43959
G1 X109.776 Y99.474 E1.48193
G1 X110.000 Y99.146 E1.50015
G1 X110.657 Y99.803 E1.54277
G1 X110.886 Y99.479 E1.56094
G1 X110.224 Y98.818 E1.60382
G1 X110.449 Y98.490 E1.62204
G1 X111.114 Y99.155 E1.66520
G1 X111.343 Y98.831 E1.68337
G1 X110.673 Y98.162 E1.72679
G1 X110.898 Y97.834 E1.74501
G1 X111.571 Y98.508 E1.78870
G1 X111.800 Y98.184 E1.80688
G1 X111.122 Y97.506 E1.85084
G1 X111.346 Y97.177 E1.86906
G1 X112.029 Y97.860 E1.91329
G1 X112.257 Y97.536 E1.93146
G1 X111.571 Y96.849 E1.97596
G1 X111.795 Y96.521 E1.99418
G1 X112.486 Y97.212 E2.03895
G1 X112.714 Y96.888 E2.05712
G1 X112.020 Y96.193 E2.10216
G1 X112.244 Y95.865 E2.12038
G1 X112.943 Y96.564 E2.16568
G1 X113.171 Y96.240 E2.18386
G1 X112.468 Y95.537 E2.22943
G1 X112.693 Y95.209 E2.24765
G1 X113.400 Y95.916 E2.29350
G1 X113.629 Y95.592 E2.31167
G1 X112.917 Y94.881 E2.35778
G1 X113.142 Y94.553 E2.37600
G1 X113.857 Y95.268 E2.42238
G1 X114.086 Y94.944 E2.44056
G1 X113.366 Y94.225 E2.48721
G1 X113.590 Y93.897 E2.50543
G1 X114.314 Y94.621 E2.55235
G1 X114.543 Y94.297 E2.57052
G1 X113.815 Y93.569 E2.61771
G1 X114.039 Y93.241 E2.63593
G1 X114.771 Y93.973 E2.68339
G1 X115.000 Y93.649 E2.70157
G1 X114.264 Y92.913 E2.74929
G1 X114.707 Y92.803 E2.77021
G1 X115.228 Y93.325 E2.80404
G1 X115.259 Y92.803 E2.82801
G1 X115.457 Y93.001 E2.84084
G92 E0
G1 X108.407 Y100.299 F7800.000
G1 X97.998 Y107.648 F7800.000
G1 X91.927 Y107.648 F7800.000
G1 X89.785 Y105.325 F7800.000
G1 X85.644 Y101.184 F7800.000
G1 X85.419 Y105.908 F7800.000
G1 X85.419 Y107.423 E0.06856 F378.000
G1 X83.798 Y107.423 E0.14191
G1 X83.798 Y92.577 E0.81368
G1 X85.419 Y92.577 E0.88703
G1 X85.419 Y99.674 E1.20817
G1 X94.152 Y99.674 E1.60333 F378.000
G1 X94.152 Y92.577 E1.92446
G1 X95.773 Y92.577 E1.99781
G1 X95.773 Y107.423 E2.66958
G1 X94.152 Y107.423 E2.74293
G1 X94.152 Y100.959 E3.03542
G1 X85.419 Y100.959 E3.43058
G1 X85.419 Y105.677 E3.64406
G1 X84.024 Y106.993 F7800.000
G1 X84.227 Y107.197 E3.65731 F540.000
G1 X84.782 Y107.197 E3.68282
G1 X84.024 Y106.439 E3.73216
G1 X84.024 Y105.884 E3.75768
G1 X85.193 Y107.053 E3.83375
G1 X85.193 Y106.499 E3.85927
G1 X84.024 Y105.330 E3.93535
G1 X84.024 Y104.775 E3.96087
G1 X85.193 Y105.944 E4.03694
G1 X85.193 Y105.390 E4.06246
G1 X84.024 Y104.221 E4.13854
G1 X84.024 Y103.666 E4.16406
G1 X85.193 Y104.835 E4.24013
G1 X85.193 Y104.281 E4.26565
G1 X84.024 Y103.112 E4.34173
G1 X84.024 Y102.557 E4.36725
G1 X85.193 Y103.726 E4.44332
G1 X85.193 Y103.171 E4.46884
G1 X84.024 Y102.002 E4.54492
G1 X84.024 Y101.448 E4.57044
G1 X85.193 Y102.617 E4.64651
G1 X85.193 Y102.062 E4.67203
G1 X84.024 Y100.893 E4.74811
G1 X84.024 Y100.339 E4.77363
G1 X85.193 Y101.508 E4.84970
G1 X85.193 Y100.953 E4.87522
G1 X84.024 Y99.784 E4.95130
G1 X84.024 Y99.230 E4.97682
G1 X85.527 Y100.733 E5.07465
G1 X86.082 Y100.733 E5.10017
G1 X85.249 Y99.900 E5.15438
G1 X85.803 Y99.900 E5.17990
G1 X86.636 Y100.733 E5.23411
G1 X87.191 Y100.733 E5.25963
G1 X86.358 Y99.900 E5.31384
G1 X86.912 Y99.900 E5.33936
G1 X87.745 Y100.733 E5.39357
G1 X88.300 Y100.733 E5.41909
G1 X87.467 Y99.900 E5.47330
G1 X88.021 Y99.900 E5.49882
G1 X88.854 Y100.733 E5.55303
G1 X89.409 Y100.733 E5.57855
G1 X88.576 Y99.900 E5.63276
G1 X89.131 Y99.900 E5.65828
G1 X89.964 Y100.733 E5.71249
G1 X90.518 Y100.733 E5.73801
G1 X89.685 Y99.900 E5.79222
G1 X90.240 Y99.900 E5.81774
G1 X91.073 Y100.733 E5.87195
G1 X91.627 Y100.733 E5.89747
G1 X90.794 Y99.900 E5.95168
G1 X91.349 Y99.900 E5.97720
G1 X92.182 Y100.733 E6.03141
G1 X92.736 Y100.733 E6.05693
G1 X91.903 Y99.900 E6.11114
G1 X92.458 Y99.900 E6.13666
G1 X93.291 Y100.733 E6.19088
G1 X93.846 Y100.733 E6.21639
G1 X93.012 Y99.900 E6.27061
G1 X93.567 Y99.900 E6.29612
G1 X95.547 Y101.880 E6.42495
G1 X95.547 Y101.325 E6.45046
G1 X94.122 Y99.900 E6.54320
G1 X94.378 Y99.601 F7800.000
G1 X95.547 Y100.770 E6.61928 F540.000
G1 X95.547 Y100.216 E6.64479
G1 X94.378 Y99.047 E6.72087
G1 X94.378 Y98.492 E6.74639
G1 X95.547 Y99.661 E6.82247
G1 X95.547 Y99.107 E6.84798
G1 X94.378 Y97.938 E6.92406
G1 X94.378 Y97.383 E6.94958
G1 X95.547 Y98.552 E7.02566
G1 X95.547 Y97.998 E7.05117
G1 X94.378 Y96.829 E7.12725
G1 X94.378 Y96.274 E7.15277
G1 X95.547 Y97.443 E7.22885
G1 X95.547 Y96.889 E7.25436
G1 X94.378 Y95.719 E7.33044
G1 X94.378 Y95.165 E7.35596
G1 X95.547 Y96.334 E7.43203
G1 X95.547 Y95.779 E7.45755
G1 X94.378 Y94.610 E7.53363
G1 X94.378 Y94.056 E7.55915
G1 X95.547 Y95.225 E7.63522
G1 X95.547 Y94.670 E7.66074
G1 X94.378 Y93.501 E7.73682
G1 X94.378 Y92.947 E7.76234
G1 X95.547 Y94.116 E7.83841
G1 X95.547 Y93.561 E7.86393
G1 X94.789 Y92.803 E7.91327
G1 X95.343 Y92.803 E7.93879
G1 X95.547 Y93.007 E7.95204
G1 X94.378 Y101.265 F7800.000
G1 X95.547 Y102.434 E8.02811 F540.000
G1 X95.547 Y102.989 E8.05363
G1 X94.378 Y101.820 E8.12971
G1 X94.378 Y102.374 E8.15523
G1 X95.547 Y103.543 E8.23130
G1 X95.547 Y104.098 E8.25682
G1 X94.378 Y102.929 E8.33290
G1 X94.378 Y103.483 E8.35842
G1 X95.547 Y104.652 E8.43449
G1 X95.547 Y105.207 E8.46001
G1 X94.378 Y104.038 E8.53609
G1 X94.378 Y104.592 E8.56160
G1 X95.547 Y105.762 E8.63768
G1 X95.547 Y106.316 E8.66320
G1 X94.378 Y105.147 E8.73928
G1 X94.378 Y105.702 E8.76479
G1 X95.547 Y106.871 E8.84087
G1 X95.318 Y107.197 E8.85920
G1 X94.378 Y106.256 E8.92042
G1 X94.378 Y106.811 E8.94594
G1 X94.764 Y107.197 E8.97108
G92 E0
G1 X94.927 Y106.648 F7800.000
G1 X94.927 Y106.648 F7800.000
G1 X85.193 Y99.844 F7800.000
G1 X84.024 Y98.675 E0.07608 F540.000
G1 X84.024 Y98.120 E0.10159
G1 X85.193 Y99.290 E0.17767
G1 X85.193 Y98.735 E0.20319
G1 X84.024 Y97.566 E0.27927
G1 X84.024 Y97.011 E0.30478
G1 X85.193 Y98.180 E0.38086
G1 X85.193 Y97.626 E0.40638
G1 X84.024 Y96.457 E0.48246
G1 X84.024 Y95.902 E0.50797
G1 X85.193 Y97.071 E0.58405
G1 X85.193 Y96.517 E0.60957
G1 X84.024 Y95.348 E0.68565
G1 X84.024 Y94.793 E0.71116
G1 X85.193 Y95.962 E0.78724
G1 X85.193 Y95.408 E0.81276
G1 X84.024 Y94.238 E0.88884
G1 X84.024 Y93.684 E0.91435
G1 X85.193 Y94.853 E0.99043
G1 X85.193 Y94.298 E1.01595
G1 X84.024 Y93.129 E1.09203
G1 X84.252 Y92.803 E1.11035
G1 X85.193 Y93.744 E1.17158
G1 X85.193 Y93.189 E1.19710
G1 X84.806 Y92.803 E1.22224
M106 S255
G92 E0
G1 Z0.600 F7800.000
G1 X115.278 Y92.352 F7800.000
G1 X110.288 Y99.533 E2.62027 F600.000
G1 X110.014 Y99.844 E2.74446
G1 X109.590 Y100.224 E2.91494
G1 X109.583 Y100.459 E2.98522
G1 X110.045 Y100.892 E3.17516
G1 X110.280 Y101.162 E3.28236
G1 X114.831 Y107.648 E5.65652
G1 X112.208 Y102.630 F7800.000
G1 X109.112 Y99.785 E6.91634 F600.000
G1 X108.877 Y99.520 E7.02241
G1 X103.759 Y92.352 E9.66156
G92 E0
G1 X104.201 Y107.648 F7800.000
G1 X108.867 Y101.144 E2.39857 F600.000
G1 X109.146 Y100.838 E2.52286
G1 X112.267 Y98.128 E3.76123
G92 E0
G1 X108.407 Y100.299 F7800.000
G1 X95.998 Y91.352 F7800.000
G1 X93.927 Y91.352 F7800.000
G1 X89.785 Y94.493 F7800.000
G1 X89.785 Y95.307 F7800.000
G1 X85.644 Y99.449 F7800.000
G1 X84.608 Y92.352 F7800.000
G1 X84.608 Y99.449 E2.12659 F600.000
G1 X85.519 Y103.796 E3.45730
G92 E0
G1 X94.927 Y106.648 F7800.000
G1 X94.927 Y106.648 F7800.000
G1 X94.962 Y107.648 F7800.000
G1 X94.962 Y101.184 E1.93691 F600.000
G1 X94.780 Y100.316 E2.20250
G1 X94.962 Y99.449 E2.46808
G1 X94.962 Y92.352 E4.59467
G92 E0
G1 X84.644 Y93.352 F7800.000
G1 X84.608 Y93.387 F7800.000
G1 X84.608 Y106.612 F7800.000
G1 X84.644 Y106.648 F7800.000
G1 X84.608 Y107.648 F7800.000
G1 X84.608 Y101.184 E1.93691 F600.000
G1 X84.790 Y100.316 E2.20250
G1 X95.998 Y100.316 E5.56087
G92 E0
G1 Z0.900 F7800.000
G1 X115.278 Y92.352 F7800.000
G1 X110.288 Y99.533 E2.62027 F600.000
G1 X110.014 Y99.844 E2.74446
G1 X109.590 Y100.224 E2.91494
G1 X109.583 Y100.459 E2.98522
G1 X110.045 Y100.892 E3.17516
G1 X110.280 Y101.162 E3.28236
G1 X114.831 Y107.648 E5.65652
G1 X112.208 Y102.630 F7800.000
G1 X109.112 Y99.785 E6.91634 F600.000
G1 X108.877 Y99.520 E7.02241
G1 X103.759 Y92.352 E9.66156
G92 E0
G1 X104.201 Y107.648 F7800.000
G1 X108.867 Y101.144 E2.39857 F600.000
G1 X109.146 Y100.838 E2.52286
G1 X112.267 Y98.128 E3.76123
G92 E0
G1 X108.407 Y100.299 F7800.000
G1 X95.998 Y91.352 F7800.000
G1 X93.927 Y91.352 F7800.000
G1 X89.785 Y94.493 F7800.000
G1 X89.785 Y95.307 F7800.000
G1 X85.644 Y99.449 F7800.000
G1 X84.608 Y92.352 F7800.000
G1 X84.608 Y99.449 E2.12659 F600.000
G1 X85.519 Y103.796 E3.45730
G92 E0
G1 X94.927 Y106.648 F7800.000
G1 X94.927 Y106.648 F7800.000
G1 X94.962 Y107.648 F7800.000
G1 X94.962 Y101.184 E1.93691 F600.000
G1 X94.780 Y100.316 E2.20250
G1 X94.962 Y99.449 E2.46808
G1 X94.962 Y92.352 E4.59467
G92 E0
G1 X84.644 Y93.352 F7800.000
G1 X84.608 Y93.387 F7800.000
G1 X84.608 Y106.612 F7800.000
G1 X84.644 Y106.648 F7800.000
G1 X84.608 Y107.648 F7800.000
G1 X84.608 Y101.184 E1.93691 F600.000
G1 X84.790 Y100.316 E2.20250
G1 X95.998 Y100.316 E5.56087
G92 E0
G1 Z1.200 F7800.000
G1 X115.278 Y92.352 F7800.000
G1 X110.288 Y99.533 E2.62027 F600.000
G1 X110.014 Y99.844 E2.74446
G1 X109.590 Y100.224 E2.91494
G1 X109.583 Y100.459 E2.98522
G1 X110.045 Y100.892 E3.17516
G1 X110.280 Y101.162 E3.28236
G1 X114.831 Y107.648 E5.65652
G1 X112.208 Y102.630 F7800.000
G1 X109.112 Y99.785 E6.91634 F600.000
G1 X108.877 Y99.520 E7.02241
G1 X103.759 Y92.352 E9.66156
G92 E0
G1 X104.201 Y107.648 F7800.000
G1 X108.867 Y101.144 E2.39857 F600.000
G1 X109.146 Y100.838 E2.52286
G1 X112.267 Y98.128 E3.76123
G92 E0
G1 X108.407 Y100.299 F7800.000
G1 X95.998 Y91.352 F7800.000
G1 X93.927 Y91.352 F7800.000
G1 X89.785 Y94.493 F7800.000
G1 X89.785 Y95.307 F7800.000
G1 X85.644 Y99.449 F7800.000
G1 X84.608 Y92.352 F7800.000
G1 X84.608 Y99.449 E2.12659 F600.000
G1 X85.519 Y103.796 E3.45730
G92 E0
G1 X94.927 Y106.648 F7800.000
G1 X94.927 Y106.648 F7800.000
G1 X94.962 Y107.648 F7800.000
G1 X94.962 Y101.184 E1.93691 F600.000
G1 X94.780 Y100.316 E2.20250
G1 X94.962 Y99.449 E2.46808
G1 X94.962 Y92.352 E4.59467
G92 E0
G1 X84.644 Y93.352 F7800.000
G1 X84.608 Y93.387 F7800.000
G1 X84.608 Y106.612 F7800.000
G1 X84.644 Y106.648 F7800.000
G1 X84.608 Y107.648 F7800.000
G1 X84.608 Y101.184 E1.93691 F600.000
G1 X84.790 Y100.316 E2.20250
G1 X95.998 Y100.316 E5.56087
G92 E0
G1 Z1.500 F7800.000
G1 X115.278 Y92.352 F7800.000
G1 X110.288 Y99.533 E2.62027 F600.000
G1 X110.014 Y99.844 E2.74446
G1 X109.590 Y100.224 E2.91494
G1 X109.583 Y100.459 E2.98522
G1 X110.045 Y100.892 E3.17516
G1 X110.280 Y101.162 E3.28236
G1 X114.831 Y107.648 E5.65652
G1 X112.208 Y102.630 F7800.000
G1 X109.112 Y99.785 E6.91634 F600.000
G1 X108.877 Y99.520 E7.02241
G1 X103.759 Y92.352 E9.66156
G92 E0
G1 X104.201 Y107.648 F7800.000
G1 X108.867 Y101.144 E2.39857 F600.000
G1 X109.146 Y100.838 E2.52286
G1 X112.267 Y98.128 E3.76123
G92 E0
G1 X108.407 Y100.299 F7800.000
G1 X95.998 Y91.352 F7800.000
G1 X93.927 Y91.352 F7800.000
G1 X89.785 Y94.493 F7800.000
G1 X89.785 Y95.307 F7800.000
G1 X85.644 Y99.449 F7800.000
G1 X84.608 Y92.352 F7800.000
G1 X84.608 Y99.449 E2.12659 F600.000
G1 X85.519 Y103.796 E3.45730
G92 E0
G1 X94.927 Y106.648 F7800.000
G1 X94.927 Y106.648 F7800.000
G1 X94.962 Y107.648 F7800.000
G1 X94.962 Y101.184 E1.93691 F600.000
G1 X94.780 Y100.316 E2.20250
G1 X94.962 Y99.449 E2.46808
G1 X94.962 Y92.352 E4.59467
G92 E0
G1 X84.644 Y93.352 F7800.000
G1 X84.608 Y93.387 F7800.000
G1 X84.608 Y106.612 F7800.000
G1 X84.644 Y106.648 F7800.000
G1 X84.608 Y107.648 F7800.000
G1 X84.608 Y101.184 E1.93691 F600.000
G1 X84.790 Y100.316 E2.20250
G1 X95.998 Y100.316 E5.56087
G92 E0
G1 Z1.800 F7800.000
G1 X115.278 Y92.352 F7800.000
G1 X110.288 Y99.533 E2.62027 F600.000
G1 X110.014 Y99.844 E2.74446
G1 X109.590 Y100.224 E2.91494
G1 X109.583 Y100.459 E2.98522
G1 X110.045 Y100.892 E3.17516
G1 X110.280 Y101.162 E3.28236
G1 X114.831 Y107.648 E5.65652
G1 X112.208 Y102.630 F7800.000
G1 X109.112 Y99.785 E6.91634 F600.000
G1 X108.877 Y99.520 E7.02241
G1 X103.759 Y92.352 E9.66156
G92 E0
G1 X104.201 Y107.648 F7800.000
G1 X108.867 Y101.144 E2.39857 F600.000
G1 X109.146 Y100.838 E2.52286
G1 X112.267 Y98.128 E3.76123
G92 E0
G1 X108.407 Y100.299 F7800.000
G1 X95.998 Y91.352 F7800.000
G1 X93.927 Y91.352 F7800.000
G1 X89.785 Y94.493 F7800.000
G1 X89.785 Y95.307 F7800.000
G1 X85.644 Y99.449 F7800.000
G1 X84.608 Y92.352 F7800.000
G1 X84.608 Y99.449 E2.12659 F600.000
G1 X85.519 Y103.796 E3.45730
G92 E0
G1 X94.927 Y106.648 F7800.000
G1 X94.927 Y106.648 F7800.000
G1 X94.962 Y107.648 F7800.000
G1 X94.962 Y101.184 E1.93691 F600.000
G1 X94.780 Y100.316 E2.20250
G1 X94.962 Y99.449 E2.46808
G1 X94.962 Y92.352 E4.59467
G92 E0
G1 X84.644 Y93.352 F7800.000
G1 X84.608 Y93.387 F7800.000
G1 X84.608 Y106.612 F7800.000
G1 X84.644 Y106.648 F7800.000
G1 X84.608 Y107.648 F7800.000
G1 X84.608 Y101.184 E1.93691 F600.000
G1 X84.790 Y100.316 E2.20250
G1 X95.998 Y100.316 E5.56087
G92 E0
G1 Z2.100 F7800.000
G1 X115.278 Y92.352 F7800.000
G1 X110.288 Y99.533 E2.62027 F600.000
G1 X110.014 Y99.844 E2.74446
G1 X109.590 Y100.224 E2.91494
G1 X109.583 Y100.459 E2.98522
G1 X110.045 Y100.892 E3.17516
G1 X110.280 Y101.162 E3.28236
G1 X114.831 Y107.648 E5.65652
G92 E0
G1 X112.208 Y102.630 F7800.000
G1 X109.112 Y99.785 E1.25982 F600.000
G1 X108.877 Y99.520 E1.36590
G1 X103.759 Y92.352 E4.00505
G92 E0
G1 X104.201 Y107.648 F7800.000
G1 X108.867 Y101.144 E2.39857 F600.000
G1 X109.146 Y100.838 E2.52286
G1 X112.267 Y98.128 E3.76123
G92 E0
G1 X108.407 Y100.299 F7800.000
G1 X95.998 Y91.352 F7800.000
