; generated by Slic3r 1.2.9 on 2016-03-11 at 01:25:31

; external perimeters extrusion width = 1.54mm
; perimeters extrusion width = 2.62mm
; infill extrusion width = 6.27mm
; solid infill extrusion width = 2.62mm
; top infill extrusion width = 2.62mm

M107
M104 S30 ; set temperature
G28 ; home all axes
G1 Z5 F5000 ; lift nozzle
M302
M92 E10000
M500
M501
G1 E100
M109 S30 ; wait for temperature to be reached
G21 ; set units to millimeters
G90 ; use absolute coordinates
M82 ; use absolute distances for extrusion
G92 E0
G1 Z0.300 F7800.000
G1 X112.965 Y102.804 F7800.000
G1 X115.999 Y107.423 E0.25005 F378.000
G1 X114.262 Y107.423 E0.32866
G1 X109.525 Y99.942 E0.72932
G1 X104.760 Y107.423 E1.13065
G1 X103.023 Y107.423 E1.20926
G1 X108.697 Y98.759 E1.67790
G1 X108.697 Y92.577 E1.95764
G1 X110.308 Y92.577 E2.03053
G1 X110.308 Y98.759 E2.31028
G1 X112.839 Y102.611 E2.51881 F378.000
G1 X112.554 Y102.695 F7800.000
G1 X109.960 Y100.102 E2.68777 F540.000
G1 X110.428 Y99.459 F7800.000
G1 X108.923 Y97.955 E2.78579 F540.000
G1 X108.923 Y97.399 E2.81137
G1 X110.082 Y98.558 E2.88688
G1 X110.082 Y98.003 E2.91245
G1 X108.923 Y96.844 E2.98796
G1 X108.923 Y96.289 E3.01354
G1 X110.082 Y97.448 E3.08905
G1 X110.082 Y96.893 E3.11462
G1 X108.923 Y95.734 E3.19014
G1 X108.923 Y95.179 E3.21571
G1 X110.082 Y96.338 E3.29122
G1 X110.082 Y95.782 E3.31680
G1 X108.923 Y94.623 E3.39231
G1 X108.923 Y94.068 E3.41788
G1 X110.082 Y95.227 E3.49339
G1 X110.082 Y94.672 E3.51897
G1 X108.923 Y93.513 E3.59448
G1 X108.923 Y92.958 E3.62006
G1 X110.082 Y94.117 E3.69557
G1 X110.082 Y93.562 E3.72114
G1 X109.324 Y92.803 E3.77057
G1 X109.879 Y92.803 E3.79615
G1 X110.082 Y93.007 E3.80941
G1 X109.533 Y98.507 F7800.000
G1 X109.530 Y98.495 F7800.000
G1 X109.502 Y98.481 F7800.000
G1 X109.472 Y98.582 F7800.000
G1 X111.491 Y101.077 F7800.000
G1 X108.923 Y98.510 E3.97668 F540.000
G1 X108.806 Y98.948 E3.99757
G1 X109.491 Y99.633 E4.04219
G1 X109.275 Y99.972 E4.06071
G1 X108.587 Y99.283 E4.10557
G1 X108.367 Y99.619 E4.12404
G1 X109.059 Y100.311 E4.16914
G1 X108.843 Y100.650 E4.18766
G1 X108.147 Y99.954 E4.23300
G1 X107.927 Y100.290 E4.25147
G1 X108.627 Y100.989 E4.29705
G1 X108.411 Y101.329 E4.31558
G1 X107.708 Y100.625 E4.36140
G1 X107.488 Y100.961 E4.37987
G1 X108.195 Y101.668 E4.42593
G1 X107.979 Y102.007 E4.44445
G1 X107.268 Y101.296 E4.49075
G1 X107.048 Y101.632 E4.50923
G1 X107.763 Y102.346 E4.55577
G1 X107.547 Y102.685 E4.57429
G1 X106.829 Y101.967 E4.62107
G1 X106.609 Y102.303 E4.63954
G1 X107.331 Y103.024 E4.68656
G1 X107.115 Y103.363 E4.70509
G1 X106.389 Y102.638 E4.75235
G1 X106.170 Y102.973 E4.77082
G1 X106.899 Y103.703 E4.81832
G1 X106.683 Y104.042 E4.83685
G1 X105.950 Y103.309 E4.88459
G1 X105.730 Y103.644 E4.90306
G1 X106.467 Y104.381 E4.95105
G1 X106.251 Y104.720 E4.96957
G1 X105.510 Y103.980 E5.01779
G1 X105.291 Y104.315 E5.03627
G1 X106.035 Y105.059 E5.08473
G1 X105.819 Y105.398 E5.10325
G1 X105.071 Y104.651 E5.15196
G1 X104.851 Y104.986 E5.17043
G1 X105.603 Y105.738 E5.21937
G1 X105.387 Y106.077 E5.23790
G1 X104.632 Y105.322 E5.28708
G1 X104.412 Y105.657 E5.30556
G1 X105.170 Y106.416 E5.35498
G1 X104.954 Y106.755 E5.37350
G1 X104.192 Y105.993 E5.42317
G1 X103.972 Y106.328 E5.44164
G1 X104.738 Y107.094 E5.49155
G1 X104.286 Y107.197 E5.51292
G1 X103.753 Y106.664 E5.54767
G1 X103.533 Y106.999 E5.56614
G1 X103.731 Y107.197 E5.57905
G1 X109.472 Y98.582 F7800.000
G1 X109.472 Y98.582 F7800.000
G1 X110.919 Y101.616 F7800.000
G1 X113.617 Y104.313 E5.75479 F540.000
G1 X112.836 Y104.643 F7800.000
G1 X115.390 Y107.197 E5.92115 F540.000
G1 X114.835 Y107.197 E5.94673
G1 X113.795 Y106.157 E6.01447
G1 X114.679 Y105.931 F7800.000
G1 X111.878 Y103.129 E6.19700 F540.000
G92 E0
G1 X108.472 Y98.692 F7800.000
G1 X96.009 Y91.352 F7800.000
G1 X93.938 Y91.352 F7800.000
G1 X89.796 Y94.493 F7800.000
G1 X89.796 Y95.307 F7800.000
G1 X93.938 Y99.449 F7800.000
G1 X95.784 Y97.934 F7800.000
G1 X95.784 Y107.423 E0.42937 F378.000
G1 X94.163 Y107.423 E0.50272
G1 X94.163 Y100.959 E0.79521
G1 X85.430 Y100.959 E1.19037
G1 X85.430 Y107.423 E1.48286
G1 X83.809 Y107.423 E1.55621
G1 X83.809 Y92.577 E2.22798
G1 X85.430 Y92.577 E2.30133
G1 X85.430 Y99.674 E2.62246
G1 X94.163 Y99.674 E3.01763 F378.000
G1 X94.163 Y92.577 E3.33876
G1 X95.784 Y92.577 E3.41211
G1 X95.784 Y97.703 E3.64406
G1 X94.389 Y99.601 F7800.000
G1 X95.558 Y100.770 E3.72014 F540.000
G1 X95.558 Y100.216 E3.74565
G1 X94.389 Y99.047 E3.82173
G1 X94.389 Y98.492 E3.84725
G1 X95.558 Y99.661 E3.92333
G1 X95.558 Y99.107 E3.94884
G1 X94.389 Y97.938 E4.02492
G1 X94.389 Y97.383 E4.05044
G1 X95.558 Y98.552 E4.12652
G1 X95.558 Y97.998 E4.15203
G1 X94.389 Y96.829 E4.22811
G1 X94.389 Y96.274 E4.25363
G1 X95.558 Y97.443 E4.32970
G1 X95.558 Y96.889 E4.35522
G1 X94.389 Y95.719 E4.43130
G1 X94.389 Y95.165 E4.45682
G1 X95.558 Y96.334 E4.53289
G1 X95.558 Y95.779 E4.55841
G1 X94.389 Y94.610 E4.63449
G1 X94.389 Y94.056 E4.66001
G1 X95.558 Y95.225 E4.73608
G1 X95.558 Y94.670 E4.76160
G1 X94.389 Y93.501 E4.83768
G1 X94.389 Y92.947 E4.86320
G1 X95.558 Y94.116 E4.93927
G1 X95.558 Y93.561 E4.96479
G1 X94.800 Y92.803 E5.01413
G1 X95.354 Y92.803 E5.03965
G1 X95.558 Y93.007 E5.05290
G1 X94.133 Y99.900 F7800.000
G1 X95.558 Y101.325 E5.14563 F540.000
G1 X95.558 Y101.880 E5.17115
G1 X93.578 Y99.900 E5.29997
G1 X93.023 Y99.900 E5.32549
G1 X93.857 Y100.733 E5.37970
G1 X93.302 Y100.733 E5.40522
G1 X92.469 Y99.900 E5.45943
G1 X91.914 Y99.900 E5.48495
G1 X92.747 Y100.733 E5.53916
G1 X92.193 Y100.733 E5.56468
G1 X91.360 Y99.900 E5.61889
G1 X90.805 Y99.900 E5.64441
G1 X91.638 Y100.733 E5.69862
G1 X91.084 Y100.733 E5.72414
G1 X90.251 Y99.900 E5.77835
G1 X89.696 Y99.900 E5.80387
G1 X90.529 Y100.733 E5.85808
G1 X89.975 Y100.733 E5.88360
G1 X89.142 Y99.900 E5.93781
G1 X88.587 Y99.900 E5.96333
G1 X89.420 Y100.733 E6.01754
G1 X88.865 Y100.733 E6.04306
G1 X88.032 Y99.900 E6.09727
G1 X87.478 Y99.900 E6.12279
G1 X88.311 Y100.733 E6.17700
G1 X87.756 Y100.733 E6.20252
G1 X86.923 Y99.900 E6.25673
G1 X86.369 Y99.900 E6.28225
G1 X87.202 Y100.733 E6.33646
G1 X86.647 Y100.733 E6.36198
G1 X85.814 Y99.900 E6.41619
G1 X85.260 Y99.900 E6.44171
G1 X86.093 Y100.733 E6.49592
G1 X85.538 Y100.733 E6.52144
G1 X84.035 Y99.230 E6.61928
G1 X84.035 Y99.784 E6.64480
G1 X85.204 Y100.953 E6.72087
G1 X85.204 Y101.508 E6.74639
G1 X84.035 Y100.339 E6.82247
G1 X84.035 Y100.893 E6.84799
G1 X85.204 Y102.062 E6.92406
G1 X85.204 Y102.617 E6.94958
G1 X84.035 Y101.448 E7.02566
G1 X84.035 Y102.002 E7.05118
G1 X85.204 Y103.171 E7.12725
G1 X85.204 Y103.726 E7.15277
G1 X84.035 Y102.557 E7.22885
G1 X84.035 Y103.112 E7.25437
G1 X85.204 Y104.281 E7.33044
G1 X85.204 Y104.835 E7.35596
G1 X84.035 Y103.666 E7.43204
G1 X84.035 Y104.221 E7.45756
G1 X85.204 Y105.390 E7.53363
G1 X85.204 Y105.944 E7.55915
G1 X84.035 Y104.775 E7.63523
G1 X84.035 Y105.330 E7.66074
G1 X85.204 Y106.499 E7.73682
G1 X85.204 Y107.053 E7.76234
G1 X84.035 Y105.884 E7.83842
G1 X84.035 Y106.439 E7.86393
G1 X84.793 Y107.197 E7.91327
G1 X84.238 Y107.197 E7.93879
G1 X84.035 Y106.993 E7.95203
G1 X85.204 Y99.844 F7800.000
G1 X84.035 Y98.675 E8.02811 F540.000
G1 X84.035 Y98.120 E8.05363
G1 X85.204 Y99.290 E8.12971
G1 X85.204 Y98.735 E8.15522
G1 X84.035 Y97.566 E8.23130
G1 X84.035 Y97.011 E8.25682
G1 X85.204 Y98.180 E8.33290
G1 X85.204 Y97.626 E8.35841
G1 X84.035 Y96.457 E8.43449
G1 X84.035 Y95.902 E8.46001
G1 X85.204 Y97.071 E8.53609
G1 X85.204 Y96.517 E8.56160
G1 X84.035 Y95.348 E8.63768
G1 X84.035 Y94.793 E8.66320
G1 X85.204 Y95.962 E8.73927
G1 X85.204 Y95.408 E8.76479
G1 X84.035 Y94.238 E8.84087
G1 X84.035 Y93.684 E8.86639
G1 X85.204 Y94.853 E8.94246
G1 X85.204 Y94.298 E8.96798
G1 X84.035 Y93.129 E9.04406
G1 X84.263 Y92.803 E9.06238
G1 X85.204 Y93.744 E9.12361
G1 X85.204 Y93.189 E9.14913
G1 X84.817 Y92.803 E9.17427
G92 E0
G1 X84.655 Y93.352 F7800.000
G1 X84.655 Y93.352 F7800.000
G1 X94.389 Y101.265 F7800.000
G1 X95.558 Y102.434 E0.07608 F540.000
G1 X95.558 Y102.989 E0.10159
G1 X94.389 Y101.820 E0.17767
G1 X94.389 Y102.374 E0.20319
G1 X95.558 Y103.543 E0.27927
G1 X95.558 Y104.098 E0.30478
G1 X94.389 Y102.929 E0.38086
G1 X94.389 Y103.483 E0.40638
G1 X95.558 Y104.652 E0.48246
G1 X95.558 Y105.207 E0.50797
G1 X94.389 Y104.038 E0.58405
G1 X94.389 Y104.592 E0.60957
G1 X95.558 Y105.762 E0.68565
G1 X95.558 Y106.316 E0.71116
G1 X94.389 Y105.147 E0.78724
G1 X94.389 Y105.702 E0.81276
G1 X95.558 Y106.871 E0.88884
G1 X95.329 Y107.197 E0.90716
G1 X94.389 Y106.256 E0.96839
G1 X94.389 Y106.811 E0.99390
G1 X94.775 Y107.197 E1.01904
M106 S255
G92 E0
G1 Z0.600 F7800.000
G1 X109.503 Y92.352 F7800.000
G1 X109.503 Y99.209 E2.05473 F600.000
G1 X109.630 Y99.286 E2.09907
G1 X110.268 Y99.891 E2.36271
G1 X115.271 Y107.648 E5.12860
G1 X109.472 Y98.582 F7800.000
G1 X109.472 Y98.582 F7800.000
G1 X103.750 Y107.648 F7800.000
G1 X108.767 Y99.880 E7.89969 F600.000
G1 X109.380 Y99.287 E8.15525
G1 X110.533 Y98.560 E8.56368
G92 E0
G1 X108.472 Y92.352 F7800.000
G1 X108.472 Y92.352 F7800.000
G1 X106.472 Y92.352 F7800.000
G1 X102.240 Y96.584 F7800.000
G1 X98.009 Y92.352 F7800.000
G1 X96.009 Y91.352 F7800.000
G1 X93.938 Y91.352 F7800.000
G1 X91.938 Y92.352 F7800.000
G1 X89.796 Y94.493 F7800.000
G1 X87.655 Y92.352 F7800.000
G1 X85.655 Y92.352 F7800.000
G1 X84.619 Y92.352 F7800.000
G1 X84.619 Y99.449 E2.12659 F600.000
G1 X85.530 Y103.796 E3.45730
G92 E0
G1 X94.938 Y106.648 F7800.000
G1 X94.938 Y106.648 F7800.000
G1 X94.973 Y107.648 F7800.000
G1 X94.973 Y101.184 E1.93691 F600.000
G1 X94.791 Y100.316 E2.20250
G1 X94.973 Y99.449 E2.46808
G1 X94.973 Y92.352 E4.59467
G92 E0
G1 X84.655 Y93.352 F7800.000
G1 X84.619 Y93.387 F7800.000
G1 X84.619 Y106.612 F7800.000
G1 X84.655 Y106.648 F7800.000
G1 X84.619 Y107.648 F7800.000
G1 X84.619 Y101.184 E1.93691 F600.000
G1 X84.801 Y100.316 E2.20250
G1 X96.009 Y100.316 E5.56087
G92 E0
G1 Z0.900 F7800.000
G1 X109.503 Y92.352 F7800.000
G1 X109.503 Y99.209 E2.05473 F600.000
G1 X109.630 Y99.286 E2.09907
G1 X110.268 Y99.891 E2.36271
G1 X115.271 Y107.648 E5.12860
G1 X109.472 Y98.582 F7800.000
G1 X109.472 Y98.582 F7800.000
G1 X103.750 Y107.648 F7800.000
G1 X108.767 Y99.880 E7.89969 F600.000
G1 X109.380 Y99.287 E8.15525
G1 X110.533 Y98.560 E8.56368
G92 E0
G1 X108.472 Y92.352 F7800.000
G1 X108.472 Y92.352 F7800.000
G1 X106.472 Y92.352 F7800.000
G1 X102.240 Y96.584 F7800.000
G1 X98.009 Y92.352 F7800.000
G1 X96.009 Y91.352 F7800.000
G1 X93.938 Y91.352 F7800.000
G1 X91.938 Y92.352 F7800.000
G1 X89.796 Y94.493 F7800.000
G1 X87.655 Y92.352 F7800.000
G1 X85.655 Y92.352 F7800.000
G1 X84.619 Y92.352 F7800.000
G1 X84.619 Y99.449 E2.12659 F600.000
G1 X85.530 Y103.796 E3.45730
G92 E0
G1 X94.938 Y106.648 F7800.000
G1 X94.938 Y106.648 F7800.000
G1 X94.973 Y107.648 F7800.000
G1 X94.973 Y101.184 E1.93691 F600.000
G1 X94.791 Y100.316 E2.20250
G1 X94.973 Y99.449 E2.46808
G1 X94.973 Y92.352 E4.59467
G92 E0
G1 X84.655 Y93.352 F7800.000
G1 X84.619 Y93.387 F7800.000
G1 X84.619 Y106.612 F7800.000
G1 X84.655 Y106.648 F7800.000
G1 X84.619 Y107.648 F7800.000
G1 X84.619 Y101.184 E1.93691 F600.000
G1 X84.801 Y100.316 E2.20250
G1 X96.009 Y100.316 E5.56087
G92 E0
G1 Z1.200 F7800.000
G1 X109.503 Y92.352 F7800.000
G1 X109.503 Y99.209 E2.05473 F600.000
G1 X109.630 Y99.286 E2.09907
G1 X110.268 Y99.891 E2.36271
G1 X115.271 Y107.648 E5.12860
G1 X109.472 Y98.582 F7800.000
G1 X109.472 Y98.582 F7800.000
G1 X103.750 Y107.648 F7800.000
G1 X108.767 Y99.880 E7.89969 F600.000
G1 X109.380 Y99.287 E8.15525
G1 X110.533 Y98.560 E8.56368
G92 E0
G1 X108.472 Y92.352 F7800.000
G1 X108.472 Y92.352 F7800.000
G1 X106.472 Y92.352 F7800.000
G1 X102.240 Y96.584 F7800.000
G1 X98.009 Y92.352 F7800.000
G1 X96.009 Y91.352 F7800.000
G1 X93.938 Y91.352 F7800.000
G1 X91.938 Y92.352 F7800.000
G1 X89.796 Y94.493 F7800.000
G1 X87.655 Y92.352 F7800.000
G1 X85.655 Y92.352 F7800.000
G1 X84.619 Y92.352 F7800.000
G1 X84.619 Y99.449 E2.12659 F600.000
G1 X85.530 Y103.796 E3.45730
G92 E0
G1 X94.938 Y106.648 F7800.000
G1 X94.938 Y106.648 F7800.000
G1 X94.973 Y107.648 F7800.000
G1 X94.973 Y101.184 E1.93691 F600.000
G1 X94.791 Y100.316 E2.20250
G1 X94.973 Y99.449 E2.46808
G1 X94.973 Y92.352 E4.59467
G92 E0
G1 X84.655 Y93.352 F7800.000
G1 X84.619 Y93.387 F7800.000
G1 X84.619 Y106.612 F7800.000
G1 X84.655 Y106.648 F7800.000
G1 X84.619 Y107.648 F7800.000
G1 X84.619 Y101.184 E1.93691 F600.000
G1 X84.801 Y100.316 E2.20250
G1 X96.009 Y100.316 E5.56087
G92 E0
G1 Z1.500 F7800.000
G1 X109.503 Y92.352 F7800.000
G1 X109.503 Y99.209 E2.05473 F600.000
G1 X109.630 Y99.286 E2.09907
G1 X110.268 Y99.891 E2.36271
G1 X115.271 Y107.648 E5.12860
G1 X109.472 Y98.582 F7800.000
G1 X109.472 Y98.582 F7800.000
G1 X103.750 Y107.648 F7800.000
G1 X108.767 Y99.880 E7.89969 F600.000
G1 X109.380 Y99.287 E8.15525
G1 X110.533 Y98.560 E8.56368
G92 E0
G1 X108.472 Y92.352 F7800.000
G1 X108.472 Y92.352 F7800.000
G1 X106.472 Y92.352 F7800.000
G1 X102.240 Y96.584 F7800.000
G1 X98.009 Y92.352 F7800.000
G1 X96.009 Y91.352 F7800.000
G1 X93.938 Y91.352 F7800.000
G1 X91.938 Y92.352 F7800.000
G1 X89.796 Y94.493 F7800.000
G1 X87.655 Y92.352 F7800.000
G1 X85.655 Y92.352 F7800.000
G1 X84.619 Y92.352 F7800.000
G1 X84.619 Y99.449 E2.12659 F600.000
G1 X85.530 Y103.796 E3.45730
G92 E0
G1 X94.938 Y106.648 F7800.000
G1 X94.938 Y106.648 F7800.000
G1 X94.973 Y107.648 F7800.000
G1 X94.973 Y101.184 E1.93691 F600.000
G1 X94.791 Y100.316 E2.20250
G1 X94.973 Y99.449 E2.46808
G1 X94.973 Y92.352 E4.59467
G92 E0
G1 X84.655 Y93.352 F7800.000
G1 X84.619 Y93.387 F7800.000
G1 X84.619 Y106.612 F7800.000
G1 X84.655 Y106.648 F7800.000
G1 X84.619 Y107.648 F7800.000
G1 X84.619 Y101.184 E1.93691 F600.000
G1 X84.801 Y100.316 E2.20250
G1 X96.009 Y100.316 E5.56087
G92 E0
G1 Z1.800 F7800.000
G1 X109.503 Y92.352 F7800.000
G1 X109.503 Y99.209 E2.05473 F600.000
G1 X109.630 Y99.286 E2.09907
G1 X110.268 Y99.891 E2.36271
G1 X115.271 Y107.648 E5.12860
G1 X109.472 Y98.582 F7800.000
G1 X109.472 Y98.582 F7800.000
G1 X103.750 Y107.648 F7800.000
G1 X108.767 Y99.880 E7.89969 F600.000
G1 X109.380 Y99.287 E8.15525
G1 X110.533 Y98.560 E8.56368
G92 E0
G1 X108.472 Y92.352 F7800.000
G1 X108.472 Y92.352 F7800.000
G1 X106.472 Y92.352 F7800.000
G1 X102.240 Y96.584 F7800.000
G1 X98.009 Y92.352 F7800.000
G1 X96.009 Y91.352 F7800.000
G1 X93.938 Y91.352 F7800.000
G1 X91.938 Y92.352 F7800.000
G1 X89.796 Y94.493 F7800.000
G1 X87.655 Y92.352 F7800.000
G1 X85.655 Y92.352 F7800.000
G1 X84.619 Y92.352 F7800.000
G1 X84.619 Y99.449 E2.12659 F600.000
G1 X85.530 Y103.796 E3.45730
G92 E0
G1 X94.938 Y106.648 F7800.000
G1 X94.938 Y106.648 F7800.000
G1 X94.973 Y107.648 F7800.000
G1 X94.973 Y101.184 E1.93691 F600.000
G1 X94.791 Y100.316 E2.20250
G1 X94.973 Y99.449 E2.46808
G1 X94.973 Y92.352 E4.59467
G92 E0
G1 X84.655 Y93.352 F7800.000
G1 X84.619 Y93.387 F7800.000
G1 X84.619 Y106.612 F7800.000
G1 X84.655 Y106.648 F7800.000
G1 X84.619 Y107.648 F7800.000
G1 X84.619 Y101.184 E1.93691 F600.000
G1 X84.801 Y100.316 E2.20250
G1 X96.009 Y100.316 E5.56087
G92 E0
G1 Z2.100 F7800.000
G1 X109.503 Y92.352 F7800.000
G1 X109.503 Y99.209 E2.05473 F600.000
G1 X109.630 Y99.286 E2.09907
G1 X110.268 Y99.891 E2.36271
G1 X115.271 Y107.648 E5.12860
G92 E0
G1 X109.472 Y98.582 F7800.000
G1 X109.472 Y98.582 F7800.000
G1 X103.750 Y107.648 F7800.000
G1 X108.767 Y99.880 E2.77109 F600.000
G1 X109.380 Y99.287 E3.02666
G1 X110.533 Y98.560 E3.43508
G92 E0
G1 X108.472 Y92.352 F7800.000
G1 X108.472 Y92.352 F7800.000
G1 X106.472 Y92.352 F7800.000
G1 X102.240 Y96.584 F7800.000
G1 X98.009 Y92.352 F7800.000
G1 X96.009 Y91.352 F7800.000
G1 X93.938 Y91.352 F7800.000
G1 X91.938 Y92.352 F7800.000
G1 X89.796 Y94.493 F7800.000
G1 X87.655 Y92.352 F7800.000
G1 X85.655 Y92.352 F7800.000
G1 X84.619 Y92.352 F7800.000
G1 X84.619 Y99.449 E2.12659 F600.000
G1 X85.530 Y103.796 E3.45730
G92 E0
G1 X94.938 Y106.648 F7800.000
G1 X94.938 Y106.648 F7800.000
G1 X94.973 Y107.648 F7800.000
G1 X94.973 Y101.184 E1.93691 F600.000
G1 X94.791 Y100.316 E2.20250
G1 X94.973 Y99.449 E2.46808
G1 X94.973 Y92.352 E4.59467
G92 E0
G1 X84.655 Y93.352 F7800.000
G1 X84.619 Y93.387 F7800.000
G1 X84.619 Y106.612 F7800.000
G1 X84.655 Y106.648 F7800.000
G1 X84.619 Y107.648 F7800.000
G1 X84.619 Y101.184 E1.93691 F600.000
