; generated by Slic3r 1.2.9 on 2016-03-11 at 01:25:33

; external perimeters extrusion width = 1.54mm
; perimeters extrusion width = 2.62mm
; infill extrusion width = 6.27mm
; solid infill extrusion width = 2.62mm
; top infill extrusion width = 2.62mm

M107
M104 S30 ; set temperature
G28 ; home all axes
G1 Z5 F5000 ; lift nozzle
M302
M92 E10000
M500
M501
G1 E100
M109 S30 ; wait for temperature to be reached
G21 ; set units to millimeters
G90 ; use absolute coordinates
M82 ; use absolute distances for extrusion
G92 E0
G1 Z0.300 F7800.000
G1 X108.071 Y97.230 F7800.000
G1 X103.991 Y107.423 E0.49680 F378.000
G1 X101.942 Y107.423 E0.58953
G1 X95.903 Y92.577 E1.31475
G1 X97.562 Y92.577 E1.38983
G1 X99.127 Y96.563 E1.58361
G1 X99.314 Y97.041 E1.60682 F378.000
G1 X106.564 Y97.041 E1.93489
G1 X108.305 Y92.577 E2.15170
G1 X109.934 Y92.577 E2.22540
G1 X108.157 Y97.016 E2.44174
G1 X106.123 Y98.207 F7800.000
G1 X103.847 Y104.086 E2.72701 F378.000
G1 X103.138 Y106.198 E2.82781
G1 X102.739 Y106.197 E2.84587
G1 X102.420 Y105.195 E2.89345
G1 X101.831 Y103.544 E2.97276
G1 X99.766 Y98.207 E3.23171
G1 X105.892 Y98.207 E3.50889 F378.000
G1 X105.001 Y97.267 F7800.000
G1 X105.715 Y97.981 E3.55504 F540.000
G1 X105.164 Y97.981 E3.58020
G1 X104.450 Y97.267 E3.62635
G1 X103.899 Y97.267 E3.65151
G1 X104.613 Y97.981 E3.69766
G1 X104.062 Y97.981 E3.72282
G1 X103.348 Y97.267 E3.76897
G1 X102.798 Y97.267 E3.79414
G1 X103.512 Y97.981 E3.84028
G1 X102.961 Y97.981 E3.86545
G1 X102.247 Y97.267 E3.91159
G1 X101.696 Y97.267 E3.93676
G1 X102.410 Y97.981 E3.98291
G1 X101.860 Y97.981 E4.00807
G1 X101.146 Y97.267 E4.05422
G1 X100.595 Y97.267 E4.07938
G1 X101.309 Y97.981 E4.12553
G1 X100.758 Y97.981 E4.15069
G1 X100.044 Y97.267 E4.19684
G1 X99.493 Y97.267 E4.22201
G1 X100.207 Y97.981 E4.26815
G1 X99.657 Y97.981 E4.29332
G1 X97.513 Y95.837 E4.43187
G1 X97.135 Y94.909 F7800.000
G1 X98.882 Y96.655 E4.54475 F540.000
G1 X98.526 Y95.749 F7800.000
G1 X96.757 Y93.980 E4.65904 F540.000
G1 X96.380 Y93.052 F7800.000
G1 X98.170 Y94.842 E4.77474 F540.000
G1 X97.815 Y93.936 F7800.000
G1 X96.682 Y92.803 E4.84796 F540.000
G1 X97.232 Y92.803 E4.87312
G1 X97.459 Y93.029 E4.88776
G1 X97.890 Y96.765 F7800.000
G1 X99.584 Y98.459 E4.99720 F540.000
G1 X98.646 Y98.622 F7800.000
G1 X100.278 Y100.255 E5.10272 F540.000
G1 X99.401 Y100.479 F7800.000
G1 X100.973 Y102.051 E5.20433 F540.000
G1 X100.156 Y102.335 F7800.000
G1 X101.663 Y103.842 E5.30168 F540.000
G1 X100.911 Y104.192 F7800.000
G1 X102.264 Y105.545 E5.38908 F540.000
G1 X101.667 Y106.049 F7800.000
G1 X102.815 Y107.197 E5.46329 F540.000
G1 X103.366 Y107.197 E5.48845
G1 X102.591 Y106.423 E5.53848
G1 X103.144 Y106.424 E5.56370
G1 X103.874 Y107.154 E5.61089
G1 X104.037 Y106.767 E5.63011
G1 X103.382 Y106.112 E5.67242
G1 X103.521 Y105.700 E5.69229
G1 X104.194 Y106.374 E5.73583
G1 X104.352 Y105.980 E5.75519
G1 X103.659 Y105.288 E5.79996
G1 X103.797 Y104.875 E5.81983
G1 X104.509 Y105.587 E5.86582
G1 X104.667 Y105.194 E5.88518
G1 X103.936 Y104.463 E5.93239
G1 X104.077 Y104.053 E5.95220
G1 X104.824 Y104.800 E6.00051
G1 X104.981 Y104.407 E6.01986
G1 X104.230 Y103.656 E6.06841
G1 X104.384 Y103.259 E6.08786
G1 X105.139 Y104.014 E6.13665
G1 X105.296 Y103.621 E6.15601
G1 X104.538 Y102.862 E6.20504
G1 X104.691 Y102.465 E6.22449
G1 X105.454 Y103.227 E6.27377
G1 X105.611 Y102.834 E6.29312
G1 X104.845 Y102.068 E6.34264
G1 X104.999 Y101.671 E6.36209
G1 X105.769 Y102.441 E6.41185
G1 X105.926 Y102.047 E6.43121
G1 X105.152 Y101.274 E6.48121
G1 X105.306 Y100.877 E6.50066
G1 X106.084 Y101.654 E6.55091
G1 X106.241 Y101.261 E6.57026
G1 X105.460 Y100.480 E6.62075
G1 X105.613 Y100.083 E6.64020
G1 X106.398 Y100.868 E6.69093
G1 X106.556 Y100.474 E6.71029
G1 X105.767 Y99.686 E6.76126
G1 X105.921 Y99.289 E6.78071
G1 X106.713 Y100.081 E6.83192
G1 X106.871 Y99.688 E6.85128
G1 X106.074 Y98.892 E6.90274
G1 X106.228 Y98.495 E6.92219
G1 X107.028 Y99.294 E6.97389
G1 X107.186 Y98.901 E6.99324
G1 X105.551 Y97.267 E7.09885
G1 X106.102 Y97.267 E7.12402
G1 X107.343 Y98.508 E7.20421
G1 X107.500 Y98.115 E7.22357
G1 X106.653 Y97.267 E7.27835
G1 X106.836 Y96.900 E7.29711
G1 X107.658 Y97.721 E7.35022
G1 X107.815 Y97.328 E7.36958
G1 X106.991 Y96.503 E7.42287
G1 X107.145 Y96.107 E7.44230
G1 X107.973 Y96.935 E7.49578
G1 X108.130 Y96.542 E7.51514
G1 X107.300 Y95.711 E7.56881
G1 X107.454 Y95.315 E7.58824
G1 X108.288 Y96.148 E7.64210
G1 X108.445 Y95.755 E7.66146
G1 X107.609 Y94.919 E7.71551
G1 X107.763 Y94.522 E7.73494
G1 X108.602 Y95.362 E7.78917
G1 X108.760 Y94.968 E7.80853
G1 X107.918 Y94.126 E7.86295
G1 X108.072 Y93.730 E7.88239
G1 X108.917 Y94.575 E7.93700
G1 X109.075 Y94.182 E7.95636
G1 X108.227 Y93.334 E8.01116
G1 X108.381 Y92.938 E8.03059
G1 X109.232 Y93.789 E8.08557
G1 X109.390 Y93.395 E8.10493
G1 X108.797 Y92.803 E8.14321
G1 X109.348 Y92.803 E8.16837
G1 X109.547 Y93.002 E8.18123
G92 E0
G1 X99.931 Y99.357 F7800.000
G1 X98.268 Y97.694 E0.10748 F540.000
G1 X99.023 Y99.550 F7800.000
G1 X100.626 Y101.153 E0.21104 F540.000
G1 X99.778 Y101.407 F7800.000
G1 X101.321 Y102.949 E0.31069 F540.000
G1 X100.534 Y103.264 F7800.000
G1 X101.968 Y104.698 E0.40340 F540.000
G1 X101.289 Y105.120 F7800.000
G1 X102.521 Y106.352 E0.48302 F540.000
G1 X102.044 Y106.977 F7800.000
G1 X102.264 Y107.197 E0.49723 F540.000
G92 E0
G1 X101.790 Y107.648 F7800.000
G1 X100.445 Y108.195 F7800.000
G1 X93.806 Y107.648 F7800.000
G1 X91.806 Y107.648 F7800.000
G1 X89.958 Y99.215 F7800.000
G1 X89.958 Y92.577 E0.30038 F378.000
G1 X91.580 Y92.577 E0.37378
G1 X91.580 Y107.423 E1.04555
G1 X89.958 Y107.423 E1.11894 F378.000
G1 X89.958 Y99.446 E1.47988
G1 X91.355 Y93.007 F7800.000
G1 X91.151 Y92.803 E1.49329 F540.000
G1 X90.590 Y92.803 E1.51944
G1 X91.355 Y93.568 E1.56983
G1 X91.355 Y94.129 E1.59598
G1 X90.184 Y92.959 E1.67305
G1 X90.184 Y93.521 E1.69920
G1 X91.355 Y94.691 E1.77628
G1 X91.355 Y95.252 E1.80242
G1 X90.184 Y94.082 E1.87950
G1 X90.184 Y94.643 E1.90565
G1 X91.355 Y95.813 E1.98272
G1 X91.355 Y96.375 E2.00887
G1 X90.184 Y95.205 E2.08595
G1 X90.184 Y95.766 E2.11210
G1 X91.355 Y96.936 E2.18917
G1 X91.355 Y97.498 E2.21532
G1 X90.184 Y96.327 E2.29240
G1 X90.184 Y96.889 E2.31854
G1 X91.355 Y98.059 E2.39562
G1 X91.355 Y98.620 E2.42177
G1 X90.184 Y97.450 E2.49885
G1 X90.184 Y98.012 E2.52499
G1 X91.355 Y99.182 E2.60207
G1 X91.355 Y99.743 E2.62822
G1 X90.184 Y98.573 E2.70529
G1 X90.184 Y99.134 E2.73144
G1 X91.355 Y100.304 E2.80852
G1 X91.355 Y100.866 E2.83467
G1 X90.184 Y99.696 E2.91174
G1 X90.184 Y100.257 E2.93789
G1 X91.355 Y101.427 E3.01497
G1 X91.355 Y101.988 E3.04111
G1 X90.184 Y100.818 E3.11819
G1 X90.184 Y101.380 E3.14434
G1 X91.355 Y102.550 E3.22141
G1 X91.355 Y103.111 E3.24756
G1 X90.184 Y101.941 E3.32464
G1 X90.184 Y102.502 E3.35079
G1 X91.355 Y103.673 E3.42786
G1 X91.355 Y104.234 E3.45401
G1 X90.184 Y103.064 E3.53109
G1 X90.184 Y103.625 E3.55724
G1 X91.355 Y104.795 E3.63431
G1 X91.355 Y105.357 E3.66046
G1 X90.184 Y104.187 E3.73754
G1 X90.184 Y104.748 E3.76368
G1 X91.355 Y105.918 E3.84076
G1 X91.355 Y106.479 E3.86691
G1 X90.184 Y105.309 E3.94398
G1 X90.184 Y105.871 E3.97013
G1 X91.355 Y107.041 E4.04721
G1 X90.949 Y107.197 E4.06743
G1 X90.184 Y106.432 E4.11782
G1 X90.184 Y106.993 E4.14397
G1 X90.388 Y107.197 E4.15738
M106 S255
G92 E0
G1 Z0.600 F7800.000
G1 X100.946 Y100.633 F7800.000
G1 X98.569 Y97.168 E1.25890 F600.000
G1 X96.645 Y92.352 E2.81311
G92 E0
G1 X107.330 Y94.457 F7800.000
G1 X106.677 Y98.774 E1.30814 F600.000
G1 X104.493 Y104.320 E3.09418
G1 X103.786 Y106.245 E3.70872
G1 X103.517 Y106.723 E3.87305
G1 X102.974 Y106.810 E4.03793
G1 X102.404 Y106.736 E4.21017
G1 X102.110 Y106.225 E4.38678
G1 X101.194 Y103.781 E5.16886
G1 X99.208 Y98.775 E6.78268
G1 X99.071 Y97.900 E7.04819
G1 X99.467 Y97.746 E7.17570
G1 X100.094 Y97.624 E7.36708
G1 X105.794 Y97.624 E9.07506
G1 X106.410 Y97.741 E9.26297
G1 X106.810 Y97.894 E9.39110
G1 X107.305 Y97.165 E9.65512
G1 X109.207 Y92.352 E11.20582
G92 E0
G1 X95.568 Y91.352 F7800.000
G1 X93.759 Y93.088 F7800.000
G1 X93.806 Y107.648 F7800.000
G1 X91.806 Y107.648 F7800.000
G1 X90.769 Y107.648 F7800.000
G1 X90.769 Y92.352 E4.58339 F600.000
G92 E0
G1 Z0.900 F7800.000
G1 X100.946 Y100.633 F7800.000
G1 X98.569 Y97.168 E1.25890 F600.000
G1 X96.645 Y92.352 E2.81311
G92 E0
G1 X107.330 Y94.457 F7800.000
G1 X106.677 Y98.774 E1.30814 F600.000
G1 X104.493 Y104.320 E3.09418
G1 X103.786 Y106.245 E3.70872
G1 X103.517 Y106.723 E3.87305
G1 X102.974 Y106.810 E4.03793
G1 X102.404 Y106.736 E4.21017
G1 X102.110 Y106.225 E4.38678
G1 X101.194 Y103.781 E5.16886
G1 X99.208 Y98.775 E6.78268
G1 X99.071 Y97.900 E7.04819
G1 X99.467 Y97.746 E7.17570
G1 X100.094 Y97.624 E7.36708
G1 X105.794 Y97.624 E9.07506
G1 X106.410 Y97.741 E9.26297
G1 X106.810 Y97.894 E9.39110
G1 X107.305 Y97.165 E9.65512
G1 X109.207 Y92.352 E11.20582
G92 E0
G1 X95.568 Y91.352 F7800.000
G1 X93.759 Y93.088 F7800.000
G1 X93.806 Y107.648 F7800.000
G1 X91.806 Y107.648 F7800.000
G1 X90.769 Y107.648 F7800.000
G1 X90.769 Y92.352 E4.58339 F600.000
G92 E0
G1 Z1.200 F7800.000
G1 X100.946 Y100.633 F7800.000
G1 X98.569 Y97.168 E1.25890 F600.000
G1 X96.645 Y92.352 E2.81311
G92 E0
G1 X107.330 Y94.457 F7800.000
G1 X106.677 Y98.774 E1.30814 F600.000
G1 X104.493 Y104.320 E3.09418
G1 X103.786 Y106.245 E3.70872
G1 X103.517 Y106.723 E3.87305
G1 X102.974 Y106.810 E4.03793
G1 X102.404 Y106.736 E4.21017
G1 X102.110 Y106.225 E4.38678
G1 X101.194 Y103.781 E5.16886
G1 X99.208 Y98.775 E6.78268
G1 X99.071 Y97.900 E7.04819
G1 X99.467 Y97.746 E7.17570
G1 X100.094 Y97.624 E7.36708
G1 X105.794 Y97.624 E9.07506
G1 X106.410 Y97.741 E9.26297
G1 X106.810 Y97.894 E9.39110
G1 X107.305 Y97.165 E9.65512
G1 X109.207 Y92.352 E11.20582
G92 E0
G1 X97.716 Y91.352 F7800.000
G1 X93.759 Y93.088 F7800.000
G1 X93.806 Y107.648 F7800.000
G1 X91.806 Y107.648 F7800.000
G1 X90.769 Y107.648 F7800.000
G1 X90.769 Y92.352 E4.58339 F600.000
G92 E0
G1 Z1.500 F7800.000
G1 X100.946 Y100.633 F7800.000
G1 X98.569 Y97.168 E1.25890 F600.000
G1 X96.645 Y92.352 E2.81311
G92 E0
G1 X107.330 Y94.457 F7800.000
G1 X106.677 Y98.774 E1.30814 F600.000
G1 X104.493 Y104.320 E3.09418
G1 X103.786 Y106.245 E3.70872
G1 X103.517 Y106.723 E3.87305
G1 X102.974 Y106.810 E4.03793
G1 X102.404 Y106.736 E4.21017
G1 X102.110 Y106.225 E4.38678
G1 X101.194 Y103.781 E5.16886
G1 X99.208 Y98.775 E6.78268
G1 X99.071 Y97.900 E7.04819
G1 X99.467 Y97.746 E7.17570
G1 X100.094 Y97.624 E7.36708
G1 X105.794 Y97.624 E9.07506
G1 X106.410 Y97.741 E9.26297
G1 X106.810 Y97.894 E9.39110
G1 X107.305 Y97.165 E9.65512
G1 X109.207 Y92.352 E11.20582
G92 E0
G1 X97.716 Y91.352 F7800.000
G1 X93.759 Y93.088 F7800.000
G1 X93.806 Y107.648 F7800.000
G1 X91.806 Y107.648 F7800.000
G1 X90.769 Y107.648 F7800.000
G1 X90.769 Y92.352 E4.58339 F600.000
G92 E0
G1 Z1.800 F7800.000
G1 X100.946 Y100.633 F7800.000
G1 X98.569 Y97.168 E1.25890 F600.000
G1 X96.645 Y92.352 E2.81311
G92 E0
G1 X107.330 Y94.457 F7800.000
G1 X106.677 Y98.774 E1.30814 F600.000
G1 X104.493 Y104.320 E3.09418
G1 X103.786 Y106.245 E3.70872
G1 X103.517 Y106.723 E3.87305
G1 X102.974 Y106.810 E4.03793
G1 X102.404 Y106.736 E4.21017
G1 X102.110 Y106.225 E4.38678
G1 X101.194 Y103.781 E5.16886
G1 X99.208 Y98.775 E6.78268
G1 X99.071 Y97.900 E7.04819
G1 X99.467 Y97.746 E7.17570
G1 X100.094 Y97.624 E7.36708
G1 X105.794 Y97.624 E9.07506
G1 X106.410 Y97.741 E9.26297
G1 X106.810 Y97.894 E9.39110
G1 X107.305 Y97.165 E9.65512
G1 X109.207 Y92.352 E11.20582
G92 E0
G1 X97.716 Y91.352 F7800.000
G1 X93.759 Y93.088 F7800.000
G1 X93.806 Y107.648 F7800.000
G1 X91.806 Y107.648 F7800.000
G1 X90.769 Y107.648 F7800.000
G1 X90.769 Y92.352 E4.58339 F600.000
G92 E0
G1 Z2.100 F7800.000
G1 X100.946 Y100.633 F7800.000
G1 X98.569 Y97.168 E1.25890 F600.000
G1 X96.645 Y92.352 E2.81311
G92 E0
G1 X107.330 Y94.457 F7800.000
G1 X106.677 Y98.774 E1.30814 F600.000
G1 X104.493 Y104.320 E3.09418
G1 X103.786 Y106.245 E3.70872
G1 X103.517 Y106.723 E3.87305
G1 X102.974 Y106.810 E4.03793
G1 X102.404 Y106.736 E4.21017
G1 X102.110 Y106.225 E4.38678
G1 X101.194 Y103.781 E5.16886
G1 X99.208 Y98.775 E6.78268
G1 X99.071 Y97.900 E7.04819
G1 X99.467 Y97.746 E7.17570
G1 X100.094 Y97.624 E7.36708
G1 X105.794 Y97.624 E9.07506
G1 X106.410 Y97.741 E9.26297
G1 X106.810 Y97.894 E9.39110
G1 X107.305 Y97.165 E9.65512
G1 X109.207 Y92.352 E11.20582
G92 E0
G1 X97.716 Y91.352 F7800.000
G1 X93.759 Y93.088 F7800.000
G1 X93.806 Y107.648 F7800.000
G1 X91.806 Y107.648 F7800.000
G1 X90.769 Y107.648 F7800.000
G1 X90.769 Y92.352 E4.58339 F600.000
G92 E0
M107
M104 S0 ; turn off temperature
G28 X0  ; home X axis
M84     ; disable motors

; filament used = 124.4mm (1.0cm3)

; avoid_crossing_perimeters = 1
; bed_shape = 0x0,250x0,250x250,0x250
; bed_temperature = 0
; before_layer_gcode = 
; bridge_acceleration = 0
; bridge_fan_speed = 100
; brim_width = 0
; complete_objects = 0
; cooling = 1
; default_acceleration = 0
; disable_fan_first_layers = 1
; duplicate_distance = 6
; end_gcode = M104 S0 ; turn off temperature\nG28 X0  ; home X axis\nM84     ; disable motors\n
; extruder_clearance_height = 20
; extruder_clearance_radius = 20
; extruder_offset = 0x0
; extrusion_axis = E
; extrusion_multiplier = 3
; fan_always_on = 0
; fan_below_layer_time = 60
; filament_colour = #FFFFFF
; filament_diameter = 3.125
; first_layer_acceleration = 0
; first_layer_bed_temperature = 0
; first_layer_extrusion_width = 150%
; first_layer_speed = 90%
; first_layer_temperature = 30
; gcode_arcs = 0
; gcode_comments = 0
; gcode_flavor = reprap
; infill_acceleration = 0
; infill_first = 0
; layer_gcode = 
; max_fan_speed = 100
; max_print_speed = 80
; max_volumetric_speed = 0
; min_fan_speed = 35
; min_print_speed = 10
; min_skirt_length = 0
; notes = 
; nozzle_diameter = 1.54
; only_retract_when_crossing_perimeters = 1
; ooze_prevention = 0
; output_filename_format = [input_filename_base].gcode
; perimeter_acceleration = 0
; post_process = 
; pressure_advance = 0
; resolution = 0
; retract_before_travel = 2
; retract_layer_change = 1
; retract_length = 0
; retract_length_toolchange = 10
; retract_lift = 0
; retract_restart_extra = 0
; retract_restart_extra_toolchange = 0
; retract_speed = 0
; skirt_distance = 6
; skirt_height = 1
; skirts = 0
; slowdown_below_layer_time = 30
; spiral_vase = 0
; standby_temperature_delta = -5
; start_gcode = G28 ; home all axes\nG1 Z5 F5000 ; lift nozzle\nM302\nM92 E10000\nM500\nM501\nG1 E100
; temperature = 30
; threads = 2
; toolchange_gcode = 
; travel_speed = 130
; use_firmware_retraction = 0
; use_relative_e_distances = 0
; use_volumetric_e = 0
; vibration_limit = 0
; wipe = 0
; z_offset = 0
; dont_support_bridges = 1
; extrusion_width = 0
; first_layer_height = 100%
; infill_only_where_needed = 0
; interface_shells = 0
; layer_height = 0.3
; raft_layers = 0
; seam_position = random
; support_material = 0
; support_material_angle = 0
; support_material_contact_distance = 0.2
; support_material_enforce_layers = 0
; support_material_extruder = 1
; support_material_extrusion_width = 0
; support_material_interface_extruder = 1
; support_material_interface_layers = 3
; support_material_interface_spacing = 0
; support_material_interface_speed = 100%
; support_material_pattern = pillars
; support_material_spacing = 2.5
; support_material_speed = 7
; support_material_threshold = 0
; xy_size_compensation = 0
; bottom_solid_layers = 3
; bridge_flow_ratio = 1
; bridge_speed = 10
; external_fill_pattern = rectilinear
; external_perimeter_extrusion_width = 0
; external_perimeter_speed = 70%
; external_perimeters_first = 1
; extra_perimeters = 1
; fill_angle = 45
; fill_density = 60%
; fill_pattern = rectilinear
; gap_fill_speed = 10
; infill_every_layers = 1
; infill_extruder = 1
; infill_extrusion_width = 0
; infill_overlap = 15%
; infill_speed = 10
; overhangs = 1
; perimeter_extruder = 1
; perimeter_extrusion_width = 0
; perimeter_speed = 10
; perimeters = 1
; small_perimeter_speed = 70%
; solid_infill_below_area = 70
; solid_infill_every_layers = 0
; solid_infill_extruder = 1
; solid_infill_extrusion_width = 0
; solid_infill_speed = 10
; thin_walls = 1
; top_infill_extrusion_width = 0
; top_solid_infill_speed = 10
; top_solid_layers = 3
