; generated by Slic3r 1.2.9 on 2016-03-11 at 01:25:36

; external perimeters extrusion width = 1.54mm
; perimeters extrusion width = 2.62mm
; infill extrusion width = 6.27mm
; solid infill extrusion width = 2.62mm
; top infill extrusion width = 2.62mm

M107
M104 S30 ; set temperature
G28 ; home all axes
G1 Z5 F5000 ; lift nozzle
M302
M92 E10000
M500
M501
G1 E100
M109 S30 ; wait for temperature to be reached
G21 ; set units to millimeters
G90 ; use absolute coordinates
M82 ; use absolute distances for extrusion
G92 E0
G1 Z0.300 F7800.000
G1 X97.446 Y99.837 F7800.000
G1 X97.446 Y92.577 E0.32849 F378.000
G1 X102.937 Y92.577 E0.57694
G1 X104.241 Y92.673 E0.63613
G1 X104.329 Y92.680 E0.64013 F378.000
G1 X105.595 Y92.986 E0.69906
G1 X106.745 Y93.493 E0.75591
G1 X107.753 Y94.190 E0.81138
G1 X108.595 Y95.065 E0.86630
G1 X109.273 Y96.120 E0.92307
G1 X109.770 Y97.333 E0.98236
G1 X110.070 Y98.678 E1.04471
G1 X110.170 Y100.153 E1.11162
G1 X109.941 Y102.317 E1.21011
G1 X109.259 Y104.105 E1.29668
G1 X108.128 Y105.532 E1.37906
G1 X106.578 Y106.578 E1.46368
G1 X104.632 Y107.210 E1.55627
G1 X102.272 Y107.423 E1.66349
G1 X97.446 Y107.423 E1.88186
G1 X97.446 Y100.068 E2.21468
G1 X99.067 Y100.068 F7800.000
G1 X99.067 Y93.786 E2.49892 F378.000
G1 X102.714 Y93.786 E2.66392 F378.000
G1 X103.819 Y93.870 E2.71409
G1 X104.845 Y94.126 E2.76193
G1 X105.781 Y94.553 E2.80848
G1 X106.603 Y95.145 E2.85430
G1 X107.287 Y95.887 E2.90000
G1 X107.831 Y96.778 E2.94723
G1 X108.226 Y97.796 E2.99664
G1 X108.461 Y98.923 E3.04873
G1 X108.540 Y100.161 E3.10486
G1 X108.362 Y101.954 E3.18639
G1 X107.821 Y103.459 E3.25875
G1 X106.912 Y104.660 E3.32693
G1 X105.660 Y105.529 E3.39585
G1 X104.100 Y106.045 E3.47023
G1 X102.248 Y106.214 E3.55436
G1 X99.067 Y106.214 E3.69831
G1 X99.067 Y100.299 E3.96597
G1 X98.292 Y106.648 F7800.000
G1 X98.292 Y106.648 F7800.000
G1 X99.853 Y106.440 F7800.000
G1 X100.610 Y107.197 E4.01455 F540.000
G1 X101.156 Y107.197 E4.03936
G1 X100.399 Y106.440 E4.08794
G1 X100.946 Y106.440 E4.11275
G1 X101.703 Y107.197 E4.16133
G1 X102.250 Y107.197 E4.18614
G1 X101.493 Y106.440 E4.23472
G1 X102.040 Y106.440 E4.25953
G1 X102.759 Y107.159 E4.30567
G1 X103.260 Y107.114 E4.32852
G1 X102.553 Y106.406 E4.37393
G1 X103.054 Y106.360 E4.39676
G1 X103.762 Y107.068 E4.44221
G1 X104.263 Y107.023 E4.46505
G1 X103.555 Y106.314 E4.51052
G1 X104.056 Y106.269 E4.53335
G1 X104.745 Y106.958 E4.57757
G1 X105.158 Y106.824 E4.59726
G1 X104.471 Y106.137 E4.64129
G1 X104.882 Y106.001 E4.66093
G1 X105.570 Y106.690 E4.70509
G1 X105.983 Y106.556 E4.72478
G1 X105.293 Y105.866 E4.76905
G1 X105.704 Y105.730 E4.78869
G1 X106.396 Y106.422 E4.83308
G1 X106.749 Y106.228 E4.85136
G1 X106.030 Y105.509 E4.89751
G1 X106.353 Y105.285 E4.91534
G1 X107.076 Y106.008 E4.96174
G1 X107.402 Y105.787 E4.97961
G1 X106.675 Y105.061 E5.02625
G1 X106.998 Y104.836 E5.04408
G1 X107.729 Y105.567 E5.09096
G1 X108.032 Y105.323 E5.10861
G1 X107.247 Y104.538 E5.15900
G1 X107.482 Y104.227 E5.17671
G1 X108.282 Y105.027 E5.22806
G1 X108.524 Y104.722 E5.24572
G1 X107.718 Y103.915 E5.29747
G1 X107.953 Y103.604 E5.31518
G1 X108.766 Y104.417 E5.36733
G1 X109.007 Y104.112 E5.38499
G1 X108.121 Y103.225 E5.44189
G1 X108.265 Y102.823 E5.46128
G1 X109.182 Y103.739 E5.52010
G1 X109.333 Y103.344 E5.53932
G1 X108.410 Y102.421 E5.59854
G1 X108.555 Y102.018 E5.61793
G1 X109.484 Y102.948 E5.67756
G1 X109.635 Y102.552 E5.69679
G1 X108.622 Y101.539 E5.76175
G1 X108.672 Y101.042 E5.78443
G1 X109.743 Y102.113 E5.85318
G1 X109.796 Y101.619 E5.87574
G1 X108.721 Y100.544 E5.94469
G1 X108.764 Y100.040 E5.96764
G1 X109.848 Y101.125 E6.03721
G1 X109.901 Y100.630 E6.05976
G1 X108.727 Y99.457 E6.13507
G1 X108.690 Y98.873 E6.16160
G1 X109.936 Y100.119 E6.24153
G1 X109.896 Y99.532 E6.26820
G1 X108.559 Y98.195 E6.35398
G1 X108.379 Y97.468 E6.38796
G1 X109.856 Y98.945 E6.48274
G1 X109.728 Y98.270 E6.51393
G1 X108.033 Y96.576 E6.62265
G1 X109.209 Y96.658 F7800.000
G1 X106.011 Y93.460 E6.82783 F540.000
G1 X105.663 Y94.206 F7800.000
G1 X104.412 Y92.954 E6.90813 F540.000
G1 X105.133 Y93.128 E6.94178
G1 X109.571 Y97.566 E7.22654
G1 X108.362 Y95.264 F7800.000
G1 X107.379 Y94.281 E7.28964 F540.000
G1 X104.759 Y93.849 F7800.000
G1 X103.783 Y92.872 E7.35228 F540.000
G1 X103.193 Y92.829 E7.37914
G1 X104.031 Y93.667 E7.43294
G1 X103.424 Y93.607 E7.46062
G1 X102.620 Y92.803 E7.51221
G1 X102.073 Y92.803 E7.53702
G1 X102.832 Y93.562 E7.58572
G1 X102.283 Y93.560 E7.61061
G1 X101.526 Y92.803 E7.65919
G1 X100.980 Y92.803 E7.68400
G1 X101.737 Y93.560 E7.73258
G1 X101.190 Y93.560 E7.75739
G1 X100.433 Y92.803 E7.80597
G1 X99.886 Y92.803 E7.83078
G1 X100.643 Y93.560 E7.87935
G1 X100.096 Y93.560 E7.90416
G1 X99.339 Y92.803 E7.95274
G1 X98.792 Y92.803 E7.97755
G1 X99.549 Y93.560 E8.02613
G1 X99.003 Y93.560 E8.05094
G1 X98.245 Y92.803 E8.09952
G1 X97.705 Y92.810 E8.12403
G1 X98.841 Y93.945 E8.19690
G1 X98.841 Y94.492 E8.22171
G1 X97.672 Y93.323 E8.29673
G1 X97.672 Y93.870 E8.32154
G1 X98.841 Y95.039 E8.39655
G1 X98.841 Y95.586 E8.42136
G1 X97.672 Y94.417 E8.49637
G1 X97.672 Y94.964 E8.52118
G1 X98.841 Y96.133 E8.59620
G1 X98.841 Y96.679 E8.62101
G1 X97.672 Y95.510 E8.69602
G1 X97.672 Y96.057 E8.72083
G1 X98.841 Y97.226 E8.79584
G1 X98.841 Y97.773 E8.82065
G1 X97.672 Y96.604 E8.89567
G1 X97.672 Y97.151 E8.92048
G1 X98.841 Y98.320 E8.99549
G1 X98.841 Y98.867 E9.02030
G1 X97.672 Y97.698 E9.09531
G1 X97.672 Y98.244 E9.12012
G1 X98.841 Y99.414 E9.19514
G1 X98.841 Y99.960 E9.21995
G1 X97.672 Y98.791 E9.29496
G1 X97.672 Y99.338 E9.31977
G1 X98.841 Y100.507 E9.39478
G1 X98.841 Y101.054 E9.41959
G1 X97.672 Y99.885 E9.49461
G1 X97.672 Y100.432 E9.51942
G1 X98.841 Y101.601 E9.59443
G1 X98.841 Y102.148 E9.61924
G1 X97.672 Y100.978 E9.69425
G1 X97.672 Y101.525 E9.71906
G1 X98.841 Y102.694 E9.79408
G1 X98.841 Y103.241 E9.81889
G1 X97.672 Y102.072 E9.89390
G1 X97.672 Y102.619 E9.91871
G1 X98.841 Y103.788 E9.99372
G1 X98.841 Y104.335 E10.01853
G1 X97.672 Y103.166 E10.09355
G1 X97.672 Y103.713 E10.11836
G1 X98.841 Y104.882 E10.19337
G1 X98.841 Y105.428 E10.21818
G1 X97.672 Y104.259 E10.29320
G1 X97.672 Y104.806 E10.31800
G1 X98.841 Y105.975 E10.39302
G1 X98.759 Y106.440 E10.41443
G1 X99.516 Y107.197 E10.46301
G1 X100.063 Y107.197 E10.48782
G1 X99.306 Y106.440 E10.53639
G1 X98.841 Y106.522 E10.55780
G1 X97.672 Y105.353 E10.63282
G1 X97.672 Y105.900 E10.65763
G1 X98.969 Y107.197 E10.74086
G1 X98.422 Y107.197 E10.76567
G1 X97.672 Y106.447 E10.81382
G1 X97.672 Y106.993 E10.83863
G1 X97.876 Y107.197 E10.85169
G92 E0
G1 X97.221 Y107.648 F7800.000
G1 X95.221 Y107.648 F7800.000
G1 X93.676 Y107.648 F7800.000
G1 X91.676 Y107.648 F7800.000
G1 X89.829 Y99.887 F7800.000
G1 X89.829 Y92.577 E0.33075 F378.000
G1 X91.451 Y92.577 E0.40414
G1 X91.451 Y107.423 E1.07592
G1 X89.829 Y107.423 E1.14931 F378.000
G1 X89.829 Y100.118 E1.47988
G1 X90.259 Y107.197 F7800.000
G1 X90.055 Y106.993 E1.49329 F540.000
G1 X90.055 Y106.432 E1.51944
G1 X90.820 Y107.197 E1.56982
G1 X91.225 Y107.041 E1.59005
G1 X90.055 Y105.871 E1.66713
G1 X90.055 Y105.309 E1.69327
G1 X91.225 Y106.479 E1.77035
G1 X91.225 Y105.918 E1.79650
G1 X90.055 Y104.748 E1.87357
G1 X90.055 Y104.187 E1.89972
G1 X91.225 Y105.357 E1.97680
G1 X91.225 Y104.795 E2.00295
G1 X90.055 Y103.625 E2.08002
G1 X90.055 Y103.064 E2.10617
G1 X91.225 Y104.234 E2.18325
G1 X91.225 Y103.673 E2.20940
G1 X90.055 Y102.502 E2.28647
G1 X90.055 Y101.941 E2.31262
G1 X91.225 Y103.111 E2.38970
G1 X91.225 Y102.550 E2.41584
G1 X90.055 Y101.380 E2.49292
G1 X90.055 Y100.818 E2.51907
G1 X91.225 Y101.988 E2.59614
G1 X91.225 Y101.427 E2.62229
G1 X90.055 Y100.257 E2.69937
G1 X90.055 Y99.696 E2.72552
G1 X91.225 Y100.866 E2.80259
G1 X91.225 Y100.304 E2.82874
G1 X90.055 Y99.134 E2.90582
G1 X90.055 Y98.573 E2.93197
G1 X91.225 Y99.743 E3.00904
G1 X91.225 Y99.182 E3.03519
G1 X90.055 Y98.012 E3.11227
G1 X90.055 Y97.450 E3.13841
G1 X91.225 Y98.620 E3.21549
G1 X91.225 Y98.059 E3.24164
G1 X90.055 Y96.889 E3.31871
G1 X90.055 Y96.327 E3.34486
G1 X91.225 Y97.498 E3.42194
G1 X91.225 Y96.936 E3.44809
G1 X90.055 Y95.766 E3.52516
G1 X90.055 Y95.205 E3.55131
G1 X91.225 Y96.375 E3.62839
G1 X91.225 Y95.813 E3.65453
G1 X90.055 Y94.643 E3.73161
G1 X90.055 Y94.082 E3.75776
G1 X91.225 Y95.252 E3.83484
G1 X91.225 Y94.691 E3.86098
G1 X90.055 Y93.521 E3.93806
G1 X90.055 Y92.959 E3.96421
G1 X91.225 Y94.129 E4.04128
G1 X91.225 Y93.568 E4.06743
G1 X90.460 Y92.803 E4.11782
G1 X91.021 Y92.803 E4.14397
G1 X91.225 Y93.007 E4.15738
M106 S255
G92 E0
G1 Z0.600 F7800.000
G1 X98.330 Y93.461 F7800.000
G1 X99.292 Y93.181 E0.30026 F600.000
G1 X102.768 Y93.183 E1.34183
G1 X103.847 Y93.258 E1.66578
G1 X104.230 Y93.314 E1.78194
G1 X104.980 Y93.498 E2.01328
G1 X105.378 Y93.627 E2.13873
G1 X106.043 Y93.926 E2.35724
G1 X106.395 Y94.118 E2.47721
G1 X107.004 Y94.547 E2.70058
G1 X107.266 Y94.762 E2.80222
G1 X107.985 Y95.547 E3.12098
G1 X108.568 Y96.488 E3.45264
G1 X108.999 Y97.575 E3.80315
G1 X109.263 Y98.794 E4.17696
G1 X109.353 Y100.137 E4.58030
G1 X109.149 Y102.128 E5.17988
G1 X108.567 Y103.711 E5.68535
G1 X108.409 Y103.947 E5.77030
G1 X107.613 Y104.976 E6.16011
G1 X107.282 Y105.257 E6.29027
G1 X106.271 Y105.948 E6.65726
G1 X106.063 Y106.052 E6.72692
G1 X105.831 Y106.147 E6.80219
G1 X104.503 Y106.582 E7.22075
G1 X104.129 Y106.649 E7.33462
G1 X102.245 Y106.818 E7.90158
G1 X99.292 Y106.818 E8.78630
G1 X98.330 Y106.539 E9.08656
G1 X98.257 Y105.989 E9.25293
G1 X98.257 Y94.011 E12.84209
G1 X98.330 Y93.461 E13.00845
G92 E0
G1 X97.221 Y107.648 F7800.000
G1 X94.448 Y106.876 F7800.000
G1 X93.676 Y107.648 F7800.000
G1 X91.676 Y107.648 F7800.000
G1 X90.640 Y107.648 F7800.000
G1 X90.640 Y92.352 E4.58339 F600.000
G92 E0
G1 Z0.900 F7800.000
G1 X98.330 Y93.461 F7800.000
G1 X99.292 Y93.181 E0.30026 F600.000
G1 X102.768 Y93.183 E1.34183
G1 X103.847 Y93.258 E1.66578
G1 X104.230 Y93.314 E1.78194
G1 X104.980 Y93.498 E2.01328
G1 X105.378 Y93.627 E2.13873
G1 X106.043 Y93.926 E2.35724
G1 X106.395 Y94.118 E2.47721
G1 X107.004 Y94.547 E2.70058
G1 X107.266 Y94.762 E2.80222
G1 X107.985 Y95.547 E3.12098
G1 X108.568 Y96.488 E3.45264
G1 X108.999 Y97.575 E3.80315
G1 X109.263 Y98.794 E4.17696
G1 X109.353 Y100.137 E4.58030
G1 X109.149 Y102.128 E5.17988
G1 X108.567 Y103.711 E5.68535
G1 X108.409 Y103.947 E5.77030
G1 X107.613 Y104.976 E6.16011
G1 X107.282 Y105.257 E6.29027
G1 X106.271 Y105.948 E6.65726
G1 X106.063 Y106.052 E6.72692
G1 X105.831 Y106.147 E6.80219
G1 X104.503 Y106.582 E7.22075
G1 X104.129 Y106.649 E7.33462
G1 X102.245 Y106.818 E7.90158
G1 X99.292 Y106.818 E8.78630
G1 X98.330 Y106.539 E9.08656
G1 X98.257 Y105.989 E9.25293
G1 X98.257 Y94.011 E12.84209
G1 X98.330 Y93.461 E13.00845
G92 E0
G1 X97.221 Y107.648 F7800.000
G1 X94.448 Y106.876 F7800.000
G1 X93.676 Y107.648 F7800.000
G1 X91.676 Y107.648 F7800.000
G1 X90.640 Y107.648 F7800.000
G1 X90.640 Y92.352 E4.58339 F600.000
G92 E0
G1 Z1.200 F7800.000
G1 X98.330 Y93.461 F7800.000
G1 X99.292 Y93.181 E0.30026 F600.000
G1 X102.768 Y93.183 E1.34183
G1 X103.847 Y93.258 E1.66579
G1 X104.230 Y93.314 E1.78194
G1 X104.980 Y93.498 E2.01328
G1 X105.378 Y93.627 E2.13873
G1 X106.043 Y93.926 E2.35724
G1 X106.395 Y94.118 E2.47721
G1 X107.004 Y94.547 E2.70058
G1 X107.266 Y94.762 E2.80222
G1 X107.985 Y95.547 E3.12098
G1 X108.568 Y96.488 E3.45264
G1 X108.999 Y97.575 E3.80315
G1 X109.263 Y98.794 E4.17696
G1 X109.353 Y100.137 E4.58030
G1 X109.149 Y102.128 E5.17988
G1 X108.567 Y103.711 E5.68535
G1 X108.409 Y103.947 E5.77030
G1 X107.613 Y104.976 E6.16011
G1 X107.282 Y105.257 E6.29027
G1 X106.271 Y105.948 E6.65726
G1 X106.063 Y106.052 E6.72692
G1 X105.831 Y106.147 E6.80219
G1 X104.503 Y106.582 E7.22074
G1 X104.129 Y106.649 E7.33462
G1 X102.245 Y106.818 E7.90158
G1 X99.292 Y106.818 E8.78630
G1 X98.330 Y106.539 E9.08656
G1 X98.257 Y105.989 E9.25293
G1 X98.257 Y94.011 E12.84209
G1 X98.330 Y93.461 E13.00845
G92 E0
G1 X97.221 Y107.648 F7800.000
G1 X94.448 Y106.876 F7800.000
G1 X93.676 Y107.648 F7800.000
G1 X91.676 Y107.648 F7800.000
G1 X90.640 Y107.648 F7800.000
G1 X90.640 Y92.352 E4.58339 F600.000
G92 E0
G1 Z1.500 F7800.000
G1 X98.330 Y93.461 F7800.000
G1 X99.292 Y93.181 E0.30026 F600.000
G1 X102.768 Y93.183 E1.34183
G1 X103.847 Y93.258 E1.66578
G1 X104.230 Y93.314 E1.78194
G1 X104.980 Y93.498 E2.01328
G1 X105.378 Y93.627 E2.13872
G1 X106.043 Y93.926 E2.35724
G1 X106.395 Y94.118 E2.47721
G1 X107.004 Y94.547 E2.70058
G1 X107.266 Y94.762 E2.80222
G1 X107.985 Y95.547 E3.12098
G1 X108.568 Y96.488 E3.45264
G1 X108.999 Y97.575 E3.80315
G1 X109.263 Y98.794 E4.17696
G1 X109.353 Y100.137 E4.58030
G1 X109.149 Y102.128 E5.17988
G1 X108.567 Y103.711 E5.68535
G1 X108.409 Y103.947 E5.77030
G1 X107.613 Y104.976 E6.16011
G1 X107.282 Y105.257 E6.29027
G1 X106.271 Y105.948 E6.65726
G1 X106.063 Y106.052 E6.72692
G1 X105.831 Y106.147 E6.80219
G1 X104.503 Y106.582 E7.22074
G1 X104.129 Y106.649 E7.33462
G1 X102.245 Y106.818 E7.90158
G1 X99.292 Y106.818 E8.78630
G1 X98.330 Y106.539 E9.08656
G1 X98.257 Y105.989 E9.25293
G1 X98.257 Y94.011 E12.84209
G1 X98.330 Y93.461 E13.00845
G92 E0
G1 X97.221 Y107.648 F7800.000
G1 X94.448 Y106.876 F7800.000
G1 X93.676 Y107.648 F7800.000
G1 X91.676 Y107.648 F7800.000
G1 X90.640 Y107.648 F7800.000
G1 X90.640 Y92.352 E4.58339 F600.000
G92 E0
G1 Z1.800 F7800.000
G1 X98.330 Y93.461 F7800.000
G1 X99.292 Y93.181 E0.30026 F600.000
G1 X102.861 Y93.184 E1.36968
G1 X103.847 Y93.258 E1.66582
G1 X104.230 Y93.314 E1.78198
G1 X104.980 Y93.498 E2.01331
G1 X105.378 Y93.627 E2.13876
G1 X106.043 Y93.926 E2.35728
G1 X106.395 Y94.118 E2.47725
G1 X107.004 Y94.547 E2.70062
G1 X107.266 Y94.762 E2.80225
G1 X107.985 Y95.547 E3.12102
G1 X108.568 Y96.488 E3.45267
G1 X108.999 Y97.575 E3.80319
G1 X109.263 Y98.794 E4.17700
G1 X109.353 Y100.137 E4.58034
G1 X109.149 Y102.128 E5.17992
G1 X108.567 Y103.711 E5.68539
G1 X108.409 Y103.947 E5.77034
G1 X107.613 Y104.976 E6.16015
G1 X107.282 Y105.257 E6.29031
G1 X106.271 Y105.948 E6.65730
G1 X106.063 Y106.052 E6.72696
G1 X105.831 Y106.147 E6.80223
G1 X104.503 Y106.582 E7.22078
G1 X104.129 Y106.649 E7.33466
G1 X102.245 Y106.818 E7.90162
G1 X99.292 Y106.818 E8.78634
G1 X98.330 Y106.539 E9.08660
G1 X98.257 Y105.989 E9.25297
G1 X98.257 Y94.011 E12.84213
G1 X98.330 Y93.461 E13.00849
G92 E0
G1 X97.221 Y107.648 F7800.000
G1 X94.448 Y106.876 F7800.000
G1 X93.676 Y107.648 F7800.000
G1 X91.676 Y107.648 F7800.000
G1 X90.640 Y107.648 F7800.000
G1 X90.640 Y92.352 E4.58339 F600.000
G92 E0
G1 Z2.100 F7800.000
G1 X98.330 Y93.461 F7800.000
G1 X99.292 Y93.182 E0.30028 F600.000
G1 X102.768 Y93.184 E1.34182
G1 X103.847 Y93.258 E1.66578
G1 X104.230 Y93.314 E1.78194
G1 X104.980 Y93.498 E2.01327
G1 X105.378 Y93.627 E2.13872
G1 X106.043 Y93.926 E2.35724
G1 X106.395 Y94.118 E2.47721
G1 X107.004 Y94.547 E2.70058
G1 X107.266 Y94.762 E2.80221
G1 X107.985 Y95.547 E3.12098
G1 X108.568 Y96.488 E3.45263
G1 X108.999 Y97.575 E3.80315
G1 X109.263 Y98.794 E4.17696
G1 X109.353 Y100.137 E4.58030
G1 X109.149 Y102.128 E5.17988
G1 X108.567 Y103.711 E5.68535
G1 X108.409 Y103.947 E5.77030
G1 X107.613 Y104.976 E6.16011
G1 X107.282 Y105.257 E6.29026
G1 X106.271 Y105.948 E6.65726
G1 X106.063 Y106.052 E6.72691
G1 X105.831 Y106.147 E6.80219
G1 X104.503 Y106.582 E7.22074
G1 X104.129 Y106.649 E7.33462
G1 X102.245 Y106.818 E7.90158
G1 X99.292 Y106.818 E8.78630
G1 X98.330 Y106.539 E9.08656
G1 X98.257 Y105.989 E9.25292
G1 X98.257 Y94.011 E12.84209
G1 X98.330 Y93.461 E13.00833
G92 E0
G1 X97.221 Y107.648 F7800.000
G1 X94.448 Y106.876 F7800.000
G1 X93.676 Y107.648 F7800.000
G1 X91.676 Y107.648 F7800.000
G1 X90.640 Y107.648 F7800.000
G1 X90.640 Y92.352 E4.58339 F600.000
G92 E0
M107
M104 S0 ; turn off temperature
G28 X0  ; home X axis
M84     ; disable motors

; filament used = 120.6mm (0.9cm3)

; avoid_crossing_perimeters = 1
; bed_shape = 0x0,250x0,250x250,0x250
; bed_temperature = 0
; before_layer_gcode = 
; bridge_acceleration = 0
; bridge_fan_speed = 100
; brim_width = 0
; complete_objects = 0
; cooling = 1
; default_acceleration = 0
; disable_fan_first_layers = 1
; duplicate_distance = 6
; end_gcode = M104 S0 ; turn off temperature\nG28 X0  ; home X axis\nM84     ; disable motors\n
; extruder_clearance_height = 20
