; generated by Slic3r 1.2.9 on 2016-03-11 at 01:25:38

; external perimeters extrusion width = 1.54mm
; perimeters extrusion width = 2.62mm
; infill extrusion width = 6.27mm
; solid infill extrusion width = 2.62mm
; top infill extrusion width = 2.62mm

M107
M104 S30 ; set temperature
G28 ; home all axes
G1 Z5 F5000 ; lift nozzle
M302
M92 E10000
M500
M501
G1 E100
M109 S30 ; wait for temperature to be reached
G21 ; set units to millimeters
G90 ; use absolute coordinates
M82 ; use absolute distances for extrusion
G92 E0
G1 Z0.300 F7800.000
G1 X108.547 Y98.800 F7800.000
G1 X108.749 Y98.800 E0.00916 F378.000
G1 X108.749 Y100.063 E0.06631
G1 X100.224 Y100.063 E0.45206
G1 X100.224 Y106.181 E0.72889
G1 X109.010 Y106.181 E1.12645
G1 X109.010 Y107.423 E1.18265
G1 X98.603 Y107.423 E1.65356
G1 X98.603 Y92.577 E2.32533
G1 X100.224 Y92.577 E2.39868
G1 X100.224 Y98.800 E2.68026
G1 X108.316 Y98.800 E3.04641 F378.000
G1 X108.524 Y99.230 F7800.000
G1 X108.320 Y99.026 E3.05944 F540.000
G1 X107.774 Y99.026 E3.08414
G1 X108.524 Y99.775 E3.13210
G1 X108.040 Y99.837 E3.15417
G1 X107.229 Y99.026 E3.20609
G1 X106.683 Y99.026 E3.23079
G1 X107.494 Y99.837 E3.28271
G1 X106.949 Y99.837 E3.30741
G1 X106.138 Y99.026 E3.35933
G1 X105.592 Y99.026 E3.38403
G1 X106.403 Y99.837 E3.43595
G1 X105.858 Y99.837 E3.46065
G1 X105.047 Y99.026 E3.51257
G1 X104.501 Y99.026 E3.53727
G1 X105.312 Y99.837 E3.58919
G1 X104.767 Y99.837 E3.61389
G1 X103.955 Y99.026 E3.66581
G1 X103.410 Y99.026 E3.69051
G1 X104.221 Y99.837 E3.74243
G1 X103.675 Y99.837 E3.76713
G1 X102.864 Y99.026 E3.81905
G1 X102.319 Y99.026 E3.84375
G1 X103.130 Y99.837 E3.89567
G1 X102.584 Y99.837 E3.92037
G1 X101.773 Y99.026 E3.97229
G1 X101.228 Y99.026 E3.99699
G1 X102.039 Y99.837 E4.04891
G1 X101.493 Y99.837 E4.07361
G1 X100.682 Y99.026 E4.12553
G1 X100.137 Y99.026 E4.15023
G1 X100.948 Y99.837 E4.20215
G1 X100.402 Y99.837 E4.22685
G1 X98.829 Y98.264 E4.32752
G1 X98.829 Y98.810 E4.35222
G1 X99.999 Y99.979 E4.42706
G1 X99.999 Y100.525 E4.45175
G1 X98.829 Y99.356 E4.52660
G1 X98.829 Y99.901 E4.55129
G1 X99.999 Y101.070 E4.62613
G1 X99.999 Y101.616 E4.65083
G1 X98.829 Y100.447 E4.72567
G1 X98.829 Y100.992 E4.75037
G1 X99.999 Y102.161 E4.82521
G1 X99.999 Y102.707 E4.84990
G1 X98.829 Y101.538 E4.92475
G1 X98.829 Y102.083 E4.94944
G1 X99.999 Y103.252 E5.02428
G1 X99.999 Y103.798 E5.04898
G1 X98.829 Y102.629 E5.12382
G1 X98.829 Y103.175 E5.14852
G1 X99.999 Y104.344 E5.22336
G1 X99.999 Y104.889 E5.24806
G1 X98.829 Y103.720 E5.32290
G1 X98.829 Y104.266 E5.34759
G1 X99.999 Y105.435 E5.42244
G1 X99.999 Y105.980 E5.44713
G1 X98.829 Y104.811 E5.52197
G1 X98.829 Y105.357 E5.54667
G1 X100.670 Y107.197 E5.66448
G1 X101.215 Y107.197 E5.68918
G1 X100.425 Y106.407 E5.73975
G1 X100.971 Y106.407 E5.76445
G1 X101.761 Y107.197 E5.81503
G1 X102.306 Y107.197 E5.83973
G1 X101.516 Y106.407 E5.89031
G1 X102.062 Y106.407 E5.91500
G1 X102.852 Y107.197 E5.96558
G1 X103.398 Y107.197 E5.99028
G1 X102.607 Y106.407 E6.04086
G1 X103.153 Y106.407 E6.06555
G1 X103.943 Y107.197 E6.11613
G1 X104.489 Y107.197 E6.14083
G1 X103.699 Y106.407 E6.19141
G1 X104.244 Y106.407 E6.21610
G1 X105.034 Y107.197 E6.26668
G1 X105.580 Y107.197 E6.29138
G1 X104.790 Y106.407 E6.34196
G1 X105.335 Y106.407 E6.36665
G1 X106.125 Y107.197 E6.41723
G1 X106.671 Y107.197 E6.44193
G1 X105.881 Y106.407 E6.49251
G1 X106.426 Y106.407 E6.51721
G1 X107.216 Y107.197 E6.56778
G1 X107.762 Y107.197 E6.59248
G1 X106.972 Y106.407 E6.64306
G1 X107.518 Y106.407 E6.66776
G1 X108.308 Y107.197 E6.71834
G1 X108.785 Y107.128 E6.74015
G1 X108.063 Y106.407 E6.78633
G1 X108.609 Y106.407 E6.81103
G1 X108.785 Y106.583 E6.82229
G1 X100.124 Y107.197 F7800.000
G1 X98.829 Y105.902 E6.90518 F540.000
G1 X98.829 Y106.448 E6.92987
G1 X99.579 Y107.197 E6.97783
G1 X99.033 Y107.197 E7.00253
G1 X98.829 Y106.993 E7.01556
G1 X99.999 Y98.888 F7800.000
G1 X98.829 Y97.719 E7.09040 F540.000
G1 X98.829 Y97.173 E7.11510
G1 X99.999 Y98.342 E7.18994
G1 X99.999 Y97.797 E7.21463
G1 X98.829 Y96.628 E7.28948
G1 X98.829 Y96.082 E7.31417
G1 X99.999 Y97.251 E7.38901
G1 X99.999 Y96.706 E7.41371
G1 X98.829 Y95.537 E7.48855
G1 X98.829 Y94.991 E7.51325
G1 X99.999 Y96.160 E7.58809
G1 X99.999 Y95.615 E7.61279
G1 X98.829 Y94.446 E7.68763
G1 X98.829 Y93.900 E7.71232
G1 X99.999 Y95.069 E7.78717
G1 X99.999 Y94.523 E7.81186
G1 X98.829 Y93.354 E7.88670
G1 X98.847 Y92.826 E7.91064
G1 X99.999 Y93.978 E7.98439
G1 X99.999 Y93.432 E8.00909
G1 X99.369 Y92.803 E8.04938
G92 E0
G1 X98.378 Y92.352 F7800.000
G1 X96.378 Y92.352 F7800.000
G1 X94.837 Y92.352 F7800.000
G1 X92.837 Y92.352 F7800.000
G1 X92.611 Y99.935 F7800.000
G1 X92.611 Y107.423 E0.33883 F378.000
G1 X90.989 Y107.423 E0.41222 F378.000
G1 X90.989 Y92.577 E1.08399
G1 X92.611 Y92.577 E1.15739
G1 X92.611 Y99.704 E1.47988
G1 X92.386 Y93.007 F7800.000
G1 X92.182 Y92.803 E1.49329 F540.000
G1 X91.621 Y92.803 E1.51944
G1 X92.386 Y93.568 E1.56983
G1 X92.386 Y94.129 E1.59598
G1 X91.215 Y92.959 E1.67305
G1 X91.215 Y93.521 E1.69920
G1 X92.386 Y94.691 E1.77628
G1 X92.386 Y95.252 E1.80242
G1 X91.215 Y94.082 E1.87950
G1 X91.215 Y94.643 E1.90565
G1 X92.386 Y95.813 E1.98272
G1 X92.386 Y96.375 E2.00887
G1 X91.215 Y95.205 E2.08595
G1 X91.215 Y95.766 E2.11210
G1 X92.386 Y96.936 E2.18917
G1 X92.386 Y97.498 E2.21532
G1 X91.215 Y96.327 E2.29240
G1 X91.215 Y96.889 E2.31854
G1 X92.386 Y98.059 E2.39562
G1 X92.386 Y98.620 E2.42177
G1 X91.215 Y97.450 E2.49885
G1 X91.215 Y98.012 E2.52499
G1 X92.386 Y99.182 E2.60207
G1 X92.386 Y99.743 E2.62822
G1 X91.215 Y98.573 E2.70529
G1 X91.215 Y99.134 E2.73144
G1 X92.386 Y100.304 E2.80852
G1 X92.386 Y100.866 E2.83467
G1 X91.215 Y99.696 E2.91174
G1 X91.215 Y100.257 E2.93789
G1 X92.386 Y101.427 E3.01497
G1 X92.386 Y101.988 E3.04111
G1 X91.215 Y100.818 E3.11819
G1 X91.215 Y101.380 E3.14434
G1 X92.386 Y102.550 E3.22141
G1 X92.386 Y103.111 E3.24756
G1 X91.215 Y101.941 E3.32464
G1 X91.215 Y102.502 E3.35079
G1 X92.386 Y103.673 E3.42786
G1 X92.386 Y104.234 E3.45401
G1 X91.215 Y103.064 E3.53109
G1 X91.215 Y103.625 E3.55724
G1 X92.386 Y104.795 E3.63431
G1 X92.386 Y105.357 E3.66046
G1 X91.215 Y104.187 E3.73754
G1 X91.215 Y104.748 E3.76368
G1 X92.386 Y105.918 E3.84076
G1 X92.386 Y106.479 E3.86691
G1 X91.215 Y105.309 E3.94398
G1 X91.215 Y105.871 E3.97013
G1 X92.386 Y107.041 E4.04721
G1 X91.980 Y107.197 E4.06743
G1 X91.215 Y106.432 E4.11782
G1 X91.215 Y106.993 E4.14397
G1 X91.419 Y107.197 E4.15738
M106 S255
G92 E0
G1 Z0.600 F7800.000
G1 X100.311 Y102.912 F7800.000
G1 X99.414 Y98.575 E1.32720 F600.000
G1 X99.414 Y92.352 E3.19190
G1 X99.450 Y93.352 F7800.000
G1 X99.414 Y93.387 F7800.000
G1 X99.414 Y106.612 F7800.000
G1 X99.450 Y106.648 F7800.000
G1 X109.235 Y106.802 F7800.000
G1 X100.449 Y106.802 E5.82459 F600.000
G1 X99.494 Y106.532 E6.12204
G1 X99.414 Y105.956 E6.29639
G1 X99.414 Y100.288 E7.99479
G1 X99.591 Y99.431 E8.25686
G1 X108.975 Y99.431 E11.06856
G92 E0
G1 X110.236 Y107.648 F7800.000
G1 X96.378 Y107.648 F7800.000
G1 X94.837 Y107.648 F7800.000
G1 X92.837 Y107.648 F7800.000
G1 X91.800 Y107.648 F7800.000
G1 X91.800 Y92.352 E4.58339 F600.000
G92 E0
G1 Z0.900 F7800.000
G1 X100.311 Y102.912 F7800.000
G1 X99.414 Y98.575 E1.32720 F600.000
G1 X99.414 Y92.352 E3.19190
G1 X99.450 Y93.352 F7800.000
G1 X99.414 Y93.387 F7800.000
G1 X99.414 Y106.612 F7800.000
G1 X99.450 Y106.648 F7800.000
G1 X109.235 Y106.802 F7800.000
G1 X100.449 Y106.802 E5.82459 F600.000
G1 X99.494 Y106.532 E6.12204
G1 X99.414 Y105.956 E6.29639
G1 X99.414 Y100.288 E7.99479
G1 X99.591 Y99.431 E8.25686
G1 X108.975 Y99.431 E11.06856
G92 E0
G1 X110.236 Y107.648 F7800.000
G1 X96.378 Y107.648 F7800.000
G1 X94.837 Y107.648 F7800.000
G1 X92.837 Y107.648 F7800.000
G1 X91.800 Y107.648 F7800.000
G1 X91.800 Y92.352 E4.58339 F600.000
G92 E0
G1 Z1.200 F7800.000
G1 X100.311 Y102.912 F7800.000
G1 X99.414 Y98.575 E1.32720 F600.000
G1 X99.414 Y92.352 E3.19190
G1 X99.450 Y93.352 F7800.000
G1 X99.414 Y93.387 F7800.000
G1 X99.414 Y106.612 F7800.000
G1 X99.450 Y106.648 F7800.000
G1 X109.235 Y106.802 F7800.000
G1 X100.449 Y106.802 E5.82459 F600.000
G1 X99.494 Y106.532 E6.12204
G1 X99.414 Y105.956 E6.29639
G1 X99.414 Y100.288 E7.99479
G1 X99.591 Y99.431 E8.25686
G1 X108.975 Y99.431 E11.06856
G92 E0
G1 X110.236 Y107.648 F7800.000
G1 X96.378 Y107.648 F7800.000
G1 X94.837 Y107.648 F7800.000
G1 X92.837 Y107.648 F7800.000
G1 X91.800 Y107.648 F7800.000
G1 X91.800 Y92.352 E4.58339 F600.000
G92 E0
G1 Z1.500 F7800.000
G1 X100.311 Y102.912 F7800.000
G1 X99.414 Y98.575 E1.32720 F600.000
G1 X99.414 Y92.352 E3.19190
G1 X99.450 Y93.352 F7800.000
G1 X99.414 Y93.387 F7800.000
G1 X99.414 Y106.612 F7800.000
G1 X99.450 Y106.648 F7800.000
G1 X109.235 Y106.802 F7800.000
G1 X100.449 Y106.802 E5.82459 F600.000
G1 X99.494 Y106.532 E6.12204
G1 X99.414 Y105.956 E6.29639
G1 X99.414 Y100.288 E7.99479
G1 X99.591 Y99.431 E8.25686
G1 X108.975 Y99.431 E11.06856
G92 E0
G1 X110.236 Y107.648 F7800.000
G1 X96.378 Y107.648 F7800.000
G1 X94.837 Y107.648 F7800.000
G1 X92.837 Y107.648 F7800.000
G1 X91.800 Y107.648 F7800.000
G1 X91.800 Y92.352 E4.58339 F600.000
G92 E0
G1 Z1.800 F7800.000
G1 X100.311 Y102.912 F7800.000
G1 X99.414 Y98.575 E1.32720 F600.000
G1 X99.414 Y92.352 E3.19190
G1 X99.450 Y93.352 F7800.000
G1 X99.414 Y93.387 F7800.000
G1 X99.414 Y106.612 F7800.000
G1 X99.450 Y106.648 F7800.000
G1 X109.235 Y106.802 F7800.000
G1 X100.449 Y106.802 E5.82459 F600.000
G1 X99.494 Y106.532 E6.12204
G1 X99.414 Y105.956 E6.29639
G1 X99.414 Y100.288 E7.99479
G1 X99.591 Y99.431 E8.25686
G1 X108.975 Y99.431 E11.06856
G92 E0
G1 X110.236 Y107.648 F7800.000
G1 X96.378 Y107.648 F7800.000
G1 X94.837 Y107.648 F7800.000
G1 X92.837 Y107.648 F7800.000
G1 X91.800 Y107.648 F7800.000
G1 X91.800 Y92.352 E4.58339 F600.000
G92 E0
G1 Z2.100 F7800.000
G1 X100.311 Y102.912 F7800.000
G1 X99.414 Y98.575 E1.32720 F600.000
G1 X99.414 Y92.352 E3.19190
G92 E0
G1 X99.450 Y93.352 F7800.000
G1 X99.414 Y93.387 F7800.000
G1 X99.414 Y106.612 F7800.000
G1 X99.450 Y106.648 F7800.000
G1 X109.235 Y106.802 F7800.000
G1 X100.449 Y106.802 E2.63269 F600.000
G1 X99.494 Y106.532 E2.93013
G1 X99.414 Y105.956 E3.10449
G1 X99.414 Y100.288 E4.80288
G1 X99.591 Y99.431 E5.06496
G1 X108.975 Y99.431 E7.87666
G92 E0
G1 X110.236 Y107.648 F7800.000
G1 X96.378 Y107.648 F7800.000
G1 X94.837 Y107.648 F7800.000
G1 X92.837 Y107.648 F7800.000
G1 X91.800 Y107.648 F7800.000
G1 X91.800 Y92.352 E4.58339 F600.000
G92 E0
M107
M104 S0 ; turn off temperature
G28 X0  ; home X axis
M84     ; disable motors

; filament used = 106.1mm (0.8cm3)

; avoid_crossing_perimeters = 1
; bed_shape = 0x0,250x0,250x250,0x250
; bed_temperature = 0
; before_layer_gcode = 
; bridge_acceleration = 0
; bridge_fan_speed = 100
; brim_width = 0
; complete_objects = 0
; cooling = 1
; default_acceleration = 0
; disable_fan_first_layers = 1
; duplicate_distance = 6
; end_gcode = M104 S0 ; turn off temperature\nG28 X0  ; home X axis\nM84     ; disable motors\n
; extruder_clearance_height = 20
; extruder_clearance_radius = 20
; extruder_offset = 0x0
; extrusion_axis = E
; extrusion_multiplier = 3
; fan_always_on = 0
; fan_below_layer_time = 60
; filament_colour = #FFFFFF
; filament_diameter = 3.125
; first_layer_acceleration = 0
; first_layer_bed_temperature = 0
; first_layer_extrusion_width = 150%
; first_layer_speed = 90%
; first_layer_temperature = 30
; gcode_arcs = 0
; gcode_comments = 0
; gcode_flavor = reprap
; infill_acceleration = 0
; infill_first = 0
; layer_gcode = 
; max_fan_speed = 100
; max_print_speed = 80
; max_volumetric_speed = 0
; min_fan_speed = 35
; min_print_speed = 10
; min_skirt_length = 0
; notes = 
; nozzle_diameter = 1.54
; only_retract_when_crossing_perimeters = 1
; ooze_prevention = 0
; output_filename_format = [input_filename_base].gcode
; perimeter_acceleration = 0
; post_process = 
; pressure_advance = 0
; resolution = 0
; retract_before_travel = 2
; retract_layer_change = 1
; retract_length = 0
; retract_length_toolchange = 10
; retract_lift = 0
; retract_restart_extra = 0
; retract_restart_extra_toolchange = 0
; retract_speed = 0
; skirt_distance = 6
; skirt_height = 1
; skirts = 0
; slowdown_below_layer_time = 30
; spiral_vase = 0
; standby_temperature_delta = -5
; start_gcode = G28 ; home all axes\nG1 Z5 F5000 ; lift nozzle\nM302\nM92 E10000\nM500\nM501\nG1 E100
; temperature = 30
; threads = 2
; toolchange_gcode = 
; travel_speed = 130
; use_firmware_retraction = 0
; use_relative_e_distances = 0
; use_volumetric_e = 0
; vibration_limit = 0
; wipe = 0
; z_offset = 0
; dont_support_bridges = 1
; extrusion_width = 0
; first_layer_height = 100%
; infill_only_where_needed = 0
; interface_shells = 0
; layer_height = 0.3
; raft_layers = 0
; seam_position = random
; support_material = 0
; support_material_angle = 0
; support_material_contact_distance = 0.2
; support_material_enforce_layers = 0
; support_material_extruder = 1
; support_material_extrusion_width = 0
; support_material_interface_extruder = 1
; support_material_interface_layers = 3
; support_material_interface_spacing = 0
; support_material_interface_speed = 100%
; support_material_pattern = pillars
; support_material_spacing = 2.5
; support_material_speed = 7
; support_material_threshold = 0
; xy_size_compensation = 0
; bottom_solid_layers = 3
; bridge_flow_ratio = 1
; bridge_speed = 10
; external_fill_pattern = rectilinear
; external_perimeter_extrusion_width = 0
; external_perimeter_speed = 70%
; external_perimeters_first = 1
; extra_perimeters = 1
; fill_angle = 45
; fill_density = 60%
; fill_pattern = rectilinear
; gap_fill_speed = 10
; infill_every_layers = 1
; infill_extruder = 1
; infill_extrusion_width = 0
; infill_overlap = 15%
; infill_speed = 10
; overhangs = 1
; perimeter_extruder = 1
; perimeter_extrusion_width = 0
; perimeter_speed = 10
; perimeters = 1
; small_perimeter_speed = 70%
; solid_infill_below_area = 70
; solid_infill_every_layers = 0
; solid_infill_extruder = 1
; solid_infill_extrusion_width = 0
; solid_infill_speed = 10
; thin_walls = 1
; top_infill_extrusion_width = 0
; top_solid_infill_speed = 10
; top_solid_layers = 3
