; generated by Slic3r 1.2.9 on 2016-03-11 at 01:25:39

; external perimeters extrusion width = 1.54mm
; perimeters extrusion width = 2.62mm
; infill extrusion width = 6.27mm
; solid infill extrusion width = 2.62mm
; top infill extrusion width = 2.62mm

M107
M104 S30 ; set temperature
G28 ; home all axes
G1 Z5 F5000 ; lift nozzle
M302
M92 E10000
M500
M501
G1 E100
M109 S30 ; wait for temperature to be reached
G21 ; set units to millimeters
G90 ; use absolute coordinates
M82 ; use absolute distances for extrusion
G92 E0
G1 Z0.300 F7800.000
G1 X104.275 Y106.342 F7800.000
G1 X104.856 Y106.306 E0.02634 F378.000
G1 X105.840 Y106.102 E0.07181
G1 X106.705 Y105.758 E0.11393
G1 X107.454 Y105.261 E0.15462
G1 X108.086 Y104.600 E0.19598
G1 X108.496 Y103.944 E0.23099
G1 X110.033 Y104.397 E0.30349
G1 X109.535 Y105.266 E0.34880
G1 X108.754 Y106.137 E0.40175
G1 X107.821 Y106.789 E0.45325
G1 X106.702 Y107.245 E0.50793
G1 X105.364 Y107.522 E0.56975
G1 X103.812 Y107.614 E0.64011
G1 X101.629 Y107.393 E0.73938
G1 X99.817 Y106.736 E0.82658
G1 X98.361 Y105.648 E0.90884
G1 X97.292 Y104.161 E0.99172
G1 X96.646 Y102.303 E1.08071
G1 X96.429 Y100.062 E1.18261
G1 X96.528 Y98.552 E1.25106
G1 X96.826 Y97.183 E1.31446
G1 X97.320 Y95.956 E1.37429
G1 X97.999 Y94.893 E1.43138
G1 X98.851 Y94.012 E1.48685
G1 X99.880 Y93.309 E1.54323
G1 X101.072 Y92.797 E1.60193
G1 X102.413 Y92.489 E1.66420
G1 X103.906 Y92.385 E1.73194
G1 X105.086 Y92.452 E1.78537
G1 X105.220 Y92.459 E1.79145 F378.000
G1 X106.467 Y92.680 E1.84876
G1 X107.647 Y93.048 E1.90470
G1 X108.734 Y93.550 E1.95887
G1 X109.699 Y94.172 E2.01083
G1 X110.481 Y94.857 E2.05786
G1 X110.481 Y99.807 E2.28185
G1 X104.455 Y99.807 E2.55452
G1 X104.455 Y98.522 E2.61266
G1 X109.023 Y98.522 E2.81936
G1 X109.023 Y95.430 E2.95929
G1 X108.337 Y94.866 E2.99946
G1 X107.609 Y94.436 E3.03771
G1 X106.773 Y94.084 E3.07877
G1 X105.861 Y93.824 E3.12168
G1 X104.905 Y93.668 E3.16552
G1 X103.898 Y93.615 E3.21114
G1 X102.225 Y93.806 E3.28732
G1 X100.794 Y94.387 E3.35722
G1 X99.624 Y95.358 E3.42602
G1 X98.763 Y96.660 E3.49662
G1 X98.250 Y98.231 E3.57141
G1 X98.081 Y100.064 E3.65473
G1 X98.240 Y101.895 E3.73786
G1 X98.723 Y103.443 E3.81126
G1 X99.536 Y104.705 E3.87918
G1 X100.662 Y105.636 E3.94529
G1 X102.073 Y106.191 E4.01388
G1 X103.748 Y106.374 E4.09013
G1 X104.044 Y106.356 E4.10358
G1 X101.708 Y106.329 F7800.000
G1 X102.639 Y107.260 E4.16354 F540.000
G1 X103.250 Y107.322 E4.19152
G1 X102.391 Y106.463 E4.24686
G1 X103.007 Y106.530 E4.27511
G1 X103.861 Y107.383 E4.33011
G1 X104.385 Y107.358 E4.35402
G1 X103.624 Y106.597 E4.40309
G1 X104.147 Y106.571 E4.42695
G1 X104.903 Y107.328 E4.47571
G1 X105.420 Y107.295 E4.49927
G1 X104.664 Y106.539 E4.54794
G1 X105.137 Y106.463 E4.56978
G1 X105.875 Y107.201 E4.61728
G1 X106.330 Y107.106 E4.63846
G1 X105.592 Y106.369 E4.68597
G1 X106.020 Y106.248 E4.70623
G1 X106.772 Y106.999 E4.75468
G1 X107.162 Y106.840 E4.77387
G1 X106.413 Y106.091 E4.82214
G1 X106.799 Y105.929 E4.84125
G1 X107.552 Y106.681 E4.88973
G1 X107.910 Y106.490 E4.90822
G1 X107.129 Y105.710 E4.95853
G1 X107.459 Y105.490 E4.97657
G1 X108.233 Y106.265 E5.02645
G1 X108.554 Y106.036 E5.04439
G1 X107.748 Y105.231 E5.09626
G1 X108.017 Y104.950 E5.11396
G1 X108.828 Y105.761 E5.16623
G1 X109.090 Y105.474 E5.18394
G1 X108.277 Y104.661 E5.23631
G1 X108.489 Y104.323 E5.25446
G1 X109.349 Y105.184 E5.30992
G1 X109.553 Y104.839 E5.32819
G1 X109.100 Y104.385 E5.35743
G92 E0
G1 X108.841 Y104.854 F7800.000
G1 X108.841 Y104.854 F7800.000
G1 X104.681 Y98.868 F7800.000
G1 X105.394 Y99.581 E0.04592 F540.000
G1 X105.943 Y99.581 E0.07094
G1 X105.110 Y98.748 E0.12462
G1 X105.659 Y98.748 E0.14964
G1 X106.492 Y99.581 E0.20332
G1 X107.041 Y99.581 E0.22834
G1 X106.208 Y98.748 E0.28202
G1 X106.757 Y98.748 E0.30704
G1 X107.590 Y99.581 E0.36072
G1 X108.139 Y99.581 E0.38574
G1 X107.306 Y98.748 E0.43942
G1 X107.855 Y98.748 E0.46444
G1 X108.688 Y99.581 E0.51812
G1 X109.238 Y99.581 E0.54314
G1 X108.404 Y98.748 E0.59682
G1 X108.954 Y98.748 E0.62184
G1 X109.787 Y99.581 E0.67552
G1 X110.255 Y99.500 E0.69717
G1 X109.249 Y98.494 E0.76200
G1 X109.249 Y97.945 E0.78702
G1 X110.255 Y98.951 E0.85185
G1 X110.255 Y98.402 E0.87687
G1 X109.249 Y97.396 E0.94169
G1 X109.249 Y96.847 E0.96671
G1 X110.255 Y97.853 E1.03154
G1 X110.255 Y97.304 E1.05656
G1 X109.249 Y96.298 E1.12139
G1 X109.249 Y95.749 E1.14641
G1 X110.255 Y96.755 E1.21123
G1 X110.255 Y96.206 E1.23625
G1 X107.236 Y93.186 E1.43081
G1 X106.774 Y93.823 F7800.000
G1 X105.750 Y92.798 E1.49683 F540.000
G1 X106.438 Y92.937 E1.52881
G1 X107.680 Y94.180 E1.60885
G1 X108.195 Y93.597 F7800.000
G1 X110.255 Y95.656 E1.74158 F540.000
G1 X110.255 Y95.107 F7800.000
G1 X109.856 Y94.709 E1.76727 F540.000
G1 X106.006 Y93.604 F7800.000
G1 X105.085 Y92.683 E1.82663 F540.000
G1 X104.503 Y92.650 E1.85318
G1 X105.350 Y93.497 E1.90775
G1 X104.732 Y93.428 F7800.000
G1 X103.921 Y92.617 E1.95999 F540.000
G1 X103.397 Y92.642 E1.98392
G1 X104.153 Y93.398 E2.03264
G1 X103.633 Y93.427 E2.05637
G1 X102.883 Y92.677 E2.10468
G1 X102.370 Y92.714 E2.12809
G1 X103.140 Y93.483 E2.17767
G1 X102.647 Y93.540 E2.20027
G1 X101.924 Y92.817 E2.24685
G1 X101.478 Y92.919 E2.26773
G1 X102.170 Y93.612 E2.31234
G1 X101.779 Y93.770 E2.33155
G1 X101.039 Y93.030 E2.37927
G1 X100.655 Y93.195 E2.39832
G1 X101.389 Y93.929 E2.44562
G1 X100.998 Y94.087 E2.46483
G1 X100.270 Y93.359 E2.51173
G1 X99.895 Y93.534 E2.53057
G1 X100.633 Y94.271 E2.57808
G1 X100.333 Y94.520 E2.59585
G1 X99.569 Y93.756 E2.64505
G1 X99.243 Y93.979 E2.66305
G1 X100.032 Y94.769 E2.71393
G1 X99.732 Y95.018 E2.73170
G1 X98.939 Y94.224 E2.78282
G1 X98.664 Y94.499 E2.80051
G1 X99.443 Y95.278 E2.85072
G1 X99.225 Y95.609 E2.86878
G1 X98.390 Y94.774 E2.92259
G1 X98.125 Y95.058 E2.94029
G1 X99.006 Y95.939 E2.99710
G1 X98.788 Y96.270 E3.01515
G1 X97.911 Y95.393 E3.07166
G1 X97.697 Y95.728 E3.08978
G1 X98.569 Y96.600 E3.14599
G1 X98.432 Y97.013 E3.16578
G1 X97.491 Y96.071 E3.22646
G1 X97.333 Y96.463 E3.24569
G1 X98.297 Y97.427 E3.30783
G1 X98.162 Y97.841 E3.32767
G1 X97.175 Y96.854 E3.39126
G1 X97.026 Y97.254 E3.41070
G1 X98.028 Y98.256 E3.47530
G1 X97.982 Y98.759 E3.49830
G1 X96.928 Y97.705 E3.56622
G1 X96.830 Y98.156 E3.58725
G1 X97.936 Y99.261 E3.65850
G1 X97.889 Y99.764 E3.68150
G1 X96.745 Y98.620 E3.75522
G1 X96.711 Y99.135 E3.77875
G1 X97.867 Y100.291 E3.85321
G1 X97.919 Y100.892 E3.88071
G1 X96.677 Y99.650 E3.96073
G1 X96.677 Y100.200 E3.98577
G1 X97.971 Y101.494 E4.06913
G1 X98.043 Y102.114 E4.09760
G1 X96.736 Y100.808 E4.18177
G1 X96.795 Y101.416 E4.20961
G1 X98.291 Y102.912 E4.30600
G1 X98.590 Y103.760 F7800.000
G1 X96.854 Y102.024 E4.41782 F540.000
G1 X97.097 Y102.816 E4.45554
G1 X101.268 Y106.987 E4.72431
G1 X102.028 Y107.198 E4.76024
G1 X100.802 Y105.972 E4.83919
G1 X100.407 Y106.675 F7800.000
G1 X97.389 Y103.657 E5.03361 F540.000
G1 X98.429 Y105.246 F7800.000
G1 X98.779 Y105.596 E5.05618 F540.000
G92 E0
G1 X96.425 Y102.351 F7800.000
G1 X94.310 Y105.232 F7800.000
G1 X94.664 Y106.542 F7800.000
G1 X93.558 Y107.648 F7800.000
G1 X91.366 Y107.648 F7800.000
G1 X91.141 Y99.354 F7800.000
G1 X91.141 Y107.423 E0.36513 F378.000
G1 X89.519 Y107.423 E0.43852 F378.000
G1 X89.519 Y92.577 E1.11029
G1 X91.141 Y92.577 E1.18369
G1 X91.141 Y99.123 E1.47988
G1 X90.915 Y93.007 F7800.000
G1 X90.711 Y92.803 E1.49329 F540.000
G1 X90.150 Y92.803 E1.51944
G1 X90.915 Y93.568 E1.56983
G1 X90.915 Y94.129 E1.59598
G1 X89.745 Y92.959 E1.67305
G1 X89.745 Y93.521 E1.69920
G1 X90.915 Y94.691 E1.77628
G1 X90.915 Y95.252 E1.80242
G1 X89.745 Y94.082 E1.87950
G1 X89.745 Y94.643 E1.90565
G1 X90.915 Y95.813 E1.98272
G1 X90.915 Y96.375 E2.00887
G1 X89.745 Y95.205 E2.08595
G1 X89.745 Y95.766 E2.11210
G1 X90.915 Y96.936 E2.18917
G1 X90.915 Y97.498 E2.21532
G1 X89.745 Y96.327 E2.29240
G1 X89.745 Y96.889 E2.31854
G1 X90.915 Y98.059 E2.39562
G1 X90.915 Y98.620 E2.42177
G1 X89.745 Y97.450 E2.49885
G1 X89.745 Y98.012 E2.52499
G1 X90.915 Y99.182 E2.60207
G1 X90.915 Y99.743 E2.62822
G1 X89.745 Y98.573 E2.70529
G1 X89.745 Y99.134 E2.73144
G1 X90.915 Y100.304 E2.80852
G1 X90.915 Y100.866 E2.83467
G1 X89.745 Y99.696 E2.91174
G1 X89.745 Y100.257 E2.93789
G1 X90.915 Y101.427 E3.01497
G1 X90.915 Y101.988 E3.04111
G1 X89.745 Y100.818 E3.11819
G1 X89.745 Y101.380 E3.14434
G1 X90.915 Y102.550 E3.22141
G1 X90.915 Y103.111 E3.24756
G1 X89.745 Y101.941 E3.32464
G1 X89.745 Y102.502 E3.35079
G1 X90.915 Y103.673 E3.42786
G1 X90.915 Y104.234 E3.45401
G1 X89.745 Y103.064 E3.53109
G1 X89.745 Y103.625 E3.55724
G1 X90.915 Y104.795 E3.63431
G1 X90.915 Y105.357 E3.66046
G1 X89.745 Y104.187 E3.73754
G1 X89.745 Y104.748 E3.76368
G1 X90.915 Y105.918 E3.84076
G1 X90.915 Y106.479 E3.86691
G1 X89.745 Y105.309 E3.94398
G1 X89.745 Y105.871 E3.97013
G1 X90.915 Y107.041 E4.04721
G1 X90.510 Y107.197 E4.06743
G1 X89.745 Y106.432 E4.11782
G1 X89.745 Y106.993 E4.14397
G1 X89.949 Y107.197 E4.15738
M106 S255
G92 E0
G1 Z0.600 F7800.000
G1 X109.491 Y104.003 F7800.000
G1 X108.621 Y105.143 E0.42993 F600.000
G1 X108.239 Y105.556 E0.59838
G1 X108.007 Y105.755 E0.68994
G1 X107.466 Y106.138 E0.88840
G1 X107.110 Y106.326 E1.00906
G1 X106.500 Y106.582 E1.20743
G1 X105.952 Y106.740 E1.37825
G1 X105.279 Y106.879 E1.58432
G1 X104.999 Y106.916 E1.66887
G1 X103.825 Y106.991 E2.02148
G1 X103.662 Y106.982 E2.07022
G1 X102.035 Y106.811 E2.56036
G1 X101.811 Y106.772 E2.62851
G1 X100.453 Y106.264 E3.06301
G1 X100.197 Y106.143 E3.14797
G1 X99.099 Y105.289 E3.56479
G1 X98.905 Y105.114 E3.64303
G1 X98.075 Y103.897 E4.08442
G1 X98.007 Y103.789 E4.12264
G1 X97.956 Y103.651 E4.16694
G1 X97.454 Y102.126 E4.64788
G1 X97.264 Y100.156 E5.24100
G1 X97.262 Y99.968 E5.29713
G1 X97.364 Y98.670 E5.68750
G1 X97.488 Y97.956 E5.90468
G1 X97.630 Y97.430 E6.06774
G1 X98.036 Y96.325 E6.42055
G1 X98.634 Y95.395 E6.75199
G1 X98.975 Y94.969 E6.91542
G1 X99.345 Y94.598 E7.07250
G1 X100.224 Y93.936 E7.40217
G1 X100.572 Y93.748 E7.52065
G1 X101.285 Y93.450 E7.75229
G1 X102.185 Y93.182 E8.03357
G1 X102.508 Y93.127 E8.13176
G1 X103.910 Y93.001 E8.55370
G1 X105.016 Y93.063 E8.88547
G1 X105.947 Y93.214 E9.16814
G1 X106.317 Y93.296 E9.28160
G1 X106.932 Y93.480 E9.47386
G1 X107.414 Y93.653 E9.62752
G1 X107.948 Y93.893 E9.80269
G1 X108.412 Y94.136 E9.95987
G1 X108.658 Y94.288 E10.04644
G1 X109.384 Y94.823 E10.31675
G1 X109.723 Y95.201 E10.46872
G1 X109.752 Y95.536 E10.56954
G1 X109.752 Y98.297 E11.39687
G1 X109.636 Y98.962 E11.59916
G1 X105.097 Y99.164 E12.96048
G1 X110.706 Y99.164 E14.64105
G92 E0
G1 X104.230 Y100.032 F7800.000
G1 X104.230 Y100.032 F7800.000
G1 X104.230 Y103.073 F7800.000
G1 X104.424 Y103.067 F7800.000
G1 X104.915 Y103.016 F7800.000
G1 X105.237 Y102.955 F7800.000
G1 X105.465 Y102.886 F7800.000
G1 X105.734 Y102.771 F7800.000
G1 X106.376 Y102.415 F7800.000
G1 X108.923 Y101.894 F7800.000
G1 X110.602 Y102.136 F7800.000
G1 X110.885 Y102.515 F7800.000
G1 X111.455 Y104.885 F7800.000
G1 X111.106 Y106.195 F7800.000
G1 X110.994 Y106.541 F7800.000
G1 X110.555 Y107.689 F7800.000
G1 X110.483 Y107.721 F7800.000
G1 X110.016 Y107.899 F7800.000
G1 X108.826 Y108.273 F7800.000
G1 X108.488 Y108.359 F7800.000
G1 X107.234 Y108.605 F7800.000
G1 X107.011 Y108.638 F7800.000
G1 X105.608 Y108.782 F7800.000
G1 X105.456 Y108.792 F7800.000
G1 X103.867 Y108.839 F7800.000
G1 X103.706 Y108.837 F7800.000
G1 X101.466 Y108.724 F7800.000
G1 X101.188 Y108.693 F7800.000
G1 X99.199 Y108.343 F7800.000
G1 X98.744 Y108.228 F7800.000
G1 X96.858 Y107.600 F7800.000
G1 X96.132 Y107.294 F7800.000
G1 X94.664 Y106.542 F7800.000
G1 X93.558 Y107.648 F7800.000
G1 X91.366 Y107.648 F7800.000
G1 X90.330 Y107.648 F7800.000
G1 X90.330 Y92.352 E4.58339 F600.000
G92 E0
G1 Z0.900 F7800.000
G1 X109.491 Y104.003 F7800.000
G1 X108.621 Y105.143 E0.42993 F600.000
G1 X108.239 Y105.556 E0.59838
G1 X108.007 Y105.755 E0.68994
G1 X107.466 Y106.138 E0.88841
G1 X107.110 Y106.326 E1.00906
G1 X106.500 Y106.582 E1.20743
G1 X105.952 Y106.740 E1.37825
G1 X105.279 Y106.879 E1.58433
G1 X104.999 Y106.916 E1.66888
G1 X103.825 Y106.991 E2.02148
G1 X103.662 Y106.982 E2.07023
G1 X102.035 Y106.811 E2.56037
G1 X101.811 Y106.772 E2.62851
G1 X100.453 Y106.264 E3.06302
G1 X100.197 Y106.143 E3.14797
G1 X99.099 Y105.289 E3.56479
G1 X98.905 Y105.114 E3.64303
G1 X98.075 Y103.897 E4.08442
G1 X98.007 Y103.789 E4.12264
G1 X97.956 Y103.651 E4.16694
G1 X97.454 Y102.126 E4.64788
G1 X97.264 Y100.156 E5.24100
G1 X97.262 Y99.968 E5.29713
G1 X97.364 Y98.670 E5.68750
G1 X97.488 Y97.956 E5.90468
G1 X97.630 Y97.430 E6.06774
G1 X98.036 Y96.325 E6.42055
G1 X98.634 Y95.395 E6.75199
G1 X98.975 Y94.969 E6.91542
G1 X99.345 Y94.598 E7.07250
G1 X100.224 Y93.936 E7.40217
G1 X100.572 Y93.748 E7.52065
G1 X101.285 Y93.450 E7.75229
G1 X102.185 Y93.182 E8.03357
G1 X102.508 Y93.127 E8.13176
G1 X103.910 Y93.001 E8.55370
G1 X105.016 Y93.063 E8.88547
G1 X105.947 Y93.214 E9.16814
G1 X106.317 Y93.296 E9.28160
G1 X106.932 Y93.480 E9.47386
G1 X107.414 Y93.653 E9.62752
G1 X107.948 Y93.893 E9.80269
G1 X108.412 Y94.136 E9.95987
G1 X108.658 Y94.288 E10.04645
G1 X109.384 Y94.823 E10.31675
G1 X109.723 Y95.201 E10.46872
G1 X109.752 Y95.536 E10.56954
G1 X109.752 Y98.297 E11.39687
G1 X109.636 Y98.962 E11.59917
G1 X105.097 Y99.164 E12.96049
G1 X110.706 Y99.164 E14.64105
G92 E0
G1 X104.230 Y100.032 F7800.000
G1 X104.230 Y100.032 F7800.000
G1 X104.230 Y103.073 F7800.000
G1 X104.424 Y103.067 F7800.000
G1 X104.915 Y103.016 F7800.000
G1 X105.237 Y102.955 F7800.000
G1 X105.465 Y102.886 F7800.000
G1 X105.734 Y102.771 F7800.000
G1 X106.376 Y102.415 F7800.000
G1 X108.923 Y101.894 F7800.000
G1 X110.602 Y102.136 F7800.000
G1 X110.885 Y102.515 F7800.000
G1 X111.455 Y104.885 F7800.000
G1 X111.106 Y106.195 F7800.000
G1 X110.994 Y106.541 F7800.000
G1 X110.555 Y107.689 F7800.000
G1 X110.483 Y107.721 F7800.000
G1 X110.016 Y107.899 F7800.000
G1 X108.826 Y108.273 F7800.000
G1 X108.488 Y108.359 F7800.000
G1 X107.234 Y108.605 F7800.000
G1 X107.011 Y108.638 F7800.000
G1 X105.608 Y108.782 F7800.000
G1 X105.456 Y108.792 F7800.000
G1 X103.867 Y108.839 F7800.000
G1 X103.706 Y108.837 F7800.000
G1 X101.466 Y108.724 F7800.000
G1 X101.188 Y108.693 F7800.000
G1 X99.199 Y108.343 F7800.000
G1 X98.744 Y108.228 F7800.000
G1 X96.858 Y107.600 F7800.000
G1 X96.132 Y107.294 F7800.000
G1 X94.664 Y106.542 F7800.000
G1 X93.558 Y107.648 F7800.000
G1 X91.366 Y107.648 F7800.000
G1 X90.330 Y107.648 F7800.000
G1 X90.330 Y92.352 E4.58339 F600.000
G92 E0
G1 Z1.200 F7800.000
G1 X109.491 Y104.003 F7800.000
G1 X108.621 Y105.143 E0.42993 F600.000
G1 X108.239 Y105.556 E0.59838
G1 X108.007 Y105.755 E0.68994
G1 X107.466 Y106.138 E0.88841
G1 X107.110 Y106.326 E1.00906
G1 X106.500 Y106.582 E1.20743
G1 X105.952 Y106.740 E1.37825
G1 X105.279 Y106.879 E1.58432
G1 X104.999 Y106.916 E1.66888
G1 X103.825 Y106.991 E2.02148
G1 X103.662 Y106.982 E2.07023
G1 X102.035 Y106.811 E2.56037
G1 X101.811 Y106.772 E2.62851
G1 X100.453 Y106.264 E3.06302
G1 X100.197 Y106.143 E3.14797
G1 X99.099 Y105.289 E3.56479
G1 X98.905 Y105.114 E3.64303
G1 X98.075 Y103.897 E4.08442
G1 X98.007 Y103.789 E4.12264
G1 X97.956 Y103.651 E4.16694
G1 X97.454 Y102.126 E4.64788
G1 X97.264 Y100.156 E5.24100
G1 X97.262 Y99.968 E5.29713
G1 X97.364 Y98.670 E5.68750
G1 X97.488 Y97.956 E5.90468
G1 X97.630 Y97.430 E6.06774
G1 X98.036 Y96.325 E6.42055
G1 X98.634 Y95.395 E6.75199
G1 X98.975 Y94.969 E6.91542
G1 X99.345 Y94.598 E7.07250
G1 X100.224 Y93.936 E7.40217
G1 X100.572 Y93.748 E7.52065
G1 X101.285 Y93.450 E7.75229
G1 X102.185 Y93.182 E8.03357
G1 X102.508 Y93.127 E8.13176
G1 X103.910 Y93.001 E8.55370
G1 X105.016 Y93.063 E8.88547
G1 X105.947 Y93.214 E9.16814
G1 X106.317 Y93.296 E9.28160
G1 X106.932 Y93.480 E9.47386
G1 X107.414 Y93.653 E9.62752
G1 X107.948 Y93.893 E9.80269
G1 X108.412 Y94.136 E9.95987
G1 X108.658 Y94.288 E10.04645
G1 X109.384 Y94.823 E10.31675
G1 X109.723 Y95.201 E10.46872
G1 X109.752 Y95.536 E10.56954
G1 X109.752 Y98.297 E11.39687
G1 X109.636 Y98.962 E11.59917
G1 X105.097 Y99.164 E12.96049
G1 X110.706 Y99.164 E14.64105
G92 E0
G1 X104.230 Y100.032 F7800.000
G1 X104.230 Y100.032 F7800.000
G1 X104.230 Y103.073 F7800.000
G1 X104.424 Y103.067 F7800.000
G1 X104.915 Y103.016 F7800.000
G1 X105.237 Y102.955 F7800.000
