; generated by Slic3r 1.2.9 on 2016-03-11 at 01:25:42

; external perimeters extrusion width = 1.54mm
; perimeters extrusion width = 2.62mm
; infill extrusion width = 6.27mm
; solid infill extrusion width = 2.62mm
; top infill extrusion width = 2.62mm

M107
M104 S30 ; set temperature
G28 ; home all axes
G1 Z5 F5000 ; lift nozzle
M302
M92 E10000
M500
M501
G1 E100
M109 S30 ; wait for temperature to be reached
G21 ; set units to millimeters
G90 ; use absolute coordinates
M82 ; use absolute distances for extrusion
G92 E0
G1 Z0.300 F7800.000
G1 X105.801 Y101.764 F7800.000
G1 X105.801 Y96.973 E0.21678 F600.000
G1 X105.726 Y96.025 E0.25982
G1 X105.494 Y95.217 E0.29785
G1 X105.097 Y94.566 E0.33237
G1 X104.555 Y94.089 E0.36501
G1 X103.897 Y93.804 E0.39747
G1 X103.136 Y93.710 E0.43219
G1 X102.426 Y93.796 E0.46451
G1 X101.795 Y94.055 E0.49541
G1 X101.250 Y94.484 E0.52678
G1 X100.815 Y95.060 E0.55944
G1 X100.502 Y95.757 E0.59405
G1 X100.360 Y96.352 E0.62169
G1 X98.809 Y96.095 E0.69282
G1 X99.531 Y94.173 E0.78569
G1 X100.983 Y92.911 E0.87276
G1 X103.135 Y92.483 E0.97201
G1 X104.303 Y92.611 E1.02519
G1 X104.371 Y92.618 E1.02830 F600.000
G1 X105.414 Y93.020 E1.07889
G1 X106.266 Y93.686 E1.12779
G1 X106.899 Y94.587 E1.17763
G1 X107.282 Y95.697 E1.23078
G1 X107.412 Y97.036 E1.29164
G1 X107.412 Y107.519 E1.76599
G1 X102.849 Y107.519 E1.97246
G1 X102.849 Y106.277 E2.02866
G1 X105.801 Y106.277 E2.16224
G1 X105.801 Y101.995 E2.35600
G1 X106.027 Y106.149 F7800.000
G1 X107.159 Y107.281 E2.42983 F600.000
G1 X107.187 Y106.752 E2.45424
G1 X106.027 Y105.593 E2.52987
G1 X106.027 Y105.037 E2.55553
G1 X107.187 Y106.196 E2.63116
G1 X107.187 Y105.640 E2.65681
G1 X106.027 Y104.481 E2.73244
G1 X106.027 Y103.925 E2.75809
G1 X107.187 Y105.084 E2.83372
G1 X107.187 Y104.528 E2.85938
G1 X106.027 Y103.369 E2.93501
G1 X106.027 Y102.813 E2.96066
G1 X107.187 Y103.972 E3.03629
G1 X107.187 Y103.416 E3.06194
G1 X106.027 Y102.257 E3.13757
G1 X106.027 Y101.701 E3.16323
G1 X107.187 Y102.860 E3.23886
G1 X107.187 Y102.304 E3.26451
G1 X106.027 Y101.145 E3.34014
G1 X106.027 Y100.589 E3.36579
G1 X107.187 Y101.748 E3.44142
G1 X107.187 Y101.192 E3.46708
G1 X106.027 Y100.033 E3.54271
G1 X106.027 Y99.476 E3.56836
G1 X107.187 Y100.636 E3.64399
G1 X107.187 Y100.080 E3.66964
G1 X106.027 Y98.920 E3.74527
G1 X106.027 Y98.364 E3.77093
G1 X107.187 Y99.523 E3.84656
G1 X107.187 Y98.967 E3.87221
G1 X106.027 Y97.808 E3.94784
G1 X106.027 Y97.252 E3.97349
G1 X107.187 Y98.411 E4.04912
G1 X107.187 Y97.855 E4.07478
G1 X106.012 Y96.680 E4.15143
G1 X105.964 Y96.076 E4.17939
G1 X107.187 Y97.299 E4.25917
G1 X107.144 Y96.701 E4.28683
G1 X105.794 Y95.351 E4.37494
G1 X106.189 Y94.078 F7800.000
G1 X105.827 Y93.715 E4.39859 F600.000
G1 X104.504 Y92.949 F7800.000
G1 X106.882 Y95.327 E4.55375 F600.000
G1 X107.084 Y96.085 E4.58997
G1 X103.791 Y92.791 E4.80487
G1 X103.167 Y92.724 E4.83383
G1 X104.024 Y93.581 E4.88977
G1 X103.391 Y93.503 E4.91923
G1 X102.677 Y92.790 E4.96577
G1 X102.214 Y92.882 E4.98759
G1 X102.857 Y93.526 E5.02956
G1 X102.375 Y93.600 E5.05206
G1 X101.750 Y92.975 E5.09285
G1 X101.286 Y93.067 E5.11466
G1 X101.980 Y93.761 E5.15998
G1 X101.614 Y93.951 E5.17900
G1 X100.901 Y93.238 E5.22556
G1 X100.603 Y93.496 E5.24375
G1 X101.304 Y94.197 E5.28945
G1 X101.020 Y94.469 E5.30759
G1 X100.306 Y93.755 E5.35419
G1 X100.008 Y94.013 E5.37237
G1 X100.780 Y94.785 E5.42275
G1 X100.566 Y95.127 E5.44135
G1 X99.725 Y94.286 E5.49622
G1 X99.558 Y94.676 E5.51576
G1 X100.394 Y95.511 E5.57025
G1 X100.248 Y95.921 E5.59034
G1 X99.407 Y95.080 E5.64521
G1 X99.255 Y95.484 E5.66514
G1 X99.783 Y96.012 E5.69961
G92 E0
G1 X106.576 Y96.942 F7800.000
G1 X106.601 Y96.942 F7800.000
G1 X106.607 Y106.713 F7800.000
G1 X106.576 Y106.744 F7800.000
G1 X103.279 Y107.293 F7800.000
G1 X103.075 Y107.089 E0.01328 F600.000
G1 X103.075 Y106.533 E0.03894
G1 X103.835 Y107.293 E0.08850
G1 X104.391 Y107.293 E0.11416
G1 X103.601 Y106.503 E0.16571
G1 X104.157 Y106.503 E0.19136
G1 X104.947 Y107.293 E0.24292
G1 X105.503 Y107.293 E0.26857
G1 X104.713 Y106.503 E0.32012
G1 X105.269 Y106.503 E0.34578
G1 X106.059 Y107.293 E0.39733
G1 X106.615 Y107.293 E0.42298
G1 X105.825 Y106.503 E0.47454
G92 E0
G1 X102.624 Y106.052 F7800.000
G1 X98.932 Y106.052 F7800.000
G1 X96.435 Y107.744 F7800.000
G1 X94.435 Y107.744 F7800.000
G1 X92.587 Y99.747 F7800.000
G1 X92.587 Y92.673 E0.32009 F600.000
G1 X94.209 Y92.673 E0.39349
G1 X94.209 Y107.519 E1.06526
G1 X92.587 Y107.519 E1.13865 F600.000
G1 X92.587 Y99.978 E1.47988
G1 X93.984 Y93.103 F7800.000
G1 X93.780 Y92.899 E1.49329 F600.000
G1 X93.219 Y92.899 E1.51944
G1 X93.984 Y93.664 E1.56983
G1 X93.984 Y94.225 E1.59598
G1 X92.813 Y93.055 E1.67305
G1 X92.813 Y93.617 E1.69920
G1 X93.984 Y94.787 E1.77628
G1 X93.984 Y95.348 E1.80242
G1 X92.813 Y94.178 E1.87950
G1 X92.813 Y94.739 E1.90565
G1 X93.984 Y95.909 E1.98272
G1 X93.984 Y96.471 E2.00887
G1 X92.813 Y95.301 E2.08595
G1 X92.813 Y95.862 E2.11210
G1 X93.984 Y97.032 E2.18917
G1 X93.984 Y97.594 E2.21532
G1 X92.813 Y96.423 E2.29240
G1 X92.813 Y96.985 E2.31854
G1 X93.984 Y98.155 E2.39562
G1 X93.984 Y98.716 E2.42177
G1 X92.813 Y97.546 E2.49884
G1 X92.813 Y98.108 E2.52499
G1 X93.984 Y99.278 E2.60207
G1 X93.984 Y99.839 E2.62822
G1 X92.813 Y98.669 E2.70529
G1 X92.813 Y99.230 E2.73144
G1 X93.984 Y100.400 E2.80852
G1 X93.984 Y100.962 E2.83467
G1 X92.813 Y99.792 E2.91174
G1 X92.813 Y100.353 E2.93789
G1 X93.984 Y101.523 E3.01497
G1 X93.984 Y102.084 E3.04111
G1 X92.813 Y100.914 E3.11819
G1 X92.813 Y101.476 E3.14434
G1 X93.984 Y102.646 E3.22141
G1 X93.984 Y103.207 E3.24756
G1 X92.813 Y102.037 E3.32464
G1 X92.813 Y102.598 E3.35079
G1 X93.984 Y103.769 E3.42786
G1 X93.984 Y104.330 E3.45401
G1 X92.813 Y103.160 E3.53109
G1 X92.813 Y103.721 E3.55724
G1 X93.984 Y104.891 E3.63431
G1 X93.984 Y105.453 E3.66046
G1 X92.813 Y104.283 E3.73754
G1 X92.813 Y104.844 E3.76368
G1 X93.984 Y106.014 E3.84076
G1 X93.984 Y106.575 E3.86691
G1 X92.813 Y105.405 E3.94398
G1 X92.813 Y105.967 E3.97013
G1 X93.984 Y107.137 E4.04721
G1 X93.578 Y107.293 E4.06743
G1 X92.813 Y106.528 E4.11782
G1 X92.813 Y107.089 E4.14397
G1 X93.017 Y107.293 E4.15738
M106 S255
G92 E0
G1 Z0.600 F7800.000
G1 X99.433 Y96.426 F7800.000
G1 X100.182 Y94.626 E0.58426 F600.000
G1 X100.850 Y93.931 E0.87319
G1 X101.300 Y93.558 E1.04831
G1 X101.580 Y93.448 E1.13848
G1 X102.388 Y93.220 E1.38993
G1 X103.162 Y93.101 E1.62451
G1 X103.940 Y93.189 E1.85917
G1 X104.219 Y93.245 E1.94449
G1 X104.783 Y93.476 E2.12695
G1 X105.071 Y93.625 E2.22430
G1 X105.538 Y94.013 E2.40606
G1 X105.729 Y94.195 E2.48521
G1 X106.124 Y94.799 E2.70122
G1 X106.208 Y94.940 E2.75058
G1 X106.478 Y95.785 E3.01628
G1 X106.516 Y95.985 E3.07740
G1 X106.607 Y97.075 E3.40516
G1 X106.607 Y106.052 E6.09506
G1 X106.525 Y106.632 E6.27054
G1 X105.576 Y106.898 E6.56585
G1 X102.624 Y106.898 E7.45040
G92 E0
G1 X98.932 Y106.052 F7800.000
G1 X96.435 Y107.744 F7800.000
G1 X94.435 Y107.744 F7800.000
G1 X93.398 Y107.744 F7800.000
G1 X93.398 Y92.448 E4.58339 F600.000
G92 E0
G1 Z0.900 F7800.000
G1 X99.433 Y96.426 F7800.000
G1 X100.182 Y94.626 E0.58426 F600.000
G1 X100.850 Y93.931 E0.87319
G1 X101.300 Y93.558 E1.04831
G1 X101.580 Y93.448 E1.13848
G1 X102.388 Y93.220 E1.38993
G1 X103.162 Y93.101 E1.62451
G1 X103.940 Y93.189 E1.85917
G1 X104.219 Y93.245 E1.94449
G1 X104.783 Y93.476 E2.12695
G1 X105.071 Y93.625 E2.22430
G1 X105.538 Y94.013 E2.40606
G1 X105.729 Y94.195 E2.48521
G1 X106.124 Y94.799 E2.70122
G1 X106.208 Y94.940 E2.75058
G1 X106.478 Y95.785 E3.01628
G1 X106.516 Y95.985 E3.07740
G1 X106.607 Y97.075 E3.40516
G1 X106.607 Y106.052 E6.09506
G1 X106.525 Y106.632 E6.27054
G1 X105.576 Y106.898 E6.56584
G1 X102.624 Y106.898 E7.45040
G92 E0
G1 X98.932 Y106.052 F7800.000
G1 X96.435 Y107.744 F7800.000
G1 X94.435 Y107.744 F7800.000
G1 X93.398 Y107.744 F7800.000
G1 X93.398 Y92.448 E4.58339 F600.000
G92 E0
G1 Z1.200 F7800.000
G1 X99.433 Y96.426 F7800.000
G1 X100.182 Y94.626 E0.58426 F600.000
G1 X100.850 Y93.931 E0.87319
G1 X101.300 Y93.558 E1.04831
G1 X101.580 Y93.448 E1.13848
G1 X102.388 Y93.220 E1.38993
G1 X103.162 Y93.101 E1.62451
G1 X103.940 Y93.189 E1.85917
G1 X104.219 Y93.245 E1.94449
G1 X104.783 Y93.476 E2.12695
G1 X105.071 Y93.625 E2.22430
G1 X105.538 Y94.013 E2.40606
G1 X105.729 Y94.195 E2.48521
G1 X106.124 Y94.799 E2.70122
G1 X106.208 Y94.940 E2.75058
G1 X106.478 Y95.785 E3.01628
G1 X106.516 Y95.985 E3.07740
G1 X106.607 Y97.075 E3.40516
G1 X106.607 Y106.052 E6.09506
G1 X106.525 Y106.632 E6.27054
G1 X105.576 Y106.898 E6.56585
G1 X102.624 Y106.898 E7.45040
G92 E0
G1 X98.932 Y106.052 F7800.000
G1 X96.435 Y107.744 F7800.000
G1 X94.435 Y107.744 F7800.000
G1 X93.398 Y107.744 F7800.000
G1 X93.398 Y92.448 E4.58339 F600.000
G92 E0
G1 Z1.500 F7800.000
G1 X99.433 Y96.426 F7800.000
G1 X100.182 Y94.626 E0.58426 F600.000
G1 X100.850 Y93.931 E0.87319
G1 X101.300 Y93.558 E1.04831
G1 X101.580 Y93.448 E1.13848
G1 X102.388 Y93.220 E1.38993
G1 X103.162 Y93.101 E1.62451
G1 X103.940 Y93.189 E1.85917
G1 X104.219 Y93.245 E1.94450
G1 X104.783 Y93.476 E2.12695
G1 X105.071 Y93.625 E2.22430
G1 X105.538 Y94.013 E2.40606
G1 X105.729 Y94.195 E2.48521
G1 X106.124 Y94.799 E2.70122
G1 X106.208 Y94.940 E2.75058
G1 X106.478 Y95.785 E3.01628
G1 X106.516 Y95.985 E3.07740
G1 X106.607 Y97.075 E3.40516
G1 X106.607 Y106.052 E6.09506
G1 X106.525 Y106.632 E6.27054
G1 X105.576 Y106.898 E6.56585
G1 X102.624 Y106.898 E7.45040
G92 E0
G1 X98.932 Y106.052 F7800.000
G1 X96.435 Y107.744 F7800.000
G1 X94.435 Y107.744 F7800.000
G1 X93.398 Y107.744 F7800.000
G1 X93.398 Y92.448 E4.58339 F600.000
G92 E0
G1 Z1.800 F7800.000
G1 X99.433 Y96.426 F7800.000
G1 X100.182 Y94.626 E0.58426 F600.000
G1 X100.850 Y93.931 E0.87319
G1 X101.300 Y93.558 E1.04831
G1 X101.580 Y93.448 E1.13848
G1 X102.388 Y93.220 E1.38993
G1 X103.162 Y93.101 E1.62451
G1 X103.940 Y93.189 E1.85917
G1 X104.219 Y93.245 E1.94449
G1 X104.783 Y93.476 E2.12695
G1 X105.071 Y93.625 E2.22430
G1 X105.538 Y94.013 E2.40606
G1 X105.729 Y94.195 E2.48521
G1 X106.124 Y94.799 E2.70122
G1 X106.208 Y94.940 E2.75058
G1 X106.478 Y95.785 E3.01628
G1 X106.516 Y95.985 E3.07740
G1 X106.607 Y97.075 E3.40516
G1 X106.607 Y106.052 E6.09506
G1 X106.525 Y106.632 E6.27054
G1 X105.576 Y106.898 E6.56585
G1 X102.624 Y106.898 E7.45040
G92 E0
G1 X98.932 Y106.052 F7800.000
G1 X96.435 Y107.744 F7800.000
G1 X94.435 Y107.744 F7800.000
G1 X93.398 Y107.744 F7800.000
G1 X93.398 Y92.448 E4.58339 F600.000
G92 E0
G1 Z2.100 F7800.000
G1 X99.433 Y96.426 F7800.000
G1 X100.182 Y94.626 E0.58426 F600.000
G1 X100.850 Y93.931 E0.87319
G1 X101.299 Y93.559 E1.04769
G1 X101.581 Y93.449 E1.13845
G1 X102.388 Y93.223 E1.38973
G1 X103.192 Y93.104 E1.63331
G1 X103.940 Y93.189 E1.85876
G1 X104.219 Y93.245 E1.94409
G1 X104.783 Y93.476 E2.12654
G1 X105.071 Y93.625 E2.22389
G1 X105.538 Y94.013 E2.40565
G1 X105.729 Y94.195 E2.48481
G1 X106.124 Y94.799 E2.70081
G1 X106.208 Y94.940 E2.75017
G1 X106.478 Y95.785 E3.01588
G1 X106.516 Y95.985 E3.07699
G1 X106.607 Y97.075 E3.40476
G1 X106.607 Y106.052 E6.09465
G1 X106.525 Y106.632 E6.27013
G1 X105.576 Y106.898 E6.56544
G1 X102.624 Y106.898 E7.44999
G92 E0
G1 X98.932 Y106.052 F7800.000
G1 X96.435 Y107.744 F7800.000
G1 X94.435 Y107.744 F7800.000
G1 X93.398 Y107.744 F7800.000
G1 X93.398 Y92.448 E4.58339 F600.000
G92 E0
M107
M104 S0 ; turn off temperature
G28 X0  ; home X axis
M84     ; disable motors

; filament used = 82.5mm (0.6cm3)

; avoid_crossing_perimeters = 1
; bed_shape = 0x0,250x0,250x250,0x250
; bed_temperature = 0
; before_layer_gcode = 
; bridge_acceleration = 0
; bridge_fan_speed = 100
; brim_width = 0
; complete_objects = 0
; cooling = 1
; default_acceleration = 0
; disable_fan_first_layers = 1
; duplicate_distance = 6
; end_gcode = M104 S0 ; turn off temperature\nG28 X0  ; home X axis\nM84     ; disable motors\n
; extruder_clearance_height = 20
; extruder_clearance_radius = 20
; extruder_offset = 0x0
; extrusion_axis = E
; extrusion_multiplier = 3
; fan_always_on = 0
; fan_below_layer_time = 60
; filament_colour = #FFFFFF
; filament_diameter = 3.125
; first_layer_acceleration = 0
; first_layer_bed_temperature = 0
; first_layer_extrusion_width = 150%
; first_layer_speed = 90%
; first_layer_temperature = 30
; gcode_arcs = 0
; gcode_comments = 0
; gcode_flavor = reprap
; infill_acceleration = 0
; infill_first = 0
; layer_gcode = 
; max_fan_speed = 100
; max_print_speed = 80
; max_volumetric_speed = 0
; min_fan_speed = 35
; min_print_speed = 10
; min_skirt_length = 0
; notes = 
; nozzle_diameter = 1.54
; only_retract_when_crossing_perimeters = 1
; ooze_prevention = 0
; output_filename_format = [input_filename_base].gcode
; perimeter_acceleration = 0
; post_process = 
; pressure_advance = 0
; resolution = 0
; retract_before_travel = 2
; retract_layer_change = 1
; retract_length = 0
; retract_length_toolchange = 10
; retract_lift = 0
; retract_restart_extra = 0
; retract_restart_extra_toolchange = 0
; retract_speed = 0
; skirt_distance = 6
; skirt_height = 1
; skirts = 0
; slowdown_below_layer_time = 30
; spiral_vase = 0
; standby_temperature_delta = -5
; start_gcode = G28 ; home all axes\nG1 Z5 F5000 ; lift nozzle\nM302\nM92 E10000\nM500\nM501\nG1 E100
; temperature = 30
; threads = 2
; toolchange_gcode = 
; travel_speed = 130
; use_firmware_retraction = 0
; use_relative_e_distances = 0
; use_volumetric_e = 0
; vibration_limit = 0
; wipe = 0
; z_offset = 0
; dont_support_bridges = 1
; extrusion_width = 0
; first_layer_height = 100%
; infill_only_where_needed = 0
; interface_shells = 0
; layer_height = 0.3
; raft_layers = 0
; seam_position = random
; support_material = 0
; support_material_angle = 0
; support_material_contact_distance = 0.2
; support_material_enforce_layers = 0
; support_material_extruder = 1
; support_material_extrusion_width = 0
; support_material_interface_extruder = 1
; support_material_interface_layers = 3
; support_material_interface_spacing = 0
; support_material_interface_speed = 100%
; support_material_pattern = pillars
; support_material_spacing = 2.5
; support_material_speed = 7
; support_material_threshold = 0
; xy_size_compensation = 0
; bottom_solid_layers = 3
; bridge_flow_ratio = 1
; bridge_speed = 10
; external_fill_pattern = rectilinear
; external_perimeter_extrusion_width = 0
; external_perimeter_speed = 70%
; external_perimeters_first = 1
; extra_perimeters = 1
; fill_angle = 45
; fill_density = 60%
; fill_pattern = rectilinear
; gap_fill_speed = 10
; infill_every_layers = 1
; infill_extruder = 1
; infill_extrusion_width = 0
; infill_overlap = 15%
; infill_speed = 10
; overhangs = 1
; perimeter_extruder = 1
; perimeter_extrusion_width = 0
; perimeter_speed = 10
; perimeters = 1
; small_perimeter_speed = 70%
; solid_infill_below_area = 70
; solid_infill_every_layers = 0
; solid_infill_extruder = 1
; solid_infill_extrusion_width = 0
; solid_infill_speed = 10
; thin_walls = 1
; top_infill_extrusion_width = 0
; top_solid_infill_speed = 10
; top_solid_layers = 3
