; generated by Slic3r 1.2.9 on 2016-03-11 at 01:25:43

; external perimeters extrusion width = 1.54mm
; perimeters extrusion width = 2.62mm
; infill extrusion width = 6.27mm
; solid infill extrusion width = 2.62mm
; top infill extrusion width = 2.62mm

M107
M104 S30 ; set temperature
G28 ; home all axes
G1 Z5 F5000 ; lift nozzle
M302
M92 E10000
M500
M501
G1 E100
M109 S30 ; wait for temperature to be reached
G21 ; set units to millimeters
G90 ; use absolute coordinates
M82 ; use absolute distances for extrusion
G92 E0
G1 Z0.300 F7800.000
G1 X99.135 Y94.887 F7800.000
G1 X99.135 Y92.577 E0.10452 F600.000
G1 X108.478 Y92.577 E0.52728
G1 X108.478 Y93.819 E0.58348
G1 X100.756 Y93.819 E0.93290 F600.000
G1 X100.756 Y107.423 E1.54847
G1 X99.135 Y107.423 E1.62182
G1 X99.135 Y95.118 E2.17862
G1 X99.910 Y93.352 F7800.000
G1 X99.910 Y93.352 F7800.000
G1 X99.946 Y93.387 F7800.000
G1 X99.982 Y93.352 F7800.000
G1 X108.253 Y93.007 F7800.000
G1 X108.049 Y92.803 E2.19195 F600.000
G1 X107.491 Y92.803 E2.21778
G1 X108.253 Y93.565 E2.26765
G1 X107.723 Y93.593 E2.29220
G1 X106.933 Y92.803 E2.34393
G1 X106.375 Y92.803 E2.36977
G1 X107.165 Y93.593 E2.42150
G1 X106.607 Y93.593 E2.44734
G1 X105.817 Y92.803 E2.49907
G1 X105.259 Y92.803 E2.52490
G1 X106.049 Y93.593 E2.57663
G1 X105.491 Y93.593 E2.60247
G1 X104.701 Y92.803 E2.65420
G1 X104.143 Y92.803 E2.68004
G1 X104.933 Y93.593 E2.73177
G1 X104.375 Y93.593 E2.75760
G1 X103.585 Y92.803 E2.80933
G1 X103.027 Y92.803 E2.83517
G1 X103.817 Y93.593 E2.88690
G1 X103.259 Y93.593 E2.91274
G1 X102.469 Y92.803 E2.96447
G1 X101.911 Y92.803 E2.99030
G1 X102.701 Y93.593 E3.04203
G1 X102.143 Y93.593 E3.06787
G1 X101.353 Y92.803 E3.11960
G1 X100.795 Y92.803 E3.14544
G1 X101.585 Y93.593 E3.19717
G1 X101.027 Y93.593 E3.22300
G1 X100.237 Y92.803 E3.27473
G1 X99.679 Y92.803 E3.30057
G1 X100.531 Y93.655 E3.35633
G1 X100.531 Y94.213 E3.38216
G1 X99.361 Y93.043 E3.45871
G1 X99.361 Y93.601 E3.48455
G1 X100.531 Y94.771 E3.56110
G1 X100.531 Y95.329 E3.58693
G1 X99.361 Y94.159 E3.66348
G1 X99.361 Y94.717 E3.68931
G1 X100.531 Y95.887 E3.76586
G1 X100.531 Y96.445 E3.79170
G1 X99.361 Y95.275 E3.86824
G1 X99.361 Y95.833 E3.89408
G1 X100.531 Y97.003 E3.97063
G1 X100.531 Y97.561 E3.99646
G1 X99.361 Y96.391 E4.07301
G1 X99.361 Y96.949 E4.09885
G1 X100.531 Y98.119 E4.17539
G1 X100.531 Y98.677 E4.20123
G1 X99.361 Y97.507 E4.27778
G1 X99.361 Y98.065 E4.30361
G1 X100.531 Y99.235 E4.38016
G1 X100.531 Y99.793 E4.40599
G1 X99.361 Y98.623 E4.48254
G1 X99.361 Y99.181 E4.50838
G1 X100.531 Y100.351 E4.58493
G1 X100.531 Y100.909 E4.61076
G1 X99.361 Y99.739 E4.68731
G1 X99.361 Y100.297 E4.71314
G1 X100.531 Y101.467 E4.78969
G1 X100.531 Y102.025 E4.81553
G1 X99.361 Y100.855 E4.89207
G1 X99.361 Y101.413 E4.91791
G1 X100.531 Y102.583 E4.99446
G1 X100.531 Y103.141 E5.02029
G1 X99.361 Y101.971 E5.09684
G1 X99.361 Y102.529 E5.12268
G1 X100.531 Y103.699 E5.19922
G1 X100.531 Y104.257 E5.22506
G1 X99.361 Y103.087 E5.30161
G1 X99.361 Y103.645 E5.32744
G1 X100.531 Y104.815 E5.40399
G1 X100.531 Y105.373 E5.42982
G1 X99.361 Y104.203 E5.50637
G1 X99.361 Y104.761 E5.53221
G1 X100.531 Y105.931 E5.60876
G1 X100.531 Y106.489 E5.63459
G1 X99.361 Y105.319 E5.71114
G1 X99.361 Y105.877 E5.73697
G1 X100.531 Y107.047 E5.81352
G1 X100.123 Y107.197 E5.83364
G1 X99.361 Y106.435 E5.88350
G1 X99.361 Y106.993 E5.90934
G1 X99.565 Y107.197 E5.92267
G92 E0
G1 X98.910 Y107.648 F7800.000
G1 X96.910 Y107.648 F7800.000
G1 X95.369 Y107.648 F7800.000
G1 X93.369 Y107.648 F7800.000
G1 X93.143 Y100.811 F7800.000
G1 X93.143 Y107.423 E0.29920 F600.000
G1 X91.521 Y107.423 E0.37259 F600.000
G1 X91.521 Y92.577 E1.04436
G1 X93.143 Y92.577 E1.11776
G1 X93.143 Y100.580 E1.47988
G1 X91.951 Y107.197 F7800.000
G1 X91.747 Y106.993 E1.49329 F600.000
G1 X91.747 Y106.432 E1.51944
G1 X92.512 Y107.197 E1.56982
G1 X92.918 Y107.041 E1.59005
G1 X91.747 Y105.871 E1.66713
G1 X91.747 Y105.309 E1.69327
G1 X92.918 Y106.479 E1.77035
G1 X92.918 Y105.918 E1.79650
G1 X91.747 Y104.748 E1.87357
G1 X91.747 Y104.187 E1.89972
G1 X92.918 Y105.357 E1.97680
G1 X92.918 Y104.795 E2.00295
G1 X91.747 Y103.625 E2.08002
G1 X91.747 Y103.064 E2.10617
G1 X92.918 Y104.234 E2.18325
G1 X92.918 Y103.673 E2.20940
G1 X91.747 Y102.502 E2.28647
G1 X91.747 Y101.941 E2.31262
G1 X92.918 Y103.111 E2.38970
G1 X92.918 Y102.550 E2.41584
G1 X91.747 Y101.380 E2.49292
G1 X91.747 Y100.818 E2.51907
G1 X92.918 Y101.988 E2.59614
G1 X92.918 Y101.427 E2.62229
G1 X91.747 Y100.257 E2.69937
G1 X91.747 Y99.696 E2.72552
G1 X92.918 Y100.866 E2.80259
G1 X92.918 Y100.304 E2.82874
G1 X91.747 Y99.134 E2.90582
G1 X91.747 Y98.573 E2.93197
G1 X92.918 Y99.743 E3.00904
G1 X92.918 Y99.182 E3.03519
G1 X91.747 Y98.012 E3.11227
G1 X91.747 Y97.450 E3.13841
G1 X92.918 Y98.620 E3.21549
G1 X92.918 Y98.059 E3.24164
G1 X91.747 Y96.889 E3.31871
G1 X91.747 Y96.327 E3.34486
G1 X92.918 Y97.498 E3.42194
G1 X92.918 Y96.936 E3.44809
G1 X91.747 Y95.766 E3.52516
G1 X91.747 Y95.205 E3.55131
G1 X92.918 Y96.375 E3.62839
G1 X92.918 Y95.813 E3.65454
G1 X91.747 Y94.643 E3.73161
G1 X91.747 Y94.082 E3.75776
G1 X92.918 Y95.252 E3.83484
G1 X92.918 Y94.691 E3.86098
G1 X91.747 Y93.521 E3.93806
G1 X91.747 Y92.959 E3.96421
G1 X92.918 Y94.129 E4.04128
G1 X92.918 Y93.568 E4.06743
G1 X92.153 Y92.803 E4.11782
G1 X92.714 Y92.803 E4.14397
G1 X92.918 Y93.007 E4.15738
M106 S255
G92 E0
G1 Z0.600 F7800.000
G1 X99.946 Y107.648 F7800.000
G1 X99.946 Y94.044 E4.07639 F600.000
G1 X100.026 Y93.468 E4.25074
G1 X100.981 Y93.198 E4.54819
G1 X108.703 Y93.198 E6.86205
G92 E0
G1 X100.982 Y94.044 F7800.000
G1 X100.982 Y94.044 F7800.000
G1 X105.843 Y98.905 F7800.000
G1 X105.843 Y104.787 F7800.000
G1 X102.982 Y107.648 F7800.000
G1 X100.982 Y108.648 F7800.000
G1 X98.910 Y108.648 F7800.000
G1 X96.910 Y107.648 F7800.000
G1 X96.139 Y106.877 F7800.000
G1 X95.369 Y107.648 F7800.000
G1 X93.369 Y107.648 F7800.000
G1 X92.332 Y107.648 F7800.000
G1 X92.332 Y92.352 E4.58339 F600.000
G92 E0
G1 Z0.900 F7800.000
G1 X99.946 Y107.648 F7800.000
G1 X99.946 Y94.044 E4.07639 F600.000
G1 X100.026 Y93.468 E4.25074
G1 X100.981 Y93.198 E4.54819
G1 X108.703 Y93.198 E6.86205
G92 E0
G1 X100.982 Y94.044 F7800.000
G1 X100.982 Y94.044 F7800.000
G1 X105.843 Y98.905 F7800.000
G1 X105.843 Y104.787 F7800.000
G1 X102.982 Y107.648 F7800.000
G1 X100.982 Y108.648 F7800.000
G1 X98.910 Y108.648 F7800.000
G1 X96.910 Y107.648 F7800.000
G1 X96.139 Y106.877 F7800.000
G1 X95.369 Y107.648 F7800.000
G1 X93.369 Y107.648 F7800.000
G1 X92.332 Y107.648 F7800.000
G1 X92.332 Y92.352 E4.58339 F600.000
G92 E0
G1 Z1.200 F7800.000
G1 X99.946 Y107.648 F7800.000
G1 X99.946 Y94.044 E4.07639 F600.000
G1 X100.026 Y93.468 E4.25074
G1 X100.981 Y93.198 E4.54819
G1 X108.703 Y93.198 E6.86205
G92 E0
G1 X100.982 Y94.044 F7800.000
G1 X100.982 Y94.044 F7800.000
G1 X105.843 Y98.905 F7800.000
G1 X105.843 Y104.787 F7800.000
G1 X102.982 Y107.648 F7800.000
G1 X100.982 Y108.648 F7800.000
G1 X98.910 Y108.648 F7800.000
G1 X96.910 Y107.648 F7800.000
G1 X96.139 Y106.877 F7800.000
G1 X95.369 Y107.648 F7800.000
G1 X93.369 Y107.648 F7800.000
G1 X92.332 Y107.648 F7800.000
G1 X92.332 Y92.352 E4.58339 F600.000
G92 E0
G1 Z1.500 F7800.000
G1 X99.946 Y107.648 F7800.000
G1 X99.946 Y94.044 E4.07639 F600.000
G1 X100.026 Y93.468 E4.25074
G1 X100.981 Y93.198 E4.54819
G1 X108.703 Y93.198 E6.86205
G92 E0
G1 X100.982 Y94.044 F7800.000
G1 X100.982 Y94.044 F7800.000
G1 X105.843 Y98.905 F7800.000
G1 X105.843 Y104.787 F7800.000
G1 X102.982 Y107.648 F7800.000
G1 X100.982 Y108.648 F7800.000
G1 X98.910 Y108.648 F7800.000
G1 X96.910 Y107.648 F7800.000
G1 X96.139 Y106.877 F7800.000
G1 X95.369 Y107.648 F7800.000
G1 X93.369 Y107.648 F7800.000
G1 X92.332 Y107.648 F7800.000
G1 X92.332 Y92.352 E4.58339 F600.000
G92 E0
G1 Z1.800 F7800.000
G1 X99.946 Y107.648 F7800.000
G1 X99.946 Y94.044 E4.07639 F600.000
G1 X100.026 Y93.468 E4.25074
G1 X100.981 Y93.198 E4.54819
G1 X108.703 Y93.198 E6.86205
G92 E0
G1 X100.982 Y94.044 F7800.000
G1 X100.982 Y94.044 F7800.000
G1 X105.843 Y98.905 F7800.000
G1 X105.843 Y104.787 F7800.000
G1 X102.982 Y107.648 F7800.000
G1 X100.982 Y108.648 F7800.000
G1 X98.910 Y108.648 F7800.000
G1 X96.910 Y107.648 F7800.000
G1 X96.139 Y106.877 F7800.000
G1 X95.369 Y107.648 F7800.000
G1 X93.369 Y107.648 F7800.000
G1 X92.332 Y107.648 F7800.000
G1 X92.332 Y92.352 E4.58339 F600.000
G92 E0
G1 Z2.100 F7800.000
G1 X99.946 Y107.648 F7800.000
G1 X99.946 Y94.044 E4.07639 F600.000
G1 X100.026 Y93.468 E4.25074
G1 X100.981 Y93.198 E4.54819
G1 X108.703 Y93.198 E6.86205
G92 E0
G1 X100.982 Y94.044 F7800.000
G1 X100.982 Y94.044 F7800.000
G1 X105.843 Y98.905 F7800.000
G1 X105.843 Y104.787 F7800.000
G1 X102.982 Y107.648 F7800.000
G1 X100.982 Y108.648 F7800.000
G1 X98.910 Y108.648 F7800.000
G1 X96.910 Y107.648 F7800.000
G1 X96.139 Y106.877 F7800.000
G1 X95.369 Y107.648 F7800.000
G1 X93.369 Y107.648 F7800.000
G1 X92.332 Y107.648 F7800.000
G1 X92.332 Y92.352 E4.58339 F600.000
G92 E0
M107
M104 S0 ; turn off temperature
G28 X0  ; home X axis
M84     ; disable motors

; filament used = 78.8mm (0.6cm3)

; avoid_crossing_perimeters = 1
; bed_shape = 0x0,250x0,250x250,0x250
; bed_temperature = 0
; before_layer_gcode = 
; bridge_acceleration = 0
; bridge_fan_speed = 100
; brim_width = 0
; complete_objects = 0
; cooling = 1
; default_acceleration = 0
; disable_fan_first_layers = 1
; duplicate_distance = 6
; end_gcode = M104 S0 ; turn off temperature\nG28 X0  ; home X axis\nM84     ; disable motors\n
; extruder_clearance_height = 20
; extruder_clearance_radius = 20
; extruder_offset = 0x0
; extrusion_axis = E
; extrusion_multiplier = 3
; fan_always_on = 0
; fan_below_layer_time = 60
; filament_colour = #FFFFFF
; filament_diameter = 3.125
; first_layer_acceleration = 0
; first_layer_bed_temperature = 0
; first_layer_extrusion_width = 150%
; first_layer_speed = 90%
; first_layer_temperature = 30
; gcode_arcs = 0
; gcode_comments = 0
; gcode_flavor = reprap
; infill_acceleration = 0
; infill_first = 0
; layer_gcode = 
; max_fan_speed = 100
; max_print_speed = 80
; max_volumetric_speed = 0
; min_fan_speed = 35
; min_print_speed = 10
; min_skirt_length = 0
; notes = 
; nozzle_diameter = 1.54
; only_retract_when_crossing_perimeters = 1
; ooze_prevention = 0
; output_filename_format = [input_filename_base].gcode
; perimeter_acceleration = 0
; post_process = 
; pressure_advance = 0
; resolution = 0
; retract_before_travel = 2
; retract_layer_change = 1
; retract_length = 0
; retract_length_toolchange = 10
; retract_lift = 0
; retract_restart_extra = 0
; retract_restart_extra_toolchange = 0
; retract_speed = 0
; skirt_distance = 6
; skirt_height = 1
; skirts = 0
; slowdown_below_layer_time = 30
; spiral_vase = 0
; standby_temperature_delta = -5
; start_gcode = G28 ; home all axes\nG1 Z5 F5000 ; lift nozzle\nM302\nM92 E10000\nM500\nM501\nG1 E100
; temperature = 30
; threads = 2
; toolchange_gcode = 
; travel_speed = 130
; use_firmware_retraction = 0
; use_relative_e_distances = 0
; use_volumetric_e = 0
; vibration_limit = 0
; wipe = 0
; z_offset = 0
; dont_support_bridges = 1
; extrusion_width = 0
; first_layer_height = 100%
; infill_only_where_needed = 0
; interface_shells = 0
; layer_height = 0.3
; raft_layers = 0
; seam_position = random
; support_material = 0
; support_material_angle = 0
; support_material_contact_distance = 0.2
; support_material_enforce_layers = 0
; support_material_extruder = 1
; support_material_extrusion_width = 0
; support_material_interface_extruder = 1
; support_material_interface_layers = 3
; support_material_interface_spacing = 0
; support_material_interface_speed = 100%
; support_material_pattern = pillars
; support_material_spacing = 2.5
; support_material_speed = 7
; support_material_threshold = 0
; xy_size_compensation = 0
; bottom_solid_layers = 3
; bridge_flow_ratio = 1
; bridge_speed = 10
; external_fill_pattern = rectilinear
; external_perimeter_extrusion_width = 0
; external_perimeter_speed = 70%
; external_perimeters_first = 1
; extra_perimeters = 1
; fill_angle = 45
; fill_density = 60%
; fill_pattern = rectilinear
; gap_fill_speed = 10
; infill_every_layers = 1
; infill_extruder = 1
; infill_extrusion_width = 0
; infill_overlap = 15%
; infill_speed = 10
; overhangs = 1
; perimeter_extruder = 1
; perimeter_extrusion_width = 0
; perimeter_speed = 10
; perimeters = 1
; small_perimeter_speed = 70%
; solid_infill_below_area = 70
; solid_infill_every_layers = 0
; solid_infill_extruder = 1
; solid_infill_extrusion_width = 0
; solid_infill_speed = 10
; thin_walls = 1
; top_infill_extrusion_width = 0
; top_solid_infill_speed = 10
; top_solid_layers = 3
