; generated by Slic3r 1.2.9 on 2016-03-11 at 01:25:45

; external perimeters extrusion width = 1.54mm
; perimeters extrusion width = 2.62mm
; infill extrusion width = 6.27mm
; solid infill extrusion width = 2.62mm
; top infill extrusion width = 2.62mm

M107
M104 S30 ; set temperature
G28 ; home all axes
G1 Z5 F5000 ; lift nozzle
M302
M92 E10000
M500
M501
G1 E100
M109 S30 ; wait for temperature to be reached
G21 ; set units to millimeters
G90 ; use absolute coordinates
M82 ; use absolute distances for extrusion
G92 E0
G1 Z0.300 F7800.000
G1 X100.053 Y104.656 F7800.000
G1 X107.651 Y92.577 E0.64571 F378.000
G1 X109.796 Y92.577 E0.74276
G1 X109.796 Y107.423 E1.41453
G1 X108.381 Y107.423 E1.47856
G1 X108.381 Y97.618 E1.92222
G1 X108.395 Y96.856 E1.95671
G1 X108.511 Y94.524 E2.06236
G1 X108.107 Y94.395 E2.08156
G1 X99.879 Y107.423 E2.77880
G1 X97.821 Y107.423 E2.87192
G1 X97.821 Y92.577 E3.54369
G1 X99.214 Y92.577 E3.60672
G1 X99.214 Y102.512 E4.05626
G1 X99.160 Y104.320 E4.13811 F378.000
G1 X99.105 Y105.392 E4.18667
G1 X99.510 Y105.520 E4.20589
G1 X99.930 Y104.852 E4.24159
G1 X98.899 Y105.073 F7800.000
G1 X98.047 Y104.221 E4.29706 F540.000
G1 X98.047 Y103.666 E4.32258
G1 X98.926 Y104.546 E4.37981
G1 X98.946 Y104.010 E4.40445
G1 X98.047 Y103.112 E4.46294
G1 X98.047 Y102.557 E4.48846
G1 X98.962 Y103.472 E4.54799
G1 X98.978 Y102.933 E4.57278
G1 X98.047 Y102.002 E4.63335
G1 X98.047 Y101.448 E4.65887
G1 X98.988 Y102.389 E4.72011
G1 X98.988 Y101.834 E4.74563
G1 X98.047 Y100.893 E4.80687
G1 X98.047 Y100.339 E4.83239
G1 X98.988 Y101.280 E4.89363
G1 X98.988 Y100.725 E4.91914
G1 X98.047 Y99.784 E4.98039
G1 X98.047 Y99.230 E5.00590
G1 X98.988 Y100.171 E5.06714
G1 X98.988 Y99.616 E5.09266
G1 X98.047 Y98.675 E5.15390
G1 X98.047 Y98.120 E5.17942
G1 X98.988 Y99.062 E5.24066
G1 X98.988 Y98.507 E5.26618
G1 X98.047 Y97.566 E5.32742
G1 X98.047 Y97.011 E5.35293
G1 X98.988 Y97.952 E5.41417
G1 X98.988 Y97.398 E5.43969
G1 X98.047 Y96.457 E5.50093
G1 X98.047 Y95.902 E5.52645
G1 X98.988 Y96.843 E5.58769
G1 X98.988 Y96.289 E5.61321
G1 X98.047 Y95.348 E5.67445
G1 X98.047 Y94.793 E5.69997
G1 X98.988 Y95.734 E5.76121
G1 X98.988 Y95.180 E5.78672
G1 X98.047 Y94.238 E5.84796
G1 X98.047 Y93.684 E5.87348
G1 X98.988 Y94.625 E5.93472
G1 X98.988 Y94.070 E5.96024
G1 X98.047 Y93.129 E6.02148
G1 X98.275 Y92.803 E6.03980
G1 X98.988 Y93.516 E6.08620
G92 E0
G1 X107.964 Y93.535 F7800.000
G1 X108.144 Y93.470 F7800.000
G1 X108.801 Y93.572 F7800.000
G1 X109.021 Y93.874 F7800.000
G1 X108.713 Y94.923 F7800.000
G1 X109.570 Y95.779 E0.05576 F540.000
G1 X109.570 Y96.334 E0.08127
G1 X108.687 Y95.451 E0.13873
G1 X108.661 Y95.979 E0.16308
G1 X109.570 Y96.889 E0.22223
G1 X109.570 Y97.443 E0.24775
G1 X108.635 Y96.508 E0.30861
G1 X108.616 Y97.044 E0.33329
G1 X109.570 Y97.998 E0.39536
G1 X109.570 Y98.552 E0.42088
G1 X108.607 Y97.589 E0.48355
G1 X108.607 Y98.144 E0.50906
G1 X109.570 Y99.107 E0.57174
G1 X109.570 Y99.661 E0.59725
G1 X108.607 Y98.698 E0.65993
G1 X108.607 Y99.253 E0.68544
G1 X109.570 Y100.216 E0.74812
G1 X109.570 Y100.770 E0.77363
G1 X108.607 Y99.807 E0.83631
G1 X108.607 Y100.362 E0.86182
G1 X109.570 Y101.325 E0.92450
G1 X109.570 Y101.880 E0.95001
G1 X108.607 Y100.917 E1.01268
G1 X108.607 Y101.471 E1.03820
G1 X109.570 Y102.434 E1.10087
G1 X109.570 Y102.989 E1.12639
G1 X108.607 Y102.026 E1.18906
G1 X108.607 Y102.580 E1.21458
G1 X109.570 Y103.543 E1.27725
G1 X109.570 Y104.098 E1.30277
G1 X108.607 Y103.135 E1.36544
G1 X108.607 Y103.689 E1.39096
G1 X109.570 Y104.652 E1.45363
G1 X109.570 Y105.207 E1.47915
G1 X108.607 Y104.244 E1.54182
G1 X108.607 Y104.798 E1.56734
G1 X109.570 Y105.762 E1.63001
G1 X109.570 Y106.316 E1.65553
G1 X108.607 Y105.353 E1.71820
G1 X108.607 Y105.908 E1.74372
G1 X109.570 Y106.871 E1.80639
G1 X109.342 Y107.197 E1.82472
G1 X108.607 Y106.462 E1.87254
G1 X108.607 Y107.017 E1.89805
G1 X108.787 Y107.197 E1.90979
G92 E0
G1 X99.628 Y106.370 F7800.000
G1 X99.354 Y106.470 F7800.000
G1 X98.852 Y106.392 F7800.000
G1 X98.596 Y106.648 F7800.000
G1 X98.047 Y106.993 F7800.000
G1 X98.251 Y107.197 E0.01325 F540.000
G1 X98.805 Y107.197 E0.03877
G1 X98.047 Y106.439 E0.08810
G1 X98.047 Y105.884 E0.11362
G1 X99.360 Y107.197 E0.19904
G1 X99.839 Y107.122 E0.22136
G1 X98.047 Y105.330 E0.33796
G1 X98.047 Y104.775 E0.36348
G1 X100.053 Y106.782 E0.49405
G1 X100.268 Y106.442 E0.51255
G1 X99.588 Y105.762 E0.55679
G1 X99.802 Y105.421 E0.57530
G1 X100.483 Y106.102 E0.61957
G1 X100.697 Y105.762 E0.63807
G1 X100.016 Y105.081 E0.68239
G1 X100.231 Y104.741 E0.70089
G1 X100.912 Y105.422 E0.74524
G1 X101.127 Y105.082 E0.76374
G1 X100.445 Y104.400 E0.80812
G1 X100.659 Y104.060 E0.82662
G1 X101.341 Y104.742 E0.87104
G1 X101.556 Y104.402 E0.88954
G1 X100.873 Y103.719 E0.93399
G1 X101.087 Y103.379 E0.95249
G1 X101.771 Y104.062 E0.99698
G1 X101.985 Y103.723 E1.01547
G1 X101.301 Y103.038 E1.05999
G1 X101.515 Y102.698 E1.07850
G1 X102.200 Y103.383 E1.12305
G1 X102.415 Y103.043 E1.14155
G1 X101.730 Y102.358 E1.18613
G1 X101.944 Y102.017 E1.20464
G1 X102.629 Y102.703 E1.24926
G1 X102.844 Y102.363 E1.26776
G1 X102.158 Y101.677 E1.31241
G1 X102.372 Y101.336 E1.33091
G1 X103.059 Y102.023 E1.37560
G1 X103.273 Y101.683 E1.39410
G1 X102.586 Y100.996 E1.43882
G1 X102.800 Y100.655 E1.45733
G1 X103.488 Y101.343 E1.50208
G1 X103.703 Y101.003 E1.52058
G1 X103.014 Y100.315 E1.56537
G1 X103.228 Y99.975 E1.58388
G1 X103.917 Y100.663 E1.62870
G1 X104.132 Y100.323 E1.64720
G1 X103.443 Y99.634 E1.69206
G1 X103.657 Y99.294 E1.71056
G1 X104.347 Y99.984 E1.75545
G1 X104.561 Y99.644 E1.77395
G1 X103.871 Y98.953 E1.81888
G1 X104.085 Y98.613 E1.83738
G1 X104.776 Y99.304 E1.88234
G1 X104.991 Y98.964 E1.90084
G1 X104.299 Y98.272 E1.94584
G1 X104.513 Y97.932 E1.96434
G1 X105.205 Y98.624 E2.00937
G1 X105.420 Y98.284 E2.02787
G1 X104.727 Y97.592 E2.07293
G1 X104.942 Y97.251 E2.09144
G1 X105.635 Y97.944 E2.13653
G1 X105.849 Y97.604 E2.15503
G1 X105.156 Y96.911 E2.20016
G1 X105.370 Y96.570 E2.21867
G1 X106.064 Y97.264 E2.26383
G1 X106.279 Y96.924 E2.28233
G1 X105.584 Y96.230 E2.32753
G1 X105.798 Y95.889 E2.34603
G1 X106.493 Y96.584 E2.39127
G1 X106.708 Y96.245 E2.40977
G1 X106.012 Y95.549 E2.45503
G1 X106.226 Y95.209 E2.47354
G1 X106.922 Y95.905 E2.51884
G1 X107.137 Y95.565 E2.53734
G1 X106.440 Y94.868 E2.58267
G1 X106.655 Y94.528 E2.60118
G1 X107.352 Y95.225 E2.64655
G1 X107.566 Y94.885 E2.66504
G1 X106.869 Y94.187 E2.71045
G1 X107.083 Y93.847 E2.72895
G1 X107.781 Y94.545 E2.77439
G1 X107.996 Y94.205 E2.79289
G1 X107.297 Y93.506 E2.83836
G1 X107.511 Y93.166 E2.85686
G1 X109.570 Y95.225 E2.99084
G1 X109.570 Y94.670 E3.01636
G1 X107.725 Y92.826 E3.13641
G1 X108.257 Y92.803 E3.16091
G1 X109.570 Y94.116 E3.24633
G1 X109.570 Y93.561 E3.27185
G1 X108.812 Y92.803 E3.32119
G1 X109.366 Y92.803 E3.34671
G1 X109.570 Y93.007 E3.35996
G92 E0
G1 X108.170 Y96.848 F7800.000
G1 X101.105 Y108.344 F7800.000
G1 X97.596 Y108.648 F7800.000
G1 X94.823 Y93.124 F7800.000
G1 X94.051 Y92.352 F7800.000
G1 X92.051 Y92.352 F7800.000
G1 X91.826 Y99.537 F7800.000
G1 X91.826 Y107.423 E0.35684 F378.000
G1 X90.204 Y107.423 E0.43023 F378.000
G1 X90.204 Y92.577 E1.10200
G1 X91.826 Y92.577 E1.17539
G1 X91.826 Y99.306 E1.47988
G1 X91.600 Y93.007 F7800.000
G1 X91.396 Y92.803 E1.49329 F540.000
G1 X90.835 Y92.803 E1.51944
G1 X91.600 Y93.568 E1.56983
G1 X91.600 Y94.129 E1.59598
G1 X90.430 Y92.959 E1.67305
G1 X90.430 Y93.521 E1.69920
G1 X91.600 Y94.691 E1.77628
G1 X91.600 Y95.252 E1.80242
G1 X90.430 Y94.082 E1.87950
G1 X90.430 Y94.643 E1.90565
G1 X91.600 Y95.813 E1.98272
G1 X91.600 Y96.375 E2.00887
G1 X90.430 Y95.205 E2.08595
G1 X90.430 Y95.766 E2.11210
G1 X91.600 Y96.936 E2.18917
G1 X91.600 Y97.498 E2.21532
G1 X90.430 Y96.327 E2.29240
G1 X90.430 Y96.889 E2.31854
G1 X91.600 Y98.059 E2.39562
G1 X91.600 Y98.620 E2.42177
G1 X90.430 Y97.450 E2.49884
G1 X90.430 Y98.012 E2.52499
G1 X91.600 Y99.182 E2.60207
G1 X91.600 Y99.743 E2.62822
G1 X90.430 Y98.573 E2.70529
G1 X90.430 Y99.134 E2.73144
G1 X91.600 Y100.304 E2.80852
G1 X91.600 Y100.866 E2.83467
G1 X90.430 Y99.696 E2.91174
G1 X90.430 Y100.257 E2.93789
G1 X91.600 Y101.427 E3.01497
G1 X91.600 Y101.988 E3.04111
G1 X90.430 Y100.818 E3.11819
G1 X90.430 Y101.380 E3.14434
G1 X91.600 Y102.550 E3.22141
G1 X91.600 Y103.111 E3.24756
G1 X90.430 Y101.941 E3.32464
G1 X90.430 Y102.502 E3.35079
G1 X91.600 Y103.673 E3.42786
G1 X91.600 Y104.234 E3.45401
G1 X90.430 Y103.064 E3.53109
G1 X90.430 Y103.625 E3.55724
G1 X91.600 Y104.795 E3.63431
G1 X91.600 Y105.357 E3.66046
G1 X90.430 Y104.187 E3.73754
G1 X90.430 Y104.748 E3.76368
G1 X91.600 Y105.918 E3.84076
G1 X91.600 Y106.479 E3.86691
G1 X90.430 Y105.309 E3.94398
G1 X90.430 Y105.871 E3.97013
G1 X91.600 Y107.041 E4.04721
G1 X91.195 Y107.197 E4.06743
G1 X90.430 Y106.432 E4.11782
G1 X90.430 Y106.993 E4.14397
G1 X90.634 Y107.197 E4.15738
M106 S255
G92 E0
G1 Z0.600 F7800.000
G1 X98.517 Y92.352 F7800.000
G1 X98.517 Y102.501 E3.04120 F600.000
G1 X98.468 Y105.185 E3.84543
G1 X98.854 Y106.390 E4.22466
G1 X99.043 Y106.422 E4.28197
G1 X99.342 Y106.449 E4.37217
G1 X100.165 Y105.726 E4.70041
G1 X107.442 Y94.181 E8.78972
G1 X108.165 Y93.507 E9.08590
G1 X108.564 Y93.535 E9.20579
G1 X108.796 Y93.577 E9.27644
G1 X109.149 Y94.729 E9.63746
G1 X109.088 Y97.625 E10.50543
G1 X109.088 Y107.648 E13.50886
G92 E0
G1 X100.003 Y108.648 F7800.000
G1 X94.823 Y106.876 F7800.000
G1 X94.051 Y107.648 F7800.000
G1 X92.051 Y107.648 F7800.000
G1 X91.015 Y107.648 F7800.000
G1 X91.015 Y92.352 E4.58339 F600.000
G92 E0
G1 Z0.900 F7800.000
G1 X98.517 Y92.352 F7800.000
G1 X98.517 Y102.501 E3.04120 F600.000
G1 X98.468 Y105.185 E3.84543
G1 X98.854 Y106.390 E4.22466
G1 X99.043 Y106.422 E4.28197
G1 X99.342 Y106.449 E4.37217
G1 X100.165 Y105.726 E4.70041
G1 X107.442 Y94.181 E8.78972
G1 X108.165 Y93.507 E9.08590
G1 X108.564 Y93.535 E9.20579
G1 X108.796 Y93.577 E9.27644
G1 X109.149 Y94.729 E9.63746
G1 X109.088 Y97.625 E10.50543
G1 X109.088 Y107.648 E13.50886
G92 E0
G1 X100.003 Y108.648 F7800.000
G1 X94.823 Y106.876 F7800.000
G1 X94.051 Y107.648 F7800.000
G1 X92.051 Y107.648 F7800.000
G1 X91.015 Y107.648 F7800.000
G1 X91.015 Y92.352 E4.58339 F600.000
G92 E0
G1 Z1.200 F7800.000
G1 X98.517 Y92.352 F7800.000
G1 X98.517 Y102.501 E3.04120 F600.000
G1 X98.468 Y105.185 E3.84543
G1 X98.854 Y106.390 E4.22466
G1 X99.043 Y106.422 E4.28197
G1 X99.342 Y106.449 E4.37217
G1 X100.165 Y105.726 E4.70041
G1 X107.442 Y94.181 E8.78972
G1 X108.165 Y93.507 E9.08590
G1 X108.564 Y93.535 E9.20580
G1 X108.796 Y93.577 E9.27644
G1 X109.149 Y94.729 E9.63746
G1 X109.088 Y97.625 E10.50543
G1 X109.088 Y107.648 E13.50886
G92 E0
G1 X100.003 Y108.648 F7800.000
G1 X94.823 Y106.876 F7800.000
G1 X94.051 Y107.648 F7800.000
G1 X92.051 Y107.648 F7800.000
G1 X91.015 Y107.648 F7800.000
G1 X91.015 Y92.352 E4.58339 F600.000
G92 E0
G1 Z1.500 F7800.000
G1 X98.517 Y92.352 F7800.000
G1 X98.517 Y102.501 E3.04120 F600.000
G1 X98.468 Y105.185 E3.84543
G1 X98.854 Y106.390 E4.22466
G1 X99.043 Y106.422 E4.28198
G1 X99.342 Y106.449 E4.37217
G1 X100.165 Y105.726 E4.70041
G1 X107.442 Y94.181 E8.78972
G1 X108.165 Y93.507 E9.08590
G1 X108.564 Y93.535 E9.20580
G1 X108.796 Y93.577 E9.27644
G1 X109.149 Y94.729 E9.63746
G1 X109.088 Y97.625 E10.50543
G1 X109.088 Y107.648 E13.50886
G92 E0
G1 X100.003 Y108.648 F7800.000
G1 X94.823 Y106.876 F7800.000
G1 X94.051 Y107.648 F7800.000
G1 X92.051 Y107.648 F7800.000
G1 X91.015 Y107.648 F7800.000
G1 X91.015 Y92.352 E4.58339 F600.000
G92 E0
G1 Z1.800 F7800.000
G1 X98.517 Y92.352 F7800.000
G1 X98.517 Y102.501 E3.04120 F600.000
G1 X98.468 Y105.185 E3.84543
G1 X98.854 Y106.390 E4.22466
G1 X99.043 Y106.422 E4.28198
G1 X99.342 Y106.449 E4.37217
G1 X100.165 Y105.726 E4.70041
G1 X107.442 Y94.181 E8.78972
G1 X108.165 Y93.507 E9.08590
G1 X108.564 Y93.535 E9.20579
G1 X108.796 Y93.577 E9.27644
G1 X109.149 Y94.729 E9.63746
G1 X109.088 Y97.625 E10.50543
G1 X109.088 Y107.648 E13.50886
G92 E0
G1 X100.003 Y108.648 F7800.000
G1 X94.823 Y106.876 F7800.000
G1 X94.051 Y107.648 F7800.000
G1 X92.051 Y107.648 F7800.000
G1 X91.015 Y107.648 F7800.000
G1 X91.015 Y92.352 E4.58339 F600.000
G92 E0
G1 Z2.100 F7800.000
G1 X98.517 Y92.352 F7800.000
G1 X98.517 Y102.501 E3.04120 F600.000
G1 X98.468 Y105.185 E3.84543
G1 X98.854 Y106.390 E4.22466
G1 X99.043 Y106.422 E4.28198
G1 X99.342 Y106.449 E4.37217
G1 X100.165 Y105.726 E4.70041
G1 X107.442 Y94.181 E8.78972
G1 X108.165 Y93.507 E9.08590
G1 X108.564 Y93.535 E9.20580
G1 X108.796 Y93.577 E9.27644
G1 X109.149 Y94.729 E9.63746
G1 X109.088 Y97.625 E10.50543
G1 X109.088 Y107.648 E13.50886
G92 E0
G1 X100.003 Y108.648 F7800.000
G1 X94.823 Y106.876 F7800.000
G1 X94.051 Y107.648 F7800.000
G1 X92.051 Y107.648 F7800.000
G1 X91.015 Y107.648 F7800.000
G1 X91.015 Y92.352 E4.58339 F600.000
G92 E0
M107
M104 S0 ; turn off temperature
G28 X0  ; home X axis
M84     ; disable motors

; filament used = 124.1mm (1.0cm3)

; avoid_crossing_perimeters = 1
; bed_shape = 0x0,250x0,250x250,0x250
; bed_temperature = 0
; before_layer_gcode = 
; bridge_acceleration = 0
; bridge_fan_speed = 100
; brim_width = 0
; complete_objects = 0
; cooling = 1
; default_acceleration = 0
; disable_fan_first_layers = 1
; duplicate_distance = 6
; end_gcode = M104 S0 ; turn off temperature\nG28 X0  ; home X axis\nM84     ; disable motors\n
; extruder_clearance_height = 20
; extruder_clearance_radius = 20
; extruder_offset = 0x0
; extrusion_axis = E
; extrusion_multiplier = 3
; fan_always_on = 0
; fan_below_layer_time = 60
; filament_colour = #FFFFFF
; filament_diameter = 3.125
; first_layer_acceleration = 0
; first_layer_bed_temperature = 0
; first_layer_extrusion_width = 150%
; first_layer_speed = 90%
; first_layer_temperature = 30
; gcode_arcs = 0
; gcode_comments = 0
; gcode_flavor = reprap
; infill_acceleration = 0
; infill_first = 0
; layer_gcode = 
; max_fan_speed = 100
; max_print_speed = 80
; max_volumetric_speed = 0
; min_fan_speed = 35
; min_print_speed = 10
; min_skirt_length = 0
; notes = 
; nozzle_diameter = 1.54
; only_retract_when_crossing_perimeters = 1
; ooze_prevention = 0
; output_filename_format = [input_filename_base].gcode
; perimeter_acceleration = 0
; post_process = 
; pressure_advance = 0
; resolution = 0
; retract_before_travel = 2
; retract_layer_change = 1
; retract_length = 0
; retract_length_toolchange = 10
; retract_lift = 0
; retract_restart_extra = 0
; retract_restart_extra_toolchange = 0
; retract_speed = 0
; skirt_distance = 6
; skirt_height = 1
; skirts = 0
; slowdown_below_layer_time = 30
; spiral_vase = 0
; standby_temperature_delta = -5
; start_gcode = G28 ; home all axes\nG1 Z5 F5000 ; lift nozzle\nM302\nM92 E10000\nM500\nM501\nG1 E100
; temperature = 30
; threads = 2
; toolchange_gcode = 
; travel_speed = 130
; use_firmware_retraction = 0
; use_relative_e_distances = 0
; use_volumetric_e = 0
; vibration_limit = 0
; wipe = 0
; z_offset = 0
; dont_support_bridges = 1
; extrusion_width = 0
; first_layer_height = 100%
; infill_only_where_needed = 0
; interface_shells = 0
; layer_height = 0.3
; raft_layers = 0
; seam_position = random
; support_material = 0
; support_material_angle = 0
; support_material_contact_distance = 0.2
; support_material_enforce_layers = 0
; support_material_extruder = 1
; support_material_extrusion_width = 0
; support_material_interface_extruder = 1
; support_material_interface_layers = 3
; support_material_interface_spacing = 0
; support_material_interface_speed = 100%
; support_material_pattern = pillars
; support_material_spacing = 2.5
; support_material_speed = 7
; support_material_threshold = 0
; xy_size_compensation = 0
; bottom_solid_layers = 3
; bridge_flow_ratio = 1
; bridge_speed = 10
; external_fill_pattern = rectilinear
; external_perimeter_extrusion_width = 0
; external_perimeter_speed = 70%
; external_perimeters_first = 1
; extra_perimeters = 1
; fill_angle = 45
; fill_density = 60%
; fill_pattern = rectilinear
; gap_fill_speed = 10
; infill_every_layers = 1
; infill_extruder = 1
; infill_extrusion_width = 0
; infill_overlap = 15%
; infill_speed = 10
; overhangs = 1
; perimeter_extruder = 1
; perimeter_extrusion_width = 0
; perimeter_speed = 10
; perimeters = 1
; small_perimeter_speed = 70%
