; generated by Slic3r 1.2.9 on 2016-03-11 at 01:25:46

; external perimeters extrusion width = 1.54mm
; perimeters extrusion width = 2.62mm
; infill extrusion width = 6.27mm
; solid infill extrusion width = 2.62mm
; top infill extrusion width = 2.62mm

M107
M104 S30 ; set temperature
G28 ; home all axes
G1 Z5 F5000 ; lift nozzle
M302
M92 E10000
M500
M501
G1 E100
M109 S30 ; wait for temperature to be reached
G21 ; set units to millimeters
G90 ; use absolute coordinates
M82 ; use absolute distances for extrusion
G92 E0
G1 Z0.300 F7800.000
G1 X102.415 Y92.456 F7800.000
G1 X103.411 Y92.386 E0.04520 F378.000
G1 X104.877 Y92.491 E0.11170
G1 X106.174 Y92.802 E0.17205 F378.000
G1 X107.347 Y93.319 E0.23004
G1 X108.364 Y94.028 E0.28616
G1 X109.210 Y94.915 E0.34161
G1 X109.886 Y95.983 E0.39882
G1 X110.381 Y97.209 E0.45866
G1 X110.679 Y98.570 E0.52166
G1 X110.779 Y100.065 E0.58948
G1 X110.680 Y101.563 E0.65742
G1 X110.386 Y102.916 E0.72005
G1 X109.898 Y104.124 E0.77903
G1 X109.228 Y105.169 E0.83521
G1 X108.386 Y106.032 E0.88973
G1 X107.371 Y106.716 E0.94515
G1 X106.198 Y107.214 E1.00279
G1 X104.886 Y107.514 E1.06370
G1 X103.436 Y107.614 E1.12944
G1 X101.273 Y107.390 E1.22788
G1 X99.468 Y106.725 E1.31489
G1 X98.009 Y105.621 E1.39768
G1 X96.933 Y104.124 E1.48109
G1 X96.284 Y102.275 E1.56977
G1 X96.065 Y100.061 E1.67044
G1 X96.163 Y98.562 E1.73842
G1 X96.456 Y97.196 E1.80165
G1 X96.941 Y95.965 E1.86153
G1 X97.609 Y94.896 E1.91856
G1 X98.447 Y94.011 E1.97369
G1 X99.459 Y93.308 E2.02944
G1 X100.631 Y92.797 E2.08730
G1 X101.948 Y92.489 E2.14850
G1 X102.184 Y92.472 E2.15924
G1 X102.334 Y93.741 F7800.000
G1 X103.266 Y93.632 E2.20173 F378.000
G1 X103.411 Y93.615 E2.20832 F378.000
G1 X105.095 Y93.801 E2.28498
G1 X106.511 Y94.368 E2.35399
G1 X107.645 Y95.317 E2.42093
G1 X108.467 Y96.605 E2.49008
G1 X108.955 Y98.190 E2.56511
G1 X109.116 Y100.065 E2.65029
G1 X108.954 Y101.868 E2.73220
G1 X108.461 Y103.408 E2.80536
G1 X107.633 Y104.678 E2.87395
G1 X106.499 Y105.623 E2.94077
G1 X105.094 Y106.188 E3.00927
G1 X103.434 Y106.374 E3.08488
G1 X101.761 Y106.191 E3.16102
G1 X100.348 Y105.634 E3.22976
G1 X99.206 Y104.701 E3.29644
G1 X98.375 Y103.438 E3.36488
G1 X97.881 Y101.890 E3.43840
G1 X97.718 Y100.065 E3.52133
G1 X97.883 Y98.242 E3.60413
G1 X98.382 Y96.676 E3.67852
G1 X99.220 Y95.372 E3.74869
G1 X100.363 Y94.394 E3.81674
G1 X101.765 Y93.808 E3.88548
G1 X102.104 Y93.768 E3.90095
G1 X104.983 Y92.771 F7800.000
G1 X106.157 Y93.944 E3.97709 F540.000
G1 X106.598 Y93.279 F7800.000
G1 X109.807 Y96.489 E4.18535 F540.000
G1 X108.828 Y94.956 F7800.000
G1 X107.988 Y94.116 E4.23986 F540.000
G1 X107.802 Y95.037 F7800.000
G1 X110.173 Y97.408 E4.39373 F540.000
G1 X110.329 Y98.116 E4.42700
G1 X108.695 Y96.482 E4.53303
G1 X108.941 Y97.281 E4.57140
G1 X110.463 Y98.803 E4.67015
G1 X110.502 Y99.396 E4.69740
G1 X109.179 Y98.073 E4.78324
G1 X109.231 Y98.678 E4.81111
G1 X110.542 Y99.988 E4.89614
G1 X110.527 Y100.527 E4.92087
G1 X109.283 Y99.283 E5.00160
G1 X109.335 Y99.888 E5.02946
G1 X110.493 Y101.046 E5.10461
G1 X110.459 Y101.565 E5.12847
G1 X109.305 Y100.411 E5.20335
G1 X109.259 Y100.918 E5.22672
G1 X110.365 Y102.023 E5.29846
G1 X110.266 Y102.478 E5.31979
G1 X109.214 Y101.425 E5.38808
G1 X109.153 Y101.918 E5.41085
G1 X110.164 Y102.928 E5.47644
G1 X110.005 Y103.322 E5.49593
G1 X109.019 Y102.337 E5.55988
G1 X108.885 Y102.756 E5.58007
G1 X109.846 Y103.716 E5.64239
G1 X109.680 Y104.103 E5.66172
G1 X108.751 Y103.175 E5.72198
G1 X108.590 Y103.567 E5.74142
G1 X109.464 Y104.440 E5.79811
G1 X109.248 Y104.777 E5.81647
G1 X108.372 Y103.902 E5.87330
G1 X108.154 Y104.236 E5.89164
G1 X109.018 Y105.100 E5.94770
G1 X108.741 Y105.377 E5.96565
G1 X107.936 Y104.571 E6.01793
G1 X107.692 Y104.880 E6.03600
G1 X108.465 Y105.653 E6.08616
G1 X108.188 Y105.930 E6.10411
G1 X107.390 Y105.132 E6.15591
G1 X107.088 Y105.383 E6.17393
G1 X107.859 Y106.153 E6.22394
G1 X107.528 Y106.376 E6.24222
G1 X106.786 Y105.634 E6.29036
G1 X106.456 Y105.857 E6.30864
G1 X107.179 Y106.580 E6.35554
G1 X106.791 Y106.745 E6.37489
G1 X106.062 Y106.016 E6.42219
G1 X105.668 Y106.174 E6.44170
G1 X106.403 Y106.909 E6.48939
G1 X105.987 Y107.047 E6.50947
G1 X105.273 Y106.333 E6.55580
G1 X104.824 Y106.437 E6.57695
G1 X105.537 Y107.150 E6.62321
G1 X105.087 Y107.253 E6.64439
G1 X104.327 Y106.493 E6.69371
G1 X103.830 Y106.549 E6.71666
G1 X104.594 Y107.313 E6.76627
G1 X104.077 Y107.349 E6.79006
G1 X103.328 Y106.600 E6.83869
G1 X102.706 Y106.531 E6.86737
G1 X103.560 Y107.385 E6.92274
G1 X102.950 Y107.328 E6.95085
G1 X102.085 Y106.463 E7.00696
G1 X101.398 Y106.329 E7.03909
G1 X102.333 Y107.264 E7.09978
G1 X101.716 Y107.200 E7.12823
G1 X100.485 Y105.969 E7.20811
G1 X100.086 Y106.676 F7800.000
G1 X97.029 Y103.619 E7.40654 F540.000
G1 X96.729 Y102.766 F7800.000
G1 X100.963 Y106.999 E7.68124 F540.000
G1 X98.431 Y105.574 F7800.000
G1 X98.077 Y105.220 E7.70422 F540.000
G1 X98.189 Y103.673 F7800.000
G1 X96.489 Y101.973 E7.81454 F540.000
G1 X96.429 Y101.360 E7.84283
G1 X97.920 Y102.851 E7.93960
G1 X97.661 Y102.039 E7.97873
G1 X96.368 Y100.746 E8.06260
G1 X96.308 Y100.133 E8.09089
G1 X97.605 Y101.430 E8.17507
G1 X97.551 Y100.823 E8.20305
G1 X96.317 Y99.589 E8.28310
G1 X96.351 Y99.070 E8.30697
G1 X97.497 Y100.215 E8.38130
G1 X97.531 Y99.697 E8.40515
G1 X96.385 Y98.551 E8.47952
G1 X96.479 Y98.092 E8.50102
G1 X97.577 Y99.190 E8.57226
G1 X97.623 Y98.683 E8.59563
G1 X96.577 Y97.636 E8.66352
G1 X96.677 Y97.184 E8.68479
G1 X97.684 Y98.191 E8.75013
G1 X97.818 Y97.771 E8.77033
G1 X96.833 Y96.787 E8.83418
G1 X96.990 Y96.391 E8.85374
G1 X97.951 Y97.352 E8.91612
G1 X98.085 Y96.933 E8.93632
G1 X97.150 Y95.998 E8.99696
G1 X97.363 Y95.658 E9.01537
G1 X98.241 Y96.535 E9.07233
G1 X98.457 Y96.199 E9.09070
G1 X97.575 Y95.317 E9.14790
G1 X97.792 Y94.981 E9.16626
G1 X98.673 Y95.862 E9.22343
G1 X98.890 Y95.525 E9.24179
G1 X98.062 Y94.697 E9.29551
G1 X98.338 Y94.421 E9.31346
G1 X99.121 Y95.203 E9.36423
G1 X99.419 Y94.948 E9.38222
G1 X98.615 Y94.144 E9.43439
G1 X98.933 Y93.910 E9.45253
G1 X99.717 Y94.693 E9.50338
G1 X100.015 Y94.438 E9.52138
G1 X99.259 Y93.683 E9.57039
G1 X99.596 Y93.467 E9.58876
G1 X100.322 Y94.193 E9.63589
G1 X100.712 Y94.030 E9.65528
G1 X99.981 Y93.299 E9.70274
G1 X100.366 Y93.131 E9.72201
G1 X101.102 Y93.867 E9.76979
G1 X101.493 Y93.704 E9.78919
G1 X100.768 Y92.980 E9.83618
G1 X101.217 Y92.875 E9.85729
G1 X101.913 Y93.572 E9.90252
G1 X102.408 Y93.514 E9.92538
G1 X101.665 Y92.770 E9.97364
G1 X102.144 Y92.696 E9.99587
G1 X102.903 Y93.456 E10.04517
G1 X103.398 Y93.398 E10.06803
G1 X102.660 Y92.660 E10.11592
G1 X103.177 Y92.623 E10.13969
G1 X103.996 Y93.443 E10.19287
G1 X104.618 Y93.512 E10.22158
G1 X103.749 Y92.643 E10.27798
G1 X104.345 Y92.685 E10.30540
G1 X105.240 Y93.581 E10.36349
G1 X105.711 Y92.945 F7800.000
G1 X107.945 Y95.179 E10.50849 F540.000
G92 E0
G1 X96.739 Y95.863 F7800.000
G1 X94.136 Y94.238 F7800.000
G1 X93.259 Y92.352 F7800.000
G1 X91.068 Y92.352 F7800.000
G1 X90.842 Y99.916 F7800.000
G1 X90.842 Y107.423 E0.33967 F378.000
G1 X89.220 Y107.423 E0.41307 F378.000
G1 X89.220 Y92.577 E1.08484
G1 X90.842 Y92.577 E1.15823
G1 X90.842 Y99.685 E1.47988
G1 X90.617 Y93.007 F7800.000
G1 X90.413 Y92.803 E1.49329 F540.000
G1 X89.852 Y92.803 E1.51944
G1 X90.617 Y93.568 E1.56983
G1 X90.617 Y94.129 E1.59598
G1 X89.446 Y92.959 E1.67305
G1 X89.446 Y93.521 E1.69920
G1 X90.617 Y94.691 E1.77628
G1 X90.617 Y95.252 E1.80242
G1 X89.446 Y94.082 E1.87950
G1 X89.446 Y94.643 E1.90565
G1 X90.617 Y95.813 E1.98272
G1 X90.617 Y96.375 E2.00887
G1 X89.446 Y95.205 E2.08595
G1 X89.446 Y95.766 E2.11210
G1 X90.617 Y96.936 E2.18917
G1 X90.617 Y97.498 E2.21532
G1 X89.446 Y96.327 E2.29240
G1 X89.446 Y96.889 E2.31854
G1 X90.617 Y98.059 E2.39562
G1 X90.617 Y98.620 E2.42177
G1 X89.446 Y97.450 E2.49885
G1 X89.446 Y98.012 E2.52499
G1 X90.617 Y99.182 E2.60207
G1 X90.617 Y99.743 E2.62822
G1 X89.446 Y98.573 E2.70529
G1 X89.446 Y99.134 E2.73144
G1 X90.617 Y100.304 E2.80852
G1 X90.617 Y100.866 E2.83467
G1 X89.446 Y99.696 E2.91174
G1 X89.446 Y100.257 E2.93789
G1 X90.617 Y101.427 E3.01497
G1 X90.617 Y101.988 E3.04111
G1 X89.446 Y100.818 E3.11819
G1 X89.446 Y101.380 E3.14434
G1 X90.617 Y102.550 E3.22142
G1 X90.617 Y103.111 E3.24756
G1 X89.446 Y101.941 E3.32464
G1 X89.446 Y102.502 E3.35079
G1 X90.617 Y103.673 E3.42786
G1 X90.617 Y104.234 E3.45401
G1 X89.446 Y103.064 E3.53109
G1 X89.446 Y103.625 E3.55724
G1 X90.617 Y104.795 E3.63431
G1 X90.617 Y105.357 E3.66046
G1 X89.446 Y104.187 E3.73754
G1 X89.446 Y104.748 E3.76368
G1 X90.617 Y105.918 E3.84076
G1 X90.617 Y106.479 E3.86691
G1 X89.446 Y105.309 E3.94399
G1 X89.446 Y105.871 E3.97013
G1 X90.617 Y107.041 E4.04721
G1 X90.211 Y107.197 E4.06743
G1 X89.446 Y106.432 E4.11782
G1 X89.446 Y106.993 E4.14397
G1 X89.650 Y107.197 E4.15738
M106 S255
G92 E0
G1 Z0.600 F7800.000
G1 X96.893 Y100.047 F7800.000
G1 X96.998 Y98.678 E0.41153 F600.000
G1 X97.118 Y97.973 E0.62588
G1 X97.260 Y97.439 E0.79152
G1 X97.661 Y96.327 E1.14548
G1 X98.249 Y95.391 E1.47684
G1 X98.564 Y94.989 E1.62983
G1 X98.756 Y94.779 E1.71524
G1 X98.949 Y94.596 E1.79480
G1 X99.807 Y93.933 E2.11988
G1 X100.134 Y93.754 E2.23139
G1 X100.847 Y93.449 E2.46387
G1 X101.493 Y93.240 E2.66727
G1 X102.044 Y93.127 E2.83581
G1 X103.411 Y93.002 E3.24709
G1 X104.766 Y93.123 E3.65471
G1 X105.352 Y93.240 E3.83388
G1 X105.962 Y93.433 E4.02548
G1 X106.719 Y93.752 E4.27153
G1 X107.015 Y93.910 E4.37210
G1 X107.891 Y94.580 E4.70267
G1 X108.073 Y94.750 E4.77748
G1 X108.267 Y94.962 E4.86331
G1 X108.602 Y95.390 E5.02624
G1 X109.194 Y96.338 E5.36127
G1 X109.591 Y97.453 E5.71594
G1 X109.761 Y98.145 E5.92930
G1 X109.843 Y98.688 E6.09399
G1 X109.946 Y100.065 E6.50779
G1 X109.841 Y101.445 E6.92234
G1 X109.722 Y102.140 E7.13364
G1 X109.580 Y102.667 E7.29724
G1 X109.182 Y103.754 E7.64415
G1 X108.597 Y104.668 E7.96933
G1 X108.282 Y105.061 E8.12006
G1 X108.085 Y105.273 E8.20700
G1 X107.898 Y105.446 E8.28338
G1 X107.033 Y106.094 E8.60708
G1 X106.717 Y106.261 E8.71417
G1 X105.987 Y106.563 E8.95087
G1 X105.357 Y106.761 E9.14866
G1 X104.791 Y106.873 E9.32170
G1 X103.447 Y106.992 E9.72603
G1 X101.723 Y106.812 E10.24541
G1 X101.499 Y106.773 E10.31348
G1 X100.137 Y106.264 E10.74921
G1 X99.809 Y106.101 E10.85884
G1 X98.773 Y105.287 E11.25389
G1 X98.557 Y105.088 E11.34189
G1 X97.646 Y103.753 E11.82618
G1 X97.110 Y102.162 E12.32904
G1 X97.068 Y101.938 E12.39748
G1 X96.893 Y100.047 E12.96634
G92 E0
G1 X96.062 Y102.324 F7800.000
G1 X94.194 Y106.054 F7800.000
G1 X93.260 Y107.648 F7800.000
G1 X91.068 Y107.648 F7800.000
G1 X90.031 Y107.648 F7800.000
G1 X90.031 Y92.352 E4.58339 F600.000
G92 E0
G1 Z0.900 F7800.000
G1 X96.893 Y100.047 F7800.000
G1 X96.998 Y98.678 E0.41153 F600.000
G1 X97.118 Y97.973 E0.62588
G1 X97.260 Y97.439 E0.79152
G1 X97.661 Y96.327 E1.14548
G1 X98.249 Y95.391 E1.47684
G1 X98.564 Y94.989 E1.62983
G1 X98.756 Y94.779 E1.71524
G1 X98.949 Y94.596 E1.79480
G1 X99.807 Y93.933 E2.11988
G1 X100.134 Y93.754 E2.23139
G1 X100.847 Y93.449 E2.46387
G1 X101.493 Y93.240 E2.66727
G1 X102.044 Y93.127 E2.83581
G1 X103.411 Y93.002 E3.24709
G1 X104.766 Y93.123 E3.65471
G1 X105.352 Y93.240 E3.83388
G1 X105.962 Y93.433 E4.02548
G1 X106.719 Y93.752 E4.27153
G1 X107.015 Y93.910 E4.37210
G1 X107.891 Y94.580 E4.70267
G1 X108.073 Y94.750 E4.77748
G1 X108.267 Y94.962 E4.86331
G1 X108.602 Y95.390 E5.02624
G1 X109.194 Y96.338 E5.36127
G1 X109.591 Y97.453 E5.71594
G1 X109.761 Y98.145 E5.92930
G1 X109.843 Y98.688 E6.09399
G1 X109.946 Y100.065 E6.50779
G1 X109.841 Y101.445 E6.92234
G1 X109.722 Y102.140 E7.13364
G1 X109.580 Y102.667 E7.29724
G1 X109.182 Y103.754 E7.64415
G1 X108.597 Y104.668 E7.96933
G1 X108.282 Y105.061 E8.12006
G1 X108.085 Y105.273 E8.20700
G1 X107.898 Y105.446 E8.28338
G1 X107.033 Y106.094 E8.60708
G1 X106.717 Y106.261 E8.71417
G1 X105.987 Y106.563 E8.95087
G1 X105.357 Y106.761 E9.14866
G1 X104.791 Y106.873 E9.32170
G1 X103.447 Y106.992 E9.72603
G1 X101.723 Y106.812 E10.24541
G1 X101.499 Y106.773 E10.31348
G1 X100.137 Y106.264 E10.74921
G1 X99.809 Y106.101 E10.85884
G1 X98.773 Y105.287 E11.25388
G1 X98.557 Y105.088 E11.34189
G1 X97.646 Y103.753 E11.82618
G1 X97.110 Y102.162 E12.32904
G1 X97.068 Y101.938 E12.39748
G1 X96.893 Y100.047 E12.96634
G92 E0
G1 X96.062 Y102.324 F7800.000
G1 X94.194 Y106.054 F7800.000
G1 X93.260 Y107.648 F7800.000
G1 X91.068 Y107.648 F7800.000
G1 X90.031 Y107.648 F7800.000
G1 X90.031 Y92.352 E4.58339 F600.000
G92 E0
G1 Z1.200 F7800.000
G1 X96.893 Y100.047 F7800.000
G1 X96.998 Y98.678 E0.41153 F600.000
G1 X97.118 Y97.973 E0.62588
G1 X97.260 Y97.439 E0.79152
G1 X97.661 Y96.327 E1.14548
G1 X98.249 Y95.391 E1.47684
G1 X98.564 Y94.989 E1.62983
G1 X98.756 Y94.779 E1.71524
G1 X98.949 Y94.596 E1.79480
G1 X99.807 Y93.933 E2.11988
G1 X100.134 Y93.754 E2.23139
G1 X100.847 Y93.449 E2.46387
G1 X101.493 Y93.240 E2.66727
G1 X102.044 Y93.127 E2.83581
G1 X103.411 Y93.002 E3.24709
G1 X104.766 Y93.123 E3.65471
G1 X105.352 Y93.240 E3.83388
G1 X105.962 Y93.433 E4.02548
G1 X106.719 Y93.752 E4.27153
G1 X107.015 Y93.910 E4.37210
G1 X107.891 Y94.580 E4.70267
G1 X108.073 Y94.750 E4.77748
G1 X108.267 Y94.962 E4.86331
G1 X108.602 Y95.390 E5.02624
G1 X109.194 Y96.338 E5.36127
G1 X109.591 Y97.453 E5.71595
G1 X109.761 Y98.145 E5.92930
G1 X109.843 Y98.688 E6.09399
G1 X109.946 Y100.065 E6.50779
G1 X109.841 Y101.445 E6.92234
G1 X109.722 Y102.140 E7.13364
G1 X109.580 Y102.667 E7.29724
G1 X109.182 Y103.754 E7.64415
G1 X108.597 Y104.668 E7.96933
G1 X108.282 Y105.061 E8.12006
G1 X108.085 Y105.273 E8.20700
G1 X107.898 Y105.446 E8.28338
G1 X107.033 Y106.094 E8.60708
G1 X106.717 Y106.261 E8.71417
G1 X105.987 Y106.563 E8.95087
G1 X105.357 Y106.761 E9.14866
G1 X104.791 Y106.873 E9.32170
G1 X103.447 Y106.992 E9.72603
G1 X101.723 Y106.812 E10.24541
G1 X101.499 Y106.773 E10.31348
G1 X100.137 Y106.264 E10.74921
G1 X99.809 Y106.101 E10.85884
G1 X98.773 Y105.287 E11.25389
G1 X98.557 Y105.088 E11.34189
G1 X97.646 Y103.753 E11.82618
G1 X97.110 Y102.162 E12.32904
G1 X97.068 Y101.938 E12.39748
G1 X96.893 Y100.047 E12.96634
G92 E0
G1 X96.062 Y102.324 F7800.000
G1 X94.194 Y106.054 F7800.000
G1 X93.260 Y107.648 F7800.000
G1 X91.068 Y107.648 F7800.000
G1 X90.031 Y107.648 F7800.000
G1 X90.031 Y92.352 E4.58339 F600.000
G92 E0
G1 Z1.500 F7800.000
G1 X96.893 Y100.047 F7800.000
G1 X96.998 Y98.678 E0.41153 F600.000
G1 X97.118 Y97.973 E0.62588
G1 X97.260 Y97.439 E0.79152
G1 X97.661 Y96.327 E1.14548
G1 X98.249 Y95.391 E1.47684
G1 X98.564 Y94.989 E1.62983
G1 X98.756 Y94.779 E1.71524
G1 X98.949 Y94.596 E1.79480
G1 X99.807 Y93.933 E2.11988
G1 X100.134 Y93.754 E2.23139
G1 X100.847 Y93.449 E2.46387
G1 X101.493 Y93.240 E2.66727
G1 X102.044 Y93.127 E2.83581
G1 X103.411 Y93.002 E3.24709
G1 X104.766 Y93.123 E3.65471
G1 X105.352 Y93.240 E3.83388
G1 X105.962 Y93.433 E4.02548
G1 X106.719 Y93.752 E4.27153
G1 X107.015 Y93.910 E4.37210
G1 X107.891 Y94.580 E4.70267
G1 X108.073 Y94.750 E4.77748
G1 X108.267 Y94.962 E4.86331
G1 X108.602 Y95.390 E5.02624
G1 X109.194 Y96.338 E5.36127
G1 X109.591 Y97.453 E5.71594
G1 X109.761 Y98.145 E5.92930
G1 X109.843 Y98.688 E6.09399
G1 X109.946 Y100.065 E6.50779
G1 X109.841 Y101.445 E6.92234
G1 X109.722 Y102.140 E7.13364
G1 X109.580 Y102.667 E7.29724
G1 X109.182 Y103.754 E7.64415
G1 X108.597 Y104.668 E7.96933
G1 X108.282 Y105.061 E8.12006
G1 X108.085 Y105.273 E8.20700
G1 X107.898 Y105.446 E8.28338
G1 X107.033 Y106.094 E8.60708
G1 X106.717 Y106.261 E8.71417
G1 X105.987 Y106.563 E8.95087
G1 X105.357 Y106.761 E9.14866
G1 X104.791 Y106.873 E9.32170
G1 X103.447 Y106.992 E9.72603
G1 X101.723 Y106.812 E10.24541
G1 X101.499 Y106.773 E10.31348
G1 X100.137 Y106.264 E10.74921
G1 X99.809 Y106.101 E10.85884
G1 X98.773 Y105.287 E11.25389
G1 X98.557 Y105.088 E11.34189
G1 X97.646 Y103.753 E11.82618
G1 X97.110 Y102.162 E12.32904
G1 X97.068 Y101.938 E12.39748
G1 X96.893 Y100.047 E12.96634
G92 E0
G1 X96.062 Y102.324 F7800.000
G1 X93.982 Y105.195 F7800.000
G1 X94.354 Y106.553 F7800.000
G1 X93.260 Y107.648 F7800.000
G1 X91.068 Y107.648 F7800.000
G1 X90.031 Y107.648 F7800.000
G1 X90.031 Y92.352 E4.58339 F600.000
G92 E0
G1 Z1.800 F7800.000
G1 X96.893 Y100.047 F7800.000
G1 X96.998 Y98.678 E0.41153 F600.000
G1 X97.118 Y97.973 E0.62588
