; generated by Slic3r 1.2.9 on 2016-03-11 at 01:25:51

; external perimeters extrusion width = 1.54mm
; perimeters extrusion width = 2.62mm
; infill extrusion width = 6.27mm
; solid infill extrusion width = 2.62mm
; top infill extrusion width = 2.62mm

M107
M104 S30 ; set temperature
G28 ; home all axes
G1 Z5 F5000 ; lift nozzle
M302
M92 E10000
M500
M501
G1 E100
M109 S30 ; wait for temperature to be reached
G21 ; set units to millimeters
G90 ; use absolute coordinates
M82 ; use absolute distances for extrusion
G92 E0
G1 Z0.300 F7800.000
G1 X101.469 Y107.423 F7800.000
G1 X97.091 Y107.423 E0.19811 F600.000
G1 X97.091 Y106.181 E0.25431
G1 X102.340 Y106.181 E0.49182
G1 X102.340 Y92.577 E1.10739
G1 X103.951 Y92.577 E1.18029
G1 X103.951 Y106.181 E1.79586
G1 X109.200 Y106.181 E2.03337 F600.000
G1 X109.200 Y107.423 E2.08957
G1 X101.700 Y107.423 E2.42894
G1 X102.243 Y106.407 F7800.000
G1 X103.033 Y107.197 E2.48004 F600.000
G1 X102.481 Y107.197 E2.50525
G1 X101.691 Y106.407 E2.55635
G1 X101.140 Y106.407 E2.58156
G1 X101.930 Y107.197 E2.63267
G1 X101.379 Y107.197 E2.65788
G1 X100.589 Y106.407 E2.70898
G1 X100.038 Y106.407 E2.73419
G1 X100.828 Y107.197 E2.78530
G1 X100.277 Y107.197 E2.81051
G1 X99.487 Y106.407 E2.86161
G1 X98.935 Y106.407 E2.88682
G1 X99.725 Y107.197 E2.93792
G1 X99.174 Y107.197 E2.96313
G1 X98.384 Y106.407 E3.01424
G1 X97.833 Y106.407 E3.03945
G1 X98.623 Y107.197 E3.09055
G1 X98.072 Y107.197 E3.11576
G1 X97.317 Y106.442 E3.16458
G1 X97.317 Y106.993 E3.18979
G1 X97.521 Y107.197 E3.20296
G1 X102.566 Y106.179 F7800.000
G1 X103.584 Y107.197 E3.26880 F600.000
G1 X108.306 Y106.407 F7800.000
G1 X108.974 Y107.075 E3.31201 F600.000
G1 X108.545 Y107.197 E3.33242
G1 X107.755 Y106.407 E3.38353
G1 X107.204 Y106.407 E3.40874
G1 X107.994 Y107.197 E3.45984
G1 X107.442 Y107.197 E3.48505
G1 X106.652 Y106.407 E3.53615
G1 X106.101 Y106.407 E3.56136
G1 X106.891 Y107.197 E3.61247
G1 X106.340 Y107.197 E3.63768
G1 X105.550 Y106.407 E3.68878
G1 X104.999 Y106.407 E3.71399
G1 X105.789 Y107.197 E3.76510
G1 X105.238 Y107.197 E3.79031
G1 X104.447 Y106.407 E3.84141
G1 X103.896 Y106.407 E3.86662
G1 X104.686 Y107.197 E3.91772
G1 X104.135 Y107.197 E3.94293
G1 X102.566 Y105.628 E4.04443
G1 X102.566 Y105.077 E4.06964
G1 X103.725 Y106.236 E4.14461
G1 X103.725 Y105.685 E4.16982
G1 X102.566 Y104.525 E4.24479
G1 X102.566 Y103.974 E4.27000
G1 X103.725 Y105.133 E4.34497
G1 X103.725 Y104.582 E4.37018
G1 X102.566 Y103.423 E4.44516
G1 X102.566 Y102.872 E4.47037
G1 X103.725 Y104.031 E4.54534
G1 X103.725 Y103.480 E4.57055
G1 X102.566 Y102.321 E4.64552
G1 X102.566 Y101.769 E4.67073
G1 X103.725 Y102.928 E4.74570
G1 X103.725 Y102.377 E4.77091
G1 X102.566 Y101.218 E4.84588
G1 X102.566 Y100.667 E4.87109
G1 X103.725 Y101.826 E4.94606
G1 X103.725 Y101.275 E4.97127
G1 X102.566 Y100.116 E5.04624
G1 X102.566 Y99.564 E5.07145
G1 X103.725 Y100.724 E5.14642
G1 X103.725 Y100.172 E5.17164
G1 X102.566 Y99.013 E5.24661
G1 X102.566 Y98.462 E5.27182
G1 X103.725 Y99.621 E5.34679
G1 X103.725 Y99.070 E5.37200
G1 X102.566 Y97.911 E5.44697
G1 X102.566 Y97.360 E5.47218
G1 X103.725 Y98.519 E5.54715
G1 X103.725 Y97.968 E5.57236
G1 X102.566 Y96.808 E5.64733
G1 X102.566 Y96.257 E5.67254
G1 X103.725 Y97.416 E5.74751
G1 X103.725 Y96.865 E5.77272
G1 X102.566 Y95.706 E5.84769
G1 X102.566 Y95.155 E5.87291
G1 X103.725 Y96.314 E5.94788
G1 X103.725 Y95.763 E5.97309
G1 X102.566 Y94.604 E6.04806
G1 X102.566 Y94.052 E6.07327
G1 X103.725 Y95.211 E6.14824
G1 X103.725 Y94.660 E6.17345
G1 X102.566 Y93.501 E6.24842
G1 X102.566 Y92.950 E6.27363
G1 X103.725 Y94.109 E6.34860
G1 X103.725 Y93.558 E6.37381
G1 X102.970 Y92.803 E6.42263
G1 X103.521 Y92.803 E6.44784
G1 X103.725 Y93.007 E6.46101
G92 E0
G1 X102.115 Y92.352 F7800.000
G1 X100.115 Y92.352 F7800.000
G1 X94.647 Y92.352 F7800.000
G1 X92.647 Y92.352 F7800.000
G1 X90.800 Y99.641 F7800.000
G1 X90.800 Y92.577 E0.31964 F600.000
G1 X92.422 Y92.577 E0.39304
G1 X92.422 Y107.423 E1.06481
G1 X90.800 Y107.423 E1.13820 F600.000
G1 X90.800 Y99.872 E1.47988
G1 X92.196 Y93.007 F7800.000
G1 X91.992 Y92.803 E1.49329 F600.000
G1 X91.431 Y92.803 E1.51944
G1 X92.196 Y93.568 E1.56983
G1 X92.196 Y94.129 E1.59598
G1 X91.026 Y92.959 E1.67305
G1 X91.026 Y93.521 E1.69920
G1 X92.196 Y94.691 E1.77628
G1 X92.196 Y95.252 E1.80242
G1 X91.026 Y94.082 E1.87950
G1 X91.026 Y94.643 E1.90565
G1 X92.196 Y95.813 E1.98272
G1 X92.196 Y96.375 E2.00887
G1 X91.026 Y95.205 E2.08595
G1 X91.026 Y95.766 E2.11210
G1 X92.196 Y96.936 E2.18917
G1 X92.196 Y97.498 E2.21532
G1 X91.026 Y96.327 E2.29240
G1 X91.026 Y96.889 E2.31854
G1 X92.196 Y98.059 E2.39562
G1 X92.196 Y98.620 E2.42177
G1 X91.026 Y97.450 E2.49885
G1 X91.026 Y98.012 E2.52499
G1 X92.196 Y99.182 E2.60207
G1 X92.196 Y99.743 E2.62822
G1 X91.026 Y98.573 E2.70529
G1 X91.026 Y99.134 E2.73144
G1 X92.196 Y100.304 E2.80852
G1 X92.196 Y100.866 E2.83467
G1 X91.026 Y99.696 E2.91174
G1 X91.026 Y100.257 E2.93789
G1 X92.196 Y101.427 E3.01497
G1 X92.196 Y101.988 E3.04111
G1 X91.026 Y100.818 E3.11819
G1 X91.026 Y101.380 E3.14434
G1 X92.196 Y102.550 E3.22141
G1 X92.196 Y103.111 E3.24756
G1 X91.026 Y101.941 E3.32464
G1 X91.026 Y102.502 E3.35079
G1 X92.196 Y103.673 E3.42786
G1 X92.196 Y104.234 E3.45401
G1 X91.026 Y103.064 E3.53109
G1 X91.026 Y103.625 E3.55724
G1 X92.196 Y104.795 E3.63431
G1 X92.196 Y105.357 E3.66046
G1 X91.026 Y104.187 E3.73754
G1 X91.026 Y104.748 E3.76368
G1 X92.196 Y105.918 E3.84076
G1 X92.196 Y106.479 E3.86691
G1 X91.026 Y105.309 E3.94398
G1 X91.026 Y105.871 E3.97013
G1 X92.196 Y107.041 E4.04721
G1 X91.791 Y107.197 E4.06743
G1 X91.026 Y106.432 E4.11782
G1 X91.026 Y106.993 E4.14397
G1 X91.230 Y107.197 E4.15738
M106 S255
G92 E0
G1 Z0.600 F7800.000
G1 X104.893 Y105.956 F7800.000
G1 X102.115 Y106.802 E0.87020 F600.000
G1 X96.866 Y106.802 E2.44304
G1 X109.425 Y106.802 F7800.000
G1 X104.176 Y106.802 E4.01589 F600.000
G1 X103.145 Y106.488 E4.33867
G1 X103.145 Y92.352 E8.57453
G92 E0
G1 X102.115 Y105.956 F7800.000
G1 X102.115 Y105.956 F7800.000
G1 X97.381 Y101.222 F7800.000
G1 X96.866 Y101.737 F7800.000
G1 X94.756 Y105.956 F7800.000
G1 X94.756 Y107.539 F7800.000
G1 X94.647 Y107.648 F7800.000
G1 X92.647 Y107.648 F7800.000
G1 X91.611 Y107.648 F7800.000
G1 X91.611 Y92.352 E4.58339 F600.000
G92 E0
G1 Z0.900 F7800.000
G1 X104.893 Y105.956 F7800.000
G1 X102.115 Y106.802 E0.87020 F600.000
G1 X96.866 Y106.802 E2.44304
G92 E0
G1 X109.425 Y106.802 F7800.000
G1 X104.176 Y106.802 E1.57284 F600.000
G1 X103.145 Y106.488 E1.89563
G1 X103.145 Y92.352 E6.13148
G92 E0
G1 X102.115 Y105.956 F7800.000
G1 X102.115 Y105.956 F7800.000
G1 X97.381 Y101.222 F7800.000
G1 X96.866 Y101.737 F7800.000
G1 X94.756 Y105.956 F7800.000
G1 X94.756 Y107.539 F7800.000
G1 X94.647 Y107.648 F7800.000
G1 X92.647 Y107.648 F7800.000
G1 X91.611 Y107.648 F7800.000
G1 X91.611 Y92.352 E4.58339 F600.000
G92 E0
G1 Z1.200 F7800.000
G1 X104.893 Y105.956 F7800.000
G1 X102.115 Y106.802 E0.87020 F600.000
G1 X96.866 Y106.802 E2.44304
G1 X109.425 Y106.802 F7800.000
G1 X104.176 Y106.802 E4.01589 F600.000
G1 X103.145 Y106.488 E4.33867
G1 X103.145 Y92.352 E8.57453
G92 E0
G1 X102.115 Y105.956 F7800.000
G1 X102.115 Y105.956 F7800.000
G1 X97.381 Y101.222 F7800.000
G1 X96.866 Y101.737 F7800.000
G1 X94.756 Y105.956 F7800.000
G1 X94.756 Y107.539 F7800.000
G1 X94.647 Y107.648 F7800.000
G1 X92.647 Y107.648 F7800.000
G1 X91.611 Y107.648 F7800.000
G1 X91.611 Y92.352 E4.58339 F600.000
G92 E0
G1 Z1.500 F7800.000
G1 X104.893 Y105.956 F7800.000
G1 X102.115 Y106.802 E0.87020 F600.000
G1 X96.866 Y106.802 E2.44304
G1 X109.425 Y106.802 F7800.000
G1 X104.176 Y106.802 E4.01589 F600.000
G1 X103.145 Y106.488 E4.33867
G1 X103.145 Y92.352 E8.57453
G92 E0
G1 X102.115 Y105.956 F7800.000
G1 X102.115 Y105.956 F7800.000
G1 X97.381 Y101.222 F7800.000
G1 X96.866 Y101.737 F7800.000
G1 X94.756 Y105.956 F7800.000
G1 X94.756 Y107.539 F7800.000
G1 X94.647 Y107.648 F7800.000
G1 X92.647 Y107.648 F7800.000
G1 X91.611 Y107.648 F7800.000
G1 X91.611 Y92.352 E4.58339 F600.000
G92 E0
G1 Z1.800 F7800.000
G1 X104.893 Y105.956 F7800.000
G1 X102.115 Y106.802 E0.87020 F600.000
G1 X96.866 Y106.802 E2.44304
G1 X109.425 Y106.802 F7800.000
G1 X104.176 Y106.802 E4.01589 F600.000
G1 X103.145 Y106.488 E4.33867
G1 X103.145 Y92.352 E8.57453
G92 E0
G1 X102.115 Y105.956 F7800.000
G1 X102.115 Y105.956 F7800.000
G1 X97.381 Y101.222 F7800.000
G1 X96.866 Y101.737 F7800.000
G1 X94.756 Y105.956 F7800.000
G1 X94.756 Y107.539 F7800.000
G1 X94.647 Y107.648 F7800.000
G1 X92.647 Y107.648 F7800.000
G1 X91.611 Y107.648 F7800.000
G1 X91.611 Y92.352 E4.58339 F600.000
G92 E0
G1 Z2.100 F7800.000
G1 X104.893 Y105.956 F7800.000
G1 X102.115 Y106.802 E0.87020 F600.000
G1 X96.866 Y106.802 E2.44304
G92 E0
G1 X109.425 Y106.802 F7800.000
G1 X104.176 Y106.802 E1.57284 F600.000
G1 X103.145 Y106.488 E1.89563
G1 X103.145 Y92.352 E6.13148
G92 E0
G1 X102.115 Y105.956 F7800.000
G1 X102.115 Y105.956 F7800.000
G1 X97.381 Y101.222 F7800.000
G1 X96.866 Y101.737 F7800.000
G1 X94.756 Y105.956 F7800.000
G1 X94.756 Y107.539 F7800.000
G1 X94.647 Y107.648 F7800.000
G1 X92.647 Y107.648 F7800.000
G1 X91.611 Y107.648 F7800.000
G1 X91.611 Y92.352 E4.58339 F600.000
G92 E0
M107
M104 S0 ; turn off temperature
G28 X0  ; home X axis
M84     ; disable motors

; filament used = 89.6mm (0.7cm3)

; avoid_crossing_perimeters = 1
; bed_shape = 0x0,250x0,250x250,0x250
; bed_temperature = 0
; before_layer_gcode = 
; bridge_acceleration = 0
; bridge_fan_speed = 100
; brim_width = 0
; complete_objects = 0
; cooling = 1
; default_acceleration = 0
; disable_fan_first_layers = 1
; duplicate_distance = 6
; end_gcode = M104 S0 ; turn off temperature\nG28 X0  ; home X axis\nM84     ; disable motors\n
; extruder_clearance_height = 20
; extruder_clearance_radius = 20
; extruder_offset = 0x0
; extrusion_axis = E
; extrusion_multiplier = 3
; fan_always_on = 0
; fan_below_layer_time = 60
; filament_colour = #FFFFFF
; filament_diameter = 3.125
; first_layer_acceleration = 0
; first_layer_bed_temperature = 0
; first_layer_extrusion_width = 150%
; first_layer_speed = 90%
; first_layer_temperature = 30
; gcode_arcs = 0
; gcode_comments = 0
; gcode_flavor = reprap
; infill_acceleration = 0
; infill_first = 0
; layer_gcode = 
; max_fan_speed = 100
; max_print_speed = 80
; max_volumetric_speed = 0
; min_fan_speed = 35
; min_print_speed = 10
; min_skirt_length = 0
; notes = 
; nozzle_diameter = 1.54
; only_retract_when_crossing_perimeters = 1
; ooze_prevention = 0
; output_filename_format = [input_filename_base].gcode
; perimeter_acceleration = 0
; post_process = 
; pressure_advance = 0
; resolution = 0
; retract_before_travel = 2
; retract_layer_change = 1
; retract_length = 0
; retract_length_toolchange = 10
; retract_lift = 0
; retract_restart_extra = 0
; retract_restart_extra_toolchange = 0
; retract_speed = 0
; skirt_distance = 6
; skirt_height = 1
; skirts = 0
; slowdown_below_layer_time = 30
; spiral_vase = 0
; standby_temperature_delta = -5
; start_gcode = G28 ; home all axes\nG1 Z5 F5000 ; lift nozzle\nM302\nM92 E10000\nM500\nM501\nG1 E100
; temperature = 30
; threads = 2
; toolchange_gcode = 
; travel_speed = 130
; use_firmware_retraction = 0
; use_relative_e_distances = 0
; use_volumetric_e = 0
; vibration_limit = 0
; wipe = 0
; z_offset = 0
; dont_support_bridges = 1
; extrusion_width = 0
; first_layer_height = 100%
; infill_only_where_needed = 0
; interface_shells = 0
; layer_height = 0.3
; raft_layers = 0
; seam_position = random
; support_material = 0
; support_material_angle = 0
; support_material_contact_distance = 0.2
; support_material_enforce_layers = 0
; support_material_extruder = 1
; support_material_extrusion_width = 0
; support_material_interface_extruder = 1
; support_material_interface_layers = 3
; support_material_interface_spacing = 0
; support_material_interface_speed = 100%
; support_material_pattern = pillars
; support_material_spacing = 2.5
; support_material_speed = 7
; support_material_threshold = 0
; xy_size_compensation = 0
; bottom_solid_layers = 3
; bridge_flow_ratio = 1
; bridge_speed = 10
; external_fill_pattern = rectilinear
; external_perimeter_extrusion_width = 0
; external_perimeter_speed = 70%
; external_perimeters_first = 1
; extra_perimeters = 1
; fill_angle = 45
; fill_density = 60%
; fill_pattern = rectilinear
; gap_fill_speed = 10
; infill_every_layers = 1
; infill_extruder = 1
; infill_extrusion_width = 0
; infill_overlap = 15%
; infill_speed = 10
; overhangs = 1
; perimeter_extruder = 1
; perimeter_extrusion_width = 0
; perimeter_speed = 10
; perimeters = 1
; small_perimeter_speed = 70%
; solid_infill_below_area = 70
; solid_infill_every_layers = 0
; solid_infill_extruder = 1
; solid_infill_extrusion_width = 0
; solid_infill_speed = 10
; thin_walls = 1
; top_infill_extrusion_width = 0
; top_solid_infill_speed = 10
; top_solid_layers = 3
