; generated by Slic3r 1.2.9 on 2016-03-11 at 01:25:56

; external perimeters extrusion width = 1.54mm
; perimeters extrusion width = 2.62mm
; infill extrusion width = 6.27mm
; solid infill extrusion width = 2.62mm
; top infill extrusion width = 2.62mm

M107
M104 S30 ; set temperature
G28 ; home all axes
G1 Z5 F5000 ; lift nozzle
M302
M92 E10000
M500
M501
G1 E100
M109 S30 ; wait for temperature to be reached
G21 ; set units to millimeters
G90 ; use absolute coordinates
M82 ; use absolute distances for extrusion
G92 E0
G1 Z0.300 F7800.000
G1 X104.953 Y100.307 F7800.000
G1 X109.627 Y107.423 E0.38525 F600.000
G1 X107.890 Y107.423 E0.46385
G1 X103.153 Y99.942 E0.86451
G1 X98.388 Y107.423 E1.26585
G1 X96.651 Y107.423 E1.34445
G1 X102.326 Y98.759 E1.81309
G1 X102.326 Y92.577 E2.09283
G1 X103.936 Y92.577 E2.16573
G1 X103.936 Y98.759 E2.44547
G1 X104.826 Y100.114 E2.51881 F600.000
G1 X105.119 Y101.077 F7800.000
G1 X102.551 Y98.510 E2.68607 F600.000
G1 X102.434 Y98.948 E2.70696
G1 X103.119 Y99.633 E2.75158
G1 X102.903 Y99.972 E2.77010
G1 X102.215 Y99.283 E2.81496
G1 X101.995 Y99.619 E2.83344
G1 X102.687 Y100.311 E2.87853
G1 X102.471 Y100.650 E2.89706
G1 X101.775 Y99.954 E2.94240
G1 X101.556 Y100.290 E2.96087
G1 X102.255 Y100.989 E3.00645
G1 X102.039 Y101.329 E3.02497
G1 X101.336 Y100.625 E3.07079
G1 X101.116 Y100.961 E3.08926
G1 X101.823 Y101.668 E3.13532
G1 X101.607 Y102.007 E3.15385
G1 X100.896 Y101.296 E3.20015
G1 X100.677 Y101.632 E3.21862
G1 X101.391 Y102.346 E3.26516
G1 X101.175 Y102.685 E3.28368
G1 X100.457 Y101.967 E3.33047
G1 X100.237 Y102.303 E3.34894
G1 X100.959 Y103.024 E3.39596
G1 X100.743 Y103.363 E3.41448
G1 X100.017 Y102.638 E3.46174
G1 X99.798 Y102.973 E3.48022
G1 X100.527 Y103.703 E3.52772
G1 X100.311 Y104.042 E3.54624
G1 X99.578 Y103.309 E3.59399
G1 X99.358 Y103.644 E3.61246
G1 X100.095 Y104.381 E3.66044
G1 X99.879 Y104.720 E3.67897
G1 X99.139 Y103.980 E3.72719
G1 X98.919 Y104.315 E3.74566
G1 X99.663 Y105.059 E3.79412
G1 X99.447 Y105.398 E3.81265
G1 X98.699 Y104.651 E3.86135
G1 X98.479 Y104.986 E3.87983
G1 X99.231 Y105.738 E3.92877
G1 X99.015 Y106.077 E3.94729
G1 X98.260 Y105.322 E3.99648
G1 X98.040 Y105.657 E4.01495
G1 X98.799 Y106.416 E4.06438
G1 X98.583 Y106.755 E4.08290
G1 X97.820 Y105.993 E4.13256
G1 X97.600 Y106.328 E4.15104
G1 X98.367 Y107.094 E4.20094
G1 X97.914 Y107.197 E4.22231
G1 X97.381 Y106.664 E4.25707
G1 X97.161 Y106.999 E4.27554
G1 X97.359 Y107.197 E4.28844
G1 X103.100 Y98.582 F7800.000
G1 X103.100 Y98.582 F7800.000
G1 X104.547 Y101.616 F7800.000
G1 X107.245 Y104.313 E4.46419 F600.000
G1 X106.464 Y104.643 F7800.000
G1 X109.018 Y107.197 E4.63055 F600.000
G1 X108.463 Y107.197 E4.65612
G1 X107.423 Y106.157 E4.72386
G1 X108.308 Y105.931 F7800.000
G1 X105.506 Y103.129 E4.90639 F600.000
G1 X106.182 Y102.695 F7800.000
G1 X103.588 Y100.102 E5.07535 F600.000
G1 X104.056 Y99.459 F7800.000
G1 X102.551 Y97.955 E5.17337 F600.000
G1 X102.551 Y97.399 E5.19895
G1 X103.711 Y98.558 E5.27446
G1 X103.711 Y98.003 E5.30004
G1 X102.551 Y96.844 E5.37555
G1 X102.551 Y96.289 E5.40112
G1 X103.711 Y97.448 E5.47663
G1 X103.711 Y96.893 E5.50221
G1 X102.551 Y95.734 E5.57772
G1 X102.551 Y95.179 E5.60329
G1 X103.711 Y96.338 E5.67880
G1 X103.711 Y95.782 E5.70438
G1 X102.551 Y94.623 E5.77989
G1 X102.551 Y94.068 E5.80547
G1 X103.711 Y95.227 E5.88098
G1 X103.711 Y94.672 E5.90655
G1 X102.551 Y93.513 E5.98206
G1 X102.551 Y92.958 E6.00764
G1 X103.711 Y94.117 E6.08315
G1 X103.711 Y93.562 E6.10872
G1 X102.952 Y92.803 E6.15816
G1 X103.507 Y92.803 E6.18373
G1 X103.711 Y93.007 E6.19700
G92 E0
G1 X102.100 Y98.692 F7800.000
G1 X97.064 Y97.189 F7800.000
G1 X94.028 Y92.352 F7800.000
G1 X92.028 Y92.352 F7800.000
G1 X91.802 Y99.491 F7800.000
G1 X91.802 Y107.423 E0.35893 F600.000
G1 X90.180 Y107.423 E0.43232 F600.000
G1 X90.180 Y92.577 E1.10409
G1 X91.802 Y92.577 E1.17749
G1 X91.802 Y99.260 E1.47988
G1 X91.577 Y93.007 F7800.000
G1 X91.373 Y92.803 E1.49329 F600.000
G1 X90.812 Y92.803 E1.51944
G1 X91.577 Y93.568 E1.56983
G1 X91.577 Y94.129 E1.59598
G1 X90.406 Y92.959 E1.67305
G1 X90.406 Y93.521 E1.69920
G1 X91.577 Y94.691 E1.77628
G1 X91.577 Y95.252 E1.80242
G1 X90.406 Y94.082 E1.87950
G1 X90.406 Y94.643 E1.90565
G1 X91.577 Y95.813 E1.98272
G1 X91.577 Y96.375 E2.00887
G1 X90.406 Y95.205 E2.08595
G1 X90.406 Y95.766 E2.11210
G1 X91.577 Y96.936 E2.18917
G1 X91.577 Y97.498 E2.21532
G1 X90.406 Y96.327 E2.29240
G1 X90.406 Y96.889 E2.31854
G1 X91.577 Y98.059 E2.39562
G1 X91.577 Y98.620 E2.42177
G1 X90.406 Y97.450 E2.49884
G1 X90.406 Y98.012 E2.52499
G1 X91.577 Y99.182 E2.60207
G1 X91.577 Y99.743 E2.62822
G1 X90.406 Y98.573 E2.70529
G1 X90.406 Y99.134 E2.73144
G1 X91.577 Y100.304 E2.80852
G1 X91.577 Y100.866 E2.83467
G1 X90.406 Y99.696 E2.91174
G1 X90.406 Y100.257 E2.93789
G1 X91.577 Y101.427 E3.01497
G1 X91.577 Y101.988 E3.04111
G1 X90.406 Y100.818 E3.11819
G1 X90.406 Y101.380 E3.14434
G1 X91.577 Y102.550 E3.22141
G1 X91.577 Y103.111 E3.24756
G1 X90.406 Y101.941 E3.32464
G1 X90.406 Y102.502 E3.35079
G1 X91.577 Y103.673 E3.42786
G1 X91.577 Y104.234 E3.45401
G1 X90.406 Y103.064 E3.53109
G1 X90.406 Y103.625 E3.55724
G1 X91.577 Y104.795 E3.63431
G1 X91.577 Y105.357 E3.66046
G1 X90.406 Y104.187 E3.73754
G1 X90.406 Y104.748 E3.76368
G1 X91.577 Y105.918 E3.84076
G1 X91.577 Y106.479 E3.86691
G1 X90.406 Y105.309 E3.94398
G1 X90.406 Y105.871 E3.97013
G1 X91.577 Y107.041 E4.04721
G1 X91.171 Y107.197 E4.06743
G1 X90.406 Y106.432 E4.11782
G1 X90.406 Y106.993 E4.14397
G1 X90.610 Y107.197 E4.15738
M106 S255
G92 E0
G1 Z0.600 F7800.000
G1 X103.131 Y92.352 F7800.000
G1 X103.131 Y99.209 E2.05473 F600.000
G1 X103.258 Y99.286 E2.09907
G1 X103.896 Y99.891 E2.36271
G1 X108.899 Y107.648 E5.12860
G1 X103.100 Y98.582 F7800.000
G1 X103.100 Y98.582 F7800.000
G1 X97.378 Y107.648 F7800.000
G1 X102.395 Y99.880 E7.89969 F600.000
G1 X103.008 Y99.287 E8.15525
G1 X104.161 Y98.560 E8.56368
G92 E0
G1 X98.512 Y107.648 F7800.000
G1 X98.512 Y107.648 F7800.000
G1 X98.512 Y108.648 F7800.000
G1 X96.234 Y108.648 F7800.000
G1 X94.132 Y107.543 F7800.000
G1 X94.028 Y107.648 F7800.000
G1 X92.028 Y107.648 F7800.000
G1 X90.992 Y107.648 F7800.000
G1 X90.992 Y92.352 E4.58339 F600.000
G92 E0
G1 Z0.900 F7800.000
G1 X103.131 Y92.352 F7800.000
G1 X103.131 Y99.209 E2.05473 F600.000
G1 X103.258 Y99.286 E2.09907
G1 X103.896 Y99.891 E2.36271
G1 X108.899 Y107.648 E5.12860
G1 X103.100 Y98.582 F7800.000
G1 X103.100 Y98.582 F7800.000
G1 X97.378 Y107.648 F7800.000
G1 X102.395 Y99.880 E7.89969 F600.000
G1 X103.008 Y99.287 E8.15525
G1 X104.161 Y98.560 E8.56368
G92 E0
G1 X98.512 Y107.648 F7800.000
G1 X98.512 Y107.648 F7800.000
G1 X98.512 Y108.648 F7800.000
G1 X96.234 Y108.648 F7800.000
G1 X94.132 Y107.543 F7800.000
G1 X94.028 Y107.648 F7800.000
G1 X92.028 Y107.648 F7800.000
G1 X90.992 Y107.648 F7800.000
G1 X90.992 Y92.352 E4.58339 F600.000
G92 E0
G1 Z1.200 F7800.000
G1 X103.131 Y92.352 F7800.000
G1 X103.131 Y99.209 E2.05473 F600.000
G1 X103.258 Y99.286 E2.09907
G1 X103.896 Y99.891 E2.36271
G1 X108.899 Y107.648 E5.12860
G1 X103.100 Y98.582 F7800.000
G1 X103.100 Y98.582 F7800.000
G1 X97.378 Y107.648 F7800.000
G1 X102.395 Y99.880 E7.89969 F600.000
G1 X103.008 Y99.287 E8.15525
G1 X104.161 Y98.560 E8.56368
G92 E0
G1 X98.512 Y107.648 F7800.000
G1 X98.512 Y107.648 F7800.000
G1 X98.512 Y108.648 F7800.000
G1 X96.234 Y108.648 F7800.000
G1 X94.132 Y107.543 F7800.000
G1 X94.028 Y107.648 F7800.000
G1 X92.028 Y107.648 F7800.000
G1 X90.992 Y107.648 F7800.000
G1 X90.992 Y92.352 E4.58339 F600.000
G92 E0
G1 Z1.500 F7800.000
G1 X103.131 Y92.352 F7800.000
G1 X103.131 Y99.209 E2.05473 F600.000
G1 X103.258 Y99.286 E2.09907
G1 X103.896 Y99.891 E2.36271
G1 X108.899 Y107.648 E5.12860
G1 X103.100 Y98.582 F7800.000
G1 X103.100 Y98.582 F7800.000
G1 X97.378 Y107.648 F7800.000
G1 X102.395 Y99.880 E7.89969 F600.000
G1 X103.008 Y99.287 E8.15525
G1 X104.161 Y98.560 E8.56368
G92 E0
G1 X98.512 Y107.648 F7800.000
G1 X98.512 Y107.648 F7800.000
G1 X98.512 Y108.648 F7800.000
G1 X96.234 Y108.648 F7800.000
G1 X94.132 Y107.543 F7800.000
G1 X94.028 Y107.648 F7800.000
G1 X92.028 Y107.648 F7800.000
G1 X90.992 Y107.648 F7800.000
G1 X90.992 Y92.352 E4.58339 F600.000
G92 E0
G1 Z1.800 F7800.000
G1 X103.131 Y92.352 F7800.000
G1 X103.131 Y99.209 E2.05473 F600.000
G1 X103.258 Y99.286 E2.09907
G1 X103.896 Y99.891 E2.36271
G1 X108.899 Y107.648 E5.12860
G1 X103.100 Y98.582 F7800.000
G1 X103.100 Y98.582 F7800.000
G1 X97.378 Y107.648 F7800.000
G1 X102.395 Y99.880 E7.89969 F600.000
G1 X103.008 Y99.287 E8.15525
G1 X104.161 Y98.560 E8.56368
G92 E0
G1 X98.512 Y107.648 F7800.000
G1 X98.512 Y107.648 F7800.000
G1 X98.512 Y108.648 F7800.000
G1 X96.234 Y108.648 F7800.000
G1 X94.132 Y107.543 F7800.000
G1 X94.028 Y107.648 F7800.000
G1 X92.028 Y107.648 F7800.000
G1 X90.992 Y107.648 F7800.000
G1 X90.992 Y92.352 E4.58339 F600.000
G92 E0
G1 Z2.100 F7800.000
G1 X103.131 Y92.352 F7800.000
G1 X103.131 Y99.209 E2.05473 F600.000
G1 X103.258 Y99.286 E2.09907
G1 X103.896 Y99.891 E2.36271
G1 X108.899 Y107.648 E5.12860
G92 E0
G1 X103.100 Y98.582 F7800.000
G1 X103.100 Y98.582 F7800.000
G1 X97.378 Y107.648 F7800.000
G1 X102.395 Y99.880 E2.77109 F600.000
G1 X103.008 Y99.287 E3.02666
G1 X104.161 Y98.560 E3.43508
G92 E0
G1 X98.512 Y107.648 F7800.000
G1 X98.512 Y107.648 F7800.000
G1 X98.512 Y108.648 F7800.000
G1 X96.234 Y108.648 F7800.000
G1 X94.132 Y107.543 F7800.000
G1 X94.028 Y107.648 F7800.000
G1 X92.028 Y107.648 F7800.000
G1 X90.992 Y107.648 F7800.000
G1 X90.992 Y92.352 E4.58339 F600.000
G92 E0
M107
M104 S0 ; turn off temperature
G28 X0  ; home X axis
M84     ; disable motors

; filament used = 89.2mm (0.7cm3)

; avoid_crossing_perimeters = 1
; bed_shape = 0x0,250x0,250x250,0x250
; bed_temperature = 0
; before_layer_gcode = 
; bridge_acceleration = 0
; bridge_fan_speed = 100
; brim_width = 0
; complete_objects = 0
; cooling = 1
; default_acceleration = 0
; disable_fan_first_layers = 1
; duplicate_distance = 6
; end_gcode = M104 S0 ; turn off temperature\nG28 X0  ; home X axis\nM84     ; disable motors\n
; extruder_clearance_height = 20
; extruder_clearance_radius = 20
; extruder_offset = 0x0
; extrusion_axis = E
; extrusion_multiplier = 3
; fan_always_on = 0
; fan_below_layer_time = 60
; filament_colour = #FFFFFF
; filament_diameter = 3.125
; first_layer_acceleration = 0
; first_layer_bed_temperature = 0
; first_layer_extrusion_width = 150%
; first_layer_speed = 90%
; first_layer_temperature = 30
; gcode_arcs = 0
; gcode_comments = 0
; gcode_flavor = reprap
; infill_acceleration = 0
; infill_first = 0
; layer_gcode = 
; max_fan_speed = 100
; max_print_speed = 80
; max_volumetric_speed = 0
; min_fan_speed = 35
; min_print_speed = 10
; min_skirt_length = 0
; notes = 
; nozzle_diameter = 1.54
; only_retract_when_crossing_perimeters = 1
; ooze_prevention = 0
; output_filename_format = [input_filename_base].gcode
; perimeter_acceleration = 0
; post_process = 
; pressure_advance = 0
; resolution = 0
; retract_before_travel = 2
; retract_layer_change = 1
; retract_length = 0
; retract_length_toolchange = 10
; retract_lift = 0
; retract_restart_extra = 0
; retract_restart_extra_toolchange = 0
; retract_speed = 0
; skirt_distance = 6
; skirt_height = 1
; skirts = 0
; slowdown_below_layer_time = 30
; spiral_vase = 0
; standby_temperature_delta = -5
; start_gcode = G28 ; home all axes\nG1 Z5 F5000 ; lift nozzle\nM302\nM92 E10000\nM500\nM501\nG1 E100
; temperature = 30
; threads = 2
; toolchange_gcode = 
; travel_speed = 130
; use_firmware_retraction = 0
; use_relative_e_distances = 0
; use_volumetric_e = 0
; vibration_limit = 0
; wipe = 0
; z_offset = 0
; dont_support_bridges = 1
; extrusion_width = 0
; first_layer_height = 100%
; infill_only_where_needed = 0
; interface_shells = 0
; layer_height = 0.3
; raft_layers = 0
; seam_position = random
; support_material = 0
; support_material_angle = 0
; support_material_contact_distance = 0.2
; support_material_enforce_layers = 0
; support_material_extruder = 1
; support_material_extrusion_width = 0
; support_material_interface_extruder = 1
; support_material_interface_layers = 3
; support_material_interface_spacing = 0
; support_material_interface_speed = 100%
; support_material_pattern = pillars
; support_material_spacing = 2.5
; support_material_speed = 7
; support_material_threshold = 0
; xy_size_compensation = 0
; bottom_solid_layers = 3
; bridge_flow_ratio = 1
; bridge_speed = 10
; external_fill_pattern = rectilinear
; external_perimeter_extrusion_width = 0
; external_perimeter_speed = 70%
; external_perimeters_first = 1
; extra_perimeters = 1
; fill_angle = 45
; fill_density = 60%
; fill_pattern = rectilinear
; gap_fill_speed = 10
; infill_every_layers = 1
; infill_extruder = 1
; infill_extrusion_width = 0
; infill_overlap = 15%
; infill_speed = 10
; overhangs = 1
; perimeter_extruder = 1
; perimeter_extrusion_width = 0
; perimeter_speed = 10
; perimeters = 1
; small_perimeter_speed = 70%
; solid_infill_below_area = 70
; solid_infill_every_layers = 0
; solid_infill_extruder = 1
; solid_infill_extrusion_width = 0
; solid_infill_speed = 10
; thin_walls = 1
; top_infill_extrusion_width = 0
; top_solid_infill_speed = 10
; top_solid_layers = 3
