; generated by Slic3r 1.2.9 on 2016-03-11 at 01:25:58

; external perimeters extrusion width = 1.54mm
; perimeters extrusion width = 2.62mm
; infill extrusion width = 6.27mm
; solid infill extrusion width = 2.62mm
; top infill extrusion width = 2.62mm

M107
M104 S30 ; set temperature
G28 ; home all axes
G1 Z5 F5000 ; lift nozzle
M302
M92 E10000
M500
M501
G1 E100
M109 S30 ; wait for temperature to be reached
G21 ; set units to millimeters
G90 ; use absolute coordinates
M82 ; use absolute distances for extrusion
G92 E0
G1 Z0.300 F7800.000
G1 X112.410 Y96.427 F7800.000
G1 X107.970 Y107.519 E0.54064 F378.000
G1 X105.920 Y107.519 E0.63337
G1 X99.881 Y92.673 E1.35860
G1 X101.541 Y92.673 E1.43367
G1 X103.105 Y96.659 E1.62745
G1 X103.293 Y97.137 E1.65066 F378.000
G1 X110.543 Y97.137 E1.97873
G1 X112.284 Y92.673 E2.19554
G1 X113.913 Y92.673 E2.26924
G1 X112.496 Y96.212 E2.44174
G1 X110.101 Y98.303 F7800.000
G1 X107.826 Y104.182 E2.72701 F378.000
G1 X107.116 Y106.294 E2.82781
G1 X106.717 Y106.293 E2.84587
G1 X106.398 Y105.291 E2.89345
G1 X105.809 Y103.640 E2.97276
G1 X103.745 Y98.303 E3.23171
G1 X109.870 Y98.303 E3.50889 F378.000
G1 X108.979 Y97.363 F7800.000
G1 X109.693 Y98.077 E3.55504 F540.000
G1 X109.142 Y98.077 E3.58020
G1 X108.428 Y97.363 E3.62635
G1 X107.878 Y97.363 E3.65151
G1 X108.592 Y98.077 E3.69766
G1 X108.041 Y98.077 E3.72283
G1 X107.327 Y97.363 E3.76897
G1 X106.776 Y97.363 E3.79414
G1 X107.490 Y98.077 E3.84028
G1 X106.940 Y98.077 E3.86545
G1 X106.225 Y97.363 E3.91160
G1 X105.675 Y97.363 E3.93676
G1 X106.389 Y98.077 E3.98291
G1 X105.838 Y98.077 E4.00807
G1 X105.124 Y97.363 E4.05422
G1 X104.573 Y97.363 E4.07938
G1 X105.287 Y98.077 E4.12553
G1 X104.737 Y98.077 E4.15070
G1 X104.023 Y97.363 E4.19684
G1 X103.472 Y97.363 E4.22201
G1 X104.186 Y98.077 E4.26815
G1 X103.635 Y98.077 E4.29332
G1 X101.491 Y95.933 E4.43187
G1 X101.114 Y95.005 F7800.000
G1 X102.860 Y96.751 E4.54475 F540.000
G1 X102.505 Y95.845 F7800.000
G1 X100.736 Y94.076 E4.65904 F540.000
G1 X100.358 Y93.148 F7800.000
G1 X102.149 Y94.938 E4.77474 F540.000
G1 X101.793 Y94.032 F7800.000
G1 X100.660 Y92.899 E4.84796 F540.000
G1 X101.211 Y92.899 E4.87312
G1 X101.437 Y93.125 E4.88776
G1 X101.869 Y96.861 F7800.000
G1 X103.562 Y98.555 E4.99720 F540.000
G1 X102.624 Y98.718 F7800.000
G1 X104.257 Y100.351 E5.10272 F540.000
G1 X103.379 Y100.575 F7800.000
G1 X104.952 Y102.147 E5.20433 F540.000
G1 X104.135 Y102.431 F7800.000
G1 X105.641 Y103.938 E5.30168 F540.000
G1 X104.890 Y104.288 F7800.000
G1 X106.242 Y105.640 E5.38907 F540.000
G1 X105.645 Y106.145 F7800.000
G1 X106.793 Y107.293 E5.46328 F540.000
G1 X107.344 Y107.293 E5.48844
G1 X106.570 Y106.519 E5.53847
G1 X107.122 Y106.520 E5.56369
G1 X107.852 Y107.250 E5.61088
G1 X108.015 Y106.863 E5.63009
G1 X107.361 Y106.208 E5.67241
G1 X107.499 Y105.796 E5.69228
G1 X108.173 Y106.470 E5.73582
G1 X108.330 Y106.076 E5.75518
G1 X107.637 Y105.384 E5.79994
G1 X107.776 Y104.971 E5.81981
G1 X108.488 Y105.683 E5.86581
G1 X108.645 Y105.290 E5.88516
G1 X107.914 Y104.559 E5.93238
G1 X108.055 Y104.149 E5.95219
G1 X108.803 Y104.896 E6.00049
G1 X108.960 Y104.503 E6.01985
G1 X108.209 Y103.752 E6.06840
G1 X108.362 Y103.355 E6.08785
G1 X109.117 Y104.110 E6.13664
G1 X109.275 Y103.717 E6.15600
G1 X108.516 Y102.958 E6.20503
G1 X108.670 Y102.561 E6.22448
G1 X109.432 Y103.323 E6.27375
G1 X109.590 Y102.930 E6.29311
G1 X108.823 Y102.164 E6.34263
G1 X108.977 Y101.767 E6.36208
G1 X109.747 Y102.537 E6.41184
G1 X109.905 Y102.143 E6.43120
G1 X109.131 Y101.370 E6.48120
G1 X109.284 Y100.973 E6.50065
G1 X110.062 Y101.750 E6.55089
G1 X110.219 Y101.357 E6.57025
G1 X109.438 Y100.576 E6.62073
G1 X109.592 Y100.179 E6.64019
G1 X110.377 Y100.964 E6.69092
G1 X110.534 Y100.570 E6.71027
G1 X109.746 Y99.782 E6.76124
G1 X109.899 Y99.385 E6.78070
G1 X110.692 Y100.177 E6.83191
G1 X110.849 Y99.784 E6.85127
G1 X110.053 Y98.988 E6.90272
G1 X110.207 Y98.590 E6.92218
G1 X111.007 Y99.390 E6.97387
G1 X111.164 Y98.997 E6.99323
G1 X109.530 Y97.363 E7.09884
G1 X110.080 Y97.363 E7.12401
G1 X111.321 Y98.604 E7.20420
G1 X111.479 Y98.211 E7.22356
G1 X110.631 Y97.363 E7.27834
G1 X110.814 Y96.996 E7.29710
G1 X111.636 Y97.817 E7.35021
G1 X111.794 Y97.424 E7.36956
G1 X110.969 Y96.599 E7.42286
G1 X111.124 Y96.203 E7.44229
G1 X111.951 Y97.031 E7.49577
G1 X112.109 Y96.637 E7.51513
G1 X111.278 Y95.807 E7.56880
G1 X111.433 Y95.411 E7.58823
G1 X112.266 Y96.244 E7.64209
G1 X112.423 Y95.851 E7.66145
G1 X111.587 Y95.015 E7.71549
G1 X111.742 Y94.618 E7.73493
G1 X112.581 Y95.458 E7.78916
G1 X112.738 Y95.064 E7.80852
G1 X111.896 Y94.222 E7.86294
G1 X112.051 Y93.826 E7.88237
G1 X112.896 Y94.671 E7.93698
G1 X113.053 Y94.278 E7.95634
G1 X112.205 Y93.430 E8.01114
G1 X112.360 Y93.034 E8.03057
G1 X113.211 Y93.885 E8.08556
G1 X113.368 Y93.491 E8.10492
G1 X112.776 Y92.899 E8.14319
G1 X113.326 Y92.899 E8.16836
G1 X113.525 Y93.098 E8.18122
G92 E0
G1 X103.910 Y99.453 F7800.000
G1 X102.246 Y97.790 E0.10748 F540.000
G1 X103.002 Y99.646 F7800.000
G1 X104.604 Y101.249 E0.21104 F540.000
G1 X103.757 Y101.503 F7800.000
G1 X105.299 Y103.045 E0.31069 F540.000
G1 X104.512 Y103.360 F7800.000
G1 X105.947 Y104.794 E0.40340 F540.000
G1 X105.267 Y105.216 F7800.000
G1 X106.499 Y106.448 E0.48301 F540.000
G1 X106.023 Y107.073 F7800.000
G1 X106.243 Y107.293 E0.49722 F540.000
G92 E0
G1 X103.446 Y96.912 F7800.000
G1 X105.715 Y93.584 F7800.000
G1 X101.694 Y91.352 F7800.000
G1 X96.992 Y93.573 F7800.000
G1 X97.624 Y95.369 F7800.000
G1 X97.959 Y96.726 F7800.000
G1 X94.890 Y97.025 F7800.000
G1 X93.048 Y96.896 F7800.000
G1 X92.979 Y96.025 E0.03955 F378.000
G1 X92.746 Y95.217 E0.07757
G1 X92.349 Y94.566 E0.11210
G1 X91.808 Y94.089 E0.14474
G1 X91.150 Y93.804 E0.17719
G1 X90.388 Y93.710 E0.21191
G1 X89.679 Y93.796 E0.24424
G1 X89.047 Y94.055 E0.27513
G1 X88.503 Y94.484 E0.30651
G1 X88.067 Y95.060 E0.33917
G1 X87.754 Y95.757 E0.37377
G1 X87.613 Y96.352 E0.40142
G1 X86.062 Y96.095 E0.47255
G1 X86.783 Y94.173 E0.56541
G1 X88.236 Y92.911 E0.65248
G1 X90.387 Y92.483 E0.75174
G1 X91.555 Y92.611 E0.80492
G1 X91.624 Y92.618 E0.80803 F378.000
G1 X92.667 Y93.020 E0.85861
G1 X93.518 Y93.686 E0.90751
G1 X94.151 Y94.587 E0.95736
G1 X94.535 Y95.697 E1.01050
G1 X94.665 Y97.036 E1.07136
G1 X94.665 Y107.519 E1.54572
G1 X90.102 Y107.519 E1.75219
G1 X90.102 Y106.277 E1.80839
G1 X93.054 Y106.277 E1.94196
G1 X93.054 Y97.127 E2.35600
G1 X93.047 Y95.351 F7800.000
G1 X94.397 Y96.701 E2.44411 F540.000
G1 X94.439 Y97.299 E2.47177
G1 X93.216 Y96.077 E2.55155
G1 X93.264 Y96.680 E2.57950
G1 X94.439 Y97.855 E2.65616
G1 X94.439 Y98.411 E2.68182
G1 X93.280 Y97.252 E2.75744
G1 X93.280 Y97.808 E2.78310
G1 X94.439 Y98.967 E2.85873
G1 X94.439 Y99.523 E2.88438
G1 X93.280 Y98.364 E2.96001
G1 X93.280 Y98.920 E2.98567
G1 X94.439 Y100.080 E3.06129
G1 X94.439 Y100.636 E3.08695
G1 X93.280 Y99.476 E3.16258
G1 X93.280 Y100.033 E3.18823
G1 X94.439 Y101.192 E3.26386
G1 X94.439 Y101.748 E3.28952
G1 X93.280 Y100.589 E3.36514
G1 X93.280 Y101.145 E3.39080
G1 X94.439 Y102.304 E3.46643
G1 X94.439 Y102.860 E3.49208
G1 X93.280 Y101.701 E3.56771
G1 X93.280 Y102.257 E3.59337
G1 X94.439 Y103.416 E3.66899
G1 X94.439 Y103.972 E3.69465
G1 X93.280 Y102.813 E3.77028
G1 X93.280 Y103.369 E3.79593
G1 X94.439 Y104.528 E3.87156
G1 X94.439 Y105.084 E3.89722
G1 X93.280 Y103.925 E3.97284
G1 X93.280 Y104.481 E3.99850
G1 X94.439 Y105.640 E4.07413
G1 X94.439 Y106.196 E4.09978
G1 X93.280 Y105.037 E4.17541
G1 X93.280 Y105.593 E4.20107
G1 X94.439 Y106.752 E4.27669
G1 X94.412 Y107.281 E4.30111
G1 X93.280 Y106.149 E4.37494
G1 X93.078 Y106.503 F7800.000
G1 X93.868 Y107.293 E4.42649 F540.000
G1 X93.312 Y107.293 E4.45215
G1 X92.522 Y106.503 E4.50370
G1 X91.966 Y106.503 E4.52935
G1 X92.756 Y107.293 E4.58091
G1 X92.200 Y107.293 E4.60656
G1 X91.410 Y106.503 E4.65811
G1 X90.854 Y106.503 E4.68377
G1 X91.644 Y107.293 E4.73532
G1 X91.088 Y107.293 E4.76097
G1 X90.328 Y106.533 E4.81054
G1 X90.328 Y107.089 E4.83619
G1 X90.532 Y107.293 E4.84948
G92 E0
G1 X93.829 Y96.942 F7800.000
G1 X93.760 Y95.884 F7800.000
G1 X93.756 Y95.867 F7800.000
G1 X93.572 Y95.283 F7800.000
G1 X87.036 Y96.012 F7800.000
G1 X86.507 Y95.484 E0.03447 F540.000
G1 X86.659 Y95.080 E0.05439
G1 X87.500 Y95.921 E0.10927
G1 X87.646 Y95.511 E0.12936
G1 X86.811 Y94.676 E0.18385
G1 X86.977 Y94.286 E0.20339
G1 X87.818 Y95.127 E0.25826
G1 X88.033 Y94.785 E0.27687
G1 X87.261 Y94.013 E0.32724
G1 X87.558 Y93.755 E0.34543
G1 X88.272 Y94.469 E0.39202
G1 X88.556 Y94.197 E0.41017
G1 X87.856 Y93.496 E0.45587
G1 X88.153 Y93.238 E0.47405
G1 X88.867 Y93.951 E0.52061
G1 X89.233 Y93.761 E0.53964
G1 X88.538 Y93.067 E0.58495
G1 X89.002 Y92.975 E0.60677
G1 X89.627 Y93.600 E0.64756
G1 X90.109 Y93.526 E0.67006
G1 X89.466 Y92.882 E0.71203
G1 X89.930 Y92.790 E0.73385
G1 X90.643 Y93.503 E0.78039
G1 X91.277 Y93.581 E0.80985
G1 X90.420 Y92.724 E0.86579
G1 X91.043 Y92.791 E0.89475
G1 X94.337 Y96.085 E1.10964
G1 X94.135 Y95.327 E1.14587
G1 X91.757 Y92.949 E1.30102
G1 X93.079 Y93.715 F7800.000
G1 X93.442 Y94.078 E1.32467 F540.000
M106 S255
G92 E0
G1 Z0.600 F7800.000
G1 X104.924 Y100.729 F7800.000
G1 X102.548 Y97.264 E1.25890 F600.000
G1 X100.623 Y92.448 E2.81311
G92 E0
G1 X111.309 Y94.553 F7800.000
G1 X110.655 Y98.870 E1.30813 F600.000
G1 X108.472 Y104.416 E3.09418
G1 X107.764 Y106.341 E3.70872
G1 X107.496 Y106.819 E3.87304
G1 X106.953 Y106.906 E4.03792
G1 X106.383 Y106.832 E4.21016
G1 X106.089 Y106.321 E4.38675
G1 X105.172 Y103.877 E5.16887
G1 X103.186 Y98.871 E6.78268
G1 X103.049 Y97.996 E7.04819
G1 X103.446 Y97.842 E7.17570
G1 X104.073 Y97.720 E7.36708
G1 X109.773 Y97.720 E9.07506
G1 X110.389 Y97.837 E9.26297
G1 X110.789 Y97.990 E9.39110
G1 X111.284 Y97.261 E9.65512
G1 X113.186 Y92.448 E11.20581
G92 E0
G1 X95.384 Y92.334 F7800.000
G1 X91.793 Y91.330 F7800.000
G1 X91.499 Y91.314 F7800.000
G1 X90.486 Y91.259 F7800.000
G1 X90.377 Y92.256 F7800.000
G1 X86.686 Y96.426 F7800.000
G1 X87.434 Y94.626 E0.58425 F600.000
G1 X88.103 Y93.931 E0.87319
G1 X88.553 Y93.558 E1.04831
G1 X88.833 Y93.448 E1.13848
G1 X89.640 Y93.220 E1.38993
G1 X90.414 Y93.101 E1.62451
G1 X91.192 Y93.189 E1.85917
G1 X91.472 Y93.245 E1.94450
G1 X92.035 Y93.476 E2.12696
G1 X92.324 Y93.625 E2.22430
G1 X92.790 Y94.013 E2.40606
G1 X92.981 Y94.195 E2.48521
G1 X93.376 Y94.799 E2.70122
G1 X93.460 Y94.940 E2.75057
G1 X93.730 Y95.785 E3.01628
G1 X93.769 Y95.985 E3.07740
G1 X93.860 Y97.075 E3.40516
G1 X93.860 Y106.052 E6.09506
G1 X93.778 Y106.632 E6.27054
G1 X92.829 Y106.898 E6.56584
G1 X89.877 Y106.898 E7.45040
G92 E0
G1 Z0.900 F7800.000
G1 X104.924 Y100.729 F7800.000
G1 X102.548 Y97.264 E1.25890 F600.000
G1 X100.623 Y92.448 E2.81311
G92 E0
G1 X111.309 Y94.553 F7800.000
G1 X110.655 Y98.870 E1.30813 F600.000
G1 X108.472 Y104.416 E3.09418
G1 X107.764 Y106.341 E3.70873
G1 X107.496 Y106.819 E3.87305
G1 X106.953 Y106.906 E4.03792
G1 X106.383 Y106.832 E4.21017
G1 X106.089 Y106.321 E4.38676
G1 X105.172 Y103.877 E5.16887
G1 X103.186 Y98.871 E6.78269
G1 X103.049 Y97.996 E7.04820
G1 X103.446 Y97.842 E7.17570
G1 X104.073 Y97.720 E7.36708
G1 X109.773 Y97.720 E9.07507
G1 X110.389 Y97.837 E9.26297
G1 X110.789 Y97.990 E9.39111
G1 X111.284 Y97.261 E9.65512
G1 X113.186 Y92.448 E11.20582
G92 E0
G1 X110.389 Y96.912 F7800.000
G1 X110.389 Y96.912 F7800.000
G1 X108.115 Y93.584 F7800.000
G1 X105.715 Y93.584 F7800.000
G1 X103.188 Y91.861 F7800.000
G1 X101.694 Y91.352 F7800.000
G1 X99.547 Y91.352 F7800.000
G1 X96.798 Y93.076 F7800.000
G1 X96.551 Y92.941 F7800.000
G1 X95.384 Y92.334 F7800.000
G1 X94.811 Y92.087 F7800.000
G1 X93.664 Y91.691 F7800.000
G1 X93.256 Y91.583 F7800.000
G1 X92.075 Y91.364 F7800.000
G1 X91.793 Y91.330 F7800.000
G1 X91.303 Y91.303 F7800.000
G1 X91.190 Y92.344 F7800.000
G1 X86.686 Y96.426 F7800.000
G1 X87.434 Y94.626 E0.58425 F600.000
G1 X88.103 Y93.931 E0.87319
G1 X88.553 Y93.558 E1.04831
G1 X88.833 Y93.448 E1.13848
G1 X89.640 Y93.220 E1.38993
G1 X90.414 Y93.101 E1.62451
G1 X91.192 Y93.189 E1.85917
G1 X91.472 Y93.245 E1.94450
G1 X92.035 Y93.476 E2.12696
G1 X92.324 Y93.625 E2.22430
G1 X92.790 Y94.013 E2.40606
G1 X92.981 Y94.195 E2.48521
G1 X93.376 Y94.799 E2.70122
G1 X93.460 Y94.940 E2.75057
G1 X93.730 Y95.785 E3.01628
G1 X93.769 Y95.985 E3.07740
G1 X93.860 Y97.075 E3.40516
G1 X93.860 Y106.052 E6.09506
G1 X93.778 Y106.632 E6.27054
G1 X92.829 Y106.898 E6.56584
G1 X89.877 Y106.898 E7.45040
G92 E0
G1 Z1.200 F7800.000
G1 X104.924 Y100.729 F7800.000
G1 X102.548 Y97.264 E1.25890 F600.000
G1 X100.623 Y92.448 E2.81311
G92 E0
G1 X111.309 Y94.553 F7800.000
G1 X110.655 Y98.870 E1.30813 F600.000
G1 X108.472 Y104.416 E3.09418
G1 X107.764 Y106.341 E3.70872
G1 X107.496 Y106.819 E3.87304
G1 X106.953 Y106.906 E4.03792
G1 X106.383 Y106.832 E4.21016
G1 X106.089 Y106.321 E4.38675
G1 X105.172 Y103.877 E5.16887
G1 X103.186 Y98.871 E6.78268
G1 X103.049 Y97.996 E7.04819
G1 X103.446 Y97.842 E7.17570
G1 X104.073 Y97.720 E7.36708
G1 X109.773 Y97.720 E9.07506
G1 X110.389 Y97.837 E9.26297
G1 X110.789 Y97.990 E9.39110
G1 X111.284 Y97.261 E9.65512
G1 X113.186 Y92.448 E11.20582
G92 E0
G1 X110.389 Y96.912 F7800.000
G1 X110.389 Y96.912 F7800.000
G1 X108.115 Y93.584 F7800.000
G1 X105.715 Y93.584 F7800.000
G1 X105.466 Y93.414 F7800.000
G1 X103.188 Y91.861 F7800.000
G1 X101.694 Y91.352 F7800.000
G1 X99.547 Y91.352 F7800.000
G1 X96.798 Y93.076 F7800.000
G1 X96.551 Y92.941 F7800.000
G1 X95.384 Y92.334 F7800.000
G1 X94.811 Y92.087 F7800.000
G1 X93.664 Y91.691 F7800.000
G1 X93.256 Y91.583 F7800.000
G1 X92.075 Y91.364 F7800.000
G1 X91.793 Y91.330 F7800.000
G1 X91.107 Y91.293 F7800.000
G1 X90.995 Y92.323 F7800.000
G1 X86.686 Y96.426 F7800.000
G1 X87.434 Y94.626 E0.58425 F600.000
G1 X88.103 Y93.931 E0.87319
G1 X88.553 Y93.558 E1.04831
G1 X88.833 Y93.448 E1.13848
G1 X89.640 Y93.220 E1.38993
G1 X90.414 Y93.101 E1.62451
G1 X91.192 Y93.189 E1.85917
G1 X91.472 Y93.245 E1.94450
G1 X92.035 Y93.476 E2.12696
G1 X92.324 Y93.625 E2.22430
G1 X92.790 Y94.013 E2.40606
G1 X92.981 Y94.195 E2.48521
G1 X93.376 Y94.799 E2.70122
G1 X93.460 Y94.940 E2.75057
G1 X93.730 Y95.785 E3.01628
G1 X93.769 Y95.985 E3.07740
G1 X93.860 Y97.075 E3.40516
G1 X93.860 Y106.052 E6.09506
G1 X93.778 Y106.632 E6.27054
G1 X92.829 Y106.898 E6.56585
G1 X89.877 Y106.898 E7.45040
G92 E0
G1 Z1.500 F7800.000
G1 X104.924 Y100.729 F7800.000
G1 X102.548 Y97.264 E1.25890 F600.000
G1 X100.623 Y92.448 E2.81311
G92 E0
G1 X111.309 Y94.553 F7800.000
G1 X110.655 Y98.870 E1.30813 F600.000
G1 X108.472 Y104.416 E3.09418
G1 X107.764 Y106.341 E3.70872
G1 X107.496 Y106.819 E3.87304
G1 X106.953 Y106.906 E4.03792
G1 X106.383 Y106.832 E4.21016
G1 X106.089 Y106.321 E4.38675
G1 X105.172 Y103.877 E5.16887
G1 X103.186 Y98.871 E6.78268
G1 X103.049 Y97.996 E7.04819
G1 X103.446 Y97.842 E7.17570
G1 X104.073 Y97.720 E7.36708
G1 X109.773 Y97.720 E9.07506
G1 X110.389 Y97.837 E9.26297
G1 X110.789 Y97.990 E9.39110
G1 X111.284 Y97.261 E9.65511
G1 X113.186 Y92.448 E11.20581
G92 E0
G1 X110.389 Y96.912 F7800.000
G1 X110.389 Y96.912 F7800.000
G1 X108.115 Y93.584 F7800.000
G1 X105.715 Y93.584 F7800.000
G1 X104.747 Y92.924 F7800.000
G1 X104.747 Y92.924 F7800.000
G1 X103.188 Y91.861 F7800.000
G1 X101.694 Y91.352 F7800.000
G1 X99.547 Y91.352 F7800.000
G1 X96.798 Y93.076 F7800.000
G1 X96.551 Y92.941 F7800.000
G1 X95.384 Y92.334 F7800.000
G1 X94.811 Y92.087 F7800.000
G1 X93.664 Y91.691 F7800.000
G1 X93.256 Y91.583 F7800.000
G1 X92.075 Y91.364 F7800.000
G1 X91.793 Y91.330 F7800.000
G1 X90.911 Y91.282 F7800.000
G1 X90.800 Y92.302 F7800.000
G1 X86.686 Y96.426 F7800.000
G1 X87.434 Y94.626 E0.58425 F600.000
G1 X88.103 Y93.931 E0.87319
G1 X88.553 Y93.558 E1.04831
G1 X88.833 Y93.448 E1.13848
G1 X89.640 Y93.220 E1.38993
G1 X90.414 Y93.101 E1.62451
G1 X91.192 Y93.189 E1.85917
G1 X91.472 Y93.245 E1.94450
G1 X92.035 Y93.476 E2.12696
G1 X92.324 Y93.625 E2.22430
G1 X92.790 Y94.013 E2.40606
G1 X92.981 Y94.195 E2.48521
G1 X93.376 Y94.799 E2.70122
G1 X93.460 Y94.940 E2.75057
G1 X93.730 Y95.785 E3.01628
G1 X93.769 Y95.985 E3.07740
G1 X93.860 Y97.075 E3.40516
G1 X93.860 Y106.052 E6.09506
G1 X93.778 Y106.632 E6.27054
G1 X92.829 Y106.898 E6.56585
G1 X89.877 Y106.898 E7.45040
G92 E0
G1 Z1.800 F7800.000
G1 X104.924 Y100.729 F7800.000
G1 X102.548 Y97.264 E1.25890 F600.000
