; generated by Slic3r 1.2.9 on 2016-03-11 at 01:25:59

; external perimeters extrusion width = 1.54mm
; perimeters extrusion width = 2.62mm
; infill extrusion width = 6.27mm
; solid infill extrusion width = 2.62mm
; top infill extrusion width = 2.62mm

M107
M104 S30 ; set temperature
G28 ; home all axes
G1 Z5 F5000 ; lift nozzle
M302
M92 E10000
M500
M501
G1 E100
M109 S30 ; wait for temperature to be reached
G21 ; set units to millimeters
G90 ; use absolute coordinates
M82 ; use absolute distances for extrusion
G92 E0
G1 Z0.300 F7800.000
G1 X112.526 Y99.119 F7800.000
G1 X111.833 Y99.657 E0.03967 F378.000
G1 X110.946 Y100.042 E0.08341
G1 X109.827 Y100.273 E0.13512
G1 X109.804 Y100.696 E0.15425
G1 X110.657 Y100.974 E0.19486
G1 X111.327 Y101.363 E0.22992
G1 X111.862 Y101.874 E0.26343
G1 X112.254 Y102.494 E0.29656
G1 X112.489 Y103.206 E0.33052
G1 X112.567 Y103.997 E0.36649
G1 X112.004 Y105.949 E0.45839
G1 X110.325 Y107.115 E0.55090
G1 X107.411 Y107.519 E0.68400
G1 X102.110 Y107.519 E0.92389
G1 X102.110 Y92.673 E1.59566
G1 X108.067 Y92.673 E1.86523
G1 X109.568 Y92.789 E1.93334
G1 X109.669 Y92.796 E1.93792 F378.000
G1 X110.996 Y93.160 E2.00018
G1 X112.060 Y93.759 E2.05542
G1 X112.835 Y94.563 E2.10594
G1 X113.299 Y95.552 E2.15539
G1 X113.455 Y96.746 E2.20986
G1 X113.352 Y97.648 E2.25097
G1 X113.046 Y98.435 E2.28915
G1 X112.667 Y98.937 E2.31762
G1 X111.364 Y98.541 F7800.000
G1 X109.994 Y99.516 E2.39374 F378.000
G1 X107.821 Y99.825 E2.49305
G1 X103.731 Y99.825 E2.67811
G1 X103.731 Y93.882 E2.94703
G1 X107.976 Y93.882 E3.13910 F378.000
G1 X109.151 Y93.962 E3.19240
G1 X110.119 Y94.209 E3.23760
G1 X110.869 Y94.633 E3.27658
G1 X111.399 Y95.235 E3.31289
G1 X111.714 Y95.998 E3.35025
G1 X111.818 Y96.927 E3.39252
G1 X111.427 Y98.319 E3.45795
G92 E0
G1 X112.273 Y98.172 F7800.000
G1 X112.273 Y98.172 F7800.000
G1 X109.700 Y101.479 F7800.000
G1 X110.037 Y101.663 E0.01741 F378.000
G1 X110.542 Y102.213 E0.05117
G1 X110.842 Y102.921 E0.08598
G1 X110.940 Y103.772 E0.12474
G1 X110.838 Y104.585 E0.16182
G1 X110.523 Y105.250 E0.19511
G1 X109.996 Y105.739 E0.22765
G1 X109.295 Y106.062 E0.26256
G1 X108.440 Y106.249 E0.30217
G1 X107.433 Y106.310 E0.34781
G1 X103.731 Y106.310 E0.51532
G1 X103.731 Y100.991 E0.75600
G1 X107.434 Y100.991 E0.92354 F378.000
G1 X108.472 Y101.063 E0.97063
G1 X109.343 Y101.284 E1.01128
G1 X109.497 Y101.368 E1.01925
G1 X109.593 Y101.008 F7800.000
G1 X110.322 Y101.323 E1.09706 F540.000
G1 X109.653 Y99.935 F7800.000
G1 X110.090 Y99.859 E1.14051 F540.000
G1 X110.510 Y99.685 E1.18513
G1 X110.715 Y99.490 F7800.000
G1 X111.018 Y99.793 E1.20469 F540.000
G1 X111.402 Y99.626 E1.22383
G1 X110.891 Y99.115 E1.25684
G1 X111.213 Y98.886 E1.27490
G1 X111.780 Y99.453 E1.31155
G1 X112.090 Y99.213 E1.32951
G1 X111.535 Y98.657 E1.36541
G1 X111.665 Y98.236 E1.38555
G1 X112.399 Y98.971 E1.43303
G1 X112.636 Y98.657 E1.45102
G1 X111.786 Y97.806 E1.50600
G1 X111.907 Y97.376 E1.52642
G1 X112.867 Y98.337 E1.58852
G1 X113.022 Y97.940 E1.60797
G1 X112.028 Y96.946 E1.67223
G1 X111.992 Y96.359 E1.69912
G1 X113.149 Y97.516 E1.77393
G1 X113.205 Y97.022 E1.79668
G1 X111.870 Y95.687 E1.88298
G1 X112.662 Y94.825 F7800.000
G1 X111.723 Y93.887 E1.94366 F540.000
G1 X110.596 Y93.310 F7800.000
G1 X113.093 Y95.807 E2.10511 F540.000
G1 X113.176 Y96.442 E2.13435
G1 X109.836 Y93.102 E2.35027
G1 X109.175 Y92.991 E2.38093
G1 X110.141 Y93.958 E2.44341
G1 X109.402 Y93.769 E2.47830
G1 X108.578 Y92.945 E2.53156
G1 X107.981 Y92.900 E2.55893
G1 X108.786 Y93.705 E2.61101
G1 X108.195 Y93.665 E2.63810
G1 X107.429 Y92.899 E2.68761
G1 X106.878 Y92.899 E2.71279
G1 X107.636 Y93.656 E2.76174
G1 X107.085 Y93.656 E2.78693
G1 X106.327 Y92.899 E2.83588
G1 X105.776 Y92.899 E2.86106
G1 X106.534 Y93.656 E2.91001
G1 X105.983 Y93.656 E2.93520
G1 X105.226 Y92.899 E2.98415
G1 X104.675 Y92.899 E3.00934
G1 X105.432 Y93.656 E3.05828
G1 X104.881 Y93.656 E3.08347
G1 X104.124 Y92.899 E3.13242
G1 X103.573 Y92.899 E3.15761
G1 X104.330 Y93.656 E3.20655
G1 X103.779 Y93.656 E3.23174
G1 X103.022 Y92.899 E3.28069
G1 X102.471 Y92.899 E3.30588
G1 X103.505 Y93.933 E3.37275
G1 X103.505 Y94.484 E3.39794
G1 X102.336 Y93.315 E3.47352
G1 X102.336 Y93.866 E3.49871
G1 X103.505 Y95.035 E3.57429
G1 X103.505 Y95.586 E3.59948
G1 X102.336 Y94.417 E3.67507
G1 X102.336 Y94.968 E3.70026
G1 X103.505 Y96.137 E3.77584
G1 X103.505 Y96.688 E3.80103
G1 X102.336 Y95.519 E3.87661
G1 X102.336 Y96.070 E3.90180
G1 X103.505 Y97.239 E3.97738
G1 X103.505 Y97.790 E4.00257
G1 X102.336 Y96.621 E4.07816
G1 X102.336 Y97.172 E4.10334
G1 X103.505 Y98.341 E4.17893
G1 X103.505 Y98.892 E4.20412
G1 X102.336 Y97.723 E4.27970
G1 X102.336 Y98.274 E4.30489
G1 X103.505 Y99.443 E4.38047
G1 X103.505 Y99.994 E4.40566
G1 X102.336 Y98.825 E4.48125
G1 X102.336 Y99.376 E4.50643
G1 X103.725 Y100.765 E4.59625
G1 X103.505 Y101.096 F7800.000
G1 X102.336 Y99.927 E4.67183 F540.000
G1 X102.336 Y100.478 E4.69702
G1 X103.505 Y101.647 E4.77260
G1 X103.505 Y102.198 E4.79779
G1 X102.336 Y101.029 E4.87338
G1 X102.336 Y101.580 E4.89856
G1 X103.505 Y102.749 E4.97415
G1 X103.505 Y103.300 E4.99934
G1 X102.336 Y102.131 E5.07492
G1 X102.336 Y102.682 E5.10011
G1 X103.505 Y103.851 E5.17569
G1 X103.505 Y104.402 E5.20088
G1 X102.336 Y103.233 E5.27646
G1 X102.336 Y103.784 E5.30165
G1 X103.505 Y104.953 E5.37724
G1 X103.505 Y105.504 E5.40242
G1 X102.336 Y104.335 E5.47801
G1 X102.336 Y104.886 E5.50320
G1 X103.505 Y106.055 E5.57878
G1 X103.435 Y106.536 E5.60101
G1 X104.192 Y107.293 E5.64996
G1 X104.743 Y107.293 E5.67515
G1 X103.986 Y106.536 E5.72409
G1 X103.505 Y106.606 E5.74633
G1 X102.336 Y105.437 E5.82191
G1 X102.336 Y105.988 E5.84710
G1 X103.641 Y107.293 E5.93150
G1 X103.090 Y107.293 E5.95669
G1 X102.336 Y106.538 E6.00547
G1 X102.336 Y107.089 E6.03066
G1 X102.539 Y107.293 E6.04382
G1 X104.537 Y106.536 F7800.000
G1 X105.294 Y107.293 E6.09277 F540.000
G1 X105.845 Y107.293 E6.11796
G1 X105.088 Y106.536 E6.16691
G1 X105.639 Y106.536 E6.19210
G1 X106.396 Y107.293 E6.24104
G1 X106.947 Y107.293 E6.26623
G1 X106.190 Y106.536 E6.31518
G1 X106.741 Y106.536 E6.34037
G1 X107.495 Y107.290 E6.38911
G1 X107.979 Y107.223 E6.41144
G1 X107.292 Y106.536 E6.45583
G1 X107.816 Y106.508 E6.47980
G1 X108.463 Y107.156 E6.52163
G1 X108.946 Y107.088 E6.54396
G1 X108.335 Y106.477 E6.58349
G1 X108.795 Y106.386 E6.60495
G1 X109.430 Y107.021 E6.64599
G1 X109.914 Y106.954 E6.66832
G1 X109.248 Y106.287 E6.71141
G1 X109.635 Y106.124 E6.73065
G1 X110.363 Y106.852 E6.77769
G1 X110.688 Y106.626 E6.79579
G1 X110.013 Y105.951 E6.83946
G1 X110.317 Y105.704 E6.85736
G1 X111.014 Y106.401 E6.90242
G1 X111.339 Y106.175 E6.92052
G1 X110.602 Y105.438 E6.96814
G1 X110.814 Y105.099 E6.98642
G1 X111.664 Y105.949 E7.04136
G1 X111.885 Y105.619 E7.05952
G1 X110.991 Y104.726 E7.11727
G1 X111.095 Y104.278 E7.13828
G1 X112.008 Y105.191 E7.19733
G1 X112.131 Y104.763 E7.21768
G1 X111.156 Y103.788 E7.28074
G1 X111.110 Y103.192 E7.30808
G1 X112.254 Y104.336 E7.38204
G1 X112.317 Y103.847 E7.40456
G1 X110.937 Y102.467 E7.49376
G1 X110.481 Y101.460 F7800.000
G1 X112.217 Y103.196 E7.60600 F540.000
G1 X109.406 Y100.936 F7800.000
G1 X108.426 Y99.956 E7.66936 F540.000
G1 X108.908 Y99.888 E7.69163
G1 X109.504 Y100.483 E7.73012
G1 X108.811 Y100.892 F7800.000
G1 X107.944 Y100.025 E7.78620 F540.000
G1 X107.419 Y100.051 E7.81023
G1 X108.178 Y100.810 E7.85930
G1 X107.586 Y100.769 E7.88642
G1 X106.868 Y100.051 E7.93285
G1 X106.317 Y100.051 E7.95804
G1 X107.031 Y100.765 E8.00421
G1 X106.480 Y100.765 E8.02940
G1 X105.766 Y100.051 E8.07557
G1 X105.215 Y100.051 E8.10075
G1 X105.929 Y100.765 E8.14692
G1 X105.378 Y100.765 E8.17211
G1 X104.664 Y100.051 E8.21828
G1 X104.113 Y100.051 E8.24346
G1 X104.827 Y100.765 E8.28963
G1 X104.276 Y100.765 E8.31482
G1 X103.562 Y100.051 E8.36099
G92 E0
G1 X101.885 Y92.448 F7800.000
G1 X99.693 Y92.448 F7800.000
G1 X98.510 Y94.547 F7800.000
G1 X95.319 Y95.649 F7800.000
G1 X93.617 Y98.990 F7800.000
G1 X93.617 Y96.973 E0.09126 F378.000
G1 X93.542 Y96.025 E0.13430
G1 X93.309 Y95.217 E0.17232
G1 X92.912 Y94.566 E0.20685
G1 X92.371 Y94.089 E0.23949
G1 X91.713 Y93.804 E0.27195
G1 X90.951 Y93.710 E0.30666
G1 X90.242 Y93.796 E0.33899
G1 X89.610 Y94.055 E0.36988
G1 X89.066 Y94.484 E0.40126
G1 X88.630 Y95.060 E0.43392
G1 X88.317 Y95.757 E0.46852
G1 X88.176 Y96.352 E0.49617
G1 X86.625 Y96.095 E0.56730
G1 X87.346 Y94.173 E0.66017
G1 X88.799 Y92.911 E0.74724
G1 X90.950 Y92.483 E0.84649
G1 X92.118 Y92.611 E0.89967
G1 X92.187 Y92.618 E0.90278 F378.000
G1 X93.230 Y93.020 E0.95337
G1 X94.081 Y93.686 E1.00226
G1 X94.714 Y94.587 E1.05211
G1 X95.098 Y95.697 E1.10526
G1 X95.228 Y97.036 E1.16612
G1 X95.228 Y107.519 E1.64047
G1 X90.665 Y107.519 E1.84694
G1 X90.665 Y106.277 E1.90314
G1 X93.617 Y106.277 E2.03671
G1 X93.617 Y99.221 E2.35600
G1 X93.610 Y95.351 F7800.000
G1 X94.960 Y96.701 E2.44411 F540.000
G1 X95.002 Y97.299 E2.47177
G1 X93.779 Y96.077 E2.55155
G1 X93.827 Y96.680 E2.57950
G1 X95.002 Y97.855 E2.65616
G1 X95.002 Y98.411 E2.68182
G1 X93.843 Y97.252 E2.75744
G1 X93.843 Y97.808 E2.78310
G1 X95.002 Y98.967 E2.85873
G1 X95.002 Y99.523 E2.88438
G1 X93.843 Y98.364 E2.96001
G1 X93.843 Y98.920 E2.98567
G1 X95.002 Y100.080 E3.06129
G1 X95.002 Y100.636 E3.08695
G1 X93.843 Y99.476 E3.16258
G1 X93.843 Y100.033 E3.18823
G1 X95.002 Y101.192 E3.26386
G1 X95.002 Y101.748 E3.28952
G1 X93.843 Y100.589 E3.36514
G1 X93.843 Y101.145 E3.39080
G1 X95.002 Y102.304 E3.46643
G1 X95.002 Y102.860 E3.49208
G1 X93.843 Y101.701 E3.56771
G1 X93.843 Y102.257 E3.59337
G1 X95.002 Y103.416 E3.66899
G1 X95.002 Y103.972 E3.69465
G1 X93.843 Y102.813 E3.77028
G1 X93.843 Y103.369 E3.79593
G1 X95.002 Y104.528 E3.87156
G1 X95.002 Y105.084 E3.89722
G1 X93.843 Y103.925 E3.97284
G1 X93.843 Y104.481 E3.99850
G1 X95.002 Y105.640 E4.07413
G1 X95.002 Y106.196 E4.09978
G1 X93.843 Y105.037 E4.17541
G1 X93.843 Y105.593 E4.20107
G1 X95.002 Y106.752 E4.27669
G1 X94.975 Y107.281 E4.30111
G1 X93.843 Y106.149 E4.37494
G1 X93.641 Y106.503 F7800.000
G1 X94.431 Y107.293 E4.42649 F540.000
G1 X93.875 Y107.293 E4.45215
G1 X93.085 Y106.503 E4.50370
G1 X92.529 Y106.503 E4.52935
G1 X93.319 Y107.293 E4.58090
G1 X92.763 Y107.293 E4.60656
G1 X91.973 Y106.503 E4.65811
G1 X91.417 Y106.503 E4.68377
G1 X92.207 Y107.293 E4.73532
G1 X91.651 Y107.293 E4.76097
G1 X90.891 Y106.533 E4.81054
G1 X90.891 Y107.089 E4.83619
G1 X91.095 Y107.293 E4.84948
G92 E0
G1 X94.392 Y96.942 F7800.000
G1 X94.323 Y95.884 F7800.000
G1 X94.319 Y95.867 F7800.000
G1 X94.135 Y95.283 F7800.000
G1 X87.599 Y96.012 F7800.000
G1 X87.070 Y95.484 E0.03447 F540.000
G1 X87.222 Y95.080 E0.05439
G1 X88.063 Y95.921 E0.10927
G1 X88.209 Y95.511 E0.12936
G1 X87.374 Y94.676 E0.18385
G1 X87.540 Y94.286 E0.20339
G1 X88.381 Y95.127 E0.25826
G1 X88.596 Y94.785 E0.27687
G1 X87.824 Y94.013 E0.32724
G1 X88.121 Y93.755 E0.34543
G1 X88.835 Y94.469 E0.39202
G1 X89.119 Y94.197 E0.41017
G1 X88.419 Y93.496 E0.45587
G1 X88.716 Y93.238 E0.47405
G1 X89.430 Y93.951 E0.52061
G1 X89.796 Y93.761 E0.53964
G1 X89.101 Y93.067 E0.58495
G1 X89.565 Y92.975 E0.60677
G1 X90.190 Y93.600 E0.64756
G1 X90.672 Y93.526 E0.67006
G1 X90.029 Y92.882 E0.71203
G1 X90.493 Y92.790 E0.73385
G1 X91.206 Y93.503 E0.78039
G1 X91.840 Y93.581 E0.80985
G1 X90.983 Y92.724 E0.86579
G1 X91.606 Y92.791 E0.89475
G1 X94.900 Y96.085 E1.10964
G1 X94.698 Y95.327 E1.14586
G1 X92.320 Y92.949 E1.30102
G1 X93.642 Y93.715 F7800.000
G1 X94.005 Y94.078 E1.32467 F540.000
M106 S255
G92 E0
G1 Z0.600 F7800.000
G1 X103.759 Y103.897 F7800.000
G1 X102.920 Y99.600 E1.31181 F600.000
G1 X102.920 Y94.107 E2.95776
G1 X102.994 Y93.557 E3.12413
G1 X103.956 Y93.277 E3.42438
G1 X108.024 Y93.278 E4.64347
G1 X109.321 Y93.379 E5.03310
G1 X109.561 Y93.418 E5.10601
G1 X110.457 Y93.671 E5.38510
G1 X110.738 Y93.787 E5.47618
G1 X111.167 Y94.028 E5.62358
G1 X111.603 Y94.350 E5.78596
G1 X111.937 Y94.711 E5.93341
G1 X112.139 Y94.971 E6.03188
G1 X112.503 Y95.785 E6.29911
G1 X112.627 Y96.791 E6.60294
G1 X112.588 Y97.189 E6.72259
G1 X112.537 Y97.447 E6.80140
G1 X112.339 Y98.040 E6.98890
G1 X112.047 Y98.629 E7.18599
G1 X111.640 Y99.065 E7.36454
G1 X111.530 Y99.146 E7.40538
G1 X110.794 Y99.562 E7.65871
G1 X110.259 Y99.795 E7.83356
G1 X109.924 Y99.888 E7.93766
G1 X109.069 Y100.404 E8.23701
G1 X108.271 Y101.274 E8.59081
G92 E0
G1 X103.078 Y100.408 F7800.000
G1 X107.922 Y100.420 E1.45135 F600.000
G1 X108.497 Y100.399 E1.62395
G1 X109.054 Y100.422 E1.79078
G1 X109.427 Y100.835 E1.95771
G1 X109.561 Y100.944 E2.00934
G1 X109.848 Y101.118 E2.11002
G1 X110.403 Y101.378 E2.29370
G1 X110.976 Y101.830 E2.51240
G1 X111.328 Y102.311 E2.69113
G1 X111.576 Y102.814 E2.85899
G1 X111.700 Y103.373 E3.03066
G1 X111.741 Y103.921 E3.19545
G1 X111.593 Y104.643 E3.41627
G1 X111.506 Y104.942 E3.50961
G1 X111.313 Y105.453 E3.67319
G1 X110.974 Y105.800 E3.81849
G1 X110.474 Y106.202 E4.01073
G1 X110.069 Y106.459 E4.15459
G1 X109.398 Y106.645 E4.36337
G1 X108.576 Y106.792 E4.61337
G1 X107.370 Y106.914 E4.97679
G1 X103.956 Y106.914 E5.99969
G1 X102.994 Y106.635 E6.29995
G1 X102.920 Y106.085 E6.46631
G1 X102.920 Y101.216 E7.92529
G1 X103.078 Y100.408 E8.17197
G92 E0
G1 X101.885 Y92.448 F7800.000
G1 X94.227 Y91.691 F7800.000
G1 X92.062 Y91.314 F7800.000
G1 X91.049 Y91.259 F7800.000
G1 X90.940 Y92.256 F7800.000
G1 X87.249 Y96.426 F7800.000
G1 X87.997 Y94.626 E0.58425 F600.000
G1 X88.666 Y93.931 E0.87319
G1 X89.116 Y93.558 E1.04831
G1 X89.396 Y93.448 E1.13848
G1 X90.203 Y93.220 E1.38993
G1 X90.977 Y93.101 E1.62451
G1 X91.755 Y93.189 E1.85917
G1 X92.035 Y93.245 E1.94450
G1 X92.598 Y93.476 E2.12696
G1 X92.887 Y93.625 E2.22430
G1 X93.353 Y94.013 E2.40606
G1 X93.544 Y94.195 E2.48521
G1 X93.939 Y94.799 E2.70122
G1 X94.023 Y94.940 E2.75057
G1 X94.293 Y95.785 E3.01628
G1 X94.332 Y95.985 E3.07740
G1 X94.423 Y97.075 E3.40516
G1 X94.423 Y106.052 E6.09506
G1 X94.341 Y106.632 E6.27054
G1 X93.392 Y106.898 E6.56584
G1 X90.440 Y106.898 E7.45040
G92 E0
G1 Z0.900 F7800.000
G1 X103.759 Y103.897 F7800.000
G1 X102.920 Y99.600 E1.31181 F600.000
G1 X102.920 Y94.107 E2.95776
G1 X102.994 Y93.557 E3.12413
G1 X103.956 Y93.277 E3.42438
G1 X108.024 Y93.278 E4.64347
G1 X109.321 Y93.379 E5.03309
G1 X109.561 Y93.418 E5.10601
G1 X110.457 Y93.671 E5.38510
G1 X110.738 Y93.787 E5.47618
G1 X111.167 Y94.028 E5.62358
G1 X111.603 Y94.350 E5.78596
G1 X111.937 Y94.711 E5.93341
G1 X112.139 Y94.971 E6.03188
G1 X112.503 Y95.785 E6.29911
G1 X112.627 Y96.791 E6.60294
G1 X112.588 Y97.189 E6.72259
G1 X112.537 Y97.447 E6.80140
G1 X112.339 Y98.040 E6.98890
G1 X112.047 Y98.629 E7.18599
G1 X111.640 Y99.065 E7.36454
G1 X111.530 Y99.146 E7.40538
G1 X110.794 Y99.562 E7.65871
G1 X110.259 Y99.795 E7.83356
G1 X109.924 Y99.888 E7.93766
G1 X109.069 Y100.404 E8.23701
G1 X108.271 Y101.274 E8.59081
G92 E0
G1 X103.078 Y100.408 F7800.000
G1 X107.922 Y100.420 E1.45135 F600.000
G1 X108.497 Y100.399 E1.62395
G1 X109.054 Y100.422 E1.79078
G1 X109.427 Y100.835 E1.95771
G1 X109.561 Y100.944 E2.00934
G1 X109.848 Y101.118 E2.11002
G1 X110.403 Y101.378 E2.29370
G1 X110.976 Y101.830 E2.51240
G1 X111.328 Y102.311 E2.69113
G1 X111.576 Y102.814 E2.85899
G1 X111.700 Y103.373 E3.03066
G1 X111.741 Y103.921 E3.19545
G1 X111.593 Y104.643 E3.41627
G1 X111.506 Y104.942 E3.50961
G1 X111.313 Y105.453 E3.67319
G1 X110.974 Y105.800 E3.81849
G1 X110.474 Y106.202 E4.01073
G1 X110.069 Y106.459 E4.15459
G1 X109.398 Y106.645 E4.36337
G1 X108.576 Y106.792 E4.61337
G1 X107.370 Y106.914 E4.97679
G1 X103.956 Y106.914 E5.99969
G1 X102.994 Y106.635 E6.29995
G1 X102.920 Y106.085 E6.46631
G1 X102.920 Y101.216 E7.92529
G1 X103.078 Y100.408 E8.17197
G92 E0
G1 X101.885 Y92.448 F7800.000
G1 X95.374 Y92.087 F7800.000
G1 X92.638 Y91.364 F7800.000
G1 X91.866 Y91.303 F7800.000
G1 X91.753 Y92.344 F7800.000
G1 X87.249 Y96.426 F7800.000
G1 X87.997 Y94.626 E0.58425 F600.000
G1 X88.666 Y93.931 E0.87319
G1 X89.116 Y93.558 E1.04831
G1 X89.396 Y93.448 E1.13848
G1 X90.203 Y93.220 E1.38993
G1 X90.977 Y93.101 E1.62451
G1 X91.755 Y93.189 E1.85917
G1 X92.035 Y93.245 E1.94450
G1 X92.598 Y93.476 E2.12696
G1 X92.887 Y93.625 E2.22430
G1 X93.353 Y94.013 E2.40606
G1 X93.544 Y94.195 E2.48521
G1 X93.939 Y94.799 E2.70122
G1 X94.023 Y94.940 E2.75057
G1 X94.293 Y95.785 E3.01628
