; generated by Slic3r 1.2.9 on 2016-03-11 at 01:26:01

; external perimeters extrusion width = 1.54mm
; perimeters extrusion width = 2.62mm
; infill extrusion width = 6.27mm
; solid infill extrusion width = 2.62mm
; top infill extrusion width = 2.62mm

M107
M104 S30 ; set temperature
G28 ; home all axes
G1 Z5 F5000 ; lift nozzle
M302
M92 E10000
M500
M501
G1 E100
M109 S30 ; wait for temperature to be reached
G21 ; set units to millimeters
G90 ; use absolute coordinates
M82 ; use absolute distances for extrusion
G92 E0
G1 Z0.300 F7800.000
G1 X112.619 Y95.233 F7800.000
G1 X113.251 Y96.216 E0.05291 F378.000
G1 X113.749 Y97.429 E0.11221
G1 X114.049 Y98.774 E0.17456
G1 X114.149 Y100.249 E0.24146
G1 X113.919 Y102.413 E0.33995
G1 X113.237 Y104.201 E0.42652
G1 X112.107 Y105.628 E0.50891
G1 X110.556 Y106.674 E0.59352
G1 X108.610 Y107.306 E0.68611
G1 X106.250 Y107.519 E0.79333
G1 X101.424 Y107.519 E1.01170
G1 X101.424 Y92.673 E1.68347
G1 X106.915 Y92.673 E1.93192
G1 X108.174 Y92.766 E1.98902
G1 X108.308 Y92.776 E1.99511 F378.000
G1 X109.574 Y93.082 E2.05403
G1 X110.723 Y93.589 E2.11089
G1 X111.731 Y94.286 E2.16635
G1 X112.472 Y95.056 E2.21468
G1 X111.265 Y95.983 F7800.000
G1 X111.810 Y96.874 E2.26191 F378.000
G1 X112.204 Y97.892 E2.31132
G1 X112.440 Y99.019 E2.36341
G1 X112.518 Y100.257 E2.41955
G1 X112.340 Y102.050 E2.50107
G1 X111.799 Y103.555 E2.57343
G1 X110.890 Y104.756 E2.64161
G1 X109.639 Y105.625 E2.71053
G1 X108.078 Y106.141 E2.78491
G1 X106.227 Y106.310 E2.86904
G1 X103.045 Y106.310 E3.01299
G1 X103.045 Y93.882 E3.57534
G1 X106.692 Y93.882 E3.74035 F378.000
G1 X107.797 Y93.966 E3.79051
G1 X108.823 Y94.222 E3.83835
G1 X109.759 Y94.649 E3.88491
G1 X110.581 Y95.241 E3.93072
G1 X111.109 Y95.814 E3.96597
G1 X112.012 Y96.672 F7800.000
G1 X113.706 Y98.366 E4.07469 F540.000
G1 X113.834 Y99.041 E4.10588
G1 X112.357 Y97.564 E4.20066
G1 X112.538 Y98.291 E4.23464
G1 X113.874 Y99.628 E4.32041
G1 X113.914 Y100.215 E4.34709
G1 X112.668 Y98.969 E4.42702
G1 X112.705 Y99.553 E4.45355
G1 X113.879 Y100.726 E4.52886
G1 X113.827 Y101.221 E4.55141
G1 X112.742 Y100.136 E4.62098
G1 X112.699 Y100.640 E4.64393
G1 X113.774 Y101.715 E4.71288
G1 X113.722 Y102.209 E4.73544
G1 X112.650 Y101.138 E4.80419
G1 X112.601 Y101.635 E4.82687
G1 X113.613 Y102.648 E4.89184
G1 X113.462 Y103.044 E4.91106
G1 X112.533 Y102.114 E4.97070
G1 X112.388 Y102.516 E4.99009
G1 X113.311 Y103.440 E5.04931
G1 X113.160 Y103.835 E5.06854
G1 X112.244 Y102.919 E5.12736
G1 X112.099 Y103.321 E5.14675
G1 X112.986 Y104.208 E5.20366
G1 X112.744 Y104.513 E5.22132
G1 X111.931 Y103.700 E5.27347
G1 X111.696 Y104.011 E5.29118
G1 X112.502 Y104.818 E5.34293
G1 X112.261 Y105.123 E5.36059
G1 X111.460 Y104.323 E5.41194
G1 X111.225 Y104.634 E5.42966
G1 X112.010 Y105.419 E5.48004
G1 X111.707 Y105.663 E5.49769
G1 X110.977 Y104.932 E5.54457
G1 X110.654 Y105.157 E5.56240
G1 X111.381 Y105.883 E5.60904
G1 X111.054 Y106.104 E5.62691
G1 X110.331 Y105.381 E5.67331
G1 X110.008 Y105.605 E5.69113
G1 X110.728 Y106.324 E5.73729
G1 X110.374 Y106.517 E5.75557
G1 X109.682 Y105.826 E5.79996
G1 X109.272 Y105.962 E5.81959
G1 X109.962 Y106.652 E5.86387
G1 X109.549 Y106.786 E5.88356
G1 X108.861 Y106.097 E5.92771
G1 X108.450 Y106.233 E5.94735
G1 X109.136 Y106.920 E5.99139
G1 X108.723 Y107.054 E6.01108
G1 X108.034 Y106.365 E6.05529
G1 X107.533 Y106.410 E6.07812
G1 X108.242 Y107.119 E6.12360
G1 X107.740 Y107.164 E6.14644
G1 X107.032 Y106.456 E6.19189
G1 X106.531 Y106.502 E6.21471
G1 X107.239 Y107.210 E6.26013
G1 X106.737 Y107.255 E6.28298
G1 X106.018 Y106.536 E6.32912
G1 X105.471 Y106.536 E6.35393
G1 X106.229 Y107.293 E6.40251
G1 X105.682 Y107.293 E6.42732
G1 X104.925 Y106.536 E6.47590
G1 X104.378 Y106.536 E6.50071
G1 X105.135 Y107.293 E6.54928
G1 X104.588 Y107.293 E6.57409
G1 X103.831 Y106.536 E6.62267
G1 X101.854 Y107.293 F7800.000
G1 X101.650 Y107.089 E6.63573 F540.000
G1 X101.650 Y106.543 E6.66054
G1 X102.401 Y107.293 E6.70869
G1 X102.948 Y107.293 E6.73350
G1 X101.650 Y105.996 E6.81674
G1 X101.650 Y105.449 E6.84155
G1 X102.820 Y106.618 E6.91656
G1 X103.284 Y106.536 E6.93797
G1 X104.041 Y107.293 E6.98655
G1 X103.494 Y107.293 E7.01136
G1 X102.737 Y106.536 E7.05994
G1 X102.820 Y106.071 E7.08134
G1 X101.650 Y104.902 E7.15636
G1 X101.650 Y104.355 E7.18117
G1 X102.820 Y105.524 E7.25618
G1 X102.820 Y104.978 E7.28099
G1 X101.650 Y103.809 E7.35601
G1 X101.650 Y103.262 E7.38081
G1 X102.820 Y104.431 E7.45583
G1 X102.820 Y103.884 E7.48064
G1 X101.650 Y102.715 E7.55565
G1 X101.650 Y102.168 E7.58046
G1 X102.820 Y103.337 E7.65548
G1 X102.820 Y102.790 E7.68029
G1 X101.650 Y101.621 E7.75530
G1 X101.650 Y101.074 E7.78011
G1 X102.820 Y102.244 E7.85512
G1 X102.820 Y101.697 E7.87993
G1 X101.650 Y100.528 E7.95495
G1 X101.650 Y99.981 E7.97976
G1 X102.820 Y101.150 E8.05477
G1 X102.820 Y100.603 E8.07958
G1 X101.650 Y99.434 E8.15459
G1 X101.650 Y98.887 E8.17940
G1 X102.820 Y100.056 E8.25442
G1 X102.820 Y99.510 E8.27923
G1 X101.650 Y98.340 E8.35424
G1 X101.650 Y97.794 E8.37905
G1 X102.820 Y98.963 E8.45406
G1 X102.820 Y98.416 E8.47887
G1 X101.650 Y97.247 E8.55389
G1 X101.650 Y96.700 E8.57870
G1 X102.820 Y97.869 E8.65371
G1 X102.820 Y97.322 E8.67852
G1 X101.650 Y96.153 E8.75353
G1 X101.650 Y95.606 E8.77834
G1 X102.820 Y96.775 E8.85336
G1 X102.820 Y96.229 E8.87817
G1 X101.650 Y95.060 E8.95318
G1 X101.650 Y94.513 E8.97799
G1 X102.820 Y95.682 E9.05300
G1 X102.820 Y95.135 E9.07781
G1 X101.650 Y93.966 E9.15283
G1 X101.650 Y93.419 E9.17764
G1 X102.820 Y94.588 E9.25265
G1 X102.820 Y94.041 E9.27746
G1 X101.684 Y92.906 E9.35034
G1 X102.224 Y92.899 E9.37485
G1 X102.981 Y93.656 E9.42342
G1 X103.528 Y93.656 E9.44823
G1 X102.771 Y92.899 E9.49681
G1 X103.318 Y92.899 E9.52162
G1 X104.075 Y93.656 E9.57020
G1 X104.621 Y93.656 E9.59501
G1 X103.864 Y92.899 E9.64359
G1 X104.411 Y92.899 E9.66840
G1 X105.168 Y93.656 E9.71697
G1 X105.715 Y93.656 E9.74178
G1 X104.958 Y92.899 E9.79036
G1 X105.505 Y92.899 E9.81517
G1 X106.262 Y93.656 E9.86375
G1 X106.811 Y93.658 E9.88865
G1 X106.052 Y92.899 E9.93735
G1 X106.598 Y92.899 E9.96216
G1 X107.402 Y93.703 E10.01375
G1 X108.009 Y93.763 E10.04142
G1 X107.171 Y92.925 E10.09522
G1 X107.761 Y92.968 E10.12208
G1 X108.738 Y93.945 E10.18472
G1 X109.642 Y94.302 F7800.000
G1 X108.390 Y93.050 E10.26503 F540.000
G1 X109.111 Y93.224 E10.29868
G1 X113.549 Y97.662 E10.58343
G1 X113.187 Y96.754 F7800.000
G1 X109.990 Y93.556 E10.78860 F540.000
G1 X111.357 Y94.377 F7800.000
G1 X112.340 Y95.360 E10.85170 F540.000
G92 E0
G1 X101.199 Y92.448 F7800.000
G1 X99.007 Y92.448 F7800.000
G1 X97.820 Y94.546 F7800.000
G1 X94.626 Y95.649 F7800.000
G1 X92.920 Y96.920 F7800.000
G1 X92.849 Y96.025 E0.04063 F378.000
G1 X92.617 Y95.217 E0.07865
G1 X92.220 Y94.566 E0.11318
G1 X91.678 Y94.089 E0.14582
G1 X91.020 Y93.804 E0.17828
G1 X90.259 Y93.710 E0.21299
G1 X89.550 Y93.796 E0.24532
G1 X88.918 Y94.055 E0.27621
G1 X88.374 Y94.484 E0.30759
G1 X87.938 Y95.060 E0.34025
G1 X87.625 Y95.757 E0.37485
G1 X87.483 Y96.352 E0.40250
G1 X85.932 Y96.095 E0.47363
G1 X86.654 Y94.173 E0.56650
G1 X88.106 Y92.911 E0.65357
G1 X90.258 Y92.483 E0.75282
G1 X91.426 Y92.611 E0.80600
G1 X91.494 Y92.618 E0.80911 F378.000
G1 X92.538 Y93.020 E0.85970
G1 X93.389 Y93.686 E0.90859
G1 X94.022 Y94.587 E0.95844
G1 X94.405 Y95.697 E1.01159
G1 X94.536 Y97.036 E1.07245
G1 X94.536 Y107.519 E1.54680
G1 X89.973 Y107.519 E1.75327
G1 X89.973 Y106.277 E1.80947
G1 X92.925 Y106.277 E1.94304
G1 X92.925 Y97.151 E2.35600
G1 X92.917 Y95.351 F7800.000
G1 X94.268 Y96.701 E2.44411 F540.000
G1 X94.310 Y97.299 E2.47177
G1 X93.087 Y96.077 E2.55155
G1 X93.135 Y96.680 E2.57950
G1 X94.310 Y97.855 E2.65616
G1 X94.310 Y98.411 E2.68182
G1 X93.151 Y97.252 E2.75744
G1 X93.151 Y97.808 E2.78310
G1 X94.310 Y98.967 E2.85873
G1 X94.310 Y99.523 E2.88438
G1 X93.151 Y98.364 E2.96001
G1 X93.151 Y98.920 E2.98567
G1 X94.310 Y100.080 E3.06129
G1 X94.310 Y100.636 E3.08695
G1 X93.151 Y99.476 E3.16258
G1 X93.151 Y100.033 E3.18823
G1 X94.310 Y101.192 E3.26386
G1 X94.310 Y101.748 E3.28952
G1 X93.151 Y100.589 E3.36514
G1 X93.151 Y101.145 E3.39080
G1 X94.310 Y102.304 E3.46643
G1 X94.310 Y102.860 E3.49208
G1 X93.151 Y101.701 E3.56771
G1 X93.151 Y102.257 E3.59337
G1 X94.310 Y103.416 E3.66899
G1 X94.310 Y103.972 E3.69465
G1 X93.151 Y102.813 E3.77028
G1 X93.151 Y103.369 E3.79593
G1 X94.310 Y104.528 E3.87156
G1 X94.310 Y105.084 E3.89722
G1 X93.151 Y103.925 E3.97284
G1 X93.151 Y104.481 E3.99850
G1 X94.310 Y105.640 E4.07413
G1 X94.310 Y106.196 E4.09978
G1 X93.151 Y105.037 E4.17541
G1 X93.151 Y105.593 E4.20107
G1 X94.310 Y106.752 E4.27669
G1 X94.282 Y107.281 E4.30111
G1 X93.151 Y106.149 E4.37494
G1 X92.948 Y106.503 F7800.000
G1 X93.738 Y107.293 E4.42649 F540.000
G1 X93.182 Y107.293 E4.45215
G1 X92.392 Y106.503 E4.50370
G1 X91.836 Y106.503 E4.52935
G1 X92.626 Y107.293 E4.58091
G1 X92.070 Y107.293 E4.60656
G1 X91.280 Y106.503 E4.65811
G1 X90.724 Y106.503 E4.68377
G1 X91.514 Y107.293 E4.73532
G1 X90.958 Y107.293 E4.76097
G1 X90.199 Y106.533 E4.81054
G1 X90.199 Y107.089 E4.83619
G1 X90.402 Y107.293 E4.84948
G92 E0
G1 X93.700 Y96.942 F7800.000
G1 X93.630 Y95.884 F7800.000
G1 X93.627 Y95.867 F7800.000
G1 X93.442 Y95.283 F7800.000
G1 X86.906 Y96.012 F7800.000
G1 X86.378 Y95.484 E0.03447 F540.000
G1 X86.530 Y95.080 E0.05439
G1 X87.371 Y95.921 E0.10927
G1 X87.517 Y95.511 E0.12936
G1 X86.681 Y94.676 E0.18385
G1 X86.848 Y94.286 E0.20339
G1 X87.689 Y95.127 E0.25826
G1 X87.903 Y94.785 E0.27687
G1 X87.131 Y94.013 E0.32724
G1 X87.429 Y93.755 E0.34543
G1 X88.143 Y94.469 E0.39202
G1 X88.427 Y94.197 E0.41017
G1 X87.726 Y93.496 E0.45587
G1 X88.024 Y93.238 E0.47405
G1 X88.737 Y93.951 E0.52061
G1 X89.103 Y93.761 E0.53964
G1 X88.409 Y93.067 E0.58495
G1 X88.873 Y92.975 E0.60677
G1 X89.498 Y93.600 E0.64756
G1 X89.980 Y93.526 E0.67006
G1 X89.337 Y92.882 E0.71203
G1 X89.800 Y92.790 E0.73385
G1 X90.514 Y93.503 E0.78039
G1 X91.147 Y93.581 E0.80985
G1 X90.290 Y92.724 E0.86579
G1 X90.914 Y92.791 E0.89475
G1 X94.207 Y96.085 E1.10964
G1 X94.005 Y95.327 E1.14587
G1 X91.627 Y92.949 E1.30102
G1 X92.950 Y93.715 F7800.000
G1 X93.312 Y94.078 E1.32467 F540.000
M106 S255
G92 E0
G1 Z0.600 F7800.000
G1 X102.308 Y93.557 F7800.000
G1 X103.270 Y93.277 E0.30026 F600.000
G1 X106.746 Y93.279 E1.34183
G1 X107.825 Y93.354 E1.66578
G1 X108.209 Y93.410 E1.78194
G1 X108.958 Y93.594 E2.01328
G1 X109.356 Y93.723 E2.13870
G1 X110.022 Y94.022 E2.35724
G1 X110.373 Y94.214 E2.47722
G1 X110.982 Y94.643 E2.70057
G1 X111.245 Y94.858 E2.80221
G1 X111.963 Y95.643 E3.12097
G1 X112.546 Y96.584 E3.45262
G1 X112.978 Y97.671 E3.80314
G1 X113.242 Y98.890 E4.17697
G1 X113.331 Y100.233 E4.58030
G1 X113.127 Y102.224 E5.17987
G1 X112.545 Y103.807 E5.68534
G1 X112.388 Y104.043 E5.77029
G1 X111.591 Y105.072 E6.16009
G1 X111.261 Y105.353 E6.29025
G1 X110.250 Y106.045 E6.65727
G1 X110.041 Y106.148 E6.72690
G1 X109.809 Y106.243 E6.80218
G1 X108.482 Y106.678 E7.22073
G1 X108.107 Y106.745 E7.33463
G1 X106.223 Y106.914 E7.90156
G1 X103.270 Y106.914 E8.78629
G1 X102.308 Y106.635 E9.08654
G1 X102.235 Y106.085 E9.25291
G1 X102.235 Y94.107 E12.84207
G1 X102.308 Y93.557 E13.00844
G92 E0
G1 X101.199 Y92.448 F7800.000
G1 X93.534 Y91.691 F7800.000
G1 X91.370 Y91.314 F7800.000
G1 X90.356 Y91.259 F7800.000
G1 X90.248 Y92.256 F7800.000
G1 X86.556 Y96.426 F7800.000
G1 X87.305 Y94.626 E0.58425 F600.000
G1 X87.973 Y93.931 E0.87319
G1 X88.423 Y93.558 E1.04831
G1 X88.703 Y93.448 E1.13848
G1 X89.511 Y93.220 E1.38993
G1 X90.285 Y93.101 E1.62451
G1 X91.063 Y93.189 E1.85917
G1 X91.342 Y93.245 E1.94450
G1 X91.906 Y93.476 E2.12696
G1 X92.194 Y93.625 E2.22430
G1 X92.661 Y94.013 E2.40606
G1 X92.852 Y94.195 E2.48521
G1 X93.247 Y94.799 E2.70122
G1 X93.331 Y94.940 E2.75057
G1 X93.601 Y95.785 E3.01628
G1 X93.639 Y95.985 E3.07740
G1 X93.730 Y97.075 E3.40516
G1 X93.730 Y106.052 E6.09506
G1 X93.648 Y106.632 E6.27054
G1 X92.700 Y106.898 E6.56584
G1 X89.748 Y106.898 E7.45040
G92 E0
G1 Z0.900 F7800.000
G1 X102.308 Y93.557 F7800.000
G1 X103.270 Y93.277 E0.30026 F600.000
G1 X106.746 Y93.279 E1.34183
G1 X107.825 Y93.354 E1.66578
G1 X108.209 Y93.410 E1.78193
G1 X108.958 Y93.594 E2.01328
G1 X109.356 Y93.723 E2.13870
G1 X110.022 Y94.022 E2.35724
G1 X110.373 Y94.214 E2.47722
G1 X110.982 Y94.643 E2.70057
G1 X111.245 Y94.858 E2.80221
G1 X111.963 Y95.643 E3.12097
G1 X112.546 Y96.584 E3.45262
G1 X112.978 Y97.671 E3.80314
G1 X113.242 Y98.890 E4.17697
G1 X113.331 Y100.233 E4.58030
G1 X113.127 Y102.224 E5.17987
G1 X112.545 Y103.807 E5.68534
G1 X112.388 Y104.043 E5.77029
G1 X111.591 Y105.072 E6.16009
G1 X111.261 Y105.353 E6.29025
G1 X110.250 Y106.045 E6.65727
G1 X110.041 Y106.148 E6.72690
G1 X109.809 Y106.243 E6.80218
G1 X108.482 Y106.678 E7.22073
G1 X108.107 Y106.745 E7.33463
G1 X106.223 Y106.914 E7.90156
G1 X103.270 Y106.914 E8.78629
G1 X102.308 Y106.635 E9.08654
G1 X102.235 Y106.085 E9.25291
G1 X102.235 Y94.107 E12.84207
G1 X102.308 Y93.557 E13.00844
G92 E0
G1 X101.199 Y92.448 F7800.000
G1 X94.682 Y92.087 F7800.000
G1 X91.946 Y91.364 F7800.000
G1 X91.173 Y91.303 F7800.000
G1 X91.060 Y92.344 F7800.000
G1 X86.556 Y96.426 F7800.000
G1 X87.305 Y94.626 E0.58425 F600.000
G1 X87.973 Y93.931 E0.87319
G1 X88.423 Y93.558 E1.04831
G1 X88.703 Y93.448 E1.13848
G1 X89.511 Y93.220 E1.38993
G1 X90.285 Y93.101 E1.62451
G1 X91.063 Y93.189 E1.85917
G1 X91.342 Y93.245 E1.94450
G1 X91.906 Y93.476 E2.12696
G1 X92.194 Y93.625 E2.22430
G1 X92.661 Y94.013 E2.40606
G1 X92.852 Y94.195 E2.48521
G1 X93.247 Y94.799 E2.70122
G1 X93.331 Y94.940 E2.75057
G1 X93.601 Y95.785 E3.01628
G1 X93.639 Y95.985 E3.07740
G1 X93.730 Y97.075 E3.40516
G1 X93.730 Y106.052 E6.09506
G1 X93.648 Y106.632 E6.27054
G1 X92.700 Y106.898 E6.56584
G1 X89.748 Y106.898 E7.45040
G92 E0
G1 Z1.200 F7800.000
G1 X102.308 Y93.557 F7800.000
G1 X103.270 Y93.277 E0.30026 F600.000
G1 X106.746 Y93.279 E1.34183
G1 X107.825 Y93.354 E1.66578
G1 X108.209 Y93.410 E1.78193
G1 X108.958 Y93.594 E2.01328
G1 X109.356 Y93.723 E2.13870
G1 X110.022 Y94.022 E2.35724
G1 X110.373 Y94.214 E2.47721
G1 X110.982 Y94.643 E2.70057
G1 X111.245 Y94.858 E2.80221
G1 X111.963 Y95.643 E3.12097
G1 X112.546 Y96.584 E3.45262
G1 X112.978 Y97.671 E3.80314
G1 X113.242 Y98.890 E4.17697
G1 X113.331 Y100.233 E4.58030
G1 X113.127 Y102.224 E5.17987
G1 X112.545 Y103.807 E5.68534
G1 X112.388 Y104.043 E5.77029
G1 X111.591 Y105.072 E6.16009
G1 X111.261 Y105.353 E6.29025
G1 X110.250 Y106.045 E6.65727
G1 X110.041 Y106.148 E6.72690
G1 X109.809 Y106.243 E6.80218
G1 X108.482 Y106.678 E7.22073
G1 X108.107 Y106.745 E7.33463
G1 X106.223 Y106.914 E7.90156
G1 X103.270 Y106.914 E8.78629
G1 X102.308 Y106.635 E9.08654
G1 X102.235 Y106.085 E9.25291
G1 X102.235 Y94.107 E12.84207
G1 X102.308 Y93.557 E13.00844
G92 E0
G1 X101.199 Y92.448 F7800.000
G1 X94.682 Y92.087 F7800.000
G1 X91.946 Y91.364 F7800.000
G1 X90.977 Y91.293 F7800.000
G1 X90.865 Y92.323 F7800.000
G1 X86.556 Y96.426 F7800.000
G1 X87.305 Y94.626 E0.58425 F600.000
G1 X87.973 Y93.931 E0.87319
G1 X88.423 Y93.558 E1.04831
G1 X88.703 Y93.448 E1.13848
G1 X89.511 Y93.220 E1.38993
G1 X90.285 Y93.101 E1.62451
G1 X91.063 Y93.189 E1.85917
G1 X91.342 Y93.245 E1.94450
G1 X91.906 Y93.476 E2.12696
G1 X92.194 Y93.625 E2.22430
G1 X92.661 Y94.013 E2.40606
G1 X92.852 Y94.195 E2.48521
G1 X93.247 Y94.799 E2.70122
G1 X93.331 Y94.940 E2.75057
G1 X93.601 Y95.785 E3.01628
G1 X93.639 Y95.985 E3.07740
G1 X93.730 Y97.075 E3.40516
G1 X93.730 Y106.052 E6.09506
G1 X93.648 Y106.632 E6.27054
G1 X92.700 Y106.898 E6.56585
G1 X89.748 Y106.898 E7.45040
G92 E0
G1 Z1.500 F7800.000
G1 X102.308 Y93.557 F7800.000
G1 X103.270 Y93.277 E0.30026 F600.000
G1 X106.746 Y93.279 E1.34183
G1 X107.825 Y93.354 E1.66578
G1 X108.209 Y93.410 E1.78193
G1 X108.958 Y93.594 E2.01328
G1 X109.356 Y93.723 E2.13870
G1 X110.022 Y94.022 E2.35724
G1 X110.373 Y94.214 E2.47722
G1 X110.982 Y94.643 E2.70057
G1 X111.245 Y94.858 E2.80221
G1 X111.963 Y95.643 E3.12097
G1 X112.546 Y96.584 E3.45262
G1 X112.978 Y97.671 E3.80314
G1 X113.242 Y98.890 E4.17697
G1 X113.331 Y100.233 E4.58030
G1 X113.127 Y102.224 E5.17987
G1 X112.545 Y103.807 E5.68534
G1 X112.388 Y104.043 E5.77029
G1 X111.591 Y105.072 E6.16009
G1 X111.261 Y105.353 E6.29025
G1 X110.250 Y106.045 E6.65727
G1 X110.041 Y106.148 E6.72690
