; generated by Slic3r 1.2.9 on 2016-03-11 at 01:26:04

; external perimeters extrusion width = 1.54mm
; perimeters extrusion width = 2.62mm
; infill extrusion width = 6.27mm
; solid infill extrusion width = 2.62mm
; top infill extrusion width = 2.62mm

M107
M104 S30 ; set temperature
G28 ; home all axes
G1 Z5 F5000 ; lift nozzle
M302
M92 E10000
M500
M501
G1 E100
M109 S30 ; wait for temperature to be reached
G21 ; set units to millimeters
G90 ; use absolute coordinates
M82 ; use absolute distances for extrusion
G92 E0
G1 Z0.300 F7800.000
G1 X102.761 Y105.963 F7800.000
G1 X102.340 Y105.648 E0.02380 F378.000
G1 X101.270 Y104.161 E0.10668
G1 X100.625 Y102.303 E0.19568
G1 X100.407 Y100.062 E0.29757
G1 X100.507 Y98.552 E0.36603
G1 X100.804 Y97.183 E0.42942
G1 X101.298 Y95.956 E0.48925
G1 X101.977 Y94.893 E0.54634
G1 X102.829 Y94.012 E0.60182
G1 X103.858 Y93.309 E0.65819
G1 X105.051 Y92.797 E0.71690
G1 X106.392 Y92.489 E0.77916
G1 X107.885 Y92.385 E0.84690
G1 X109.099 Y92.454 E0.90190
G1 X110.446 Y92.681 E0.96374 F378.000
G1 X111.625 Y93.048 E1.01964
G1 X112.712 Y93.550 E1.07381
G1 X113.678 Y94.172 E1.12576
G1 X114.459 Y94.857 E1.17280
G1 X114.459 Y99.807 E1.39678
G1 X108.433 Y99.807 E1.66945
G1 X108.433 Y98.522 E1.72760
G1 X113.001 Y98.522 E1.93430
G1 X113.001 Y95.430 E2.07422
G1 X112.316 Y94.866 E2.11440
G1 X111.587 Y94.436 E2.15265
G1 X110.751 Y94.084 E2.19370
G1 X109.839 Y93.824 E2.23662
G1 X108.883 Y93.668 E2.28046
G1 X107.876 Y93.615 E2.32607
G1 X106.204 Y93.806 E2.40225
G1 X104.772 Y94.387 E2.47216
G1 X103.602 Y95.358 E2.54095
G1 X102.741 Y96.660 E2.61156
G1 X102.229 Y98.231 E2.68635
G1 X102.060 Y100.064 E2.76966
G1 X102.219 Y101.895 E2.85279
G1 X102.702 Y103.443 E2.92619
G1 X103.514 Y104.705 E2.99411
G1 X104.641 Y105.636 E3.06023
G1 X106.051 Y106.191 E3.12881
G1 X107.726 Y106.374 E3.20506
G1 X108.834 Y106.306 E3.25531
G1 X109.819 Y106.102 E3.30078
G1 X110.683 Y105.758 E3.34289
G1 X111.432 Y105.261 E3.38358
G1 X112.064 Y104.600 E3.42494
G1 X112.475 Y103.944 E3.45996
G1 X114.011 Y104.397 E3.53246
G1 X113.513 Y105.266 E3.57777
G1 X112.732 Y106.137 E3.63071
G1 X111.799 Y106.789 E3.68222
G1 X110.680 Y107.245 E3.73690
G1 X109.342 Y107.522 E3.79872
G1 X107.790 Y107.614 E3.86908
G1 X105.607 Y107.393 E3.96835
G1 X103.796 Y106.736 E4.05555
G1 X102.946 Y106.101 E4.10355
G1 X102.757 Y105.596 F7800.000
G1 X102.407 Y105.246 E4.12612 F540.000
G1 X102.568 Y103.760 F7800.000
G1 X100.833 Y102.024 E4.23795 F540.000
G1 X100.774 Y101.416 E4.26578
G1 X102.270 Y102.912 E4.36218
G1 X102.021 Y102.114 E4.40026
G1 X100.715 Y100.808 E4.48443
G1 X100.656 Y100.200 E4.51227
G1 X101.950 Y101.494 E4.59563
G1 X101.897 Y100.892 E4.62314
G1 X100.655 Y99.650 E4.70316
G1 X100.689 Y99.135 E4.72668
G1 X101.845 Y100.291 E4.80114
G1 X101.868 Y99.764 E4.82516
G1 X100.723 Y98.620 E4.89889
G1 X100.808 Y98.156 E4.92039
G1 X101.914 Y99.261 E4.99164
G1 X101.960 Y98.759 E5.01465
G1 X100.906 Y97.705 E5.08257
G1 X101.004 Y97.254 E5.10360
G1 X102.007 Y98.256 E5.16819
G1 X102.141 Y97.841 E5.18807
G1 X101.154 Y96.854 E5.25166
G1 X101.312 Y96.463 E5.27089
G1 X102.276 Y97.427 E5.33302
G1 X102.411 Y97.013 E5.35287
G1 X101.469 Y96.071 E5.41355
G1 X101.675 Y95.728 E5.43178
G1 X102.548 Y96.600 E5.48799
G1 X102.766 Y96.270 E5.50604
G1 X101.889 Y95.393 E5.56255
G1 X102.103 Y95.058 E5.58067
G1 X102.985 Y95.939 E5.63747
G1 X103.203 Y95.609 E5.65553
G1 X102.368 Y94.774 E5.70934
G1 X102.643 Y94.499 E5.72703
G1 X103.422 Y95.278 E5.77724
G1 X103.711 Y95.018 E5.79496
G1 X102.917 Y94.224 E5.84608
G1 X103.221 Y93.979 E5.86387
G1 X104.011 Y94.769 E5.91475
G1 X104.311 Y94.520 E5.93252
G1 X103.547 Y93.756 E5.98172
G1 X103.874 Y93.534 E5.99972
G1 X104.611 Y94.271 E6.04723
G1 X104.977 Y94.087 E6.06586
G1 X104.249 Y93.359 E6.11276
G1 X104.633 Y93.195 E6.13181
G1 X105.367 Y93.929 E6.17912
G1 X105.758 Y93.770 E6.19832
G1 X105.017 Y93.030 E6.24604
G1 X105.456 Y92.919 E6.26666
G1 X106.148 Y93.612 E6.31127
G1 X106.625 Y93.540 E6.33325
G1 X105.902 Y92.817 E6.37984
G1 X106.349 Y92.714 E6.40071
G1 X107.118 Y93.483 E6.45029
G1 X107.611 Y93.427 E6.47289
G1 X106.861 Y92.677 E6.52119
G1 X107.375 Y92.642 E6.54465
G1 X108.131 Y93.398 E6.59337
G1 X108.710 Y93.428 E6.61979
G1 X107.900 Y92.617 E6.67203
G1 X108.481 Y92.650 E6.69858
G1 X109.328 Y93.497 E6.75315
G1 X109.985 Y93.604 F7800.000
G1 X109.074 Y92.694 E6.81182 F540.000
G1 X110.753 Y93.823 F7800.000
G1 X109.735 Y92.805 E6.87743 F540.000
G1 X110.416 Y92.937 E6.90907
G1 X111.658 Y94.180 E6.98911
G1 X112.174 Y93.597 F7800.000
G1 X114.233 Y95.656 E7.12184 F540.000
G1 X114.233 Y95.107 F7800.000
G1 X113.835 Y94.709 E7.14753 F540.000
G1 X111.214 Y93.186 F7800.000
G1 X114.233 Y96.206 E7.34208 F540.000
G1 X114.233 Y96.755 E7.36710
G1 X113.227 Y95.749 E7.43193
G1 X113.227 Y96.298 E7.45695
G1 X114.233 Y97.304 E7.52178
G1 X114.234 Y97.853 E7.54679
G1 X113.227 Y96.847 E7.61162
G1 X113.227 Y97.396 E7.63664
G1 X114.234 Y98.402 E7.70147
G1 X114.234 Y98.951 E7.72649
G1 X113.227 Y97.945 E7.79132
G1 X113.227 Y98.494 E7.81634
G1 X114.234 Y99.500 E7.88116
G1 X113.765 Y99.581 E7.90282
G1 X112.932 Y98.748 E7.95650
G1 X112.383 Y98.748 E7.98152
G1 X113.216 Y99.581 E8.03520
G1 X112.667 Y99.581 E8.06022
G1 X111.834 Y98.748 E8.11390
G1 X111.285 Y98.748 E8.13892
G1 X112.118 Y99.581 E8.19260
G1 X111.569 Y99.581 E8.21762
G1 X110.736 Y98.748 E8.27130
G1 X110.186 Y98.748 E8.29632
G1 X111.019 Y99.581 E8.35000
G1 X110.470 Y99.581 E8.37502
G1 X109.637 Y98.748 E8.42870
G1 X109.088 Y98.748 E8.45371
G1 X109.921 Y99.581 E8.50739
G1 X109.372 Y99.581 E8.53241
G1 X108.659 Y98.868 E8.57834
G92 E0
G1 X112.820 Y104.854 F7800.000
G1 X112.820 Y104.854 F7800.000
G1 X112.823 Y104.863 F7800.000
G1 X112.837 Y104.859 F7800.000
G1 X113.532 Y104.839 F7800.000
G1 X113.078 Y104.385 E0.02924 F540.000
G1 X112.467 Y104.323 E0.05721
G1 X113.328 Y105.184 E0.11267
G1 X113.068 Y105.474 E0.13039
G1 X112.256 Y104.661 E0.18275
G1 X111.995 Y104.950 E0.20047
G1 X112.807 Y105.761 E0.25274
G1 X112.532 Y106.036 E0.27043
G1 X111.727 Y105.230 E0.32231
G1 X111.438 Y105.490 E0.34003
G1 X112.212 Y106.265 E0.38991
G1 X111.888 Y106.490 E0.40788
G1 X111.108 Y105.710 E0.45818
G1 X110.778 Y105.929 E0.47623
G1 X111.530 Y106.681 E0.52472
G1 X111.140 Y106.840 E0.54391
G1 X110.391 Y106.091 E0.59218
G1 X109.998 Y106.248 E0.61144
G1 X110.750 Y106.999 E0.65989
G1 X110.308 Y107.106 E0.68061
G1 X109.571 Y106.369 E0.72813
G1 X109.116 Y106.463 E0.74929
G1 X109.853 Y107.201 E0.79680
G1 X109.398 Y107.295 E0.81797
G1 X108.643 Y106.539 E0.86664
G1 X108.125 Y106.571 E0.89026
G1 X108.882 Y107.328 E0.93902
G1 X108.364 Y107.358 E0.96267
G1 X107.602 Y106.597 E1.01174
G1 X106.986 Y106.530 E1.03998
G1 X107.840 Y107.383 E1.09499
G1 X107.228 Y107.322 E1.12298
G1 X106.370 Y106.463 E1.17832
G1 X105.687 Y106.329 E1.21001
G1 X106.617 Y107.260 E1.26997
G1 X106.006 Y107.198 E1.29796
G1 X104.781 Y105.972 E1.37691
G1 X104.385 Y106.675 F7800.000
G1 X101.368 Y103.657 E1.57133 F540.000
G1 X101.075 Y102.816 F7800.000
G1 X105.247 Y106.987 E1.84011 F540.000
G92 E0
G1 X101.069 Y104.265 F7800.000
G1 X98.211 Y106.321 F7800.000
G1 X96.643 Y107.648 F7800.000
G1 X94.451 Y107.648 F7800.000
G1 X92.615 Y101.105 F7800.000
G1 X92.615 Y96.877 E0.19129 F378.000
G1 X92.539 Y95.929 E0.23433
G1 X92.307 Y95.121 E0.27235
G1 X91.910 Y94.470 E0.30688
G1 X91.368 Y93.993 E0.33952
G1 X90.710 Y93.708 E0.37198
G1 X89.949 Y93.614 E0.40669
G1 X89.240 Y93.700 E0.43902
G1 X88.608 Y93.959 E0.46991
G1 X88.064 Y94.388 E0.50129
G1 X87.628 Y94.964 E0.53395
G1 X87.315 Y95.661 E0.56855
G1 X87.173 Y96.256 E0.59620
G1 X85.622 Y95.999 E0.66733
G1 X86.344 Y94.077 E0.76020
G1 X87.796 Y92.815 E0.84727
G1 X89.948 Y92.387 E0.94652
G1 X91.116 Y92.515 E0.99970
G1 X91.184 Y92.522 E1.00281 F378.000
G1 X92.228 Y92.924 E1.05339
G1 X93.079 Y93.590 E1.10229
G1 X93.712 Y94.491 E1.15214
G1 X94.095 Y95.601 E1.20529
G1 X94.226 Y96.940 E1.26615
G1 X94.226 Y107.423 E1.74050
G1 X89.663 Y107.423 E1.94697
G1 X89.663 Y106.181 E2.00317
G1 X92.615 Y106.181 E2.13674
G1 X92.615 Y101.336 E2.35600
G1 X92.841 Y106.053 F7800.000
G1 X93.972 Y107.185 E2.42983 F540.000
G1 X94.000 Y106.656 E2.45424
G1 X92.841 Y105.497 E2.52987
G1 X92.841 Y104.941 E2.55553
G1 X94.000 Y106.100 E2.63116
G1 X94.000 Y105.544 E2.65681
G1 X92.841 Y104.385 E2.73244
G1 X92.841 Y103.829 E2.75809
G1 X94.000 Y104.988 E2.83372
G1 X94.000 Y104.432 E2.85938
G1 X92.841 Y103.273 E2.93501
G1 X92.841 Y102.717 E2.96066
G1 X94.000 Y103.876 E3.03629
G1 X94.000 Y103.320 E3.06194
G1 X92.841 Y102.161 E3.13757
G1 X92.841 Y101.605 E3.16323
G1 X94.000 Y102.764 E3.23886
G1 X94.000 Y102.208 E3.26451
G1 X92.841 Y101.049 E3.34014
G1 X92.841 Y100.493 E3.36579
G1 X94.000 Y101.652 E3.44142
G1 X94.000 Y101.096 E3.46708
G1 X92.841 Y99.937 E3.54271
G1 X92.841 Y99.380 E3.56836
G1 X94.000 Y100.540 E3.64399
G1 X94.000 Y99.984 E3.66964
G1 X92.841 Y98.824 E3.74527
G1 X92.841 Y98.268 E3.77093
G1 X94.000 Y99.427 E3.84656
G1 X94.000 Y98.871 E3.87221
G1 X92.841 Y97.712 E3.94784
G1 X92.841 Y97.156 E3.97349
G1 X94.000 Y98.315 E4.04912
G1 X94.000 Y97.759 E4.07478
G1 X92.825 Y96.584 E4.15143
G1 X92.777 Y95.980 E4.17939
G1 X94.000 Y97.203 E4.25917
G1 X93.958 Y96.605 E4.28683
G1 X92.607 Y95.255 E4.37494
G1 X93.002 Y93.982 F7800.000
G1 X92.640 Y93.619 E4.39859 F540.000
G1 X91.317 Y92.853 F7800.000
G1 X93.695 Y95.231 E4.55375 F540.000
G1 X93.897 Y95.989 E4.58997
G1 X90.604 Y92.695 E4.80487
G1 X89.980 Y92.628 E4.83382
G1 X90.837 Y93.485 E4.88977
G1 X90.204 Y93.407 E4.91923
G1 X89.490 Y92.694 E4.96577
G1 X89.027 Y92.786 E4.98758
G1 X89.670 Y93.430 E5.02956
G1 X89.188 Y93.504 E5.05206
G1 X88.563 Y92.879 E5.09284
G1 X88.099 Y92.971 E5.11466
G1 X88.793 Y93.665 E5.15997
G1 X88.427 Y93.855 E5.17900
G1 X87.714 Y93.142 E5.22556
G1 X87.416 Y93.400 E5.24375
G1 X88.117 Y94.101 E5.28944
G1 X87.833 Y94.373 E5.30759
G1 X87.119 Y93.659 E5.35418
G1 X86.821 Y93.917 E5.37237
G1 X87.593 Y94.689 E5.42275
G1 X87.379 Y95.031 E5.44135
G1 X86.538 Y94.190 E5.49622
G1 X86.371 Y94.580 E5.51576
G1 X87.207 Y95.415 E5.57026
G1 X87.061 Y95.825 E5.59034
G1 X86.220 Y94.984 E5.64522
G1 X86.068 Y95.388 E5.66514
G1 X86.596 Y95.916 E5.69961
G92 E0
G1 X93.390 Y96.846 F7800.000
G1 X93.414 Y96.846 F7800.000
G1 X93.420 Y106.617 F7800.000
G1 X93.390 Y106.648 F7800.000
G1 X90.092 Y107.197 F7800.000
G1 X89.889 Y106.993 E0.01328 F540.000
G1 X89.889 Y106.437 E0.03894
G1 X90.648 Y107.197 E0.08850
G1 X91.204 Y107.197 E0.11416
G1 X90.414 Y106.407 E0.16571
G1 X90.970 Y106.407 E0.19136
G1 X91.760 Y107.197 E0.24292
G1 X92.316 Y107.197 E0.26857
G1 X91.526 Y106.407 E0.32012
G1 X92.082 Y106.407 E0.34578
G1 X92.872 Y107.197 E0.39733
G1 X93.428 Y107.197 E0.42299
G1 X92.638 Y106.407 E0.47454
M106 S255
G92 E0
G1 Z0.600 F7800.000
G1 X113.470 Y104.003 F7800.000
G1 X112.599 Y105.144 E0.42996 F600.000
G1 X112.217 Y105.556 E0.59838
G1 X111.985 Y105.755 E0.68998
G1 X111.445 Y106.138 E0.88840
G1 X111.089 Y106.326 E1.00904
G1 X110.478 Y106.582 E1.20745
G1 X109.931 Y106.740 E1.37825
G1 X109.257 Y106.879 E1.58432
G1 X108.977 Y106.916 E1.66887
G1 X107.803 Y106.991 E2.02148
G1 X107.641 Y106.982 E2.07022
G1 X106.014 Y106.811 E2.56036
G1 X105.790 Y106.772 E2.62851
G1 X104.432 Y106.264 E3.06301
G1 X104.175 Y106.143 E3.14797
G1 X103.077 Y105.289 E3.56478
G1 X102.883 Y105.114 E3.64303
G1 X102.054 Y103.897 E4.08442
G1 X101.985 Y103.789 E4.12265
G1 X101.934 Y103.651 E4.16694
G1 X101.432 Y102.126 E4.64788
G1 X101.242 Y100.156 E5.24100
G1 X101.240 Y99.968 E5.29713
G1 X101.343 Y98.670 E5.68749
G1 X101.466 Y97.956 E5.90468
G1 X101.608 Y97.430 E6.06773
G1 X102.015 Y96.325 E6.42055
G1 X102.612 Y95.395 E6.75200
G1 X102.954 Y94.969 E6.91542
G1 X103.324 Y94.598 E7.07250
G1 X104.202 Y93.936 E7.40218
G1 X104.550 Y93.748 E7.52063
G1 X105.264 Y93.450 E7.75229
G1 X106.163 Y93.182 E8.03357
G1 X106.486 Y93.127 E8.13177
G1 X107.889 Y93.001 E8.55371
G1 X108.994 Y93.063 E8.88545
G1 X109.926 Y93.214 E9.16811
G1 X110.295 Y93.296 E9.28161
G1 X110.910 Y93.480 E9.47386
G1 X111.393 Y93.653 E9.62752
G1 X111.926 Y93.893 E9.80267
G1 X112.391 Y94.136 E9.95988
G1 X112.636 Y94.288 E10.04642
G1 X113.362 Y94.823 E10.31673
G1 X113.701 Y95.201 E10.46872
G1 X113.730 Y95.536 E10.56955
G1 X113.730 Y98.297 E11.39687
G1 X113.615 Y98.962 E11.59917
G1 X109.076 Y99.164 E12.96049
G1 X114.684 Y99.164 E14.64105
G92 E0
G1 X108.208 Y98.297 F7800.000
G1 X108.208 Y98.297 F7800.000
G1 X105.399 Y98.297 F7800.000
G1 X105.308 Y98.867 F7800.000
G1 X105.255 Y100.032 F7800.000
G1 X105.253 Y100.073 F7800.000
G1 X105.435 Y101.261 F7800.000
G1 X105.774 Y102.008 F7800.000
G1 X106.094 Y102.414 F7800.000
G1 X106.397 Y102.658 F7800.000
G1 X106.867 Y102.884 F7800.000
G1 X107.804 Y103.072 F7800.000
G1 X108.208 Y103.073 F7800.000
G1 X108.402 Y103.067 F7800.000
G1 X108.893 Y103.016 F7800.000
G1 X109.215 Y102.955 F7800.000
G1 X109.443 Y102.886 F7800.000
G1 X109.713 Y102.771 F7800.000
G1 X110.354 Y102.415 F7800.000
G1 X112.901 Y101.894 F7800.000
G1 X114.580 Y102.136 F7800.000
G1 X114.684 Y102.032 F7800.000
G1 X115.684 Y100.032 F7800.000
G1 X115.684 Y94.755 F7800.000
G1 X115.479 Y93.848 F7800.000
G1 X114.954 Y92.690 F7800.000
G1 X114.822 Y92.425 F7800.000
G1 X114.680 Y92.165 F7800.000
G1 X113.760 Y91.894 F7800.000
G1 X113.523 Y91.833 F7800.000
G1 X112.295 Y91.564 F7800.000
G1 X112.114 Y91.530 F7800.000
G1 X110.849 Y91.337 F7800.000
G1 X110.701 Y91.320 F7800.000
G1 X109.407 Y91.206 F7800.000
G1 X109.282 Y91.198 F7800.000
G1 X108.980 Y91.190 F7800.000
G1 X108.980 Y91.190 F7800.000
G1 X107.940 Y91.161 F7800.000
G1 X107.814 Y91.161 F7800.000
G1 X106.285 Y91.214 F7800.000
G1 X106.119 Y91.226 F7800.000
G1 X104.705 Y91.387 F7800.000
G1 X104.482 Y91.422 F7800.000
G1 X103.143 Y91.698 F7800.000
G1 X102.838 Y91.776 F7800.000
G1 X101.547 Y92.175 F7800.000
G1 X101.124 Y92.330 F7800.000
G1 X99.852 Y92.869 F7800.000
G1 X99.282 Y93.146 F7800.000
G1 X97.977 Y93.862 F7800.000
G1 X97.794 Y93.965 F7800.000
G1 X96.927 Y93.347 F7800.000
G1 X96.111 Y92.845 F7800.000
G1 X94.944 Y92.238 F7800.000
G1 X94.372 Y91.991 F7800.000
G1 X93.224 Y91.595 F7800.000
G1 X92.817 Y91.487 F7800.000
G1 X91.636 Y91.268 F7800.000
G1 X91.354 Y91.234 F7800.000
G1 X91.060 Y91.218 F7800.000
G1 X91.060 Y91.218 F7800.000
G1 X90.046 Y91.163 F7800.000
G1 X89.938 Y92.160 F7800.000
G1 X86.246 Y96.330 F7800.000
G1 X86.995 Y94.530 E0.58425 F600.000
G1 X87.663 Y93.835 E0.87319
G1 X88.113 Y93.462 E1.04831
G1 X88.393 Y93.352 E1.13848
G1 X89.201 Y93.124 E1.38993
G1 X89.975 Y93.005 E1.62451
G1 X90.753 Y93.093 E1.85917
G1 X91.032 Y93.149 E1.94450
G1 X91.596 Y93.380 E2.12696
G1 X91.884 Y93.529 E2.22430
G1 X92.351 Y93.917 E2.40606
G1 X92.542 Y94.099 E2.48521
G1 X92.937 Y94.703 E2.70122
G1 X93.021 Y94.844 E2.75057
G1 X93.291 Y95.689 E3.01628
G1 X93.329 Y95.889 E3.07740
G1 X93.420 Y96.979 E3.40516
G1 X93.420 Y105.956 E6.09506
G1 X93.338 Y106.536 E6.27054
G1 X92.390 Y106.802 E6.56584
G1 X89.438 Y106.802 E7.45040
G92 E0
G1 Z0.900 F7800.000
G1 X113.470 Y104.003 F7800.000
G1 X112.599 Y105.144 E0.42996 F600.000
G1 X112.217 Y105.556 E0.59838
G1 X111.985 Y105.755 E0.68998
G1 X111.445 Y106.138 E0.88840
G1 X111.089 Y106.326 E1.00904
G1 X110.478 Y106.582 E1.20745
G1 X109.931 Y106.740 E1.37825
G1 X109.257 Y106.879 E1.58432
G1 X108.977 Y106.916 E1.66887
G1 X107.803 Y106.991 E2.02148
G1 X107.641 Y106.982 E2.07022
G1 X106.014 Y106.811 E2.56036
G1 X105.790 Y106.772 E2.62851
G1 X104.432 Y106.264 E3.06301
G1 X104.175 Y106.143 E3.14797
G1 X103.077 Y105.289 E3.56478
G1 X102.883 Y105.114 E3.64303
G1 X102.054 Y103.897 E4.08442
G1 X101.985 Y103.789 E4.12265
G1 X101.934 Y103.651 E4.16694
G1 X101.432 Y102.126 E4.64788
G1 X101.242 Y100.156 E5.24100
G1 X101.240 Y99.968 E5.29713
G1 X101.343 Y98.670 E5.68749
G1 X101.466 Y97.956 E5.90469
G1 X101.608 Y97.430 E6.06773
G1 X102.015 Y96.325 E6.42055
G1 X102.612 Y95.395 E6.75200
G1 X102.954 Y94.969 E6.91542
G1 X103.324 Y94.598 E7.07250
G1 X104.202 Y93.936 E7.40218
G1 X104.550 Y93.748 E7.52063
G1 X105.264 Y93.450 E7.75229
G1 X106.163 Y93.182 E8.03357
G1 X106.486 Y93.127 E8.13177
G1 X107.889 Y93.001 E8.55371
G1 X108.994 Y93.063 E8.88545
G1 X109.926 Y93.214 E9.16811
G1 X110.295 Y93.296 E9.28161
G1 X110.910 Y93.480 E9.47386
G1 X111.393 Y93.653 E9.62752
G1 X111.926 Y93.893 E9.80267
