; generated by Slic3r 1.2.9 on 2016-03-11 at 01:26:08

; external perimeters extrusion width = 1.54mm
; perimeters extrusion width = 2.62mm
; infill extrusion width = 6.27mm
; solid infill extrusion width = 2.62mm
; top infill extrusion width = 2.62mm

M107
M104 S30 ; set temperature
G28 ; home all axes
G1 Z5 F5000 ; lift nozzle
M302
M92 E10000
M500
M501
G1 E100
M109 S30 ; wait for temperature to be reached
G21 ; set units to millimeters
G90 ; use absolute coordinates
M82 ; use absolute distances for extrusion
G92 E0
G1 Z0.300 F7800.000
G1 X101.650 Y100.997 F7800.000
G1 X101.650 Y92.673 E0.37664 F378.000
G1 X103.271 Y92.673 E0.44999
G1 X103.271 Y98.421 E0.71010
G1 X105.521 Y100.140 E0.83821 F378.000
G1 X111.678 Y92.673 E1.27617
G1 X113.655 Y92.673 E1.36563
G1 X106.479 Y101.111 E1.86685
G1 X112.741 Y107.519 E2.27231
G1 X110.932 Y107.519 E2.35418
G1 X103.271 Y99.520 E2.85537
G1 X103.271 Y107.519 E3.21733
G1 X101.650 Y107.519 E3.29067
G1 X101.650 Y101.228 E3.57535
G1 X103.078 Y98.760 F7800.000
G1 X103.960 Y99.548 E3.69131 F540.000
G92 E0
G1 X102.496 Y93.448 F7800.000
G1 X102.496 Y93.448 F7800.000
G1 X103.045 Y93.103 F7800.000
G1 X102.841 Y92.899 E0.01341 F540.000
G1 X102.280 Y92.899 E0.03956
G1 X103.045 Y93.664 E0.08994
G1 X103.045 Y94.225 E0.11608
G1 X101.876 Y93.056 E0.19309
G1 X101.876 Y93.617 E0.21923
G1 X103.045 Y94.787 E0.29624
G1 X103.045 Y95.348 E0.32238
G1 X101.876 Y94.179 E0.39939
G1 X101.876 Y94.740 E0.42553
G1 X103.045 Y95.909 E0.50254
G1 X103.045 Y96.471 E0.52868
G1 X101.876 Y95.301 E0.60569
G1 X101.876 Y95.863 E0.63183
G1 X103.045 Y97.032 E0.70884
G1 X103.045 Y97.593 E0.73498
G1 X101.876 Y96.424 E0.81199
G1 X101.876 Y96.985 E0.83813
G1 X103.045 Y98.155 E0.91514
G1 X102.947 Y98.618 E0.93720
G1 X101.876 Y97.547 E1.00777
G1 X101.876 Y98.108 E1.03391
G1 X102.682 Y98.914 E1.08702
G1 X101.876 Y98.669 E1.12626
G1 X103.045 Y99.839 E1.20327
G1 X103.045 Y100.400 E1.22941
G1 X101.876 Y99.231 E1.30642
G1 X101.876 Y99.792 E1.33256
G1 X103.045 Y100.961 E1.40957
G1 X103.045 Y101.523 E1.43571
G1 X101.876 Y100.353 E1.51272
G1 X101.876 Y100.915 E1.53886
G1 X103.045 Y102.084 E1.61587
G1 X103.045 Y102.645 E1.64201
G1 X101.876 Y101.476 E1.71902
G1 X101.876 Y102.037 E1.74516
G1 X103.045 Y103.207 E1.82217
G1 X103.045 Y103.768 E1.84831
G1 X101.876 Y102.599 E1.92532
G1 X101.876 Y103.160 E1.95146
G1 X103.045 Y104.329 E2.02847
G1 X103.045 Y104.891 E2.05461
G1 X101.876 Y103.721 E2.13162
G1 X101.876 Y104.283 E2.15776
G1 X103.045 Y105.452 E2.23477
G1 X103.045 Y106.013 E2.26091
G1 X101.876 Y104.844 E2.33792
G1 X101.876 Y105.405 E2.36406
G1 X103.045 Y106.575 E2.44106
G1 X103.045 Y107.136 E2.46721
G1 X101.876 Y105.967 E2.54421
G1 X101.876 Y106.528 E2.57036
G1 X102.641 Y107.293 E2.62074
G1 X102.079 Y107.293 E2.64689
G1 X101.876 Y107.089 E2.66030
G92 E0
G1 X102.496 Y106.744 F7800.000
G1 X102.496 Y106.744 F7800.000
G1 X105.421 Y100.432 F7800.000
G1 X106.168 Y101.179 E0.04855 F540.000
G1 X106.422 Y100.880 E0.06662
G1 X105.731 Y100.188 E0.11156
G1 X105.981 Y99.885 E0.12965
G1 X106.677 Y100.580 E0.17487
G1 X106.931 Y100.281 E0.19294
G1 X106.231 Y99.581 E0.23844
G1 X106.482 Y99.277 E0.25653
G1 X107.186 Y99.982 E0.30230
G1 X107.441 Y99.682 E0.32037
G1 X106.732 Y98.974 E0.36642
G1 X106.983 Y98.670 E0.38451
G1 X107.695 Y99.383 E0.43084
G1 X107.950 Y99.084 E0.44891
G1 X107.233 Y98.367 E0.49552
G1 X107.483 Y98.063 E0.51360
G1 X108.205 Y98.784 E0.56049
G1 X108.459 Y98.485 E0.57855
G1 X107.734 Y97.759 E0.62572
G1 X107.984 Y97.456 E0.64380
G1 X108.714 Y98.186 E0.69124
G1 X108.968 Y97.886 E0.70931
G1 X108.234 Y97.152 E0.75702
G1 X108.485 Y96.849 E0.77511
G1 X109.223 Y97.587 E0.82311
G1 X109.478 Y97.288 E0.84117
G1 X108.735 Y96.545 E0.88944
G1 X108.985 Y96.241 E0.90753
G1 X109.732 Y96.988 E0.95608
G1 X109.987 Y96.689 E0.97414
G1 X109.236 Y95.938 E1.02297
G1 X109.486 Y95.634 E1.04105
G1 X110.241 Y96.390 E1.09016
G1 X110.496 Y96.090 E1.10822
G1 X109.736 Y95.331 E1.15760
G1 X109.987 Y95.027 E1.17569
G1 X110.751 Y95.791 E1.22535
G1 X111.005 Y95.492 E1.24341
G1 X110.237 Y94.723 E1.29334
G1 X110.487 Y94.420 E1.31143
G1 X111.260 Y95.192 E1.36164
G1 X111.514 Y94.893 E1.37971
G1 X110.738 Y94.116 E1.43019
G1 X110.988 Y93.812 E1.44828
G1 X111.769 Y94.593 E1.49905
G1 X112.024 Y94.294 E1.51711
G1 X111.238 Y93.509 E1.56815
G1 X111.489 Y93.205 E1.58624
G1 X112.278 Y93.995 E1.63756
G1 X112.533 Y93.695 E1.65562
G1 X111.739 Y92.902 E1.70722
G1 X112.290 Y92.899 E1.73256
G1 X112.788 Y93.396 E1.76487
G1 X112.844 Y92.899 E1.78787
G1 X113.042 Y93.097 E1.80073
G92 E0
G1 X102.496 Y93.448 F7800.000
G1 X102.496 Y93.448 F7800.000
G1 X104.114 Y99.679 F7800.000
G1 X111.728 Y107.293 E0.49490 F540.000
G1 X111.174 Y107.293 E0.52036
G1 X110.336 Y106.455 E0.57485
G92 E0
G1 X103.496 Y100.080 F7800.000
G1 X103.496 Y108.744 F7800.000
G1 X98.209 Y106.528 F7800.000
G1 X98.209 Y97.025 F7800.000
G1 X94.993 Y97.025 F7800.000
G1 X93.157 Y101.719 F7800.000
G1 X93.157 Y96.973 E0.21474 F378.000
G1 X93.082 Y96.025 E0.25778
G1 X92.849 Y95.217 E0.29581
G1 X92.452 Y94.566 E0.33033
G1 X91.911 Y94.089 E0.36297
G1 X91.253 Y93.804 E0.39543
G1 X90.491 Y93.710 E0.43015
G1 X89.782 Y93.796 E0.46247
G1 X89.150 Y94.055 E0.49337
G1 X88.606 Y94.484 E0.52474
G1 X88.170 Y95.060 E0.55740
G1 X87.857 Y95.757 E0.59201
G1 X87.716 Y96.352 E0.61965
G1 X86.165 Y96.095 E0.69078
G1 X86.886 Y94.173 E0.78365
G1 X88.339 Y92.911 E0.87072
G1 X90.490 Y92.483 E0.96997
G1 X91.658 Y92.611 E1.02315
G1 X91.727 Y92.618 E1.02626 F378.000
G1 X92.770 Y93.020 E1.07685
G1 X93.621 Y93.686 E1.12575
G1 X94.254 Y94.587 E1.17559
G1 X94.638 Y95.697 E1.22874
G1 X94.768 Y97.036 E1.28960
G1 X94.768 Y107.519 E1.76395
G1 X90.205 Y107.519 E1.97042
G1 X90.205 Y106.277 E2.02662
G1 X93.157 Y106.277 E2.16020
G1 X93.157 Y101.950 E2.35600
G1 X93.383 Y106.149 F7800.000
G1 X94.515 Y107.281 E2.42983 F540.000
G1 X94.542 Y106.752 E2.45424
G1 X93.383 Y105.593 E2.52987
G1 X93.383 Y105.037 E2.55553
G1 X94.542 Y106.196 E2.63116
G1 X94.542 Y105.640 E2.65681
G1 X93.383 Y104.481 E2.73244
G1 X93.383 Y103.925 E2.75809
G1 X94.542 Y105.084 E2.83372
G1 X94.542 Y104.528 E2.85938
G1 X93.383 Y103.369 E2.93501
G1 X93.383 Y102.813 E2.96066
G1 X94.542 Y103.972 E3.03629
G1 X94.542 Y103.416 E3.06194
G1 X93.383 Y102.257 E3.13757
G1 X93.383 Y101.701 E3.16323
G1 X94.542 Y102.860 E3.23886
G1 X94.542 Y102.304 E3.26451
G1 X93.383 Y101.145 E3.34014
G1 X93.383 Y100.589 E3.36579
G1 X94.542 Y101.748 E3.44142
G1 X94.542 Y101.192 E3.46708
G1 X93.383 Y100.033 E3.54271
G1 X93.383 Y99.476 E3.56836
G1 X94.542 Y100.636 E3.64399
G1 X94.542 Y100.080 E3.66964
G1 X93.383 Y98.920 E3.74527
G1 X93.383 Y98.364 E3.77093
G1 X94.542 Y99.523 E3.84656
G1 X94.542 Y98.967 E3.87221
G1 X93.383 Y97.808 E3.94784
G1 X93.383 Y97.252 E3.97349
G1 X94.542 Y98.411 E4.04912
G1 X94.542 Y97.855 E4.07478
G1 X93.367 Y96.680 E4.15143
G1 X93.319 Y96.076 E4.17939
G1 X94.542 Y97.299 E4.25917
G1 X94.500 Y96.701 E4.28683
G1 X93.150 Y95.351 E4.37494
G1 X93.545 Y94.078 F7800.000
G1 X93.182 Y93.715 E4.39859 F540.000
G1 X91.860 Y92.949 F7800.000
G1 X94.238 Y95.327 E4.55375 F540.000
G1 X94.440 Y96.085 E4.58997
G1 X91.146 Y92.791 E4.80487
G1 X90.523 Y92.724 E4.83382
G1 X91.380 Y93.581 E4.88977
G1 X90.746 Y93.503 E4.91923
G1 X90.033 Y92.790 E4.96577
G1 X89.569 Y92.882 E4.98758
G1 X90.212 Y93.526 E5.02956
G1 X89.730 Y93.600 E5.05206
G1 X89.105 Y92.975 E5.09284
G1 X88.641 Y93.067 E5.11466
G1 X89.336 Y93.761 E5.15997
G1 X88.970 Y93.951 E5.17900
G1 X88.256 Y93.238 E5.22556
G1 X87.959 Y93.496 E5.24375
G1 X88.659 Y94.197 E5.28944
G1 X88.375 Y94.469 E5.30759
G1 X87.661 Y93.755 E5.35418
G1 X87.364 Y94.013 E5.37237
G1 X88.136 Y94.785 E5.42275
G1 X87.921 Y95.127 E5.44135
G1 X87.080 Y94.286 E5.49622
G1 X86.914 Y94.676 E5.51576
G1 X87.749 Y95.511 E5.57026
G1 X87.603 Y95.921 E5.59034
G1 X86.762 Y95.080 E5.64522
G1 X86.610 Y95.484 E5.66514
G1 X87.139 Y96.012 E5.69961
G92 E0
G1 X93.932 Y96.942 F7800.000
G1 X93.956 Y96.942 F7800.000
G1 X93.963 Y106.713 F7800.000
G1 X93.932 Y106.744 F7800.000
G1 X90.635 Y107.293 F7800.000
G1 X90.431 Y107.089 E0.01328 F540.000
G1 X90.431 Y106.533 E0.03894
G1 X91.191 Y107.293 E0.08850
G1 X91.747 Y107.293 E0.11416
G1 X90.957 Y106.503 E0.16571
G1 X91.513 Y106.503 E0.19136
G1 X92.303 Y107.293 E0.24292
G1 X92.859 Y107.293 E0.26857
G1 X92.069 Y106.503 E0.32012
G1 X92.625 Y106.503 E0.34578
G1 X93.415 Y107.293 E0.39733
G1 X93.971 Y107.293 E0.42298
G1 X93.181 Y106.503 E0.47454
M106 S255
G92 E0
G1 Z0.600 F7800.000
G1 X112.849 Y92.448 F7800.000
G1 X106.184 Y100.406 E3.11048 F600.000
G1 X105.737 Y100.871 E3.30375
G1 X106.186 Y101.683 E3.58188
G1 X112.050 Y107.744 E6.10884
G92 E0
G1 X102.496 Y106.744 F7800.000
G1 X102.496 Y106.744 F7800.000
G1 X103.392 Y102.671 F7800.000
G1 X102.460 Y98.310 E1.33630 F600.000
G1 X102.460 Y92.448 E3.09283
G1 X102.460 Y107.744 F7800.000
G1 X102.460 Y100.080 E5.38931 F600.000
G1 X102.650 Y99.195 E5.66049
G1 X102.820 Y99.195 E5.71145
G1 X104.007 Y99.591 E6.08643
G1 X104.993 Y100.473 E6.48307
G1 X107.462 Y101.795 E7.32203
G92 E0
G1 X103.496 Y98.310 F7800.000
G1 X103.496 Y98.310 F7800.000
G1 X105.213 Y97.461 F7800.000
G1 X106.663 Y93.423 F7800.000
G1 X105.688 Y92.448 F7800.000
G1 X103.496 Y91.352 F7800.000
G1 X101.425 Y91.352 F7800.000
G1 X99.233 Y92.448 F7800.000
G1 X97.918 Y93.763 F7800.000
G1 X97.469 Y93.443 F7800.000
G1 X96.654 Y92.941 F7800.000
G1 X95.487 Y92.334 F7800.000
G1 X94.914 Y92.087 F7800.000
G1 X93.767 Y91.691 F7800.000
G1 X93.359 Y91.583 F7800.000
G1 X92.178 Y91.364 F7800.000
G1 X91.896 Y91.330 F7800.000
G1 X91.602 Y91.314 F7800.000
G1 X91.602 Y91.314 F7800.000
G1 X90.589 Y91.259 F7800.000
G1 X90.480 Y92.256 F7800.000
G1 X86.789 Y96.426 F7800.000
G1 X87.537 Y94.626 E0.58425 F600.000
G1 X88.206 Y93.931 E0.87319
G1 X88.656 Y93.558 E1.04831
G1 X88.936 Y93.448 E1.13848
G1 X89.743 Y93.220 E1.38993
G1 X90.517 Y93.101 E1.62451
G1 X91.295 Y93.189 E1.85917
G1 X91.575 Y93.245 E1.94450
G1 X92.138 Y93.476 E2.12696
G1 X92.427 Y93.625 E2.22430
G1 X92.893 Y94.013 E2.40606
G1 X93.084 Y94.195 E2.48521
G1 X93.479 Y94.799 E2.70122
G1 X93.563 Y94.940 E2.75057
G1 X93.833 Y95.785 E3.01628
G1 X93.872 Y95.985 E3.07740
G1 X93.963 Y97.075 E3.40516
G1 X93.963 Y106.052 E6.09506
G1 X93.881 Y106.632 E6.27054
G1 X92.932 Y106.898 E6.56584
G1 X89.980 Y106.898 E7.45040
G92 E0
G1 Z0.900 F7800.000
G1 X112.849 Y92.448 F7800.000
G1 X106.184 Y100.406 E3.11048 F600.000
G1 X105.737 Y100.871 E3.30375
G1 X106.186 Y101.683 E3.58188
G1 X112.050 Y107.744 E6.10884
G92 E0
G1 X102.496 Y106.744 F7800.000
G1 X102.496 Y106.744 F7800.000
G1 X103.392 Y102.671 F7800.000
G1 X102.460 Y98.310 E1.33630 F600.000
G1 X102.460 Y92.448 E3.09283
G1 X102.460 Y107.744 F7800.000
G1 X102.460 Y100.080 E5.38931 F600.000
G1 X102.650 Y99.195 E5.66049
G1 X102.820 Y99.195 E5.71145
G1 X104.007 Y99.591 E6.08643
G1 X104.993 Y100.473 E6.48307
G1 X107.462 Y101.795 E7.32203
G92 E0
G1 X103.496 Y98.310 F7800.000
G1 X103.496 Y98.310 F7800.000
G1 X105.213 Y97.461 F7800.000
G1 X106.663 Y93.423 F7800.000
G1 X105.688 Y92.448 F7800.000
G1 X103.496 Y91.352 F7800.000
G1 X101.425 Y91.352 F7800.000
G1 X99.233 Y92.448 F7800.000
G1 X97.918 Y93.763 F7800.000
G1 X97.469 Y93.443 F7800.000
G1 X96.654 Y92.941 F7800.000
G1 X95.487 Y92.334 F7800.000
G1 X94.914 Y92.087 F7800.000
G1 X93.767 Y91.691 F7800.000
G1 X93.359 Y91.583 F7800.000
G1 X92.178 Y91.364 F7800.000
G1 X91.896 Y91.330 F7800.000
G1 X91.406 Y91.303 F7800.000
G1 X91.293 Y92.344 F7800.000
G1 X86.789 Y96.426 F7800.000
G1 X87.537 Y94.626 E0.58425 F600.000
G1 X88.206 Y93.931 E0.87319
G1 X88.656 Y93.558 E1.04831
G1 X88.936 Y93.448 E1.13848
G1 X89.743 Y93.220 E1.38993
G1 X90.517 Y93.101 E1.62451
G1 X91.295 Y93.189 E1.85917
G1 X91.575 Y93.245 E1.94450
G1 X92.138 Y93.476 E2.12696
G1 X92.427 Y93.625 E2.22430
G1 X92.893 Y94.013 E2.40606
G1 X93.084 Y94.195 E2.48521
G1 X93.479 Y94.799 E2.70122
G1 X93.563 Y94.940 E2.75057
G1 X93.833 Y95.785 E3.01628
G1 X93.872 Y95.985 E3.07740
G1 X93.963 Y97.075 E3.40516
G1 X93.963 Y106.052 E6.09506
G1 X93.881 Y106.632 E6.27054
G1 X92.932 Y106.898 E6.56584
G1 X89.980 Y106.898 E7.45040
G92 E0
G1 Z1.200 F7800.000
G1 X112.849 Y92.448 F7800.000
G1 X106.184 Y100.406 E3.11048 F600.000
G1 X105.737 Y100.871 E3.30375
G1 X106.186 Y101.683 E3.58188
G1 X112.050 Y107.744 E6.10884
G92 E0
G1 X102.496 Y106.744 F7800.000
G1 X102.496 Y106.744 F7800.000
G1 X103.392 Y102.671 F7800.000
G1 X102.460 Y98.310 E1.33630 F600.000
G1 X102.460 Y92.448 E3.09283
G1 X102.460 Y107.744 F7800.000
G1 X102.460 Y100.080 E5.38931 F600.000
G1 X102.650 Y99.195 E5.66049
G1 X102.820 Y99.195 E5.71145
G1 X104.007 Y99.591 E6.08643
G1 X104.993 Y100.473 E6.48307
G1 X107.462 Y101.795 E7.32203
G92 E0
G1 X103.496 Y98.310 F7800.000
G1 X103.496 Y98.310 F7800.000
G1 X105.213 Y97.461 F7800.000
G1 X106.663 Y93.423 F7800.000
G1 X105.688 Y92.448 F7800.000
G1 X103.496 Y91.352 F7800.000
G1 X101.425 Y91.352 F7800.000
G1 X99.233 Y92.448 F7800.000
G1 X97.918 Y93.763 F7800.000
G1 X97.469 Y93.443 F7800.000
G1 X96.654 Y92.941 F7800.000
G1 X95.487 Y92.334 F7800.000
G1 X94.914 Y92.087 F7800.000
G1 X93.767 Y91.691 F7800.000
G1 X93.359 Y91.583 F7800.000
G1 X92.178 Y91.364 F7800.000
G1 X91.896 Y91.330 F7800.000
G1 X91.210 Y91.293 F7800.000
G1 X91.098 Y92.323 F7800.000
G1 X86.789 Y96.426 F7800.000
G1 X87.537 Y94.626 E0.58425 F600.000
G1 X88.206 Y93.931 E0.87319
G1 X88.656 Y93.558 E1.04831
G1 X88.936 Y93.448 E1.13848
G1 X89.743 Y93.220 E1.38993
G1 X90.517 Y93.101 E1.62451
G1 X91.295 Y93.189 E1.85917
G1 X91.575 Y93.245 E1.94450
G1 X92.138 Y93.476 E2.12696
G1 X92.427 Y93.625 E2.22430
G1 X92.893 Y94.013 E2.40606
G1 X93.084 Y94.195 E2.48521
G1 X93.479 Y94.799 E2.70122
G1 X93.563 Y94.940 E2.75057
G1 X93.833 Y95.785 E3.01628
G1 X93.872 Y95.985 E3.07740
G1 X93.963 Y97.075 E3.40516
G1 X93.963 Y106.052 E6.09506
G1 X93.881 Y106.632 E6.27054
G1 X92.932 Y106.898 E6.56585
G1 X89.980 Y106.898 E7.45040
G92 E0
G1 Z1.500 F7800.000
G1 X112.849 Y92.448 F7800.000
G1 X106.184 Y100.406 E3.11048 F600.000
G1 X105.737 Y100.871 E3.30375
G1 X106.186 Y101.683 E3.58188
G1 X112.050 Y107.744 E6.10884
G92 E0
G1 X102.496 Y106.744 F7800.000
G1 X102.496 Y106.744 F7800.000
G1 X103.392 Y102.671 F7800.000
G1 X102.460 Y98.310 E1.33630 F600.000
G1 X102.460 Y92.448 E3.09283
G1 X102.460 Y107.744 F7800.000
G1 X102.460 Y100.080 E5.38931 F600.000
G1 X102.650 Y99.195 E5.66049
G1 X102.820 Y99.195 E5.71145
G1 X104.007 Y99.591 E6.08643
G1 X104.993 Y100.473 E6.48307
G1 X107.462 Y101.795 E7.32203
G92 E0
G1 X103.496 Y98.310 F7800.000
G1 X103.496 Y98.310 F7800.000
G1 X105.213 Y97.461 F7800.000
G1 X106.663 Y93.423 F7800.000
G1 X105.688 Y92.448 F7800.000
G1 X103.496 Y91.352 F7800.000
G1 X101.425 Y91.352 F7800.000
G1 X99.233 Y92.448 F7800.000
G1 X97.918 Y93.763 F7800.000
G1 X97.469 Y93.443 F7800.000
G1 X96.654 Y92.941 F7800.000
G1 X95.487 Y92.334 F7800.000
G1 X94.914 Y92.087 F7800.000
G1 X93.767 Y91.691 F7800.000
G1 X93.359 Y91.583 F7800.000
G1 X92.178 Y91.364 F7800.000
G1 X91.896 Y91.330 F7800.000
G1 X91.014 Y91.282 F7800.000
G1 X90.903 Y92.302 F7800.000
G1 X86.789 Y96.426 F7800.000
G1 X87.537 Y94.626 E0.58425 F600.000
G1 X88.206 Y93.931 E0.87319
G1 X88.656 Y93.558 E1.04831
G1 X88.936 Y93.448 E1.13848
G1 X89.743 Y93.220 E1.38993
G1 X90.517 Y93.101 E1.62451
G1 X91.295 Y93.189 E1.85917
G1 X91.575 Y93.245 E1.94450
G1 X92.138 Y93.476 E2.12696
G1 X92.427 Y93.625 E2.22430
G1 X92.893 Y94.013 E2.40606
G1 X93.084 Y94.195 E2.48521
G1 X93.479 Y94.799 E2.70122
G1 X93.563 Y94.940 E2.75057
G1 X93.833 Y95.785 E3.01628
G1 X93.872 Y95.985 E3.07740
G1 X93.963 Y97.075 E3.40516
G1 X93.963 Y106.052 E6.09506
G1 X93.881 Y106.632 E6.27054
G1 X92.932 Y106.898 E6.56585
G1 X89.980 Y106.898 E7.45040
G92 E0
G1 Z1.800 F7800.000
G1 X112.849 Y92.448 F7800.000
G1 X106.184 Y100.406 E3.11048 F600.000
G1 X105.737 Y100.871 E3.30375
G1 X106.186 Y101.683 E3.58188
G1 X112.050 Y107.744 E6.10884
G92 E0
G1 X102.496 Y106.744 F7800.000
G1 X102.496 Y106.744 F7800.000
G1 X103.392 Y102.671 F7800.000
G1 X102.460 Y98.310 E1.33630 F600.000
G1 X102.460 Y92.448 E3.09283
G1 X102.460 Y107.744 F7800.000
G1 X102.460 Y100.080 E5.38931 F600.000
G1 X102.650 Y99.195 E5.66049
G1 X102.820 Y99.195 E5.71145
G1 X104.007 Y99.591 E6.08643
G1 X104.993 Y100.473 E6.48307
