; generated by Slic3r 1.2.9 on 2016-03-11 at 01:26:14

; external perimeters extrusion width = 1.54mm
; perimeters extrusion width = 2.62mm
; infill extrusion width = 6.27mm
; solid infill extrusion width = 2.62mm
; top infill extrusion width = 2.62mm

M107
M104 S30 ; set temperature
G28 ; home all axes
G1 Z5 F5000 ; lift nozzle
M302
M92 E10000
M500
M501
G1 E100
M109 S30 ; wait for temperature to be reached
G21 ; set units to millimeters
G90 ; use absolute coordinates
M82 ; use absolute distances for extrusion
G92 E0
G1 Z0.300 F7800.000
G1 X106.900 Y94.329 F7800.000
G1 X107.413 Y92.960 E0.06614 F378.000
G1 X107.970 Y91.961 E0.11789
G1 X108.597 Y91.243 E0.16101
G1 X109.318 Y90.760 E0.20027
G1 X110.164 Y90.468 E0.24077
G1 X111.149 Y90.369 E0.28559
G1 X111.702 Y90.393 E0.31064
G1 X112.376 Y90.473 E0.34131 F378.000
G1 X112.849 Y90.567 E0.36316
G1 X112.849 Y91.566 E0.40835
G1 X112.279 Y91.490 E0.43438
G1 X111.820 Y91.470 E0.45516
G1 X111.084 Y91.541 E0.48861
G1 X110.424 Y91.762 E0.52011
G1 X109.852 Y92.132 E0.55094
G1 X109.366 Y92.661 E0.58345
G1 X108.956 Y93.357 E0.61998
G1 X108.528 Y94.442 E0.67276
G1 X110.540 Y94.939 E0.76653
G1 X111.995 Y95.730 E0.84149
G1 X113.178 Y96.886 E0.91631
G1 X114.053 Y98.354 E0.99361
G1 X114.580 Y100.076 E1.07514
G1 X114.757 Y102.063 E1.16537
G1 X114.659 Y103.562 E1.23337
G1 X114.364 Y104.919 E1.29617
G1 X113.876 Y106.130 E1.35530
G1 X113.206 Y107.179 E1.41160
G1 X112.365 Y108.044 E1.46621
G1 X111.349 Y108.730 E1.52168
G1 X110.176 Y109.229 E1.57933
G1 X108.864 Y109.530 E1.64024
G1 X107.415 Y109.630 E1.70599
G1 X105.251 Y109.406 E1.80443
G1 X103.447 Y108.738 E1.89146
G1 X101.988 Y107.631 E1.97433
G1 X100.912 Y106.131 E2.05790
G1 X100.262 Y104.276 E2.14680
G1 X100.044 Y102.055 E2.24780
G1 X100.133 Y100.611 E2.31327
G1 X100.399 Y99.290 E2.37426
G1 X100.841 Y98.094 E2.43193
G1 X101.449 Y97.048 E2.48669
G1 X102.212 Y96.169 E2.53933
G1 X103.133 Y95.456 E2.59204
G1 X104.199 Y94.918 E2.64607
G1 X105.396 Y94.566 E2.70256
G1 X106.708 Y94.404 E2.76235
G1 X106.855 Y95.650 F7800.000
G1 X107.115 Y95.619 E2.77422 F378.000
G1 X107.389 Y95.587 E2.78671 F378.000
G1 X109.073 Y95.774 E2.86338
G1 X110.489 Y96.343 E2.93243
G1 X111.624 Y97.295 E2.99946
G1 X112.446 Y98.588 E3.06878
G1 X112.934 Y100.178 E3.14404
G1 X113.095 Y102.059 E3.22949
G1 X112.932 Y103.869 E3.31169
G1 X112.440 Y105.414 E3.38507
G1 X111.612 Y106.688 E3.45381
G1 X110.477 Y107.636 E3.52073
G1 X109.073 Y108.203 E3.58927
G1 X107.412 Y108.390 E3.66489
G1 X105.739 Y108.206 E3.74105
G1 X104.326 Y107.647 E3.80983
G1 X103.185 Y106.711 E3.87660
G1 X102.353 Y105.443 E3.94521
G1 X101.859 Y103.890 E4.01895
G1 X101.696 Y102.059 E4.10215
G1 X101.861 Y100.230 E4.18523
G1 X102.360 Y98.659 E4.25984
G1 X103.198 Y97.350 E4.33017
G1 X104.341 Y96.369 E4.39832
G1 X105.743 Y95.781 E4.46711
G1 X106.625 Y95.677 E4.50732
G1 X107.300 Y93.838 F7800.000
G1 X108.196 Y94.734 E4.56495 F540.000
G1 X108.767 Y94.756 E4.59094
G1 X109.790 Y95.779 E4.65676
G1 X110.707 Y96.147 F7800.000
G1 X109.495 Y94.936 E4.73467 F540.000
G1 X110.223 Y95.116 E4.76878
G1 X113.932 Y98.824 E5.00732
G1 X114.174 Y99.614 F7800.000
G1 X112.142 Y97.583 E5.13801 F540.000
G1 X113.311 Y97.656 F7800.000
G1 X111.345 Y95.690 E5.26446 F540.000
G1 X112.761 Y98.750 F7800.000
G1 X114.371 Y100.360 E5.36804 F540.000
G1 X114.425 Y100.962 E5.39552
G1 X113.003 Y99.541 E5.48694
G1 X113.175 Y100.260 E5.52059
G1 X114.478 Y101.564 E5.60444
G1 X114.529 Y102.163 E5.63179
G1 X113.226 Y100.860 E5.71562
G1 X113.278 Y101.459 E5.74299
G1 X114.496 Y102.677 E5.82135
G1 X114.462 Y103.192 E5.84479
G1 X113.316 Y102.046 E5.91851
G1 X113.271 Y102.549 E5.94147
G1 X114.415 Y103.693 E6.01508
G1 X114.317 Y104.143 E6.03604
G1 X113.226 Y103.052 E6.10627
G1 X113.180 Y103.555 E6.12924
G1 X114.220 Y104.594 E6.19608
G1 X114.104 Y105.026 E6.21644
G1 X113.099 Y104.021 E6.28110
G1 X112.966 Y104.437 E6.30094
G1 X113.946 Y105.417 E6.36398
G1 X113.789 Y105.808 E6.38314
G1 X112.834 Y104.853 E6.44458
G1 X112.701 Y105.268 E6.46443
G1 X113.613 Y106.180 E6.52307
G1 X113.399 Y106.514 E6.54112
G1 X112.525 Y105.640 E6.59737
G1 X112.309 Y105.972 E6.61539
G1 X113.186 Y106.849 E6.67177
G1 X112.948 Y107.160 E6.68956
G1 X112.093 Y106.305 E6.74456
G1 X111.877 Y106.637 E6.76258
G1 X112.674 Y107.434 E6.81384
G1 X112.400 Y107.708 E6.83147
G1 X111.623 Y106.930 E6.88149
G1 X111.324 Y107.180 E6.89919
G1 X112.119 Y107.975 E6.95037
G1 X111.792 Y108.196 E6.96832
G1 X111.025 Y107.429 E7.01766
G1 X110.727 Y107.679 E7.03536
G1 X111.465 Y108.417 E7.08287
G1 X111.113 Y108.613 E7.10121
G1 X110.389 Y107.889 E7.14777
G1 X109.998 Y108.047 E7.16693
G1 X110.728 Y108.777 E7.21387
G1 X110.344 Y108.940 E7.23288
G1 X109.608 Y108.204 E7.28021
G1 X109.217 Y108.362 E7.29936
G1 X109.926 Y109.071 E7.34497
G1 X109.480 Y109.173 E7.36578
G1 X108.764 Y108.457 E7.41187
G1 X108.271 Y108.512 E7.43442
G1 X109.034 Y109.276 E7.48352
G1 X108.542 Y109.331 E7.50607
G1 X107.778 Y108.568 E7.55516
G1 X107.275 Y108.612 E7.57817
G1 X108.029 Y109.367 E7.62670
G1 X107.516 Y109.402 E7.65007
G1 X106.659 Y108.544 E7.70526
G1 X106.042 Y108.476 E7.73345
G1 X106.908 Y109.341 E7.78910
G1 X106.296 Y109.278 E7.81707
G1 X105.353 Y108.335 E7.87774
G1 X104.446 Y107.976 F7800.000
G1 X105.684 Y109.214 E7.95740 F540.000
G1 X104.933 Y109.011 E7.99279
G1 X100.717 Y104.795 E8.26398
G1 X100.471 Y104.001 E8.30181
G1 X102.204 Y105.735 E8.41333
G1 X101.911 Y104.893 F7800.000
G1 X100.411 Y103.393 E8.50983 F540.000
G1 X100.351 Y102.785 E8.53762
G1 X101.655 Y104.089 E8.62150
G1 X101.588 Y103.473 E8.64968
G1 X100.291 Y102.177 E8.73307
G1 X100.291 Y101.629 E8.75799
G1 X101.534 Y102.871 E8.83791
G1 X101.480 Y102.270 E8.86539
G1 X100.323 Y101.112 E8.93982
G1 X100.355 Y100.596 E8.96335
G1 X101.504 Y101.746 E9.03729
G1 X101.550 Y101.243 E9.06025
G1 X100.444 Y100.137 E9.13139
G1 X100.536 Y99.681 E9.15256
G1 X101.595 Y100.740 E9.22070
G1 X101.643 Y100.240 E9.24356
G1 X100.636 Y99.233 E9.30832
G1 X100.784 Y98.833 E9.32772
G1 X101.775 Y99.824 E9.39146
G1 X101.907 Y99.407 E9.41131
G1 X100.932 Y98.433 E9.47402
G1 X101.095 Y98.047 E9.49305
G1 X102.039 Y98.991 E9.55378
G1 X102.178 Y98.582 E9.57344
G1 X101.296 Y97.700 E9.63014
G1 X101.498 Y97.354 E9.64838
G1 X102.392 Y98.248 E9.70590
G1 X102.606 Y97.914 E9.72395
G1 X101.720 Y97.028 E9.78091
G1 X101.975 Y96.735 E9.79858
G1 X102.820 Y97.579 E9.85291
G1 X103.034 Y97.245 E9.87096
G1 X102.236 Y96.447 E9.92229
G1 X102.515 Y96.178 E9.93993
G1 X103.325 Y96.988 E9.99198
G1 X103.619 Y96.735 E10.00966
G1 X102.824 Y95.939 E10.06082
G1 X103.133 Y95.700 E10.07859
G1 X103.914 Y96.481 E10.12884
G1 X104.209 Y96.228 E10.14652
G1 X103.482 Y95.501 E10.19327
G1 X103.847 Y95.317 E10.21183
G1 X104.580 Y96.051 E10.25900
G1 X104.966 Y95.889 E10.27804
G1 X104.211 Y95.133 E10.32662
G1 X104.631 Y95.006 E10.34660
G1 X105.352 Y95.727 E10.39297
G1 X105.739 Y95.565 E10.41202
G1 X105.055 Y94.881 E10.45598
G1 X105.494 Y94.772 E10.47655
G1 X106.227 Y95.505 E10.52369
G1 X106.717 Y95.447 E10.54615
G1 X105.982 Y94.712 E10.59346
G1 X106.470 Y94.651 E10.61581
G1 X107.208 Y95.389 E10.66328
G1 X107.757 Y95.391 E10.68826
G1 X106.958 Y94.591 E10.73968
G1 X107.151 Y94.236 E10.75806
G1 X108.374 Y95.459 E10.83672
G1 X108.991 Y95.528 E10.86495
G1 X108.039 Y94.576 E10.92617
G1 X108.351 Y94.340 E10.94397
G1 X107.450 Y93.439 E11.00196
G1 X107.599 Y93.040 E11.02133
G1 X108.507 Y93.947 E11.07970
G1 X108.662 Y93.554 E11.09891
G1 X107.792 Y92.684 E11.15488
G1 X107.988 Y92.332 E11.17321
G1 X108.834 Y93.179 E11.22764
G1 X109.037 Y92.834 E11.24585
G1 X108.197 Y91.993 E11.29990
G1 X108.453 Y91.701 E11.31757
G1 X109.252 Y92.501 E11.36902
G1 X109.515 Y92.215 E11.38666
G1 X108.708 Y91.408 E11.43854
G1 X109.033 Y91.185 E11.45646
G1 X109.789 Y91.941 E11.50507
G1 X110.122 Y91.725 E11.52310
G1 X109.361 Y90.965 E11.57202
G1 X109.766 Y90.821 E11.59154
G1 X110.474 Y91.530 E11.63711
G1 X110.885 Y91.392 E11.65681
G1 X110.179 Y90.686 E11.70224
G1 X110.677 Y90.636 E11.72500
G1 X111.338 Y91.297 E11.76751
G1 X111.837 Y91.248 E11.79034
G1 X111.190 Y90.601 E11.83199
G1 X111.777 Y90.640 E11.85873
G1 X112.404 Y91.267 E11.89908
G1 X112.414 Y90.729 E11.92356
G1 X112.623 Y90.938 E11.93701
G92 E0
G1 X107.544 Y94.824 F7800.000
G1 X100.821 Y102.041 F7800.000
G1 X101.012 Y105.639 F7800.000
G1 X104.063 Y108.690 E0.19624 F540.000
G1 X102.411 Y107.586 F7800.000
G1 X102.057 Y107.231 E0.21905 F540.000
G92 E0
G1 X100.041 Y104.325 F7800.000
G1 X96.988 Y101.885 F7800.000
G1 X97.059 Y100.007 F7800.000
G1 X97.165 Y98.945 F7800.000
G1 X94.152 Y98.945 F7800.000
G1 X92.316 Y103.561 F7800.000
G1 X92.316 Y98.893 E0.21121 F378.000
G1 X92.241 Y97.945 E0.25425
G1 X92.008 Y97.137 E0.29228
G1 X91.611 Y96.486 E0.32680
G1 X91.070 Y96.009 E0.35944
G1 X90.412 Y95.724 E0.39190
G1 X89.650 Y95.630 E0.42662
G1 X88.941 Y95.716 E0.45894
G1 X88.309 Y95.975 E0.48984
G1 X87.765 Y96.404 E0.52121
G1 X87.329 Y96.980 E0.55387
G1 X87.016 Y97.677 E0.58848
G1 X86.875 Y98.272 E0.61612
G1 X85.324 Y98.015 E0.68725
G1 X86.045 Y96.093 E0.78012
G1 X87.498 Y94.831 E0.86719
G1 X89.649 Y94.403 E0.96644
G1 X90.817 Y94.531 E1.01962
G1 X90.886 Y94.538 E1.02273 F378.000
G1 X91.929 Y94.940 E1.07332
G1 X92.780 Y95.606 E1.12222
G1 X93.413 Y96.507 E1.17206
G1 X93.797 Y97.617 E1.22521
G1 X93.927 Y98.956 E1.28607
G1 X93.927 Y109.439 E1.76042
G1 X89.364 Y109.439 E1.96689
G1 X89.364 Y108.197 E2.02309
G1 X92.316 Y108.197 E2.15667
G1 X92.316 Y103.792 E2.35600
G1 X92.542 Y108.069 F7800.000
G1 X93.674 Y109.201 E2.42983 F540.000
G1 X93.701 Y108.672 E2.45424
G1 X92.542 Y107.513 E2.52987
G1 X92.542 Y106.957 E2.55553
G1 X93.701 Y108.116 E2.63116
G1 X93.701 Y107.560 E2.65681
G1 X92.542 Y106.401 E2.73244
G1 X92.542 Y105.845 E2.75809
G1 X93.701 Y107.004 E2.83372
G1 X93.701 Y106.448 E2.85938
G1 X92.542 Y105.289 E2.93501
G1 X92.542 Y104.733 E2.96066
G1 X93.701 Y105.892 E3.03629
G1 X93.701 Y105.336 E3.06194
G1 X92.542 Y104.177 E3.13757
G1 X92.542 Y103.621 E3.16323
G1 X93.701 Y104.780 E3.23886
G1 X93.701 Y104.224 E3.26451
G1 X92.542 Y103.065 E3.34014
G1 X92.542 Y102.509 E3.36579
G1 X93.701 Y103.668 E3.44142
G1 X93.701 Y103.112 E3.46708
G1 X92.542 Y101.953 E3.54271
G1 X92.542 Y101.396 E3.56836
G1 X93.701 Y102.556 E3.64399
G1 X93.701 Y102.000 E3.66964
G1 X92.542 Y100.840 E3.74527
G1 X92.542 Y100.284 E3.77093
G1 X93.701 Y101.443 E3.84656
G1 X93.701 Y100.887 E3.87221
G1 X92.542 Y99.728 E3.94784
G1 X92.542 Y99.172 E3.97349
G1 X93.701 Y100.331 E4.04912
G1 X93.701 Y99.775 E4.07478
G1 X92.526 Y98.600 E4.15143
G1 X92.478 Y97.997 E4.17939
G1 X93.701 Y99.219 E4.25917
G1 X93.659 Y98.621 E4.28683
G1 X92.309 Y97.271 E4.37494
G1 X92.704 Y95.998 F7800.000
G1 X92.341 Y95.635 E4.39859 F540.000
G1 X91.019 Y94.869 F7800.000
G1 X93.397 Y97.247 E4.55375 F540.000
G1 X93.599 Y98.005 E4.58997
G1 X90.305 Y94.711 E4.80487
G1 X89.682 Y94.644 E4.83382
G1 X90.539 Y95.501 E4.88977
G1 X89.905 Y95.423 E4.91923
G1 X89.192 Y94.710 E4.96576
G1 X88.728 Y94.802 E4.98758
G1 X89.371 Y95.446 E5.02956
G1 X88.889 Y95.520 E5.05206
G1 X88.264 Y94.895 E5.09284
G1 X87.800 Y94.987 E5.11466
G1 X88.495 Y95.681 E5.15997
G1 X88.129 Y95.871 E5.17900
G1 X87.415 Y95.158 E5.22556
G1 X87.118 Y95.416 E5.24375
G1 X87.818 Y96.117 E5.28944
G1 X87.534 Y96.389 E5.30759
G1 X86.820 Y95.675 E5.35418
G1 X86.523 Y95.933 E5.37237
G1 X87.295 Y96.705 E5.42275
G1 X87.080 Y97.047 E5.44135
G1 X86.239 Y96.206 E5.49622
G1 X86.073 Y96.596 E5.51576
G1 X86.908 Y97.431 E5.57026
G1 X86.762 Y97.841 E5.59034
G1 X85.921 Y97.000 E5.64522
G1 X85.769 Y97.404 E5.66514
G1 X86.298 Y97.932 E5.69961
G92 E0
G1 X93.091 Y98.862 F7800.000
G1 X93.115 Y98.862 F7800.000
G1 X93.122 Y108.633 F7800.000
G1 X93.091 Y108.664 F7800.000
G1 X89.794 Y109.213 F7800.000
G1 X89.590 Y109.009 E0.01328 F540.000
G1 X89.590 Y108.453 E0.03894
G1 X90.350 Y109.213 E0.08850
G1 X90.906 Y109.213 E0.11416
G1 X90.116 Y108.423 E0.16571
G1 X90.672 Y108.423 E0.19136
G1 X91.462 Y109.213 E0.24292
G1 X92.018 Y109.213 E0.26857
G1 X91.228 Y108.423 E0.32012
G1 X91.784 Y108.423 E0.34578
G1 X92.574 Y109.213 E0.39733
G1 X93.130 Y109.213 E0.42298
G1 X92.340 Y108.423 E0.47454
M106 S255
G92 E0
G1 Z0.600 F7800.000
G1 X106.666 Y94.182 F7800.000
G1 X108.630 Y95.103 E0.65005 F600.000
G1 X109.320 Y95.241 E0.86105
G1 X110.300 Y95.558 E1.16951
G1 X110.692 Y95.742 E1.29935
G1 X110.927 Y95.877 E1.38056
G1 X111.566 Y96.312 E1.61211
G1 X112.042 Y96.743 E1.80458
G1 X112.236 Y96.948 E1.88905
G1 X112.573 Y97.363 E2.04931
G1 X113.063 Y98.160 E2.32964
G1 X113.314 Y98.681 E2.50305
G1 X113.693 Y99.920 E2.89116
G1 X113.766 Y100.236 E2.98831
G1 X113.924 Y102.072 E3.54074
G1 X113.819 Y103.444 E3.95299
G1 X113.700 Y104.140 E4.16440
G1 X113.559 Y104.671 E4.32910
G1 X113.160 Y105.761 E4.67707
G1 X112.574 Y106.678 E5.00311
G1 X112.262 Y107.070 E5.15316
G1 X111.875 Y107.459 E5.31762
G1 X111.011 Y108.109 E5.64160
G1 X110.697 Y108.275 E5.74797
G1 X109.965 Y108.578 E5.98535
G1 X109.337 Y108.776 E6.18268
G1 X108.769 Y108.888 E6.35614
G1 X107.425 Y109.008 E6.76037
G1 X105.701 Y108.827 E7.27988
G1 X105.399 Y108.769 E7.37203
G1 X104.114 Y108.277 E7.78428
G1 X103.789 Y108.115 E7.89327
G1 X102.750 Y107.296 E8.28978
G1 X102.535 Y107.098 E8.37708
G1 X101.625 Y105.760 E8.86223
G1 X101.068 Y104.098 E9.38730
G1 X100.872 Y102.040 E10.00691
G1 X100.970 Y100.721 E10.40330
G1 X101.093 Y99.961 E10.63391
G1 X101.208 Y99.519 E10.77062
G1 X101.578 Y98.441 E11.11219
G1 X101.703 Y98.202 E11.19289
G1 X102.116 Y97.525 E11.43075
G1 X102.536 Y96.965 E11.64044
G1 X102.724 Y96.747 E11.72669
G1 X103.531 Y96.086 E12.03908
G1 X103.862 Y95.865 E12.15843
G1 X104.110 Y95.726 E12.24362
G1 X104.455 Y95.567 E12.35759
G1 X105.525 Y95.188 E12.69775
G1 X106.888 Y95.012 E13.10955
G1 X107.282 Y94.900 E13.23230
G1 X107.751 Y94.691 E13.38601
G1 X107.757 Y94.566 E13.42359
G1 X107.893 Y93.914 E13.62297
G1 X108.132 Y93.293 E13.82257
G1 X108.301 Y92.950 E13.93700
G1 X108.610 Y92.411 E14.12311
G1 X108.825 Y92.132 E14.22863
G1 X109.104 Y91.820 E14.35425
G1 X109.486 Y91.513 E14.50097
G1 X109.641 Y91.410 E14.55670
G1 X110.244 Y91.132 E14.75563
G1 X111.053 Y90.962 E15.00348
G1 X111.855 Y90.945 E15.24383
G1 X112.299 Y90.978 E15.37710
G1 X113.074 Y91.099 E15.61226
G92 E0
G1 X107.208 Y92.865 F7800.000
G1 X107.208 Y92.865 F7800.000
G1 X104.476 Y91.342 F7800.000
G1 X104.463 Y91.325 F7800.000
G1 X104.451 Y91.310 F7800.000
G1 X103.171 Y91.494 F7800.000
G1 X102.553 Y91.612 F7800.000
G1 X101.317 Y91.906 F7800.000
G1 X100.577 Y92.121 F7800.000
G1 X99.368 Y92.534 F7800.000
G1 X98.473 Y92.891 F7800.000
G1 X97.662 Y93.261 F7800.000
G1 X96.741 Y92.783 F7800.000
G1 X95.463 Y92.231 F7800.000
G1 X94.316 Y91.835 F7800.000
G1 X93.268 Y91.557 F7800.000
G1 X92.087 Y91.337 F7800.000
G1 X91.274 Y91.240 F7800.000
G1 X90.935 Y91.221 F7800.000
G1 X90.935 Y91.221 F7800.000
G1 X89.966 Y91.169 F7800.000
G1 X89.639 Y94.176 F7800.000
G1 X85.948 Y98.346 F7800.000
G1 X86.696 Y96.546 E0.58425 F600.000
G1 X87.365 Y95.851 E0.87319
G1 X87.815 Y95.478 E1.04831
G1 X88.095 Y95.368 E1.13848
G1 X88.902 Y95.140 E1.38993
G1 X89.676 Y95.021 E1.62451
G1 X90.511 Y95.117 E1.87636
G1 X90.734 Y95.165 E1.94454
G1 X91.297 Y95.396 E2.12700
G1 X91.586 Y95.545 E2.22434
G1 X92.052 Y95.933 E2.40611
G1 X92.243 Y96.115 E2.48525
G1 X92.638 Y96.719 E2.70126
G1 X92.722 Y96.860 E2.75061
G1 X92.992 Y97.705 E3.01633
G1 X93.031 Y97.905 E3.07744
G1 X93.122 Y98.995 E3.40521
G1 X93.122 Y107.972 E6.09510
G1 X93.040 Y108.552 E6.27058
G1 X92.091 Y108.818 E6.56589
G1 X89.139 Y108.818 E7.45044
G92 E0
G1 Z0.900 F7800.000
G1 X106.666 Y94.182 F7800.000
G1 X108.630 Y95.103 E0.65005 F600.000
G1 X109.320 Y95.241 E0.86105
G1 X110.300 Y95.558 E1.16951
G1 X110.692 Y95.742 E1.29935
G1 X110.927 Y95.877 E1.38056
G1 X111.566 Y96.312 E1.61211
G1 X112.042 Y96.743 E1.80458
G1 X112.236 Y96.948 E1.88905
G1 X112.573 Y97.363 E2.04931
G1 X113.063 Y98.160 E2.32964
G1 X113.314 Y98.681 E2.50305
G1 X113.693 Y99.920 E2.89116
G1 X113.766 Y100.236 E2.98831
G1 X113.924 Y102.072 E3.54074
G1 X113.819 Y103.444 E3.95299
G1 X113.700 Y104.140 E4.16440
G1 X113.559 Y104.671 E4.32910
G1 X113.160 Y105.761 E4.67707
G1 X112.574 Y106.678 E5.00311
G1 X112.262 Y107.070 E5.15317
G1 X111.875 Y107.459 E5.31762
G1 X111.011 Y108.109 E5.64160
G1 X110.697 Y108.275 E5.74797
