; generated by Slic3r 1.2.9 on 2016-03-11 at 01:26:18

; external perimeters extrusion width = 1.54mm
; perimeters extrusion width = 2.62mm
; infill extrusion width = 6.27mm
; solid infill extrusion width = 2.62mm
; top infill extrusion width = 2.62mm

M107
M104 S30 ; set temperature
G28 ; home all axes
G1 Z5 F5000 ; lift nozzle
M302
M92 E10000
M500
M501
G1 E100
M109 S30 ; wait for temperature to be reached
G21 ; set units to millimeters
G90 ; use absolute coordinates
M82 ; use absolute distances for extrusion
G92 E0
G1 Z0.300 F7800.000
G1 X101.894 Y96.232 F7800.000
G1 X101.972 Y95.920 E0.01457 F378.000
G1 X102.382 Y95.037 E0.05862
G1 X102.940 Y94.275 E0.10134
G1 X103.631 Y93.644 E0.14369
G1 X104.459 Y93.142 E0.18751
G1 X105.411 Y92.776 E0.23365
G1 X106.471 Y92.555 E0.28265
G1 X107.640 Y92.481 E0.33567
G1 X108.764 Y92.553 E0.38661
G1 X109.955 Y92.788 E0.44154 F378.000
G1 X110.934 Y93.168 E0.48908
G1 X111.785 Y93.690 E0.53423
G1 X112.494 Y94.345 E0.57791
G1 X113.065 Y95.134 E0.62199
G1 X113.485 Y96.047 E0.66746
G1 X113.738 Y97.074 E0.71531
G1 X113.823 Y98.225 E0.76756
G1 X113.823 Y107.519 E1.18809
G1 X112.212 Y107.519 E1.26099
G1 X112.212 Y98.326 E1.67696
G1 X112.081 Y96.965 E1.73882
G1 X111.679 Y95.815 E1.79398
G1 X111.000 Y94.896 E1.84566
G1 X110.079 Y94.234 E1.89700
G1 X108.952 Y93.840 E1.95101
G1 X107.628 Y93.711 E2.01119
G1 X106.344 Y93.836 E2.06960
G1 X105.261 Y94.218 E2.12155
G1 X104.390 Y94.861 E2.17057
G1 X103.758 Y95.753 E2.21999
G1 X103.384 Y96.867 E2.27319
G1 X103.262 Y98.186 E2.33310
G1 X103.262 Y107.519 E2.75543
G1 X101.641 Y107.519 E2.82878
G1 X101.641 Y98.030 E3.25813
G1 X101.725 Y96.914 E3.30880
G1 X101.839 Y96.456 E3.33012
G92 E0
G1 X103.035 Y95.472 F7800.000
G1 X103.035 Y95.472 F7800.000
G1 X109.134 Y93.631 F7800.000
G1 X108.255 Y92.752 E0.05624 F540.000
G1 X107.673 Y92.715 E0.08265
G1 X108.520 Y93.563 E0.13688
G1 X107.916 Y93.504 E0.16436
G1 X107.146 Y92.734 E0.21360
G1 X106.633 Y92.767 E0.23686
G1 X107.382 Y93.515 E0.28479
G1 X106.885 Y93.564 E0.30739
G1 X106.158 Y92.836 E0.35396
G1 X105.706 Y92.930 E0.37483
G1 X106.388 Y93.612 E0.41849
G1 X105.980 Y93.749 E0.43800
G1 X105.275 Y93.045 E0.48307
G1 X104.881 Y93.196 E0.50217
G1 X105.576 Y93.891 E0.54665
G1 X105.178 Y94.038 E0.56585
G1 X104.491 Y93.351 E0.60985
G1 X104.151 Y93.557 E0.62782
G1 X104.865 Y94.270 E0.67347
G1 X104.551 Y94.502 E0.69112
G1 X103.812 Y93.763 E0.73843
G1 X103.514 Y94.011 E0.75595
G1 X104.241 Y94.737 E0.80243
G1 X104.014 Y95.056 E0.82014
G1 X103.237 Y94.279 E0.86987
G1 X102.972 Y94.559 E0.88733
G1 X103.788 Y95.375 E0.93957
G1 X103.562 Y95.695 E0.95728
G1 X102.741 Y94.874 E1.00981
G1 X102.525 Y95.203 E1.02763
G1 X103.425 Y96.103 E1.08525
G1 X103.288 Y96.511 E1.10474
G1 X102.352 Y95.575 E1.16466
G1 X102.180 Y95.949 E1.18327
G1 X103.159 Y96.928 E1.24591
G1 X103.113 Y97.427 E1.26860
G1 X102.071 Y96.385 E1.33525
G1 X101.963 Y96.822 E1.35562
G1 X103.067 Y97.926 E1.42627
G1 X103.036 Y98.441 E1.44962
G1 X101.915 Y97.320 E1.52138
G1 X101.877 Y97.828 E1.54440
G1 X103.036 Y98.987 E1.61859
G1 X103.036 Y99.532 E1.64327
G1 X101.867 Y98.363 E1.71809
G1 X101.867 Y98.908 E1.74277
G1 X103.036 Y100.078 E1.81759
G1 X103.036 Y100.623 E1.84227
G1 X101.867 Y99.454 E1.91709
G1 X101.867 Y99.999 E1.94177
G1 X103.036 Y101.168 E2.01659
G1 X103.036 Y101.714 E2.04127
G1 X101.867 Y100.545 E2.11609
G1 X101.867 Y101.090 E2.14077
G1 X103.036 Y102.259 E2.21559
G1 X103.037 Y102.805 E2.24027
G1 X101.867 Y101.635 E2.31509
G1 X101.867 Y102.181 E2.33977
G1 X103.037 Y103.350 E2.41459
G1 X103.037 Y103.895 E2.43928
G1 X101.867 Y102.726 E2.51409
G1 X101.867 Y103.272 E2.53878
G1 X103.037 Y104.441 E2.61360
G1 X103.037 Y104.986 E2.63828
G1 X101.867 Y103.817 E2.71310
G1 X101.867 Y104.362 E2.73778
G1 X103.037 Y105.532 E2.81260
G1 X103.037 Y106.077 E2.83728
G1 X101.867 Y104.908 E2.91210
G1 X101.867 Y105.453 E2.93678
G1 X103.037 Y106.622 E3.01160
G1 X103.037 Y107.168 E3.03628
G1 X101.867 Y105.999 E3.11110
G1 X101.867 Y106.544 E3.13578
G1 X102.616 Y107.293 E3.18371
G1 X102.071 Y107.293 E3.20839
G1 X101.867 Y107.089 E3.22142
G92 E0
G1 X102.487 Y106.744 F7800.000
G1 X102.487 Y106.744 F7800.000
G1 X112.438 Y106.752 F7800.000
G1 X112.979 Y107.293 E0.03459 F540.000
G1 X113.524 Y107.293 E0.05928
G1 X112.438 Y106.207 E0.12877
G1 X112.438 Y105.662 E0.15346
G1 X113.597 Y106.821 E0.22764
G1 X113.597 Y106.275 E0.25232
G1 X112.438 Y105.116 E0.32650
G1 X112.438 Y104.571 E0.35118
G1 X113.597 Y105.730 E0.42536
G1 X113.597 Y105.185 E0.45004
G1 X112.438 Y104.025 E0.52422
G1 X112.438 Y103.480 E0.54890
G1 X113.597 Y104.639 E0.62308
G1 X113.597 Y104.094 E0.64776
G1 X112.438 Y102.935 E0.72194
G1 X112.438 Y102.389 E0.74662
G1 X113.597 Y103.548 E0.82080
G1 X113.597 Y103.003 E0.84548
G1 X112.438 Y101.844 E0.91966
G1 X112.438 Y101.298 E0.94434
G1 X113.597 Y102.458 E1.01852
G1 X113.597 Y101.912 E1.04320
G1 X112.438 Y100.753 E1.11738
G1 X112.438 Y100.208 E1.14206
G1 X113.597 Y101.367 E1.21624
G1 X113.597 Y100.821 E1.24092
G1 X112.438 Y99.662 E1.31510
G1 X112.438 Y99.117 E1.33978
G1 X113.597 Y100.276 E1.41396
G1 X113.597 Y99.731 E1.43865
G1 X112.438 Y98.572 E1.51283
G1 X112.417 Y98.004 E1.53851
G1 X113.597 Y99.185 E1.61408
G1 X113.597 Y98.640 E1.63876
G1 X112.359 Y97.401 E1.71805
G1 X112.293 Y96.790 E1.74587
G1 X113.580 Y98.076 E1.82822
G1 X113.536 Y97.487 E1.85496
G1 X111.999 Y95.951 E1.95329
G1 X112.419 Y94.734 F7800.000
G1 X111.814 Y94.130 E1.99197 F540.000
G1 X110.368 Y93.229 F7800.000
G1 X113.194 Y96.054 E2.17280 F540.000
G1 X113.422 Y96.828 E2.20930
G1 X109.550 Y92.956 E2.45708
G1 X108.870 Y92.822 E2.48846
G1 X109.972 Y93.923 E2.55895
G92 E0
G1 X103.495 Y93.463 F7800.000
G1 X99.820 Y93.190 F7800.000
G1 X98.400 Y94.285 F7800.000
G1 X98.393 Y94.461 F7800.000
G1 X94.952 Y95.649 F7800.000
G1 X93.251 Y97.162 F7800.000
G1 X93.175 Y96.025 E0.05156 F378.000
G1 X92.943 Y95.217 E0.08958
G1 X92.546 Y94.566 E0.12411
G1 X92.004 Y94.089 E0.15675
G1 X91.346 Y93.804 E0.18921
G1 X90.585 Y93.710 E0.22392
G1 X89.876 Y93.796 E0.25625
G1 X89.244 Y94.055 E0.28714
G1 X88.700 Y94.484 E0.31852
G1 X88.264 Y95.060 E0.35118
G1 X87.951 Y95.757 E0.38578
G1 X87.809 Y96.352 E0.41343
G1 X86.258 Y96.095 E0.48456
G1 X86.980 Y94.173 E0.57743
G1 X88.432 Y92.911 E0.66450
G1 X90.584 Y92.483 E0.76375
G1 X91.752 Y92.611 E0.81693
G1 X91.820 Y92.618 E0.82004 F378.000
G1 X92.864 Y93.020 E0.87063
G1 X93.715 Y93.686 E0.91952
G1 X94.348 Y94.587 E0.96937
G1 X94.731 Y95.697 E1.02252
G1 X94.862 Y97.036 E1.08338
G1 X94.862 Y107.519 E1.55773
G1 X90.299 Y107.519 E1.76420
G1 X90.299 Y106.277 E1.82040
G1 X93.251 Y106.277 E1.95398
G1 X93.251 Y97.393 E2.35598
G1 X93.243 Y95.351 F7800.000
G1 X94.594 Y96.701 E2.44408 F540.000
G1 X94.636 Y97.299 E2.47175
G1 X93.413 Y96.077 E2.55153
G1 X93.461 Y96.680 E2.57948
G1 X94.636 Y97.855 E2.65614
G1 X94.636 Y98.411 E2.68179
G1 X93.477 Y97.252 E2.75742
G1 X93.477 Y97.808 E2.78308
G1 X94.636 Y98.967 E2.85870
G1 X94.636 Y99.523 E2.88436
G1 X93.477 Y98.364 E2.95999
G1 X93.477 Y98.920 E2.98564
G1 X94.636 Y100.080 E3.06127
G1 X94.636 Y100.636 E3.08693
G1 X93.477 Y99.476 E3.16255
G1 X93.477 Y100.033 E3.18821
G1 X94.636 Y101.192 E3.26384
G1 X94.636 Y101.748 E3.28949
G1 X93.477 Y100.589 E3.36512
G1 X93.477 Y101.145 E3.39078
G1 X94.636 Y102.304 E3.46640
G1 X94.636 Y102.860 E3.49206
G1 X93.477 Y101.701 E3.56769
G1 X93.477 Y102.257 E3.59334
G1 X94.636 Y103.416 E3.66897
G1 X94.636 Y103.972 E3.69463
G1 X93.477 Y102.813 E3.77025
G1 X93.477 Y103.369 E3.79591
G1 X94.636 Y104.528 E3.87154
G1 X94.636 Y105.084 E3.89719
G1 X93.477 Y103.925 E3.97282
G1 X93.477 Y104.481 E3.99848
G1 X94.636 Y105.640 E4.07410
G1 X94.636 Y106.196 E4.09976
G1 X93.477 Y105.037 E4.17539
G1 X93.477 Y105.593 E4.20104
G1 X94.636 Y106.752 E4.27667
G1 X94.608 Y107.281 E4.30109
G1 X93.477 Y106.149 E4.37492
G1 X93.274 Y106.503 F7800.000
G1 X94.064 Y107.293 E4.42647 F540.000
G1 X93.508 Y107.293 E4.45212
G1 X92.718 Y106.503 E4.50367
G1 X92.162 Y106.503 E4.52933
G1 X92.952 Y107.293 E4.58088
G1 X92.396 Y107.293 E4.60654
G1 X91.606 Y106.503 E4.65809
G1 X91.050 Y106.503 E4.68374
G1 X91.840 Y107.293 E4.73529
G1 X91.284 Y107.293 E4.76095
G1 X90.525 Y106.533 E4.81051
G1 X90.525 Y107.089 E4.83617
G1 X90.728 Y107.293 E4.84945
G92 E0
G1 X94.026 Y96.942 F7800.000
G1 X93.956 Y95.884 F7800.000
G1 X93.953 Y95.867 F7800.000
G1 X93.768 Y95.283 F7800.000
G1 X87.232 Y96.012 F7800.000
G1 X86.704 Y95.484 E0.03447 F540.000
G1 X86.856 Y95.080 E0.05439
G1 X87.697 Y95.921 E0.10927
G1 X87.843 Y95.511 E0.12936
G1 X87.007 Y94.676 E0.18385
G1 X87.174 Y94.286 E0.20339
G1 X88.015 Y95.127 E0.25826
G1 X88.229 Y94.785 E0.27687
G1 X87.457 Y94.013 E0.32724
G1 X87.755 Y93.755 E0.34543
G1 X88.469 Y94.469 E0.39202
G1 X88.753 Y94.197 E0.41017
G1 X88.052 Y93.496 E0.45587
G1 X88.350 Y93.238 E0.47405
G1 X89.063 Y93.951 E0.52061
G1 X89.429 Y93.761 E0.53964
G1 X88.735 Y93.067 E0.58495
G1 X89.199 Y92.975 E0.60677
G1 X89.824 Y93.600 E0.64756
G1 X90.306 Y93.526 E0.67006
G1 X89.663 Y92.882 E0.71203
G1 X90.126 Y92.790 E0.73385
G1 X90.840 Y93.503 E0.78039
G1 X91.473 Y93.581 E0.80985
G1 X90.616 Y92.724 E0.86579
G1 X91.240 Y92.791 E0.89475
G1 X94.533 Y96.085 E1.10964
G1 X94.331 Y95.327 E1.14587
G1 X91.953 Y92.949 E1.30102
G1 X93.276 Y93.715 F7800.000
G1 X93.638 Y94.078 E1.32467 F540.000
M106 S255
G92 E0
G1 Z0.600 F7800.000
G1 X113.018 Y107.744 F7800.000
G1 X113.016 Y98.255 E2.84325 F600.000
G1 X112.927 Y97.203 E3.15975
G1 X112.822 Y96.677 E3.32028
G1 X112.715 Y96.316 E3.43319
G1 X112.394 Y95.526 E3.68879
G1 X111.920 Y94.854 E3.93513
G1 X111.600 Y94.497 E4.07880
G1 X111.389 Y94.296 E4.16631
G1 X110.629 Y93.785 E4.44067
G1 X110.263 Y93.607 E4.56242
G1 X109.765 Y93.424 E4.72147
G1 X109.183 Y93.262 E4.90264
G1 X108.771 Y93.187 E5.02801
G1 X107.640 Y93.097 E5.36783
G1 X106.556 Y93.182 E5.69391
G1 X106.112 Y93.262 E5.82880
G1 X105.596 Y93.406 E5.98949
G1 X105.078 Y93.597 E6.15492
G1 X104.757 Y93.750 E6.26143
G1 X103.997 Y94.270 E6.53725
G1 X103.784 Y94.476 E6.62624
G1 X103.510 Y94.786 E6.75028
G1 X103.053 Y95.433 E6.98748
G1 X102.747 Y96.193 E7.23306
G1 X102.632 Y96.587 E7.35605
G1 X102.541 Y97.045 E7.49583
G1 X102.454 Y98.101 E7.81328
G1 X102.452 Y107.744 E10.70287
G92 E0
G1 X97.087 Y107.744 F7800.000
G1 X90.074 Y108.744 F7800.000
G1 X87.013 Y106.052 F7800.000
G1 X90.517 Y96.630 F7800.000
G1 X90.560 Y96.329 F7800.000
G1 X90.532 Y96.280 F7800.000
G1 X88.862 Y94.643 F7800.000
G1 X86.882 Y96.426 F7800.000
G1 X87.631 Y94.626 E0.58425 F600.000
G1 X88.299 Y93.931 E0.87319
G1 X88.749 Y93.558 E1.04831
G1 X89.029 Y93.448 E1.13848
G1 X89.837 Y93.220 E1.38993
G1 X90.611 Y93.101 E1.62451
G1 X91.389 Y93.189 E1.85917
G1 X91.668 Y93.245 E1.94450
G1 X92.232 Y93.476 E2.12696
G1 X92.520 Y93.625 E2.22430
G1 X92.987 Y94.013 E2.40606
G1 X93.178 Y94.195 E2.48521
G1 X93.573 Y94.799 E2.70122
G1 X93.657 Y94.940 E2.75057
G1 X93.927 Y95.785 E3.01628
G1 X93.965 Y95.985 E3.07740
G1 X94.056 Y97.075 E3.40516
G1 X94.056 Y106.052 E6.09506
G1 X93.974 Y106.632 E6.27054
G1 X93.026 Y106.898 E6.56584
G1 X90.074 Y106.898 E7.45040
G92 E0
G1 Z0.900 F7800.000
G1 X113.018 Y107.744 F7800.000
G1 X113.016 Y98.255 E2.84325 F600.000
G1 X112.927 Y97.203 E3.15975
G1 X112.822 Y96.677 E3.32028
G1 X112.715 Y96.316 E3.43319
G1 X112.394 Y95.526 E3.68879
G1 X111.920 Y94.854 E3.93513
G1 X111.600 Y94.497 E4.07880
G1 X111.389 Y94.296 E4.16631
G1 X110.629 Y93.785 E4.44067
G1 X110.263 Y93.607 E4.56242
G1 X109.765 Y93.424 E4.72147
G1 X109.183 Y93.262 E4.90264
G1 X108.771 Y93.187 E5.02801
G1 X107.640 Y93.097 E5.36783
G1 X106.556 Y93.182 E5.69391
G1 X106.112 Y93.262 E5.82880
G1 X105.596 Y93.406 E5.98949
G1 X105.078 Y93.597 E6.15492
G1 X104.757 Y93.750 E6.26143
G1 X103.997 Y94.270 E6.53725
G1 X103.784 Y94.476 E6.62624
G1 X103.510 Y94.786 E6.75028
G1 X103.053 Y95.433 E6.98748
G1 X102.747 Y96.193 E7.23306
G1 X102.632 Y96.587 E7.35605
G1 X102.541 Y97.045 E7.49583
G1 X102.454 Y98.101 E7.81328
G1 X102.452 Y107.744 E10.70287
G92 E0
G1 X101.416 Y98.022 F7800.000
G1 X101.416 Y98.022 F7800.000
G1 X98.256 Y97.786 F7800.000
G1 X98.284 Y97.025 F7800.000
G1 X98.288 Y96.713 F7800.000
G1 X98.288 Y96.637 F7800.000
G1 X98.305 Y96.083 F7800.000
G1 X98.361 Y95.317 F7800.000
G1 X98.377 Y95.004 F7800.000
G1 X98.393 Y94.461 F7800.000
G1 X98.400 Y94.285 F7800.000
G1 X98.412 Y94.048 F7800.000
G1 X97.563 Y93.443 F7800.000
G1 X96.747 Y92.941 F7800.000
G1 X95.580 Y92.334 F7800.000
G1 X95.008 Y92.087 F7800.000
G1 X93.860 Y91.691 F7800.000
G1 X93.453 Y91.583 F7800.000
G1 X92.272 Y91.364 F7800.000
G1 X91.990 Y91.330 F7800.000
G1 X91.499 Y91.303 F7800.000
G1 X91.386 Y92.344 F7800.000
G1 X86.882 Y96.426 F7800.000
G1 X87.631 Y94.626 E0.58425 F600.000
G1 X88.299 Y93.931 E0.87319
G1 X88.749 Y93.558 E1.04831
G1 X89.029 Y93.448 E1.13848
G1 X89.837 Y93.220 E1.38993
G1 X90.611 Y93.101 E1.62451
G1 X91.389 Y93.189 E1.85917
G1 X91.668 Y93.245 E1.94450
G1 X92.232 Y93.476 E2.12696
G1 X92.520 Y93.625 E2.22430
G1 X92.987 Y94.013 E2.40606
G1 X93.178 Y94.195 E2.48521
G1 X93.573 Y94.799 E2.70122
G1 X93.657 Y94.940 E2.75057
G1 X93.927 Y95.785 E3.01628
G1 X93.965 Y95.985 E3.07740
G1 X94.056 Y97.075 E3.40516
G1 X94.056 Y106.052 E6.09506
G1 X93.974 Y106.632 E6.27054
G1 X93.026 Y106.898 E6.56584
G1 X90.074 Y106.898 E7.45040
G92 E0
G1 Z1.200 F7800.000
G1 X113.018 Y107.744 F7800.000
G1 X113.016 Y98.255 E2.84325 F600.000
G1 X112.927 Y97.203 E3.15975
G1 X112.822 Y96.677 E3.32028
G1 X112.715 Y96.316 E3.43319
G1 X112.394 Y95.526 E3.68879
G1 X111.920 Y94.854 E3.93513
G1 X111.600 Y94.497 E4.07880
G1 X111.389 Y94.296 E4.16631
G1 X110.629 Y93.785 E4.44067
G1 X110.263 Y93.607 E4.56242
G1 X109.765 Y93.424 E4.72147
G1 X109.183 Y93.262 E4.90264
G1 X108.771 Y93.187 E5.02801
G1 X107.640 Y93.097 E5.36783
G1 X106.556 Y93.182 E5.69391
G1 X106.112 Y93.262 E5.82880
G1 X105.596 Y93.406 E5.98949
G1 X105.078 Y93.597 E6.15492
G1 X104.757 Y93.750 E6.26143
G1 X103.997 Y94.270 E6.53725
G1 X103.784 Y94.476 E6.62624
G1 X103.510 Y94.786 E6.75028
G1 X103.053 Y95.433 E6.98748
G1 X102.747 Y96.193 E7.23306
G1 X102.632 Y96.587 E7.35605
G1 X102.541 Y97.045 E7.49583
G1 X102.454 Y98.101 E7.81328
G1 X102.452 Y107.744 E10.70287
G92 E0
G1 X101.416 Y98.022 F7800.000
G1 X101.416 Y98.022 F7800.000
G1 X98.256 Y97.786 F7800.000
G1 X98.284 Y97.025 F7800.000
G1 X98.288 Y96.713 F7800.000
G1 X98.288 Y96.637 F7800.000
G1 X98.305 Y96.083 F7800.000
G1 X98.361 Y95.317 F7800.000
G1 X98.377 Y95.004 F7800.000
G1 X98.393 Y94.461 F7800.000
G1 X98.400 Y94.285 F7800.000
G1 X98.412 Y94.048 F7800.000
G1 X97.563 Y93.443 F7800.000
G1 X96.747 Y92.941 F7800.000
G1 X95.580 Y92.334 F7800.000
G1 X95.008 Y92.087 F7800.000
G1 X93.860 Y91.691 F7800.000
G1 X93.453 Y91.583 F7800.000
G1 X92.272 Y91.364 F7800.000
G1 X91.990 Y91.330 F7800.000
G1 X91.303 Y91.293 F7800.000
G1 X91.191 Y92.323 F7800.000
G1 X86.882 Y96.426 F7800.000
G1 X87.631 Y94.626 E0.58425 F600.000
G1 X88.299 Y93.931 E0.87319
G1 X88.749 Y93.558 E1.04831
G1 X89.029 Y93.448 E1.13848
G1 X89.837 Y93.220 E1.38993
G1 X90.611 Y93.101 E1.62451
G1 X91.389 Y93.189 E1.85917
G1 X91.668 Y93.245 E1.94450
G1 X92.232 Y93.476 E2.12696
G1 X92.520 Y93.625 E2.22430
G1 X92.987 Y94.013 E2.40606
G1 X93.178 Y94.195 E2.48521
G1 X93.573 Y94.799 E2.70122
G1 X93.657 Y94.940 E2.75057
G1 X93.927 Y95.785 E3.01628
G1 X93.965 Y95.985 E3.07740
G1 X94.056 Y97.075 E3.40516
G1 X94.056 Y106.052 E6.09506
G1 X93.974 Y106.632 E6.27054
G1 X93.026 Y106.898 E6.56585
G1 X90.074 Y106.898 E7.45040
G92 E0
G1 Z1.500 F7800.000
G1 X113.018 Y107.744 F7800.000
G1 X113.016 Y98.255 E2.84325 F600.000
G1 X112.927 Y97.203 E3.15975
G1 X112.822 Y96.677 E3.32028
G1 X112.715 Y96.316 E3.43319
G1 X112.394 Y95.526 E3.68879
G1 X111.920 Y94.854 E3.93513
G1 X111.600 Y94.497 E4.07880
G1 X111.389 Y94.296 E4.16631
G1 X110.629 Y93.785 E4.44067
G1 X110.263 Y93.607 E4.56242
G1 X109.765 Y93.424 E4.72147
G1 X109.183 Y93.262 E4.90263
G1 X108.771 Y93.187 E5.02801
G1 X107.640 Y93.097 E5.36783
G1 X106.556 Y93.182 E5.69391
G1 X106.112 Y93.262 E5.82880
G1 X105.596 Y93.406 E5.98949
G1 X105.078 Y93.597 E6.15492
G1 X104.757 Y93.750 E6.26143
G1 X103.997 Y94.270 E6.53725
G1 X103.784 Y94.476 E6.62624
G1 X103.510 Y94.786 E6.75028
G1 X103.053 Y95.433 E6.98748
G1 X102.747 Y96.193 E7.23306
G1 X102.632 Y96.587 E7.35605
