; generated by Slic3r 1.2.9 on 2016-03-11 at 01:26:19

; external perimeters extrusion width = 1.54mm
; perimeters extrusion width = 2.62mm
; infill extrusion width = 6.27mm
; solid infill extrusion width = 2.62mm
; top infill extrusion width = 2.62mm

M107
M104 S30 ; set temperature
G28 ; home all axes
G1 Z5 F5000 ; lift nozzle
M302
M92 E10000
M500
M501
G1 E100
M109 S30 ; wait for temperature to be reached
G21 ; set units to millimeters
G90 ; use absolute coordinates
M82 ; use absolute distances for extrusion
G92 E0
G1 Z0.300 F7800.000
G1 X111.618 Y106.046 F7800.000
G1 X108.054 Y96.896 E0.44433 F378.000
G1 X107.132 Y94.152 E0.57533
G1 X106.736 Y94.152 E0.59322
G1 X105.813 Y96.896 E0.72423
G1 X101.653 Y107.519 E1.24046
G1 X99.962 Y107.519 E1.31698
G1 X106.001 Y92.673 E2.04220
G1 X107.846 Y92.673 E2.12565
G1 X113.543 Y106.682 E2.80994
G1 X113.884 Y107.519 E2.85085 F378.000
G1 X112.192 Y107.519 E2.92740
G1 X111.702 Y106.261 E2.98848
G1 X111.894 Y106.035 F7800.000
G1 X113.152 Y107.293 E3.06933 F540.000
G1 X113.377 Y106.970 E3.08722
G1 X111.545 Y105.138 E3.20499
G1 X111.195 Y104.241 F7800.000
G1 X113.001 Y106.047 E3.32109 F540.000
G1 X112.625 Y105.123 F7800.000
G1 X110.845 Y103.343 E3.43552 F540.000
G1 X110.496 Y102.446 F7800.000
G1 X112.250 Y104.200 E3.54829 F540.000
G1 X111.874 Y103.276 F7800.000
G1 X110.146 Y101.548 E3.65939 F540.000
G1 X109.796 Y100.651 F7800.000
G1 X111.499 Y102.353 E3.76883 F540.000
G1 X111.123 Y101.430 F7800.000
G1 X109.447 Y99.753 E3.87660 F540.000
G1 X110.372 Y99.583 F7800.000
G1 X108.748 Y97.958 E3.98103 F540.000
G1 X109.621 Y97.736 F7800.000
G1 X108.092 Y96.207 E4.07929 F540.000
G1 X108.870 Y95.889 F7800.000
G1 X107.538 Y94.557 E4.16490 F540.000
G1 X108.119 Y94.042 F7800.000
G1 X106.975 Y92.899 E4.23840 F540.000
G1 X107.523 Y92.899 E4.26331
G1 X107.743 Y93.119 E4.27745
G1 X106.906 Y93.926 F7800.000
G1 X106.055 Y93.074 E4.33217 F540.000
G1 X106.428 Y92.899 E4.35088
G1 X108.494 Y94.966 E4.48375
G1 X107.815 Y95.382 F7800.000
G1 X109.245 Y96.813 E4.57568 F540.000
G1 X108.398 Y97.061 F7800.000
G1 X109.997 Y98.659 E4.67845 F540.000
G1 X109.097 Y98.856 F7800.000
G1 X110.748 Y100.506 E4.78455 F540.000
G1 X112.244 Y106.933 F7800.000
G1 X112.604 Y107.293 E4.80770 F540.000
G92 E0
G1 X101.392 Y106.062 F7800.000
G1 X101.392 Y106.062 F7800.000
G1 X101.121 Y106.739 F7800.000
G1 X101.114 Y106.744 F7800.000
G1 X100.551 Y107.293 F7800.000
G1 X100.352 Y107.094 E0.01279 F540.000
G1 X100.511 Y106.705 E0.03190
G1 X101.099 Y107.293 E0.06972
G1 X101.559 Y107.206 E0.09102
G1 X100.669 Y106.315 E0.14826
G1 X100.828 Y105.926 E0.16737
G1 X101.714 Y106.812 E0.22433
G1 X101.868 Y106.418 E0.24355
G1 X100.986 Y105.536 E0.30023
G1 X101.144 Y105.147 E0.31934
G1 X102.022 Y106.024 E0.37576
G1 X102.176 Y105.631 E0.39498
G1 X101.303 Y104.757 E0.45112
G1 X101.461 Y104.368 E0.47023
G1 X102.330 Y105.237 E0.52610
G1 X102.485 Y104.843 E0.54532
G1 X101.620 Y103.979 E0.60091
G1 X101.778 Y103.589 E0.62002
G1 X102.639 Y104.450 E0.67535
G1 X102.793 Y104.056 E0.69457
G1 X101.936 Y103.200 E0.74962
G1 X102.095 Y102.810 E0.76873
G1 X102.947 Y103.662 E0.82351
G1 X103.101 Y103.269 E0.84272
G1 X102.253 Y102.421 E0.89723
G1 X102.412 Y102.031 E0.91634
G1 X103.255 Y102.875 E0.97057
G1 X103.410 Y102.481 E0.98979
G1 X102.570 Y101.642 E1.04375
G1 X102.729 Y101.253 E1.06286
G1 X103.564 Y102.088 E1.11655
G1 X103.718 Y101.694 E1.13576
G1 X102.887 Y100.863 E1.18918
G1 X103.045 Y100.474 E1.20829
G1 X103.872 Y101.300 E1.26143
G1 X104.026 Y100.907 E1.28065
G1 X103.204 Y100.084 E1.33352
G1 X103.362 Y99.695 E1.35263
G1 X104.180 Y100.513 E1.40522
G1 X104.335 Y100.119 E1.42444
G1 X103.521 Y99.305 E1.47676
G1 X103.679 Y98.916 E1.49587
G1 X104.489 Y99.726 E1.54792
G1 X104.643 Y99.332 E1.56714
G1 X103.837 Y98.527 E1.61892
G1 X103.996 Y98.137 E1.63803
G1 X104.797 Y98.938 E1.68953
G1 X104.951 Y98.545 E1.70875
G1 X104.154 Y97.748 E1.75998
G1 X104.313 Y97.358 E1.77909
G1 X105.105 Y98.151 E1.83005
G1 X105.260 Y97.757 E1.84927
G1 X104.471 Y96.969 E1.89995
G1 X104.629 Y96.579 E1.91906
G1 X105.414 Y97.364 E1.96948
G1 X105.568 Y96.970 E1.98869
G1 X104.788 Y96.190 E2.03883
G1 X104.946 Y95.800 E2.05794
G1 X105.710 Y96.564 E2.10702
G1 X105.848 Y96.154 E2.12668
G1 X105.105 Y95.411 E2.17444
G1 X105.263 Y95.022 E2.19355
G1 X105.985 Y95.744 E2.23999
G1 X106.123 Y95.334 E2.25965
G1 X105.422 Y94.632 E2.30477
G1 X105.580 Y94.243 E2.32388
G1 X106.261 Y94.924 E2.36767
G1 X106.399 Y94.514 E2.38733
G1 X105.738 Y93.853 E2.42981
G1 X105.897 Y93.464 E2.44892
G1 X106.537 Y94.104 E2.49008
G92 E0
G1 X106.025 Y96.973 F7800.000
G1 X101.807 Y108.744 F7800.000
G1 X97.363 Y106.823 F7800.000
G1 X99.279 Y97.025 F7800.000
G1 X94.917 Y97.025 F7800.000
G1 X94.692 Y97.622 F7800.000
G1 X94.692 Y107.519 E0.44783 F378.000
G1 X90.129 Y107.519 E0.65431
G1 X90.129 Y106.277 E0.71050
G1 X93.081 Y106.277 E0.84408
G1 X93.081 Y96.973 E1.26508
G1 X93.006 Y96.025 E1.30812
G1 X92.773 Y95.217 E1.34614
G1 X92.376 Y94.566 E1.38066
G1 X91.835 Y94.089 E1.41331
G1 X91.177 Y93.804 E1.44576
G1 X90.415 Y93.710 E1.48048
G1 X89.706 Y93.796 E1.51281
G1 X89.074 Y94.055 E1.54370
G1 X88.530 Y94.484 E1.57507
G1 X88.094 Y95.060 E1.60773
G1 X87.781 Y95.757 E1.64234
G1 X87.640 Y96.352 E1.66998
G1 X86.089 Y96.095 E1.74112
G1 X86.810 Y94.173 E1.83398
G1 X88.263 Y92.911 E1.92105
G1 X90.414 Y92.483 E2.02031
G1 X91.582 Y92.611 E2.07348
G1 X91.651 Y92.618 E2.07660 F378.000
G1 X92.694 Y93.020 E2.12718
G1 X93.545 Y93.686 E2.17608
G1 X94.178 Y94.587 E2.22592
G1 X94.562 Y95.697 E2.27907
G1 X94.692 Y97.036 E2.33993
G1 X94.692 Y97.391 E2.35600
G1 X93.074 Y95.351 F7800.000
G1 X94.424 Y96.701 E2.44411 F540.000
G1 X94.466 Y97.299 E2.47177
G1 X93.243 Y96.076 E2.55155
G1 X93.291 Y96.680 E2.57950
G1 X94.466 Y97.855 E2.65616
G1 X94.466 Y98.411 E2.68182
G1 X93.307 Y97.252 E2.75744
G1 X93.307 Y97.808 E2.78310
G1 X94.466 Y98.967 E2.85873
G1 X94.466 Y99.523 E2.88438
G1 X93.307 Y98.364 E2.96001
G1 X93.307 Y98.920 E2.98567
G1 X94.466 Y100.080 E3.06129
G1 X94.466 Y100.636 E3.08695
G1 X93.307 Y99.476 E3.16258
G1 X93.307 Y100.033 E3.18823
G1 X94.466 Y101.192 E3.26386
G1 X94.466 Y101.748 E3.28952
G1 X93.307 Y100.589 E3.36514
G1 X93.307 Y101.145 E3.39080
G1 X94.466 Y102.304 E3.46643
G1 X94.466 Y102.860 E3.49208
G1 X93.307 Y101.701 E3.56771
G1 X93.307 Y102.257 E3.59337
G1 X94.466 Y103.416 E3.66899
G1 X94.466 Y103.972 E3.69465
G1 X93.307 Y102.813 E3.77028
G1 X93.307 Y103.369 E3.79593
G1 X94.466 Y104.528 E3.87156
G1 X94.466 Y105.084 E3.89722
G1 X93.307 Y103.925 E3.97284
G1 X93.307 Y104.481 E3.99850
G1 X94.466 Y105.640 E4.07413
G1 X94.466 Y106.196 E4.09978
G1 X93.307 Y105.037 E4.17541
G1 X93.307 Y105.593 E4.20107
G1 X94.466 Y106.752 E4.27669
G1 X94.439 Y107.281 E4.30111
G1 X93.307 Y106.149 E4.37494
G1 X93.105 Y106.503 F7800.000
G1 X93.895 Y107.293 E4.42649 F540.000
G1 X93.339 Y107.293 E4.45215
G1 X92.549 Y106.503 E4.50370
G1 X91.993 Y106.503 E4.52935
G1 X92.783 Y107.293 E4.58090
G1 X92.227 Y107.293 E4.60656
G1 X91.437 Y106.503 E4.65811
G1 X90.881 Y106.503 E4.68377
G1 X91.671 Y107.293 E4.73532
G1 X91.115 Y107.293 E4.76097
G1 X90.355 Y106.533 E4.81054
G1 X90.355 Y107.089 E4.83619
G1 X90.559 Y107.293 E4.84948
G92 E0
G1 X93.856 Y96.942 F7800.000
G1 X93.787 Y95.884 F7800.000
G1 X93.783 Y95.867 F7800.000
G1 X93.599 Y95.283 F7800.000
G1 X87.063 Y96.012 F7800.000
G1 X86.534 Y95.484 E0.03447 F540.000
G1 X86.686 Y95.080 E0.05439
G1 X87.527 Y95.921 E0.10927
G1 X87.673 Y95.511 E0.12936
G1 X86.838 Y94.676 E0.18385
G1 X87.004 Y94.286 E0.20339
G1 X87.845 Y95.127 E0.25826
G1 X88.060 Y94.785 E0.27687
G1 X87.288 Y94.013 E0.32724
G1 X87.585 Y93.755 E0.34543
G1 X88.299 Y94.469 E0.39202
G1 X88.583 Y94.197 E0.41017
G1 X87.883 Y93.496 E0.45587
G1 X88.180 Y93.238 E0.47405
G1 X88.894 Y93.951 E0.52061
G1 X89.260 Y93.761 E0.53964
G1 X88.565 Y93.067 E0.58495
G1 X89.029 Y92.975 E0.60677
G1 X89.654 Y93.600 E0.64756
G1 X90.136 Y93.526 E0.67006
G1 X89.493 Y92.882 E0.71203
G1 X89.957 Y92.790 E0.73385
G1 X90.670 Y93.503 E0.78039
G1 X91.304 Y93.581 E0.80985
G1 X90.447 Y92.724 E0.86579
G1 X91.070 Y92.791 E0.89475
G1 X94.364 Y96.085 E1.10964
G1 X94.162 Y95.327 E1.14587
G1 X91.784 Y92.949 E1.30102
G1 X93.106 Y93.715 F7800.000
G1 X93.469 Y94.078 E1.32467 F540.000
M106 S255
G92 E0
G1 Z0.600 F7800.000
G1 X113.125 Y107.744 F7800.000
G1 X108.711 Y96.658 E3.57549 F600.000
G1 X107.766 Y94.109 E4.39000
G1 X107.326 Y93.445 E4.62869
G1 X106.898 Y93.412 E4.75724
G1 X106.523 Y93.449 E4.87012
G1 X106.093 Y94.106 E5.10552
G1 X105.147 Y96.654 E5.91986
G1 X100.720 Y107.744 E9.49798
G92 E0
G1 X89.904 Y108.744 F7800.000
G1 X88.319 Y101.801 F7800.000
G1 X87.244 Y100.024 F7800.000
G1 X87.810 Y96.608 F7800.000
G1 X86.713 Y96.426 F7800.000
G1 X87.461 Y94.626 E0.58425 F600.000
G1 X88.130 Y93.931 E0.87319
G1 X88.580 Y93.558 E1.04831
G1 X88.860 Y93.448 E1.13848
G1 X89.667 Y93.220 E1.38993
G1 X90.441 Y93.101 E1.62451
G1 X91.219 Y93.189 E1.85917
G1 X91.499 Y93.245 E1.94450
G1 X92.062 Y93.476 E2.12696
G1 X92.351 Y93.625 E2.22430
G1 X92.817 Y94.013 E2.40606
G1 X93.008 Y94.195 E2.48521
G1 X93.403 Y94.799 E2.70122
G1 X93.487 Y94.940 E2.75057
G1 X93.757 Y95.785 E3.01628
G1 X93.796 Y95.985 E3.07740
G1 X93.887 Y97.075 E3.40516
G1 X93.887 Y106.052 E6.09506
G1 X93.805 Y106.632 E6.27054
G1 X92.856 Y106.898 E6.56584
G1 X89.904 Y106.898 E7.45040
G92 E0
G1 Z0.900 F7800.000
G1 X113.125 Y107.744 F7800.000
G1 X108.711 Y96.658 E3.57549 F600.000
G1 X107.766 Y94.109 E4.39000
G1 X107.326 Y93.445 E4.62869
G1 X106.898 Y93.412 E4.75724
G1 X106.523 Y93.449 E4.87012
G1 X106.093 Y94.106 E5.10552
G1 X105.147 Y96.654 E5.91986
G1 X100.720 Y107.744 E9.49798
G92 E0
G1 X89.904 Y108.744 F7800.000
G1 X88.319 Y101.801 F7800.000
G1 X87.244 Y100.024 F7800.000
G1 X87.810 Y96.608 F7800.000
G1 X86.713 Y96.426 F7800.000
G1 X87.461 Y94.626 E0.58425 F600.000
G1 X88.130 Y93.931 E0.87319
G1 X88.580 Y93.558 E1.04831
G1 X88.860 Y93.448 E1.13848
G1 X89.667 Y93.220 E1.38993
G1 X90.441 Y93.101 E1.62451
G1 X91.219 Y93.189 E1.85917
G1 X91.499 Y93.245 E1.94450
G1 X92.062 Y93.476 E2.12696
G1 X92.351 Y93.625 E2.22430
G1 X92.817 Y94.013 E2.40606
G1 X93.008 Y94.195 E2.48521
G1 X93.403 Y94.799 E2.70122
G1 X93.487 Y94.940 E2.75057
G1 X93.757 Y95.785 E3.01628
G1 X93.796 Y95.985 E3.07740
G1 X93.887 Y97.075 E3.40516
G1 X93.887 Y106.052 E6.09506
G1 X93.805 Y106.632 E6.27054
G1 X92.856 Y106.898 E6.56584
G1 X89.904 Y106.898 E7.45040
G92 E0
G1 Z1.200 F7800.000
G1 X113.125 Y107.744 F7800.000
G1 X108.711 Y96.658 E3.57549 F600.000
G1 X107.766 Y94.109 E4.39000
G1 X107.326 Y93.445 E4.62869
G1 X106.898 Y93.412 E4.75724
G1 X106.523 Y93.449 E4.87012
G1 X106.093 Y94.106 E5.10552
G1 X105.147 Y96.654 E5.91986
G1 X100.720 Y107.744 E9.49798
G92 E0
G1 X89.904 Y108.744 F7800.000
G1 X88.319 Y101.801 F7800.000
G1 X87.244 Y100.024 F7800.000
G1 X87.810 Y96.608 F7800.000
G1 X86.713 Y96.426 F7800.000
G1 X87.461 Y94.626 E0.58425 F600.000
G1 X88.130 Y93.931 E0.87319
G1 X88.580 Y93.558 E1.04831
G1 X88.860 Y93.448 E1.13848
G1 X89.667 Y93.220 E1.38993
G1 X90.441 Y93.101 E1.62451
G1 X91.219 Y93.189 E1.85917
G1 X91.499 Y93.245 E1.94450
G1 X92.062 Y93.476 E2.12696
G1 X92.351 Y93.625 E2.22430
G1 X92.817 Y94.013 E2.40606
G1 X93.008 Y94.195 E2.48521
G1 X93.403 Y94.799 E2.70122
G1 X93.487 Y94.940 E2.75057
G1 X93.757 Y95.785 E3.01628
G1 X93.796 Y95.985 E3.07740
G1 X93.887 Y97.075 E3.40516
G1 X93.887 Y106.052 E6.09506
G1 X93.805 Y106.632 E6.27054
G1 X92.856 Y106.898 E6.56585
G1 X89.904 Y106.898 E7.45040
G92 E0
G1 Z1.500 F7800.000
G1 X113.125 Y107.744 F7800.000
G1 X108.711 Y96.658 E3.57549 F600.000
G1 X107.766 Y94.109 E4.39000
G1 X107.326 Y93.445 E4.62869
G1 X106.898 Y93.412 E4.75724
G1 X106.523 Y93.449 E4.87012
G1 X106.093 Y94.106 E5.10552
G1 X105.147 Y96.654 E5.91986
G1 X100.720 Y107.744 E9.49798
G92 E0
G1 X89.904 Y108.744 F7800.000
G1 X88.319 Y101.801 F7800.000
G1 X87.244 Y100.024 F7800.000
G1 X87.810 Y96.608 F7800.000
G1 X86.713 Y96.426 F7800.000
G1 X87.461 Y94.626 E0.58425 F600.000
G1 X88.130 Y93.931 E0.87319
G1 X88.580 Y93.558 E1.04831
G1 X88.860 Y93.448 E1.13848
G1 X89.667 Y93.220 E1.38993
G1 X90.441 Y93.101 E1.62451
G1 X91.219 Y93.189 E1.85917
G1 X91.499 Y93.245 E1.94450
G1 X92.062 Y93.476 E2.12696
G1 X92.351 Y93.625 E2.22430
G1 X92.817 Y94.013 E2.40606
G1 X93.008 Y94.195 E2.48521
G1 X93.403 Y94.799 E2.70122
G1 X93.487 Y94.940 E2.75057
G1 X93.757 Y95.785 E3.01628
G1 X93.796 Y95.985 E3.07740
G1 X93.887 Y97.075 E3.40516
G1 X93.887 Y106.052 E6.09506
G1 X93.805 Y106.632 E6.27054
G1 X92.856 Y106.898 E6.56585
G1 X89.904 Y106.898 E7.45040
G92 E0
G1 Z1.800 F7800.000
G1 X113.125 Y107.744 F7800.000
G1 X108.711 Y96.658 E3.57549 F600.000
G1 X107.766 Y94.109 E4.39000
G1 X107.326 Y93.445 E4.62869
G1 X106.898 Y93.412 E4.75724
G1 X106.523 Y93.449 E4.87012
G1 X106.093 Y94.106 E5.10552
G1 X105.147 Y96.654 E5.91986
G1 X100.720 Y107.744 E9.49798
G92 E0
G1 X89.904 Y108.744 F7800.000
G1 X88.319 Y101.801 F7800.000
G1 X87.244 Y100.024 F7800.000
G1 X87.810 Y96.608 F7800.000
G1 X86.713 Y96.426 F7800.000
G1 X87.461 Y94.626 E0.58425 F600.000
G1 X88.130 Y93.931 E0.87319
G1 X88.580 Y93.558 E1.04831
G1 X88.860 Y93.448 E1.13848
G1 X89.667 Y93.220 E1.38993
G1 X90.441 Y93.101 E1.62451
G1 X91.219 Y93.189 E1.85917
G1 X91.499 Y93.245 E1.94450
G1 X92.062 Y93.476 E2.12696
G1 X92.351 Y93.625 E2.22430
G1 X92.817 Y94.013 E2.40606
G1 X93.008 Y94.195 E2.48521
G1 X93.403 Y94.799 E2.70122
G1 X93.487 Y94.940 E2.75057
G1 X93.757 Y95.785 E3.01628
G1 X93.796 Y95.985 E3.07740
G1 X93.887 Y97.075 E3.40516
G1 X93.887 Y106.052 E6.09506
G1 X93.805 Y106.632 E6.27054
G1 X92.856 Y106.898 E6.56584
G1 X89.904 Y106.898 E7.45040
G92 E0
G1 Z2.100 F7800.000
G1 X113.125 Y107.744 F7800.000
G1 X108.711 Y96.658 E3.57549 F600.000
G1 X107.766 Y94.109 E4.39000
G1 X107.326 Y93.445 E4.62869
G1 X106.898 Y93.412 E4.75724
G1 X106.523 Y93.449 E4.87012
G1 X106.093 Y94.106 E5.10552
G1 X105.147 Y96.654 E5.91986
G1 X100.720 Y107.744 E9.49798
G92 E0
G1 X89.904 Y108.744 F7800.000
G1 X88.319 Y101.801 F7800.000
G1 X87.244 Y100.024 F7800.000
G1 X87.810 Y96.608 F7800.000
G1 X86.713 Y96.426 F7800.000
G1 X87.461 Y94.626 E0.58425 F600.000
G1 X88.130 Y93.931 E0.87319
G1 X88.578 Y93.559 E1.04769
G1 X88.860 Y93.449 E1.13845
G1 X89.668 Y93.223 E1.38973
G1 X90.472 Y93.104 E1.63331
G1 X91.219 Y93.189 E1.85877
G1 X91.499 Y93.245 E1.94409
G1 X92.062 Y93.476 E2.12655
G1 X92.351 Y93.625 E2.22389
G1 X92.817 Y94.013 E2.40565
G1 X93.008 Y94.195 E2.48480
G1 X93.403 Y94.799 E2.70081
G1 X93.487 Y94.940 E2.75016
G1 X93.757 Y95.785 E3.01588
G1 X93.796 Y95.985 E3.07699
G1 X93.887 Y97.075 E3.40475
G1 X93.887 Y106.052 E6.09465
G1 X93.805 Y106.632 E6.27013
G1 X92.856 Y106.898 E6.56544
G1 X89.904 Y106.898 E7.44999
G92 E0
M107
M104 S0 ; turn off temperature
G28 X0  ; home X axis
M84     ; disable motors

; filament used = 115.2mm (0.9cm3)

; avoid_crossing_perimeters = 1
; bed_shape = 0x0,250x0,250x250,0x250
; bed_temperature = 0
; before_layer_gcode = 
; bridge_acceleration = 0
; bridge_fan_speed = 100
; brim_width = 0
; complete_objects = 0
; cooling = 1
; default_acceleration = 0
; disable_fan_first_layers = 1
; duplicate_distance = 6
; end_gcode = M104 S0 ; turn off temperature\nG28 X0  ; home X axis\nM84     ; disable motors\n
; extruder_clearance_height = 20
; extruder_clearance_radius = 20
; extruder_offset = 0x0
; extrusion_axis = E
; extrusion_multiplier = 3
; fan_always_on = 0
; fan_below_layer_time = 60
; filament_colour = #FFFFFF
; filament_diameter = 3.125
; first_layer_acceleration = 0
; first_layer_bed_temperature = 0
; first_layer_extrusion_width = 150%
; first_layer_speed = 90%
; first_layer_temperature = 30
; gcode_arcs = 0
; gcode_comments = 0
; gcode_flavor = reprap
; infill_acceleration = 0
; infill_first = 0
; layer_gcode = 
; max_fan_speed = 100
; max_print_speed = 80
; max_volumetric_speed = 0
; min_fan_speed = 35
; min_print_speed = 10
; min_skirt_length = 0
; notes = 
; nozzle_diameter = 1.54
; only_retract_when_crossing_perimeters = 1
; ooze_prevention = 0
; output_filename_format = [input_filename_base].gcode
; perimeter_acceleration = 0
; post_process = 
; pressure_advance = 0
; resolution = 0
; retract_before_travel = 2
; retract_layer_change = 1
; retract_length = 0
