; generated by Slic3r 1.2.9 on 2016-03-11 at 01:26:22

; external perimeters extrusion width = 1.54mm
; perimeters extrusion width = 2.62mm
; infill extrusion width = 6.27mm
; solid infill extrusion width = 2.62mm
; top infill extrusion width = 2.62mm

M107
M104 S30 ; set temperature
G28 ; home all axes
G1 Z5 F5000 ; lift nozzle
M302
M92 E10000
M500
M501
G1 E100
M109 S30 ; wait for temperature to be reached
G21 ; set units to millimeters
G90 ; use absolute coordinates
M82 ; use absolute distances for extrusion
G92 E0
G1 Z0.300 F7800.000
G1 X103.542 Y103.072 F7800.000
G1 X106.304 Y98.855 E0.22810 F378.000
G1 X106.304 Y92.673 E0.50784
G1 X107.915 Y92.673 E0.58074
G1 X107.915 Y98.855 E0.86048
G1 X113.606 Y107.519 E1.32952 F378.000
G1 X111.869 Y107.519 E1.40813
G1 X107.132 Y100.038 E1.80879
G1 X102.367 Y107.519 E2.21012
G1 X100.629 Y107.519 E2.28873
G1 X103.415 Y103.265 E2.51881
G1 X101.338 Y107.293 F7800.000
G1 X101.140 Y107.095 E2.53171 F540.000
G1 X101.359 Y106.760 E2.55018
G1 X101.893 Y107.293 E2.58494
G1 X102.345 Y107.190 E2.60631
G1 X101.579 Y106.424 E2.65621
G1 X101.799 Y106.089 E2.67469
G1 X102.561 Y106.851 E2.72435
G1 X102.777 Y106.512 E2.74288
G1 X102.018 Y105.753 E2.79230
G1 X102.238 Y105.418 E2.81077
G1 X102.993 Y106.173 E2.85996
G1 X103.209 Y105.834 E2.87848
G1 X102.458 Y105.082 E2.92743
G1 X102.678 Y104.747 E2.94590
G1 X103.425 Y105.494 E2.99460
G1 X103.641 Y105.155 E3.01313
G1 X102.897 Y104.411 E3.06159
G1 X103.117 Y104.076 E3.08006
G1 X103.857 Y104.816 E3.12829
G1 X104.073 Y104.477 E3.14681
G1 X103.337 Y103.740 E3.19479
G1 X103.556 Y103.405 E3.21327
G1 X104.289 Y104.138 E3.26101
G1 X104.505 Y103.799 E3.27953
G1 X103.776 Y103.069 E3.32703
G1 X103.996 Y102.734 E3.34551
G1 X104.721 Y103.459 E3.39277
G1 X104.937 Y103.120 E3.41129
G1 X104.216 Y102.398 E3.45831
G1 X104.435 Y102.063 E3.47679
G1 X105.153 Y102.781 E3.52357
G1 X105.369 Y102.442 E3.54209
G1 X104.655 Y101.728 E3.58863
G1 X104.875 Y101.392 E3.60710
G1 X105.585 Y102.103 E3.65340
G1 X105.802 Y101.764 E3.67193
G1 X105.095 Y101.057 E3.71799
G1 X105.314 Y100.721 E3.73646
G1 X106.018 Y101.424 E3.78228
G1 X106.234 Y101.085 E3.80080
G1 X105.534 Y100.386 E3.84638
G1 X105.754 Y100.050 E3.86486
G1 X106.450 Y100.746 E3.91019
G1 X106.666 Y100.407 E3.92872
G1 X105.973 Y99.715 E3.97382
G1 X106.193 Y99.379 E3.99229
G1 X106.882 Y100.068 E4.03715
G1 X107.098 Y99.729 E4.05567
G1 X106.413 Y99.044 E4.10029
G1 X106.530 Y98.606 E4.12118
G1 X109.097 Y101.173 E4.28844
G1 X108.525 Y101.712 F7800.000
G1 X111.223 Y104.409 E4.46419 F540.000
G1 X110.443 Y104.739 F7800.000
G1 X112.996 Y107.293 E4.63055 F540.000
G1 X112.441 Y107.293 E4.65613
G1 X111.402 Y106.253 E4.72386
G1 X112.286 Y106.027 F7800.000
G1 X109.484 Y103.225 E4.90640 F540.000
G1 X110.160 Y102.791 F7800.000
G1 X107.567 Y100.198 E5.07536 F540.000
G1 X108.035 Y99.555 F7800.000
G1 X106.530 Y98.051 E5.17338 F540.000
G1 X106.530 Y97.495 E5.19895
G1 X107.689 Y98.654 E5.27446
G1 X107.689 Y98.099 E5.30004
G1 X106.530 Y96.940 E5.37555
G1 X106.530 Y96.385 E5.40112
G1 X107.689 Y97.544 E5.47663
G1 X107.689 Y96.989 E5.50221
G1 X106.530 Y95.830 E5.57772
G1 X106.530 Y95.275 E5.60330
G1 X107.689 Y96.434 E5.67881
G1 X107.689 Y95.878 E5.70438
G1 X106.530 Y94.719 E5.77989
G1 X106.530 Y94.164 E5.80547
G1 X107.689 Y95.323 E5.88098
G1 X107.689 Y94.768 E5.90655
G1 X106.530 Y93.609 E5.98207
G1 X106.530 Y93.054 E6.00764
G1 X107.689 Y94.213 E6.08315
G1 X107.689 Y93.658 E6.10873
G1 X106.930 Y92.899 E6.15816
G1 X107.485 Y92.899 E6.18373
G1 X107.689 Y93.103 E6.19700
G92 E0
G1 X106.079 Y92.448 F7800.000
G1 X103.887 Y92.448 F7800.000
G1 X99.871 Y95.172 F7800.000
G1 X94.978 Y95.649 F7800.000
G1 X94.887 Y97.933 F7800.000
G1 X94.887 Y107.519 E0.43377 F378.000
G1 X90.324 Y107.519 E0.64025
G1 X90.324 Y106.277 E0.69645
G1 X93.276 Y106.277 E0.83002
G1 X93.276 Y96.973 E1.25102
G1 X93.201 Y96.025 E1.29406
G1 X92.968 Y95.217 E1.33208
G1 X92.571 Y94.566 E1.36661
G1 X92.030 Y94.089 E1.39925
G1 X91.372 Y93.804 E1.43170
G1 X90.610 Y93.710 E1.46642
G1 X89.901 Y93.796 E1.49875
G1 X89.269 Y94.055 E1.52964
G1 X88.725 Y94.484 E1.56102
G1 X88.289 Y95.060 E1.59367
G1 X87.976 Y95.757 E1.62828
G1 X87.835 Y96.352 E1.65592
G1 X86.284 Y96.095 E1.72706
G1 X87.005 Y94.173 E1.81992
G1 X88.458 Y92.911 E1.90699
G1 X90.609 Y92.483 E2.00625
G1 X91.777 Y92.611 E2.05942
G1 X91.846 Y92.618 E2.06254 F378.000
G1 X92.889 Y93.020 E2.11312
G1 X93.740 Y93.686 E2.16202
G1 X94.373 Y94.587 E2.21187
G1 X94.757 Y95.697 E2.26501
G1 X94.887 Y97.036 E2.32587
G1 X94.887 Y97.702 E2.35600
G1 X93.269 Y95.351 F7800.000
G1 X94.619 Y96.701 E2.44411 F540.000
G1 X94.661 Y97.299 E2.47177
G1 X93.438 Y96.077 E2.55155
G1 X93.486 Y96.680 E2.57950
G1 X94.661 Y97.855 E2.65616
G1 X94.661 Y98.411 E2.68182
G1 X93.502 Y97.252 E2.75744
G1 X93.502 Y97.808 E2.78310
G1 X94.661 Y98.967 E2.85873
G1 X94.661 Y99.523 E2.88438
G1 X93.502 Y98.364 E2.96001
G1 X93.502 Y98.920 E2.98567
G1 X94.661 Y100.080 E3.06129
G1 X94.661 Y100.636 E3.08695
G1 X93.502 Y99.476 E3.16258
G1 X93.502 Y100.033 E3.18823
G1 X94.661 Y101.192 E3.26386
G1 X94.661 Y101.748 E3.28952
G1 X93.502 Y100.589 E3.36514
G1 X93.502 Y101.145 E3.39080
G1 X94.661 Y102.304 E3.46643
G1 X94.661 Y102.860 E3.49208
G1 X93.502 Y101.701 E3.56771
G1 X93.502 Y102.257 E3.59337
G1 X94.661 Y103.416 E3.66899
G1 X94.661 Y103.972 E3.69465
G1 X93.502 Y102.813 E3.77028
G1 X93.502 Y103.369 E3.79593
G1 X94.661 Y104.528 E3.87156
G1 X94.661 Y105.084 E3.89722
G1 X93.502 Y103.925 E3.97284
G1 X93.502 Y104.481 E3.99850
G1 X94.661 Y105.640 E4.07413
G1 X94.661 Y106.196 E4.09978
G1 X93.502 Y105.037 E4.17541
G1 X93.502 Y105.593 E4.20107
G1 X94.661 Y106.752 E4.27669
G1 X94.634 Y107.281 E4.30111
G1 X93.502 Y106.149 E4.37494
G1 X93.300 Y106.503 F7800.000
G1 X94.090 Y107.293 E4.42649 F540.000
G1 X93.534 Y107.293 E4.45215
G1 X92.744 Y106.503 E4.50370
G1 X92.188 Y106.503 E4.52935
G1 X92.978 Y107.293 E4.58091
G1 X92.422 Y107.293 E4.60656
G1 X91.632 Y106.503 E4.65811
G1 X91.076 Y106.503 E4.68377
G1 X91.866 Y107.293 E4.73532
G1 X91.310 Y107.293 E4.76097
G1 X90.550 Y106.533 E4.81054
G1 X90.550 Y107.089 E4.83619
G1 X90.754 Y107.293 E4.84948
G92 E0
G1 X94.051 Y96.942 F7800.000
G1 X93.982 Y95.884 F7800.000
G1 X93.978 Y95.867 F7800.000
G1 X93.794 Y95.283 F7800.000
G1 X87.258 Y96.012 F7800.000
G1 X86.729 Y95.484 E0.03447 F540.000
G1 X86.881 Y95.080 E0.05439
G1 X87.722 Y95.921 E0.10927
G1 X87.868 Y95.511 E0.12936
G1 X87.033 Y94.676 E0.18385
G1 X87.199 Y94.286 E0.20339
G1 X88.040 Y95.127 E0.25826
G1 X88.255 Y94.785 E0.27687
G1 X87.483 Y94.013 E0.32724
G1 X87.780 Y93.755 E0.34543
G1 X88.494 Y94.469 E0.39202
G1 X88.778 Y94.197 E0.41017
G1 X88.078 Y93.496 E0.45587
G1 X88.375 Y93.238 E0.47405
G1 X89.089 Y93.951 E0.52061
G1 X89.455 Y93.761 E0.53964
G1 X88.760 Y93.067 E0.58495
G1 X89.224 Y92.975 E0.60677
G1 X89.849 Y93.600 E0.64756
G1 X90.331 Y93.526 E0.67006
G1 X89.688 Y92.882 E0.71203
G1 X90.152 Y92.790 E0.73385
G1 X90.865 Y93.503 E0.78039
G1 X91.499 Y93.581 E0.80985
G1 X90.642 Y92.724 E0.86579
G1 X91.265 Y92.791 E0.89475
G1 X94.559 Y96.085 E1.10964
G1 X94.357 Y95.327 E1.14587
G1 X91.979 Y92.949 E1.30102
G1 X93.301 Y93.715 F7800.000
G1 X93.664 Y94.078 E1.32467 F540.000
M106 S255
G92 E0
G1 Z0.600 F7800.000
G1 X107.109 Y92.448 F7800.000
G1 X107.109 Y99.305 E2.05473 F600.000
G1 X107.236 Y99.382 E2.09907
G1 X107.875 Y99.987 E2.36271
G1 X112.878 Y107.744 E5.12860
G1 X107.079 Y98.678 F7800.000
G1 X107.079 Y98.678 F7800.000
G1 X101.356 Y107.744 F7800.000
G1 X106.374 Y99.976 E7.89969 F600.000
G1 X106.987 Y99.383 E8.15525
G1 X108.140 Y98.656 E8.56368
G92 E0
G1 X106.079 Y98.788 F7800.000
G1 X106.079 Y98.788 F7800.000
G1 X100.596 Y97.152 F7800.000
G1 X100.596 Y97.025 F7800.000
G1 X100.583 Y96.492 F7800.000
G1 X100.548 Y95.787 F7800.000
G1 X99.871 Y95.172 F7800.000
G1 X98.821 Y94.322 F7800.000
G1 X97.588 Y93.443 F7800.000
G1 X96.773 Y92.941 F7800.000
G1 X95.606 Y92.334 F7800.000
G1 X95.033 Y92.087 F7800.000
G1 X93.886 Y91.691 F7800.000
G1 X93.478 Y91.583 F7800.000
G1 X92.297 Y91.364 F7800.000
G1 X92.015 Y91.330 F7800.000
G1 X91.721 Y91.314 F7800.000
G1 X91.721 Y91.314 F7800.000
G1 X90.708 Y91.259 F7800.000
G1 X90.599 Y92.256 F7800.000
G1 X86.908 Y96.426 F7800.000
G1 X87.656 Y94.626 E0.58425 F600.000
G1 X88.325 Y93.931 E0.87319
G1 X88.775 Y93.558 E1.04831
G1 X89.055 Y93.448 E1.13848
G1 X89.862 Y93.220 E1.38993
G1 X90.636 Y93.101 E1.62451
G1 X91.414 Y93.189 E1.85917
G1 X91.694 Y93.245 E1.94450
G1 X92.257 Y93.476 E2.12696
G1 X92.546 Y93.625 E2.22430
G1 X93.012 Y94.013 E2.40606
G1 X93.203 Y94.195 E2.48521
G1 X93.598 Y94.799 E2.70122
G1 X93.682 Y94.940 E2.75057
G1 X93.952 Y95.785 E3.01628
G1 X93.991 Y95.985 E3.07740
G1 X94.082 Y97.075 E3.40516
G1 X94.082 Y106.052 E6.09506
G1 X94.000 Y106.632 E6.27054
G1 X93.051 Y106.898 E6.56584
G1 X90.099 Y106.898 E7.45040
G92 E0
G1 Z0.900 F7800.000
G1 X107.109 Y92.448 F7800.000
G1 X107.109 Y99.305 E2.05473 F600.000
G1 X107.236 Y99.382 E2.09907
G1 X107.875 Y99.987 E2.36271
G1 X112.878 Y107.744 E5.12860
G1 X107.079 Y98.678 F7800.000
G1 X107.079 Y98.678 F7800.000
G1 X101.356 Y107.744 F7800.000
G1 X106.374 Y99.976 E7.89969 F600.000
G1 X106.987 Y99.383 E8.15525
G1 X108.140 Y98.656 E8.56368
G92 E0
G1 X106.079 Y98.788 F7800.000
G1 X106.079 Y98.788 F7800.000
G1 X100.596 Y97.152 F7800.000
G1 X100.596 Y97.025 F7800.000
G1 X100.583 Y96.492 F7800.000
G1 X100.548 Y95.787 F7800.000
G1 X99.871 Y95.172 F7800.000
G1 X98.821 Y94.322 F7800.000
G1 X97.588 Y93.443 F7800.000
G1 X96.773 Y92.941 F7800.000
G1 X95.606 Y92.334 F7800.000
G1 X95.033 Y92.087 F7800.000
G1 X93.886 Y91.691 F7800.000
G1 X93.478 Y91.583 F7800.000
G1 X92.297 Y91.364 F7800.000
G1 X92.015 Y91.330 F7800.000
G1 X91.525 Y91.303 F7800.000
G1 X91.412 Y92.344 F7800.000
G1 X86.908 Y96.426 F7800.000
G1 X87.656 Y94.626 E0.58425 F600.000
G1 X88.325 Y93.931 E0.87319
G1 X88.775 Y93.558 E1.04831
G1 X89.055 Y93.448 E1.13848
G1 X89.862 Y93.220 E1.38993
G1 X90.636 Y93.101 E1.62451
G1 X91.414 Y93.189 E1.85917
G1 X91.694 Y93.245 E1.94450
G1 X92.257 Y93.476 E2.12696
G1 X92.546 Y93.625 E2.22430
G1 X93.012 Y94.013 E2.40606
G1 X93.203 Y94.195 E2.48521
G1 X93.598 Y94.799 E2.70122
G1 X93.682 Y94.940 E2.75057
G1 X93.952 Y95.785 E3.01628
G1 X93.991 Y95.985 E3.07740
G1 X94.082 Y97.075 E3.40516
G1 X94.082 Y106.052 E6.09506
G1 X94.000 Y106.632 E6.27054
G1 X93.051 Y106.898 E6.56584
G1 X90.099 Y106.898 E7.45040
G92 E0
G1 Z1.200 F7800.000
G1 X107.109 Y92.448 F7800.000
G1 X107.109 Y99.305 E2.05473 F600.000
G1 X107.236 Y99.382 E2.09907
G1 X107.875 Y99.987 E2.36271
G1 X112.878 Y107.744 E5.12860
G1 X107.079 Y98.678 F7800.000
G1 X107.079 Y98.678 F7800.000
G1 X101.356 Y107.744 F7800.000
G1 X106.374 Y99.976 E7.89969 F600.000
G1 X106.987 Y99.383 E8.15525
G1 X108.140 Y98.656 E8.56368
G92 E0
G1 X106.079 Y98.788 F7800.000
G1 X106.079 Y98.788 F7800.000
G1 X100.596 Y97.152 F7800.000
G1 X100.596 Y97.025 F7800.000
G1 X100.583 Y96.492 F7800.000
G1 X100.548 Y95.787 F7800.000
G1 X99.871 Y95.172 F7800.000
G1 X98.821 Y94.322 F7800.000
G1 X97.588 Y93.443 F7800.000
G1 X96.773 Y92.941 F7800.000
G1 X95.606 Y92.334 F7800.000
G1 X95.033 Y92.087 F7800.000
G1 X93.886 Y91.691 F7800.000
G1 X93.478 Y91.583 F7800.000
G1 X92.297 Y91.364 F7800.000
G1 X92.015 Y91.330 F7800.000
G1 X91.329 Y91.293 F7800.000
G1 X91.217 Y92.323 F7800.000
G1 X86.908 Y96.426 F7800.000
G1 X87.656 Y94.626 E0.58425 F600.000
G1 X88.325 Y93.931 E0.87319
G1 X88.775 Y93.558 E1.04831
G1 X89.055 Y93.448 E1.13848
G1 X89.862 Y93.220 E1.38993
G1 X90.636 Y93.101 E1.62451
G1 X91.414 Y93.189 E1.85917
G1 X91.694 Y93.245 E1.94450
G1 X92.257 Y93.476 E2.12696
G1 X92.546 Y93.625 E2.22430
G1 X93.012 Y94.013 E2.40606
G1 X93.203 Y94.195 E2.48521
G1 X93.598 Y94.799 E2.70122
G1 X93.682 Y94.940 E2.75057
G1 X93.952 Y95.785 E3.01628
G1 X93.991 Y95.985 E3.07740
G1 X94.082 Y97.075 E3.40516
G1 X94.082 Y106.052 E6.09506
G1 X94.000 Y106.632 E6.27054
G1 X93.051 Y106.898 E6.56585
G1 X90.099 Y106.898 E7.45040
G92 E0
G1 Z1.500 F7800.000
G1 X107.109 Y92.448 F7800.000
G1 X107.109 Y99.305 E2.05473 F600.000
G1 X107.236 Y99.382 E2.09907
G1 X107.875 Y99.987 E2.36271
G1 X112.878 Y107.744 E5.12860
G1 X107.079 Y98.678 F7800.000
G1 X107.079 Y98.678 F7800.000
G1 X101.356 Y107.744 F7800.000
G1 X106.374 Y99.976 E7.89969 F600.000
G1 X106.987 Y99.383 E8.15525
G1 X108.140 Y98.656 E8.56368
G92 E0
G1 X106.079 Y98.788 F7800.000
G1 X106.079 Y98.788 F7800.000
G1 X100.596 Y97.152 F7800.000
G1 X100.596 Y97.025 F7800.000
G1 X100.583 Y96.492 F7800.000
G1 X100.548 Y95.787 F7800.000
G1 X99.871 Y95.172 F7800.000
G1 X98.821 Y94.322 F7800.000
G1 X97.588 Y93.443 F7800.000
G1 X96.773 Y92.941 F7800.000
G1 X95.606 Y92.334 F7800.000
G1 X95.033 Y92.087 F7800.000
G1 X93.886 Y91.691 F7800.000
G1 X93.478 Y91.583 F7800.000
G1 X92.297 Y91.364 F7800.000
G1 X92.015 Y91.330 F7800.000
G1 X91.133 Y91.282 F7800.000
G1 X91.022 Y92.302 F7800.000
G1 X86.908 Y96.426 F7800.000
G1 X87.656 Y94.626 E0.58425 F600.000
G1 X88.325 Y93.931 E0.87319
G1 X88.775 Y93.558 E1.04831
G1 X89.055 Y93.448 E1.13848
G1 X89.862 Y93.220 E1.38993
G1 X90.636 Y93.101 E1.62451
G1 X91.414 Y93.189 E1.85917
G1 X91.694 Y93.245 E1.94450
G1 X92.257 Y93.476 E2.12696
G1 X92.546 Y93.625 E2.22430
G1 X93.012 Y94.013 E2.40606
G1 X93.203 Y94.195 E2.48521
G1 X93.598 Y94.799 E2.70122
G1 X93.682 Y94.940 E2.75057
G1 X93.952 Y95.785 E3.01628
G1 X93.991 Y95.985 E3.07740
G1 X94.082 Y97.075 E3.40516
G1 X94.082 Y106.052 E6.09506
G1 X94.000 Y106.632 E6.27054
G1 X93.051 Y106.898 E6.56585
G1 X90.099 Y106.898 E7.45040
G92 E0
G1 Z1.800 F7800.000
G1 X107.109 Y92.448 F7800.000
G1 X107.109 Y99.305 E2.05473 F600.000
G1 X107.236 Y99.382 E2.09907
G1 X107.875 Y99.987 E2.36271
G1 X112.878 Y107.744 E5.12860
G1 X107.079 Y98.678 F7800.000
G1 X107.079 Y98.678 F7800.000
G1 X101.356 Y107.744 F7800.000
G1 X106.374 Y99.976 E7.89969 F600.000
G1 X106.987 Y99.383 E8.15525
G1 X108.140 Y98.656 E8.56368
G92 E0
G1 X106.079 Y98.788 F7800.000
G1 X106.079 Y98.788 F7800.000
G1 X100.596 Y97.152 F7800.000
G1 X100.596 Y97.025 F7800.000
G1 X100.583 Y96.492 F7800.000
G1 X100.548 Y95.787 F7800.000
G1 X99.871 Y95.172 F7800.000
G1 X98.821 Y94.322 F7800.000
G1 X97.588 Y93.443 F7800.000
G1 X96.773 Y92.941 F7800.000
G1 X95.606 Y92.334 F7800.000
G1 X95.033 Y92.087 F7800.000
G1 X93.886 Y91.691 F7800.000
G1 X93.478 Y91.583 F7800.000
G1 X92.297 Y91.364 F7800.000
G1 X92.015 Y91.330 F7800.000
G1 X90.936 Y91.271 F7800.000
G1 X90.827 Y92.281 F7800.000
G1 X86.908 Y96.426 F7800.000
G1 X87.656 Y94.626 E0.58425 F600.000
G1 X88.325 Y93.931 E0.87319
G1 X88.775 Y93.558 E1.04831
G1 X89.055 Y93.448 E1.13848
G1 X89.862 Y93.220 E1.38993
G1 X90.636 Y93.101 E1.62451
G1 X91.414 Y93.189 E1.85917
G1 X91.694 Y93.245 E1.94450
G1 X92.257 Y93.476 E2.12696
G1 X92.546 Y93.625 E2.22430
G1 X93.012 Y94.013 E2.40606
G1 X93.203 Y94.195 E2.48521
G1 X93.598 Y94.799 E2.70122
G1 X93.682 Y94.940 E2.75057
G1 X93.952 Y95.785 E3.01628
G1 X93.991 Y95.985 E3.07740
G1 X94.082 Y97.075 E3.40516
G1 X94.082 Y106.052 E6.09506
G1 X94.000 Y106.632 E6.27054
G1 X93.051 Y106.898 E6.56584
G1 X90.099 Y106.898 E7.45040
G92 E0
G1 Z2.100 F7800.000
G1 X107.109 Y92.448 F7800.000
G1 X107.109 Y99.305 E2.05473 F600.000
G1 X107.236 Y99.382 E2.09907
G1 X107.875 Y99.987 E2.36271
G1 X112.878 Y107.744 E5.12860
G92 E0
G1 X107.079 Y98.678 F7800.000
G1 X107.079 Y98.678 F7800.000
G1 X101.356 Y107.744 F7800.000
G1 X106.374 Y99.976 E2.77109 F600.000
G1 X106.987 Y99.383 E3.02666
G1 X108.140 Y98.656 E3.43508
G92 E0
G1 X106.079 Y98.788 F7800.000
G1 X106.079 Y98.788 F7800.000
G1 X100.596 Y97.152 F7800.000
G1 X100.596 Y97.025 F7800.000
G1 X100.583 Y96.492 F7800.000
G1 X100.548 Y95.787 F7800.000
G1 X99.871 Y95.172 F7800.000
G1 X98.821 Y94.322 F7800.000
G1 X97.588 Y93.443 F7800.000
G1 X96.773 Y92.941 F7800.000
G1 X95.606 Y92.334 F7800.000
G1 X95.033 Y92.087 F7800.000
G1 X93.886 Y91.691 F7800.000
G1 X93.478 Y91.583 F7800.000
G1 X92.297 Y91.364 F7800.000
G1 X92.015 Y91.330 F7800.000
G1 X90.740 Y91.261 F7800.000
G1 X90.632 Y92.260 F7800.000
G1 X86.908 Y96.426 F7800.000
G1 X87.656 Y94.626 E0.58425 F600.000
G1 X88.325 Y93.931 E0.87319
G1 X88.773 Y93.559 E1.04769
G1 X89.055 Y93.449 E1.13845
G1 X89.863 Y93.223 E1.38973
G1 X90.667 Y93.104 E1.63331
G1 X91.414 Y93.189 E1.85877
