; generated by Slic3r 1.2.9 on 2016-03-11 at 01:26:23

; external perimeters extrusion width = 1.54mm
; perimeters extrusion width = 2.62mm
; infill extrusion width = 6.27mm
; solid infill extrusion width = 2.62mm
; top infill extrusion width = 2.62mm

M107
M104 S30 ; set temperature
G28 ; home all axes
G1 Z5 F5000 ; lift nozzle
M302
M92 E10000
M500
M501
G1 E100
M109 S30 ; wait for temperature to be reached
G21 ; set units to millimeters
G90 ; use absolute coordinates
M82 ; use absolute distances for extrusion
G92 E0
G1 Z0.300 F7800.000
G1 X109.883 Y93.915 F7800.000
G1 X103.038 Y93.915 E0.30970 F378.000
G1 X112.576 Y106.314 E1.01752
G1 X112.576 Y107.519 E1.07207
G1 X102.159 Y107.519 E1.54343
G1 X102.159 Y106.277 E1.59963
G1 X110.906 Y106.277 E1.99542
G1 X101.367 Y93.922 E2.70171
G1 X101.367 Y92.673 E2.75823
G1 X113.086 Y92.673 E3.28851
G1 X113.086 Y93.915 E3.34471
G1 X110.114 Y93.915 E3.47922 F378.000
G1 X112.861 Y93.103 F7800.000
G1 X112.657 Y92.899 E3.49250 F540.000
G1 X112.101 Y92.899 E3.51815
G1 X112.861 Y93.659 E3.56770
G1 X112.335 Y93.689 E3.59198
G1 X111.545 Y92.899 E3.64352
G1 X110.989 Y92.899 E3.66917
G1 X111.779 Y93.689 E3.72071
G1 X111.223 Y93.689 E3.74636
G1 X110.433 Y92.899 E3.79790
G1 X109.877 Y92.899 E3.82354
G1 X110.667 Y93.689 E3.87509
G1 X110.111 Y93.689 E3.90073
G1 X109.321 Y92.899 E3.95228
G1 X108.765 Y92.899 E3.97792
G1 X109.555 Y93.689 E4.02946
G1 X108.999 Y93.689 E4.05511
G1 X108.209 Y92.899 E4.10665
G1 X107.653 Y92.899 E4.13230
G1 X108.443 Y93.689 E4.18384
G1 X107.887 Y93.689 E4.20949
G1 X107.097 Y92.899 E4.26103
G1 X106.541 Y92.899 E4.28667
G1 X107.331 Y93.689 E4.33822
G1 X106.776 Y93.689 E4.36386
G1 X105.985 Y92.899 E4.41540
G1 X105.429 Y92.899 E4.44105
G1 X106.220 Y93.689 E4.49259
G1 X105.664 Y93.689 E4.51824
G1 X104.874 Y92.899 E4.56978
G1 X104.318 Y92.899 E4.59543
G1 X105.108 Y93.689 E4.64697
G1 X104.552 Y93.689 E4.67261
G1 X103.762 Y92.899 E4.72416
G1 X103.206 Y92.899 E4.74980
G1 X103.996 Y93.689 E4.80134
G1 X103.440 Y93.689 E4.82699
G1 X102.650 Y92.899 E4.87853
G1 X102.094 Y92.899 E4.90418
G1 X102.884 Y93.689 E4.95572
G1 X103.053 Y94.414 F7800.000
G1 X101.593 Y92.955 E5.05096 F540.000
G1 X101.593 Y93.511 E5.07661
G1 X104.907 Y96.824 E5.29278
G1 X104.598 Y97.627 F7800.000
G1 X108.614 Y101.643 E5.55478 F540.000
G1 X108.365 Y102.506 F7800.000
G1 X112.322 Y106.463 E5.81292 F540.000
G1 X112.350 Y107.047 E5.83992
G1 X110.248 Y104.945 E5.97705
G1 X110.468 Y104.053 F7800.000
G1 X106.482 Y100.067 E6.23713 F540.000
G1 X106.761 Y99.234 F7800.000
G1 X102.715 Y95.188 E6.50107 F540.000
G92 E0
G1 X102.911 Y106.503 F7800.000
G1 X103.701 Y107.293 E0.05154 F540.000
G1 X103.145 Y107.293 E0.07719
G1 X102.385 Y106.534 E0.12674
G1 X102.385 Y107.089 E0.15238
G1 X102.589 Y107.293 E0.16566
G1 X103.467 Y106.503 F7800.000
G1 X104.257 Y107.293 E0.21721 F540.000
G1 X104.813 Y107.293 E0.24285
G1 X104.023 Y106.503 E0.29440
G1 X104.579 Y106.503 E0.32004
G1 X105.369 Y107.293 E0.37158
G1 X105.925 Y107.293 E0.39723
G1 X105.135 Y106.503 E0.44877
G1 X105.691 Y106.503 E0.47442
G1 X106.481 Y107.293 E0.52596
G1 X107.037 Y107.293 E0.55161
G1 X106.247 Y106.503 E0.60315
G1 X106.802 Y106.503 E0.62880
G1 X107.593 Y107.293 E0.68034
G1 X108.149 Y107.293 E0.70599
G1 X107.358 Y106.503 E0.75753
G1 X107.914 Y106.503 E0.78317
G1 X108.704 Y107.293 E0.83472
G1 X109.260 Y107.293 E0.86036
G1 X108.470 Y106.503 E0.91191
G1 X109.026 Y106.503 E0.93755
G1 X109.816 Y107.293 E0.98909
G1 X110.372 Y107.293 E1.01474
G1 X109.582 Y106.503 E1.06628
G1 X110.138 Y106.503 E1.09193
G1 X110.928 Y107.293 E1.14347
G1 X111.484 Y107.293 E1.16912
G1 X110.694 Y106.503 E1.22066
G1 X111.250 Y106.503 E1.24631
G1 X112.040 Y107.293 E1.29785
G92 E0
G1 X101.934 Y106.052 F7800.000
G1 X101.934 Y101.869 F7800.000
G1 X99.206 Y97.025 F7800.000
G1 X95.824 Y97.025 F7800.000
G1 X93.988 Y97.925 F7800.000
G1 X93.988 Y96.973 E0.04309 F378.000
G1 X93.912 Y96.025 E0.08613
G1 X93.680 Y95.217 E0.12416
G1 X93.283 Y94.566 E0.15868
G1 X92.741 Y94.089 E0.19132
G1 X92.083 Y93.804 E0.22378
G1 X91.322 Y93.710 E0.25850
G1 X90.613 Y93.796 E0.29082
G1 X89.981 Y94.055 E0.32171
G1 X89.437 Y94.484 E0.35309
G1 X89.001 Y95.060 E0.38575
G1 X88.688 Y95.757 E0.42035
G1 X88.546 Y96.352 E0.44800
G1 X86.995 Y96.095 E0.51913
G1 X87.717 Y94.173 E0.61200
G1 X89.169 Y92.911 E0.69907
G1 X91.321 Y92.483 E0.79832
G1 X92.489 Y92.611 E0.85150
G1 X92.557 Y92.618 E0.85461 F378.000
G1 X93.601 Y93.020 E0.90520
G1 X94.452 Y93.686 E0.95410
G1 X95.085 Y94.587 E1.00394
G1 X95.468 Y95.697 E1.05709
G1 X95.599 Y97.036 E1.11795
G1 X95.599 Y107.519 E1.59230
G1 X91.036 Y107.519 E1.79877
G1 X91.036 Y106.277 E1.85497
G1 X93.988 Y106.277 E1.98855
G1 X93.988 Y98.156 E2.35600
G1 X93.980 Y95.351 F7800.000
G1 X95.331 Y96.701 E2.44411 F540.000
G1 X95.373 Y97.299 E2.47177
G1 X94.150 Y96.076 E2.55155
G1 X94.198 Y96.680 E2.57950
G1 X95.373 Y97.855 E2.65616
G1 X95.373 Y98.411 E2.68182
G1 X94.214 Y97.252 E2.75744
G1 X94.214 Y97.808 E2.78310
G1 X95.373 Y98.967 E2.85873
G1 X95.373 Y99.523 E2.88438
G1 X94.214 Y98.364 E2.96001
G1 X94.214 Y98.920 E2.98567
G1 X95.373 Y100.080 E3.06129
G1 X95.373 Y100.636 E3.08695
G1 X94.214 Y99.476 E3.16258
G1 X94.214 Y100.033 E3.18823
G1 X95.373 Y101.192 E3.26386
G1 X95.373 Y101.748 E3.28952
G1 X94.214 Y100.589 E3.36514
G1 X94.214 Y101.145 E3.39080
G1 X95.373 Y102.304 E3.46643
G1 X95.373 Y102.860 E3.49208
G1 X94.214 Y101.701 E3.56771
G1 X94.214 Y102.257 E3.59337
G1 X95.373 Y103.416 E3.66899
G1 X95.373 Y103.972 E3.69465
G1 X94.214 Y102.813 E3.77028
G1 X94.214 Y103.369 E3.79593
G1 X95.373 Y104.528 E3.87156
G1 X95.373 Y105.084 E3.89722
G1 X94.214 Y103.925 E3.97284
G1 X94.214 Y104.481 E3.99850
G1 X95.373 Y105.640 E4.07413
G1 X95.373 Y106.196 E4.09978
G1 X94.214 Y105.037 E4.17541
G1 X94.214 Y105.593 E4.20107
G1 X95.373 Y106.752 E4.27669
G1 X95.345 Y107.281 E4.30111
G1 X94.214 Y106.149 E4.37494
G1 X94.011 Y106.503 F7800.000
G1 X94.801 Y107.293 E4.42649 F540.000
G1 X94.245 Y107.293 E4.45215
G1 X93.455 Y106.503 E4.50370
G1 X92.899 Y106.503 E4.52935
G1 X93.689 Y107.293 E4.58091
G1 X93.133 Y107.293 E4.60656
G1 X92.343 Y106.503 E4.65811
G1 X91.787 Y106.503 E4.68377
G1 X92.577 Y107.293 E4.73532
G1 X92.021 Y107.293 E4.76097
G1 X91.262 Y106.533 E4.81054
G1 X91.262 Y107.089 E4.83619
G1 X91.465 Y107.293 E4.84948
G92 E0
G1 X94.763 Y96.942 F7800.000
G1 X94.693 Y95.884 F7800.000
G1 X94.690 Y95.867 F7800.000
G1 X94.505 Y95.283 F7800.000
G1 X87.969 Y96.012 F7800.000
G1 X87.441 Y95.484 E0.03447 F540.000
G1 X87.593 Y95.080 E0.05439
G1 X88.434 Y95.921 E0.10927
G1 X88.580 Y95.511 E0.12936
G1 X87.744 Y94.676 E0.18385
G1 X87.911 Y94.286 E0.20339
G1 X88.752 Y95.127 E0.25826
G1 X88.966 Y94.785 E0.27687
G1 X88.194 Y94.013 E0.32724
G1 X88.492 Y93.755 E0.34543
G1 X89.206 Y94.469 E0.39202
G1 X89.490 Y94.197 E0.41017
G1 X88.789 Y93.496 E0.45587
G1 X89.087 Y93.238 E0.47405
G1 X89.800 Y93.951 E0.52061
G1 X90.166 Y93.761 E0.53964
G1 X89.472 Y93.067 E0.58495
G1 X89.936 Y92.975 E0.60677
G1 X90.561 Y93.600 E0.64756
G1 X91.043 Y93.526 E0.67006
G1 X90.400 Y92.882 E0.71203
G1 X90.863 Y92.790 E0.73385
G1 X91.577 Y93.503 E0.78039
G1 X92.210 Y93.581 E0.80985
G1 X91.353 Y92.724 E0.86579
G1 X91.977 Y92.791 E0.89475
G1 X95.270 Y96.085 E1.10964
G1 X95.068 Y95.327 E1.14587
G1 X92.690 Y92.949 E1.30102
G1 X94.013 Y93.715 F7800.000
G1 X94.375 Y94.078 E1.32467 F540.000
M106 S255
G92 E0
G1 Z0.600 F7800.000
G1 X113.311 Y93.294 F7800.000
G1 X103.495 Y93.294 E2.94133 F600.000
G1 X102.395 Y93.652 E3.28802
G1 X102.792 Y94.682 E3.61865
G1 X111.142 Y105.517 E7.71765
G1 X111.535 Y106.549 E8.04874
G1 X110.448 Y106.898 E8.39055
G1 X101.934 Y106.898 E10.94174
G92 E0
G1 X90.811 Y108.744 F7800.000
G1 X89.226 Y101.801 F7800.000
G1 X88.151 Y100.024 F7800.000
G1 X88.717 Y96.608 F7800.000
G1 X87.619 Y96.426 F7800.000
G1 X88.368 Y94.626 E0.58425 F600.000
G1 X89.036 Y93.931 E0.87319
G1 X89.486 Y93.558 E1.04831
G1 X89.766 Y93.448 E1.13848
G1 X90.574 Y93.220 E1.38993
G1 X91.348 Y93.101 E1.62451
G1 X92.126 Y93.189 E1.85917
G1 X92.405 Y93.245 E1.94450
G1 X92.969 Y93.476 E2.12696
G1 X93.257 Y93.625 E2.22430
G1 X93.724 Y94.013 E2.40606
G1 X93.915 Y94.195 E2.48521
G1 X94.310 Y94.799 E2.70122
G1 X94.394 Y94.940 E2.75057
G1 X94.664 Y95.785 E3.01628
G1 X94.702 Y95.985 E3.07740
G1 X94.793 Y97.075 E3.40516
G1 X94.793 Y106.052 E6.09506
G1 X94.711 Y106.632 E6.27054
G1 X93.763 Y106.898 E6.56584
G1 X90.811 Y106.898 E7.45040
G92 E0
G1 Z0.900 F7800.000
G1 X113.311 Y93.294 F7800.000
G1 X103.495 Y93.294 E2.94133 F600.000
G1 X102.395 Y93.652 E3.28802
G1 X102.792 Y94.682 E3.61865
G1 X111.142 Y105.517 E7.71765
G1 X111.535 Y106.549 E8.04874
G1 X110.448 Y106.898 E8.39055
G1 X101.934 Y106.898 E10.94174
G92 E0
G1 X90.811 Y108.744 F7800.000
G1 X89.226 Y101.801 F7800.000
G1 X88.151 Y100.024 F7800.000
G1 X88.717 Y96.608 F7800.000
G1 X87.619 Y96.426 F7800.000
G1 X88.368 Y94.626 E0.58425 F600.000
G1 X89.036 Y93.931 E0.87319
G1 X89.486 Y93.558 E1.04831
G1 X89.766 Y93.448 E1.13848
G1 X90.574 Y93.220 E1.38993
G1 X91.348 Y93.101 E1.62451
G1 X92.126 Y93.189 E1.85917
G1 X92.405 Y93.245 E1.94450
G1 X92.969 Y93.476 E2.12696
G1 X93.257 Y93.625 E2.22430
G1 X93.724 Y94.013 E2.40606
G1 X93.915 Y94.195 E2.48521
G1 X94.310 Y94.799 E2.70122
G1 X94.394 Y94.940 E2.75057
G1 X94.664 Y95.785 E3.01628
G1 X94.702 Y95.985 E3.07740
G1 X94.793 Y97.075 E3.40516
G1 X94.793 Y106.052 E6.09506
G1 X94.711 Y106.632 E6.27054
G1 X93.763 Y106.898 E6.56584
G1 X90.811 Y106.898 E7.45040
G92 E0
G1 Z1.200 F7800.000
G1 X113.311 Y93.294 F7800.000
G1 X103.495 Y93.294 E2.94133 F600.000
G1 X102.395 Y93.652 E3.28802
G1 X102.792 Y94.682 E3.61865
G1 X111.142 Y105.517 E7.71765
G1 X111.535 Y106.549 E8.04874
G1 X110.448 Y106.898 E8.39055
G1 X101.934 Y106.898 E10.94174
G92 E0
G1 X90.811 Y108.744 F7800.000
G1 X89.226 Y101.801 F7800.000
G1 X88.151 Y100.024 F7800.000
G1 X88.717 Y96.608 F7800.000
G1 X87.619 Y96.426 F7800.000
G1 X88.368 Y94.626 E0.58425 F600.000
G1 X89.036 Y93.931 E0.87319
G1 X89.486 Y93.558 E1.04831
G1 X89.766 Y93.448 E1.13848
G1 X90.574 Y93.220 E1.38993
G1 X91.348 Y93.101 E1.62451
G1 X92.126 Y93.189 E1.85917
G1 X92.405 Y93.245 E1.94450
G1 X92.969 Y93.476 E2.12696
G1 X93.257 Y93.625 E2.22430
G1 X93.724 Y94.013 E2.40606
G1 X93.915 Y94.195 E2.48521
G1 X94.310 Y94.799 E2.70122
G1 X94.394 Y94.940 E2.75057
G1 X94.664 Y95.785 E3.01628
G1 X94.702 Y95.985 E3.07740
G1 X94.793 Y97.075 E3.40516
G1 X94.793 Y106.052 E6.09506
G1 X94.711 Y106.632 E6.27054
G1 X93.763 Y106.898 E6.56585
G1 X90.811 Y106.898 E7.45040
G92 E0
G1 Z1.500 F7800.000
G1 X113.311 Y93.294 F7800.000
G1 X103.495 Y93.294 E2.94133 F600.000
G1 X102.395 Y93.652 E3.28802
G1 X102.792 Y94.682 E3.61865
G1 X111.142 Y105.517 E7.71765
G1 X111.535 Y106.549 E8.04874
G1 X110.448 Y106.898 E8.39055
G1 X101.934 Y106.898 E10.94174
G92 E0
G1 X90.811 Y108.744 F7800.000
G1 X89.226 Y101.801 F7800.000
G1 X88.151 Y100.024 F7800.000
G1 X88.717 Y96.608 F7800.000
G1 X87.619 Y96.426 F7800.000
G1 X88.368 Y94.626 E0.58425 F600.000
G1 X89.036 Y93.931 E0.87319
G1 X89.486 Y93.558 E1.04831
G1 X89.766 Y93.448 E1.13848
G1 X90.574 Y93.220 E1.38993
G1 X91.348 Y93.101 E1.62451
G1 X92.126 Y93.189 E1.85917
G1 X92.405 Y93.245 E1.94450
G1 X92.969 Y93.476 E2.12696
G1 X93.257 Y93.625 E2.22430
G1 X93.724 Y94.013 E2.40606
G1 X93.915 Y94.195 E2.48521
G1 X94.310 Y94.799 E2.70122
G1 X94.394 Y94.940 E2.75057
G1 X94.664 Y95.785 E3.01628
G1 X94.702 Y95.985 E3.07740
G1 X94.793 Y97.075 E3.40516
G1 X94.793 Y106.052 E6.09506
G1 X94.711 Y106.632 E6.27054
G1 X93.763 Y106.898 E6.56585
G1 X90.811 Y106.898 E7.45040
G92 E0
G1 Z1.800 F7800.000
G1 X113.311 Y93.294 F7800.000
G1 X103.495 Y93.294 E2.94133 F600.000
G1 X102.395 Y93.652 E3.28802
G1 X102.792 Y94.682 E3.61865
G1 X111.142 Y105.517 E7.71765
G1 X111.535 Y106.549 E8.04874
G1 X110.448 Y106.898 E8.39055
G1 X101.934 Y106.898 E10.94174
G92 E0
G1 X90.811 Y108.744 F7800.000
G1 X89.226 Y101.801 F7800.000
G1 X88.151 Y100.024 F7800.000
G1 X88.717 Y96.608 F7800.000
G1 X87.619 Y96.426 F7800.000
G1 X88.368 Y94.626 E0.58425 F600.000
G1 X89.036 Y93.931 E0.87319
G1 X89.486 Y93.558 E1.04831
G1 X89.766 Y93.448 E1.13848
G1 X90.574 Y93.220 E1.38993
G1 X91.348 Y93.101 E1.62451
G1 X92.126 Y93.189 E1.85917
G1 X92.405 Y93.245 E1.94450
G1 X92.969 Y93.476 E2.12696
G1 X93.257 Y93.625 E2.22430
G1 X93.724 Y94.013 E2.40606
G1 X93.915 Y94.195 E2.48521
G1 X94.310 Y94.799 E2.70122
G1 X94.394 Y94.940 E2.75057
G1 X94.664 Y95.785 E3.01628
G1 X94.702 Y95.985 E3.07740
G1 X94.793 Y97.075 E3.40516
G1 X94.793 Y106.052 E6.09506
G1 X94.711 Y106.632 E6.27054
G1 X93.763 Y106.898 E6.56584
G1 X90.811 Y106.898 E7.45040
G92 E0
G1 Z2.100 F7800.000
G1 X113.311 Y93.294 F7800.000
G1 X103.495 Y93.294 E2.94133 F600.000
G1 X102.395 Y93.652 E3.28802
G1 X102.792 Y94.682 E3.61865
G1 X111.142 Y105.517 E7.71765
G1 X111.535 Y106.549 E8.04874
G1 X110.448 Y106.898 E8.39055
G1 X101.934 Y106.898 E10.94174
G92 E0
G1 X90.811 Y108.744 F7800.000
G1 X89.226 Y101.801 F7800.000
G1 X88.151 Y100.024 F7800.000
G1 X88.717 Y96.608 F7800.000
G1 X87.619 Y96.426 F7800.000
G1 X88.368 Y94.626 E0.58425 F600.000
G1 X89.036 Y93.931 E0.87319
G1 X89.485 Y93.559 E1.04769
G1 X89.767 Y93.449 E1.13845
G1 X90.574 Y93.223 E1.38973
G1 X91.378 Y93.104 E1.63331
G1 X92.126 Y93.189 E1.85877
G1 X92.405 Y93.245 E1.94409
G1 X92.969 Y93.476 E2.12655
G1 X93.257 Y93.625 E2.22389
G1 X93.724 Y94.013 E2.40565
G1 X93.915 Y94.195 E2.48480
G1 X94.310 Y94.799 E2.70081
G1 X94.394 Y94.940 E2.75016
G1 X94.664 Y95.785 E3.01588
G1 X94.702 Y95.985 E3.07699
G1 X94.793 Y97.075 E3.40475
G1 X94.793 Y106.052 E6.09465
G1 X94.711 Y106.632 E6.27013
G1 X93.763 Y106.898 E6.56544
G1 X90.811 Y106.898 E7.44999
G92 E0
M107
M104 S0 ; turn off temperature
G28 X0  ; home X axis
M84     ; disable motors

; filament used = 124.3mm (1.0cm3)

; avoid_crossing_perimeters = 1
; bed_shape = 0x0,250x0,250x250,0x250
; bed_temperature = 0
; before_layer_gcode = 
; bridge_acceleration = 0
; bridge_fan_speed = 100
; brim_width = 0
; complete_objects = 0
; cooling = 1
; default_acceleration = 0
; disable_fan_first_layers = 1
; duplicate_distance = 6
; end_gcode = M104 S0 ; turn off temperature\nG28 X0  ; home X axis\nM84     ; disable motors\n
; extruder_clearance_height = 20
; extruder_clearance_radius = 20
; extruder_offset = 0x0
; extrusion_axis = E
; extrusion_multiplier = 3
; fan_always_on = 0
; fan_below_layer_time = 60
; filament_colour = #FFFFFF
; filament_diameter = 3.125
; first_layer_acceleration = 0
; first_layer_bed_temperature = 0
; first_layer_extrusion_width = 150%
; first_layer_speed = 90%
; first_layer_temperature = 30
; gcode_arcs = 0
; gcode_comments = 0
; gcode_flavor = reprap
; infill_acceleration = 0
; infill_first = 0
; layer_gcode = 
; max_fan_speed = 100
; max_print_speed = 80
; max_volumetric_speed = 0
; min_fan_speed = 35
; min_print_speed = 10
; min_skirt_length = 0
; notes = 
; nozzle_diameter = 1.54
; only_retract_when_crossing_perimeters = 1
; ooze_prevention = 0
; output_filename_format = [input_filename_base].gcode
; perimeter_acceleration = 0
; post_process = 
; pressure_advance = 0
; resolution = 0
; retract_before_travel = 2
; retract_layer_change = 1
; retract_length = 0
; retract_length_toolchange = 10
; retract_lift = 0
; retract_restart_extra = 0
; retract_restart_extra_toolchange = 0
; retract_speed = 0
; skirt_distance = 6
; skirt_height = 1
; skirts = 0
; slowdown_below_layer_time = 30
; spiral_vase = 0
; standby_temperature_delta = -5
; start_gcode = G28 ; home all axes\nG1 Z5 F5000 ; lift nozzle\nM302\nM92 E10000\nM500\nM501\nG1 E100
; temperature = 30
; threads = 2
; toolchange_gcode = 
; travel_speed = 130
; use_firmware_retraction = 0
; use_relative_e_distances = 0
; use_volumetric_e = 0
; vibration_limit = 0
; wipe = 0
; z_offset = 0
; dont_support_bridges = 1
; extrusion_width = 0
; first_layer_height = 100%
; infill_only_where_needed = 0
; interface_shells = 0
; layer_height = 0.3
; raft_layers = 0
; seam_position = random
; support_material = 0
; support_material_angle = 0
; support_material_contact_distance = 0.2
; support_material_enforce_layers = 0
; support_material_extruder = 1
; support_material_extrusion_width = 0
; support_material_interface_extruder = 1
