; generated by Slic3r 1.2.9 on 2016-03-10 at 20:35:08

; external perimeters extrusion width = 1.54mm
; perimeters extrusion width = 2.62mm
; infill extrusion width = 6.27mm
; solid infill extrusion width = 2.62mm
; top infill extrusion width = 2.62mm

M107
M104 S30 ; set temperature
G28 ; home all axes
G1 Z5 F5000 ; lift nozzle
M302
M92 E10000
M500
M501
G1 E100
M109 S30 ; wait for temperature to be reached
G21 ; set units to millimeters
G90 ; use absolute coordinates
M82 ; use absolute distances for extrusion
G92 E0
G1 Z0.300 F7800.000
G1 X127.619 Y119.124 F7800.000
G1 X128.895 Y117.577 E0.09070 F600.000
G1 X130.872 Y117.577 E0.18017
G1 X123.695 Y126.015 E0.68138
G1 X129.958 Y132.423 E1.08684
G1 X128.149 Y132.423 E1.16872
G1 X120.488 Y124.424 E1.66990
G1 X120.488 Y132.423 E2.03186
G1 X118.866 Y132.423 E2.10521
G1 X118.866 Y117.577 E2.77698
G1 X120.488 Y117.577 E2.85033
G1 X120.488 Y123.325 E3.11043
G1 X122.737 Y125.044 E3.23855 F600.000
G1 X127.472 Y119.302 E3.57535
G1 X130.259 Y118.001 F7800.000
G1 X130.061 Y117.803 E3.58821 F600.000
G1 X130.004 Y118.300 E3.61120
G1 X129.507 Y117.803 E3.64352
G1 X128.956 Y117.806 E3.66886
G1 X129.749 Y118.599 E3.72045
G1 X129.495 Y118.899 E3.73852
G1 X128.705 Y118.109 E3.78984
G1 X128.455 Y118.413 E3.80792
G1 X129.240 Y119.198 E3.85897
G1 X128.986 Y119.497 E3.87703
G1 X128.205 Y118.716 E3.92780
G1 X127.954 Y119.020 E3.94588
G1 X128.731 Y119.797 E3.99637
G1 X128.476 Y120.096 E4.01443
G1 X127.704 Y119.324 E4.06465
G1 X127.454 Y119.627 E4.08273
G1 X128.222 Y120.396 E4.13267
G1 X127.967 Y120.695 E4.15073
G1 X127.203 Y119.931 E4.20039
G1 X126.953 Y120.235 E4.21848
G1 X127.713 Y120.994 E4.26786
G1 X127.458 Y121.294 E4.28592
G1 X126.703 Y120.538 E4.33502
G1 X126.452 Y120.842 E4.35311
G1 X127.203 Y121.593 E4.40194
G1 X126.949 Y121.892 E4.42000
G1 X126.202 Y121.145 E4.46855
G1 X125.952 Y121.449 E4.48663
G1 X126.694 Y122.192 E4.53491
G1 X126.440 Y122.491 E4.55297
G1 X125.701 Y121.753 E4.60097
G1 X125.451 Y122.056 E4.61905
G1 X126.185 Y122.790 E4.66677
G1 X125.930 Y123.090 E4.68483
G1 X125.200 Y122.360 E4.73227
G1 X124.950 Y122.663 E4.75036
G1 X125.676 Y123.389 E4.79753
G1 X125.421 Y123.688 E4.81559
G1 X124.700 Y122.967 E4.86247
G1 X124.449 Y123.271 E4.88056
G1 X125.166 Y123.988 E4.92717
G1 X124.912 Y124.287 E4.94523
G1 X124.199 Y123.574 E4.99157
G1 X123.949 Y123.878 E5.00965
G1 X124.657 Y124.586 E5.05571
G1 X124.403 Y124.886 E5.07377
G1 X123.698 Y124.181 E5.11955
G1 X123.448 Y124.485 E5.13764
G1 X124.148 Y125.185 E5.18314
G1 X123.893 Y125.484 E5.20120
G1 X123.198 Y124.789 E5.24643
G1 X122.947 Y125.092 E5.26451
G1 X123.639 Y125.784 E5.30946
G1 X123.384 Y126.083 E5.32752
G1 X122.637 Y125.336 E5.37608
G1 X121.331 Y124.583 F7800.000
G1 X128.944 Y132.197 E5.87098 F600.000
G1 X128.390 Y132.197 E5.89644
G1 X127.552 Y131.359 E5.95092
G92 E0
G1 X119.713 Y131.648 F7800.000
G1 X119.713 Y131.648 F7800.000
G1 X119.677 Y131.612 F7800.000
G1 X119.641 Y131.648 F7800.000
G1 X119.092 Y131.993 F7800.000
G1 X119.296 Y132.197 E0.01341 F600.000
G1 X119.857 Y132.197 E0.03955
G1 X119.092 Y131.432 E0.08994
G1 X119.092 Y130.871 E0.11608
G1 X120.262 Y132.040 E0.19309
G1 X120.262 Y131.479 E0.21923
G1 X119.092 Y130.309 E0.29624
G1 X119.092 Y129.748 E0.32238
G1 X120.262 Y130.917 E0.39939
G1 X120.262 Y130.356 E0.42553
G1 X119.092 Y129.187 E0.50254
G1 X119.092 Y128.625 E0.52868
G1 X120.262 Y129.795 E0.60569
G1 X120.262 Y129.233 E0.63184
G1 X119.092 Y128.064 E0.70884
G1 X119.092 Y127.503 E0.73499
G1 X120.262 Y128.672 E0.81199
G1 X120.262 Y128.111 E0.83814
G1 X119.092 Y126.941 E0.91514
G1 X119.092 Y126.380 E0.94129
G1 X120.262 Y127.549 E1.01829
G1 X120.262 Y126.988 E1.04444
G1 X119.092 Y125.819 E1.12144
G1 X119.092 Y125.257 E1.14759
G1 X120.262 Y126.427 E1.22459
G1 X120.262 Y125.865 E1.25074
G1 X119.092 Y124.696 E1.32774
G1 X119.092 Y124.135 E1.35389
G1 X120.262 Y125.304 E1.43090
G1 X120.262 Y124.743 E1.45704
G1 X119.092 Y123.573 E1.53405
G1 X119.899 Y123.818 E1.57329
G1 X119.092 Y123.012 E1.62640
G1 X119.092 Y122.451 E1.65254
G1 X120.164 Y123.522 E1.72310
G1 X120.262 Y123.059 E1.74517
G1 X119.092 Y121.889 E1.82218
G1 X119.092 Y121.328 E1.84832
G1 X120.262 Y122.497 E1.92533
G1 X120.262 Y121.936 E1.95147
G1 X119.092 Y120.767 E2.02848
G1 X119.092 Y120.205 E2.05462
G1 X120.262 Y121.375 E2.13163
G1 X120.262 Y120.813 E2.15777
G1 X119.092 Y119.644 E2.23478
G1 X119.092 Y119.083 E2.26092
G1 X120.262 Y120.252 E2.33793
G1 X120.262 Y119.691 E2.36407
G1 X119.092 Y118.521 E2.44108
G1 X119.092 Y117.960 E2.46722
G1 X120.262 Y119.129 E2.54423
G1 X120.262 Y118.568 E2.57037
G1 X119.497 Y117.803 E2.62076
G1 X120.058 Y117.803 E2.64690
G1 X120.262 Y118.007 E2.66031
G1 X120.295 Y123.664 F7800.000
G1 X121.176 Y124.452 E2.77628 F600.000
M106 S255
G92 E0
G1 Z0.600 F7800.000
G1 X130.065 Y117.352 F7800.000
G1 X123.400 Y125.310 E3.11048 F600.000
G1 X122.953 Y125.775 E3.30375
G1 X123.403 Y126.587 E3.58188
G1 X129.267 Y132.648 E6.10884
G92 E0
G1 X119.713 Y131.648 F7800.000
G1 X119.713 Y131.648 F7800.000
G1 X120.609 Y127.575 F7800.000
G1 X119.677 Y123.214 E1.33630 F600.000
G1 X119.677 Y117.352 E3.09283
G1 X119.677 Y132.648 F7800.000
G1 X119.677 Y124.984 E5.38932 F600.000
G1 X119.866 Y124.099 E5.66049
G1 X120.036 Y124.099 E5.71145
G1 X121.223 Y124.495 E6.08644
G1 X122.210 Y125.377 E6.48307
G1 X124.678 Y126.699 E7.32203
G92 E0
G1 Z0.900 F7800.000
G1 X130.065 Y117.352 F7800.000
G1 X123.400 Y125.310 E3.11048 F600.000
G1 X122.953 Y125.775 E3.30375
G1 X123.403 Y126.587 E3.58188
G1 X129.267 Y132.648 E6.10884
G92 E0
G1 X119.713 Y131.648 F7800.000
G1 X119.713 Y131.648 F7800.000
G1 X120.609 Y127.575 F7800.000
G1 X119.677 Y123.214 E1.33630 F600.000
G1 X119.677 Y117.352 E3.09283
G1 X119.677 Y132.648 F7800.000
G1 X119.677 Y124.984 E5.38932 F600.000
G1 X119.866 Y124.099 E5.66049
G1 X120.036 Y124.099 E5.71145
G1 X121.223 Y124.495 E6.08644
G1 X122.210 Y125.377 E6.48307
G1 X124.678 Y126.699 E7.32203
G92 E0
G1 Z1.200 F7800.000
G1 X130.065 Y117.352 F7800.000
G1 X123.400 Y125.310 E3.11048 F600.000
G1 X122.953 Y125.775 E3.30375
G1 X123.403 Y126.587 E3.58188
G1 X129.267 Y132.648 E6.10884
G92 E0
G1 X119.713 Y131.648 F7800.000
G1 X119.713 Y131.648 F7800.000
G1 X120.609 Y127.575 F7800.000
G1 X119.677 Y123.214 E1.33630 F600.000
G1 X119.677 Y117.352 E3.09283
G1 X119.677 Y132.648 F7800.000
G1 X119.677 Y124.984 E5.38932 F600.000
G1 X119.866 Y124.099 E5.66049
G1 X120.036 Y124.099 E5.71145
G1 X121.223 Y124.495 E6.08644
G1 X122.210 Y125.377 E6.48307
G1 X124.678 Y126.699 E7.32203
G92 E0
G1 Z1.500 F7800.000
G1 X130.065 Y117.352 F7800.000
G1 X123.400 Y125.310 E3.11048 F600.000
G1 X122.953 Y125.775 E3.30375
G1 X123.403 Y126.587 E3.58188
G1 X129.267 Y132.648 E6.10884
G92 E0
G1 X119.713 Y131.648 F7800.000
G1 X119.713 Y131.648 F7800.000
G1 X120.609 Y127.575 F7800.000
G1 X119.677 Y123.214 E1.33630 F600.000
G1 X119.677 Y117.352 E3.09283
G1 X119.677 Y132.648 F7800.000
G1 X119.677 Y124.984 E5.38932 F600.000
G1 X119.866 Y124.099 E5.66049
G1 X120.036 Y124.099 E5.71145
G1 X121.223 Y124.495 E6.08644
G1 X122.210 Y125.377 E6.48307
G1 X124.678 Y126.699 E7.32203
G92 E0
G1 Z1.800 F7800.000
G1 X130.065 Y117.352 F7800.000
G1 X123.400 Y125.310 E3.11048 F600.000
G1 X122.953 Y125.775 E3.30375
G1 X123.403 Y126.587 E3.58188
G1 X129.267 Y132.648 E6.10884
G92 E0
G1 X119.713 Y131.648 F7800.000
G1 X119.713 Y131.648 F7800.000
G1 X120.609 Y127.575 F7800.000
G1 X119.677 Y123.214 E1.33630 F600.000
G1 X119.677 Y117.352 E3.09283
G1 X119.677 Y132.648 F7800.000
G1 X119.677 Y124.984 E5.38932 F600.000
G1 X119.866 Y124.099 E5.66049
G1 X120.036 Y124.099 E5.71145
G1 X121.223 Y124.495 E6.08644
G1 X122.210 Y125.377 E6.48307
G1 X124.678 Y126.699 E7.32203
G92 E0
G1 Z2.100 F7800.000
G1 X130.065 Y117.352 F7800.000
G1 X123.400 Y125.310 E3.11048 F600.000
G1 X122.953 Y125.775 E3.30375
G1 X123.403 Y126.587 E3.58188
G1 X129.267 Y132.648 E6.10884
G92 E0
G1 X119.713 Y131.648 F7800.000
G1 X119.713 Y131.648 F7800.000
G1 X120.609 Y127.575 F7800.000
G1 X119.677 Y123.214 E1.33630 F600.000
G1 X119.677 Y117.352 E3.09283
G92 E0
G1 X119.677 Y132.648 F7800.000
G1 X119.677 Y124.984 E2.29649 F600.000
G1 X119.866 Y124.099 E2.56766
G1 X120.036 Y124.099 E2.61863
G1 X121.223 Y124.495 E2.99361
G1 X122.210 Y125.377 E3.39024
G1 X124.678 Y126.699 E4.22921
G92 E0
M107
M104 S0 ; turn off temperature
G28 X0  ; home X axis
M84     ; disable motors

; filament used = 89.3mm (0.7cm3)

; avoid_crossing_perimeters = 1
; bed_shape = 0x0,250x0,250x250,0x250
; bed_temperature = 0
; before_layer_gcode = 
; bridge_acceleration = 0
; bridge_fan_speed = 100
; brim_width = 0
; complete_objects = 0
; cooling = 1
; default_acceleration = 0
; disable_fan_first_layers = 1
; duplicate_distance = 6
; end_gcode = M104 S0 ; turn off temperature\nG28 X0  ; home X axis\nM84     ; disable motors\n
; extruder_clearance_height = 20
; extruder_clearance_radius = 20
; extruder_offset = 0x0
; extrusion_axis = E
; extrusion_multiplier = 3
; fan_always_on = 0
; fan_below_layer_time = 60
; filament_colour = #FFFFFF
; filament_diameter = 3.125
; first_layer_acceleration = 0
; first_layer_bed_temperature = 0
; first_layer_extrusion_width = 150%
; first_layer_speed = 90%
; first_layer_temperature = 30
; gcode_arcs = 0
; gcode_comments = 0
; gcode_flavor = reprap
; infill_acceleration = 0
; infill_first = 0
; layer_gcode = 
; max_fan_speed = 100
; max_print_speed = 80
; max_volumetric_speed = 0
; min_fan_speed = 35
; min_print_speed = 10
; min_skirt_length = 0
; notes = 
; nozzle_diameter = 1.54
; only_retract_when_crossing_perimeters = 1
; ooze_prevention = 0
; output_filename_format = [input_filename_base].gcode
; perimeter_acceleration = 0
; post_process = 
; pressure_advance = 0
; resolution = 0
; retract_before_travel = 2
; retract_layer_change = 1
; retract_length = 0
; retract_length_toolchange = 10
; retract_lift = 0
; retract_restart_extra = 0
; retract_restart_extra_toolchange = 0
; retract_speed = 0
; skirt_distance = 6
; skirt_height = 1
; skirts = 0
; slowdown_below_layer_time = 30
; spiral_vase = 0
; standby_temperature_delta = -5
; start_gcode = G28 ; home all axes\nG1 Z5 F5000 ; lift nozzle\nM302\nM92 E10000\nM500\nM501\nG1 E100
; temperature = 30
; threads = 2
; toolchange_gcode = 
; travel_speed = 130
; use_firmware_retraction = 0
; use_relative_e_distances = 0
; use_volumetric_e = 0
; vibration_limit = 0
; wipe = 0
; z_offset = 0
; dont_support_bridges = 1
; extrusion_width = 0
; first_layer_height = 100%
; infill_only_where_needed = 0
; interface_shells = 0
; layer_height = 0.3
; raft_layers = 0
; seam_position = random
; support_material = 0
; support_material_angle = 0
; support_material_contact_distance = 0.2
; support_material_enforce_layers = 0
; support_material_extruder = 1
; support_material_extrusion_width = 0
; support_material_interface_extruder = 1
; support_material_interface_layers = 3
; support_material_interface_spacing = 0
; support_material_interface_speed = 100%
; support_material_pattern = pillars
; support_material_spacing = 2.5
; support_material_speed = 7
; support_material_threshold = 0
; xy_size_compensation = 0
; bottom_solid_layers = 3
; bridge_flow_ratio = 1
; bridge_speed = 10
; external_fill_pattern = rectilinear
; external_perimeter_extrusion_width = 0
; external_perimeter_speed = 70%
; external_perimeters_first = 1
; extra_perimeters = 1
; fill_angle = 45
; fill_density = 60%
; fill_pattern = rectilinear
; gap_fill_speed = 10
; infill_every_layers = 1
; infill_extruder = 1
; infill_extrusion_width = 0
; infill_overlap = 15%
; infill_speed = 10
; overhangs = 1
; perimeter_extruder = 1
; perimeter_extrusion_width = 0
; perimeter_speed = 10
; perimeters = 1
; small_perimeter_speed = 70%
; solid_infill_below_area = 70
; solid_infill_every_layers = 0
; solid_infill_extruder = 1
; solid_infill_extrusion_width = 0
; solid_infill_speed = 10
; thin_walls = 1
; top_infill_extrusion_width = 0
; top_solid_infill_speed = 10
; top_solid_layers = 3
