; generated by Slic3r 1.2.9 on 2016-03-11 at 01:26:24

; external perimeters extrusion width = 1.54mm
; perimeters extrusion width = 2.62mm
; infill extrusion width = 6.27mm
; solid infill extrusion width = 2.62mm
; top infill extrusion width = 2.62mm

M107
M104 S30 ; set temperature
G28 ; home all axes
G1 Z5 F5000 ; lift nozzle
M302
M92 E10000
M500
M501
G1 E100
M109 S30 ; wait for temperature to be reached
G21 ; set units to millimeters
G90 ; use absolute coordinates
M82 ; use absolute distances for extrusion
G92 E0
G1 Z0.300 F7800.000
G1 X103.661 Y97.887 F7800.000
G1 X101.501 Y92.577 E0.25942 F378.000
G1 X103.160 Y92.577 E0.33449
G1 X104.724 Y96.563 E0.52827
G1 X104.912 Y97.041 E0.55148 F378.000
G1 X112.162 Y97.041 E0.87955
G1 X113.903 Y92.577 E1.09636
G1 X115.532 Y92.577 E1.17006
G1 X109.589 Y107.423 E1.89366
G1 X107.540 Y107.423 E1.98639
G1 X103.748 Y98.101 E2.44174
G1 X105.364 Y98.207 F7800.000
G1 X111.721 Y98.207 E2.72937 F378.000
G1 X109.445 Y104.086 E3.01464
G1 X108.736 Y106.198 E3.11545
G1 X108.337 Y106.197 E3.13350
G1 X108.018 Y105.195 E3.18108
G1 X107.428 Y103.544 E3.26040
G1 X105.447 Y98.422 E3.50889
G1 X105.182 Y98.459 F7800.000
G1 X103.488 Y96.765 E3.61833 F540.000
G1 X104.480 Y96.655 F7800.000
G1 X102.733 Y94.909 E3.73121 F540.000
G1 X102.355 Y93.980 F7800.000
G1 X104.124 Y95.749 E3.84550 F540.000
G1 X103.768 Y94.842 F7800.000
G1 X101.978 Y93.052 E3.96120 F540.000
G1 X102.279 Y92.803 E3.97908
G1 X103.412 Y93.936 E4.05229
G1 X103.057 Y93.029 F7800.000
G1 X102.830 Y92.803 E4.06693 F540.000
G1 X103.111 Y95.837 F7800.000
G1 X105.255 Y97.981 E4.20548 F540.000
G1 X105.805 Y97.981 E4.23065
G1 X105.091 Y97.267 E4.27679
G1 X105.642 Y97.267 E4.30196
G1 X106.356 Y97.981 E4.34810
G1 X106.907 Y97.981 E4.37327
G1 X106.193 Y97.267 E4.41942
G1 X106.743 Y97.267 E4.44458
G1 X107.457 Y97.981 E4.49073
G1 X108.008 Y97.981 E4.51589
G1 X107.294 Y97.267 E4.56204
G1 X107.845 Y97.267 E4.58720
G1 X108.559 Y97.981 E4.63335
G1 X109.110 Y97.981 E4.65852
G1 X108.395 Y97.267 E4.70466
G1 X108.946 Y97.267 E4.72983
G1 X109.660 Y97.981 E4.77597
G1 X110.211 Y97.981 E4.80114
G1 X109.497 Y97.267 E4.84728
G1 X110.048 Y97.267 E4.87245
G1 X110.762 Y97.981 E4.91860
G1 X111.312 Y97.981 E4.94376
G1 X110.598 Y97.267 E4.98991
G92 E0
G1 X105.529 Y99.357 F7800.000
G1 X103.866 Y97.694 E0.10748 F540.000
G1 X104.243 Y98.622 F7800.000
G1 X105.876 Y100.255 E0.21300 F540.000
G1 X104.999 Y100.479 F7800.000
G1 X106.571 Y102.051 E0.31461 F540.000
G1 X105.754 Y102.335 F7800.000
G1 X107.260 Y103.842 E0.41196 F540.000
G1 X106.509 Y104.192 F7800.000
G1 X107.862 Y105.544 E0.49936 F540.000
G1 X107.264 Y106.049 F7800.000
G1 X108.413 Y107.197 E0.57356 F540.000
G1 X108.963 Y107.197 E0.59873
G1 X108.189 Y106.423 E0.64875
G1 X108.741 Y106.424 E0.67398
G1 X109.472 Y107.154 E0.72116
G1 X109.635 Y106.767 E0.74038
G1 X108.980 Y106.112 E0.78269
G1 X109.118 Y105.700 E0.80256
G1 X109.792 Y106.374 E0.84610
G1 X109.950 Y105.980 E0.86546
G1 X109.257 Y105.288 E0.91023
G1 X109.395 Y104.875 E0.93010
G1 X110.107 Y105.587 E0.97609
G1 X110.264 Y105.194 E0.99545
G1 X109.534 Y104.463 E1.04266
G1 X109.674 Y104.053 E1.06247
G1 X110.422 Y104.800 E1.11078
G1 X110.579 Y104.407 E1.13013
G1 X109.828 Y103.656 E1.17868
G1 X109.982 Y103.259 E1.19813
G1 X110.737 Y104.014 E1.24692
G1 X110.894 Y103.621 E1.26628
G1 X110.135 Y102.862 E1.31531
G1 X110.289 Y102.465 E1.33476
G1 X111.052 Y103.227 E1.38404
G1 X111.209 Y102.834 E1.40339
G1 X110.443 Y102.068 E1.45291
G1 X110.596 Y101.671 E1.47236
G1 X111.366 Y102.441 E1.52212
G1 X111.524 Y102.047 E1.54148
G1 X110.750 Y101.274 E1.59148
G1 X110.904 Y100.877 E1.61093
G1 X111.681 Y101.654 E1.66117
G1 X111.839 Y101.261 E1.68053
G1 X111.058 Y100.480 E1.73102
G1 X111.211 Y100.083 E1.75047
G1 X111.996 Y100.868 E1.80120
G1 X112.154 Y100.474 E1.82056
G1 X111.365 Y99.686 E1.87153
G1 X111.519 Y99.289 E1.89098
G1 X112.311 Y100.081 E1.94219
G1 X112.468 Y99.688 E1.96155
G1 X111.672 Y98.892 E2.01300
G1 X111.826 Y98.495 E2.03246
G1 X112.626 Y99.294 E2.08416
G1 X112.783 Y98.901 E2.10351
G1 X111.149 Y97.267 E2.20912
G1 X111.700 Y97.267 E2.23429
G1 X112.941 Y98.508 E2.31448
G1 X113.098 Y98.115 E2.33384
G1 X112.251 Y97.267 E2.38862
G1 X112.434 Y96.900 E2.40738
G1 X113.256 Y97.721 E2.46049
G1 X113.413 Y97.328 E2.47984
G1 X112.588 Y96.503 E2.53314
G1 X112.743 Y96.107 E2.55257
G1 X113.571 Y96.935 E2.60605
G1 X113.728 Y96.542 E2.62541
G1 X112.897 Y95.711 E2.67908
G1 X113.052 Y95.315 E2.69851
G1 X113.885 Y96.148 E2.75237
G1 X114.043 Y95.755 E2.77173
G1 X113.206 Y94.919 E2.82577
G1 X113.361 Y94.522 E2.84521
G1 X114.200 Y95.362 E2.89944
G1 X114.358 Y94.968 E2.91880
G1 X113.515 Y94.126 E2.97322
G1 X113.670 Y93.730 E2.99265
G1 X114.515 Y94.575 E3.04727
G1 X114.673 Y94.182 E3.06662
G1 X113.825 Y93.334 E3.12142
G1 X113.979 Y92.938 E3.14085
G1 X114.830 Y93.789 E3.19584
G1 X114.987 Y93.395 E3.21520
G1 X114.395 Y92.803 E3.25347
G1 X114.946 Y92.803 E3.27864
G1 X115.145 Y93.002 E3.29150
G92 E0
G1 X106.224 Y101.153 F7800.000
G1 X104.621 Y99.550 E0.10356 F540.000
G1 X105.376 Y101.407 F7800.000
G1 X106.918 Y102.949 E0.20322 F540.000
G1 X106.132 Y103.264 F7800.000
G1 X107.566 Y104.698 E0.29592 F540.000
G1 X106.887 Y105.120 F7800.000
G1 X108.119 Y106.352 E0.37553 F540.000
G1 X107.642 Y106.977 F7800.000
G1 X107.862 Y107.197 E0.38975 F540.000
G92 E0
G1 X105.065 Y96.816 F7800.000
G1 X103.313 Y91.352 F7800.000
G1 X99.010 Y93.229 F7800.000
G1 X97.877 Y100.714 F7800.000
G1 X89.494 Y101.004 F7800.000
G1 X84.361 Y98.354 F7800.000
G1 X84.361 Y92.577 E0.26141 F378.000
G1 X85.982 Y92.577 E0.33476
G1 X85.982 Y98.325 E0.59486
G1 X88.231 Y100.044 E0.72298 F378.000
G1 X94.389 Y92.577 E1.16093
G1 X96.366 Y92.577 E1.25039
G1 X89.189 Y101.015 E1.75161
G1 X95.452 Y107.423 E2.15707
G1 X93.643 Y107.423 E2.23894
G1 X85.982 Y99.424 E2.74013
G1 X85.982 Y107.423 E3.10209
G1 X84.361 Y107.423 E3.17544
G1 X84.361 Y98.585 E3.57535
G1 X85.789 Y98.664 F7800.000
G1 X86.670 Y99.452 E3.69131 F540.000
G92 E0
G1 X85.207 Y93.352 F7800.000
G1 X85.207 Y93.352 F7800.000
G1 X85.756 Y93.007 F7800.000
G1 X85.552 Y92.803 E0.01341 F540.000
G1 X84.991 Y92.803 E0.03956
G1 X85.756 Y93.568 E0.08994
G1 X85.756 Y94.129 E0.11608
G1 X84.587 Y92.960 E0.19309
G1 X84.587 Y93.521 E0.21924
G1 X85.756 Y94.691 E0.29624
G1 X85.756 Y95.252 E0.32239
G1 X84.587 Y94.083 E0.39939
G1 X84.587 Y94.644 E0.42554
G1 X85.756 Y95.813 E0.50254
G1 X85.756 Y96.375 E0.52869
G1 X84.587 Y95.205 E0.60569
G1 X84.587 Y95.767 E0.63184
G1 X85.756 Y96.936 E0.70884
G1 X85.756 Y97.497 E0.73499
G1 X84.587 Y96.328 E0.81199
G1 X84.587 Y96.889 E0.83814
G1 X85.756 Y98.059 E0.91515
G1 X85.658 Y98.522 E0.93721
G1 X84.587 Y97.451 E1.00777
G1 X84.587 Y98.012 E1.03392
G1 X85.393 Y98.818 E1.08702
G1 X84.587 Y98.573 E1.12627
G1 X85.756 Y99.743 E1.20327
G1 X85.756 Y100.304 E1.22942
G1 X84.587 Y99.135 E1.30643
G1 X84.587 Y99.696 E1.33257
G1 X85.756 Y100.865 E1.40958
G1 X85.756 Y101.427 E1.43572
G1 X84.587 Y100.257 E1.51273
G1 X84.587 Y100.819 E1.53887
G1 X85.756 Y101.988 E1.61588
G1 X85.756 Y102.549 E1.64202
G1 X84.587 Y101.380 E1.71903
G1 X84.587 Y101.941 E1.74517
G1 X85.756 Y103.111 E1.82218
G1 X85.756 Y103.672 E1.84832
G1 X84.587 Y102.503 E1.92533
G1 X84.587 Y103.064 E1.95147
G1 X85.756 Y104.233 E2.02848
G1 X85.756 Y104.795 E2.05462
G1 X84.587 Y103.625 E2.13163
G1 X84.587 Y104.187 E2.15777
G1 X85.756 Y105.356 E2.23478
G1 X85.756 Y105.917 E2.26092
G1 X84.587 Y104.748 E2.33793
G1 X84.587 Y105.309 E2.36407
G1 X85.756 Y106.479 E2.44108
G1 X85.756 Y107.040 E2.46722
G1 X84.587 Y105.871 E2.54423
G1 X84.587 Y106.432 E2.57038
G1 X85.352 Y107.197 E2.62076
G1 X84.790 Y107.197 E2.64690
G1 X84.587 Y106.993 E2.66031
G92 E0
G1 X85.207 Y106.648 F7800.000
G1 X85.207 Y106.648 F7800.000
G1 X88.131 Y100.336 F7800.000
G1 X88.878 Y101.083 E0.04855 F540.000
G1 X89.133 Y100.784 E0.06662
G1 X88.442 Y100.092 E0.11156
G1 X88.692 Y99.789 E0.12965
G1 X89.388 Y100.484 E0.17487
G1 X89.642 Y100.185 E0.19294
G1 X88.942 Y99.485 E0.23844
G1 X89.193 Y99.181 E0.25653
G1 X89.897 Y99.886 E0.30230
G1 X90.151 Y99.586 E0.32037
G1 X89.443 Y98.878 E0.36642
G1 X89.693 Y98.574 E0.38451
G1 X90.406 Y99.287 E0.43084
G1 X90.661 Y98.988 E0.44891
G1 X89.944 Y98.271 E0.49552
G1 X90.194 Y97.967 E0.51360
G1 X90.915 Y98.688 E0.56049
G1 X91.170 Y98.389 E0.57855
G1 X90.444 Y97.663 E0.62572
G1 X90.695 Y97.360 E0.64380
G1 X91.425 Y98.090 E0.69124
G1 X91.679 Y97.790 E0.70931
G1 X90.945 Y97.056 E0.75703
G1 X91.195 Y96.753 E0.77511
G1 X91.934 Y97.491 E0.82311
G1 X92.188 Y97.192 E0.84117
G1 X91.446 Y96.449 E0.88944
G1 X91.696 Y96.145 E0.90753
G1 X92.443 Y96.892 E0.95608
G1 X92.698 Y96.593 E0.97414
G1 X91.946 Y95.842 E1.02297
G1 X92.197 Y95.538 E1.04106
G1 X92.952 Y96.294 E1.09016
G1 X93.207 Y95.994 E1.10822
G1 X92.447 Y95.235 E1.15760
G1 X92.697 Y94.931 E1.17569
G1 X93.461 Y95.695 E1.22535
G1 X93.716 Y95.396 E1.24341
G1 X92.948 Y94.627 E1.29334
G1 X93.198 Y94.324 E1.31143
G1 X93.971 Y95.096 E1.36164
G1 X94.225 Y94.797 E1.37971
G1 X93.448 Y94.020 E1.43019
G1 X93.699 Y93.716 E1.44828
G1 X94.480 Y94.497 E1.49905
G1 X94.734 Y94.198 E1.51711
G1 X93.949 Y93.413 E1.56815
G1 X94.200 Y93.109 E1.58624
G1 X94.989 Y93.899 E1.63756
G1 X95.244 Y93.599 E1.65562
G1 X94.450 Y92.806 E1.70722
G1 X95.001 Y92.803 E1.73256
G1 X95.498 Y93.300 E1.76487
G1 X95.555 Y92.803 E1.78787
G1 X95.753 Y93.001 E1.80073
G92 E0
G1 X85.207 Y93.352 F7800.000
G1 X85.207 Y93.352 F7800.000
G1 X86.825 Y99.583 F7800.000
G1 X94.438 Y107.197 E0.49490 F540.000
G1 X93.884 Y107.197 E0.52036
G1 X93.046 Y106.359 E0.57485
M106 S255
G92 E0
G1 Z0.600 F7800.000
G1 X106.544 Y100.633 F7800.000
G1 X104.167 Y97.168 E1.25890 F600.000
G1 X102.242 Y92.352 E2.81311
G92 E0
G1 X112.928 Y94.457 F7800.000
G1 X112.275 Y98.774 E1.30813 F600.000
G1 X110.091 Y104.320 E3.09418
G1 X109.383 Y106.245 E3.70872
G1 X109.115 Y106.723 E3.87304
G1 X108.572 Y106.810 E4.03792
G1 X108.002 Y106.736 E4.21016
G1 X107.708 Y106.225 E4.38675
G1 X106.792 Y103.781 E5.16887
G1 X104.805 Y98.775 E6.78268
G1 X104.669 Y97.900 E7.04819
G1 X105.065 Y97.746 E7.17570
G1 X105.692 Y97.624 E7.36708
G1 X111.392 Y97.624 E9.07506
G1 X112.008 Y97.741 E9.26297
G1 X112.408 Y97.894 E9.39110
G1 X112.903 Y97.165 E9.65512
G1 X114.805 Y92.352 E11.20582
G92 E0
G1 X104.677 Y91.817 F7800.000
G1 X99.010 Y92.515 F7800.000
G1 X96.853 Y91.352 F7800.000
G1 X96.853 Y92.352 F7800.000
G1 X95.559 Y92.352 F7800.000
G1 X88.895 Y100.310 E3.11048 F600.000
G1 X88.447 Y100.775 E3.30375
G1 X88.897 Y101.587 E3.58188
G1 X94.761 Y107.648 E6.10884
G92 E0
G1 X85.207 Y106.648 F7800.000
G1 X85.207 Y106.648 F7800.000
G1 X86.103 Y102.575 F7800.000
G1 X85.171 Y98.214 E1.33630 F600.000
G1 X85.171 Y92.352 E3.09283
G1 X85.171 Y107.648 F7800.000
G1 X85.171 Y99.984 E5.38932 F600.000
G1 X85.360 Y99.099 E5.66049
G1 X85.530 Y99.099 E5.71145
G1 X86.718 Y99.495 E6.08644
G1 X87.704 Y100.377 E6.48307
G1 X90.173 Y101.699 E7.32204
G92 E0
G1 Z0.900 F7800.000
G1 X106.544 Y100.633 F7800.000
G1 X104.167 Y97.168 E1.25890 F600.000
G1 X102.242 Y92.352 E2.81311
G92 E0
G1 X112.928 Y94.457 F7800.000
G1 X112.275 Y98.774 E1.30813 F600.000
G1 X110.091 Y104.320 E3.09418
G1 X109.383 Y106.245 E3.70872
G1 X109.115 Y106.723 E3.87304
G1 X108.572 Y106.810 E4.03792
G1 X108.002 Y106.736 E4.21016
G1 X107.708 Y106.225 E4.38675
G1 X106.792 Y103.781 E5.16887
G1 X104.805 Y98.775 E6.78268
G1 X104.669 Y97.900 E7.04819
G1 X105.065 Y97.746 E7.17570
G1 X105.692 Y97.624 E7.36708
G1 X111.392 Y97.624 E9.07506
G1 X112.008 Y97.741 E9.26297
G1 X112.408 Y97.894 E9.39110
G1 X112.903 Y97.165 E9.65512
G1 X114.805 Y92.352 E11.20582
G92 E0
G1 X104.677 Y91.817 F7800.000
G1 X99.010 Y92.515 F7800.000
G1 X96.853 Y91.352 F7800.000
G1 X96.853 Y92.352 F7800.000
G1 X95.559 Y92.352 F7800.000
G1 X88.895 Y100.310 E3.11048 F600.000
G1 X88.447 Y100.775 E3.30375
G1 X88.897 Y101.587 E3.58188
G1 X94.761 Y107.648 E6.10884
G92 E0
G1 X85.207 Y106.648 F7800.000
G1 X85.207 Y106.648 F7800.000
G1 X86.103 Y102.575 F7800.000
G1 X85.171 Y98.214 E1.33630 F600.000
G1 X85.171 Y92.352 E3.09283
G1 X85.171 Y107.648 F7800.000
G1 X85.171 Y99.984 E5.38931 F600.000
G1 X85.360 Y99.099 E5.66049
G1 X85.530 Y99.099 E5.71145
G1 X86.718 Y99.495 E6.08644
G1 X87.704 Y100.377 E6.48307
G1 X90.173 Y101.699 E7.32204
G92 E0
G1 Z1.200 F7800.000
G1 X106.544 Y100.633 F7800.000
G1 X104.167 Y97.168 E1.25890 F600.000
G1 X102.242 Y92.352 E2.81311
G92 E0
G1 X112.928 Y94.457 F7800.000
G1 X112.275 Y98.774 E1.30813 F600.000
G1 X110.091 Y104.320 E3.09418
G1 X109.383 Y106.245 E3.70872
G1 X109.115 Y106.723 E3.87304
G1 X108.572 Y106.810 E4.03792
G1 X108.002 Y106.736 E4.21016
G1 X107.708 Y106.225 E4.38675
G1 X106.792 Y103.781 E5.16887
G1 X104.805 Y98.775 E6.78268
G1 X104.669 Y97.900 E7.04819
G1 X105.065 Y97.746 E7.17570
G1 X105.692 Y97.624 E7.36708
G1 X111.392 Y97.624 E9.07506
G1 X112.008 Y97.741 E9.26297
G1 X112.408 Y97.894 E9.39110
G1 X112.903 Y97.165 E9.65512
G1 X114.805 Y92.352 E11.20582
G92 E0
G1 X112.008 Y96.816 F7800.000
G1 X112.008 Y96.816 F7800.000
G1 X109.800 Y93.584 F7800.000
G1 X107.269 Y93.584 F7800.000
G1 X106.955 Y93.370 F7800.000
G1 X106.955 Y93.370 F7800.000
G1 X104.677 Y91.817 F7800.000
G1 X103.313 Y91.352 F7800.000
G1 X101.166 Y91.352 F7800.000
G1 X99.010 Y92.515 F7800.000
G1 X96.853 Y91.352 F7800.000
G1 X96.853 Y92.352 F7800.000
G1 X95.559 Y92.352 F7800.000
G1 X88.895 Y100.310 E3.11048 F600.000
G1 X88.447 Y100.775 E3.30375
G1 X88.897 Y101.587 E3.58188
G1 X94.761 Y107.648 E6.10884
G92 E0
G1 X85.207 Y106.648 F7800.000
G1 X85.207 Y106.648 F7800.000
G1 X86.103 Y102.575 F7800.000
G1 X85.171 Y98.214 E1.33630 F600.000
G1 X85.171 Y92.352 E3.09283
G1 X85.171 Y107.648 F7800.000
G1 X85.171 Y99.984 E5.38931 F600.000
G1 X85.360 Y99.099 E5.66049
G1 X85.530 Y99.099 E5.71145
G1 X86.718 Y99.495 E6.08644
G1 X87.704 Y100.377 E6.48307
G1 X90.173 Y101.699 E7.32204
G92 E0
G1 Z1.500 F7800.000
G1 X106.544 Y100.633 F7800.000
G1 X104.167 Y97.168 E1.25890 F600.000
G1 X102.242 Y92.352 E2.81311
G92 E0
G1 X112.928 Y94.457 F7800.000
G1 X112.275 Y98.774 E1.30813 F600.000
G1 X110.091 Y104.320 E3.09418
G1 X109.383 Y106.245 E3.70872
G1 X109.115 Y106.723 E3.87304
G1 X108.572 Y106.810 E4.03792
G1 X108.002 Y106.736 E4.21016
G1 X107.708 Y106.225 E4.38675
G1 X106.792 Y103.781 E5.16887
G1 X104.805 Y98.775 E6.78268
G1 X104.669 Y97.900 E7.04819
G1 X105.065 Y97.746 E7.17570
G1 X105.692 Y97.624 E7.36708
G1 X111.392 Y97.624 E9.07506
G1 X112.008 Y97.741 E9.26297
G1 X112.408 Y97.894 E9.39110
G1 X112.903 Y97.165 E9.65512
G1 X114.805 Y92.352 E11.20582
G92 E0
G1 X112.008 Y96.816 F7800.000
G1 X112.008 Y96.816 F7800.000
G1 X109.800 Y93.584 F7800.000
G1 X107.269 Y93.584 F7800.000
G1 X106.235 Y92.879 F7800.000
G1 X106.235 Y92.879 F7800.000
G1 X104.677 Y91.817 F7800.000
G1 X103.313 Y91.352 F7800.000
G1 X101.166 Y91.352 F7800.000
G1 X99.010 Y92.515 F7800.000
G1 X96.853 Y91.352 F7800.000
G1 X96.853 Y92.352 F7800.000
G1 X95.559 Y92.352 F7800.000
G1 X88.895 Y100.310 E3.11048 F600.000
G1 X88.447 Y100.775 E3.30375
G1 X88.897 Y101.587 E3.58188
G1 X94.761 Y107.648 E6.10884
G92 E0
G1 X85.207 Y106.648 F7800.000
G1 X85.207 Y106.648 F7800.000
G1 X86.103 Y102.575 F7800.000
G1 X85.171 Y98.214 E1.33630 F600.000
G1 X85.171 Y92.352 E3.09283
G1 X85.171 Y107.648 F7800.000
G1 X85.171 Y99.984 E5.38931 F600.000
G1 X85.360 Y99.099 E5.66049
G1 X85.530 Y99.099 E5.71145
G1 X86.718 Y99.495 E6.08644
G1 X87.704 Y100.377 E6.48307
G1 X90.173 Y101.699 E7.32204
G92 E0
G1 Z1.800 F7800.000
G1 X106.544 Y100.633 F7800.000
G1 X104.167 Y97.168 E1.25890 F600.000
G1 X102.242 Y92.352 E2.81311
G92 E0
G1 X112.928 Y94.457 F7800.000
G1 X112.275 Y98.774 E1.30813 F600.000
G1 X110.091 Y104.320 E3.09418
G1 X109.383 Y106.245 E3.70872
G1 X109.115 Y106.723 E3.87304
G1 X108.572 Y106.810 E4.03792
G1 X108.002 Y106.736 E4.21016
G1 X107.708 Y106.225 E4.38675
G1 X106.792 Y103.781 E5.16887
G1 X104.805 Y98.775 E6.78268
G1 X104.669 Y97.900 E7.04820
G1 X105.065 Y97.746 E7.17570
G1 X105.692 Y97.624 E7.36708
G1 X111.392 Y97.624 E9.07506
G1 X112.008 Y97.741 E9.26297
G1 X112.408 Y97.894 E9.39110
G1 X112.903 Y97.165 E9.65512
G1 X114.805 Y92.352 E11.20582
G92 E0
G1 X105.443 Y92.339 F7800.000
G1 X101.166 Y91.352 F7800.000
G1 X96.853 Y91.352 F7800.000
G1 X96.853 Y92.352 F7800.000
