; generated by Slic3r 1.2.9 on 2016-03-11 at 01:26:28

; external perimeters extrusion width = 1.54mm
; perimeters extrusion width = 2.62mm
; infill extrusion width = 6.27mm
; solid infill extrusion width = 2.62mm
; top infill extrusion width = 2.62mm

M107
M104 S30 ; set temperature
G28 ; home all axes
G1 Z5 F5000 ; lift nozzle
M302
M92 E10000
M500
M501
G1 E100
M109 S30 ; wait for temperature to be reached
G21 ; set units to millimeters
G90 ; use absolute coordinates
M82 ; use absolute distances for extrusion
G92 E0
G1 Z0.300 F7800.000
G1 X112.159 Y93.819 F7800.000
G1 X105.242 Y93.819 E0.31299 F378.000
G1 X105.242 Y99.611 E0.57508
G1 X114.091 Y99.611 E0.97549
G1 X114.091 Y100.831 E1.03069
G1 X105.242 Y100.831 E1.43110
G1 X105.242 Y106.181 E1.67319
G1 X114.741 Y106.181 E2.10301
G1 X114.741 Y107.423 E2.15921
G1 X103.621 Y107.423 E2.66238
G1 X103.621 Y92.577 E3.33415
G1 X115.185 Y92.577 E3.85741
G1 X115.185 Y93.819 E3.91361
G1 X112.390 Y93.819 E4.04008 F378.000
G1 X114.959 Y93.007 F7800.000
G1 X114.755 Y92.803 E4.05312 F540.000
G1 X114.210 Y92.803 E4.07782
G1 X114.959 Y93.552 E4.12579
G1 X114.454 Y93.593 E4.14872
G1 X113.664 Y92.803 E4.19930
G1 X113.118 Y92.803 E4.22400
G1 X113.908 Y93.593 E4.27459
G1 X113.363 Y93.593 E4.29929
G1 X112.573 Y92.803 E4.34988
G1 X112.027 Y92.803 E4.37458
G1 X112.817 Y93.593 E4.42516
G1 X112.272 Y93.593 E4.44986
G1 X111.481 Y92.803 E4.50045
G1 X110.936 Y92.803 E4.52515
G1 X111.726 Y93.593 E4.57574
G1 X111.180 Y93.593 E4.60044
G1 X110.390 Y92.803 E4.65102
G1 X109.845 Y92.803 E4.67573
G1 X110.635 Y93.593 E4.72631
G1 X110.089 Y93.593 E4.75101
G1 X109.299 Y92.803 E4.80160
G1 X108.753 Y92.803 E4.82630
G1 X109.543 Y93.593 E4.87689
G1 X108.998 Y93.593 E4.90159
G1 X108.208 Y92.803 E4.95217
G1 X107.662 Y92.803 E4.97688
G1 X108.452 Y93.593 E5.02746
G1 X107.906 Y93.593 E5.05216
G1 X107.116 Y92.803 E5.10275
G1 X106.571 Y92.803 E5.12745
G1 X107.361 Y93.593 E5.17804
G1 X106.815 Y93.593 E5.20274
G1 X106.025 Y92.803 E5.25332
G1 X105.480 Y92.803 E5.27802
G1 X106.270 Y93.593 E5.32861
G1 X105.724 Y93.593 E5.35331
G1 X104.934 Y92.803 E5.40390
G1 X104.388 Y92.803 E5.42860
G1 X105.178 Y93.593 E5.47918
G1 X105.016 Y93.976 F7800.000
G1 X103.865 Y92.825 E5.55289 F540.000
G1 X103.847 Y93.353 E5.57679
G1 X105.016 Y94.522 E5.65164
G1 X105.016 Y95.067 E5.67634
G1 X103.847 Y93.898 E5.75120
G1 X103.847 Y94.444 E5.77590
G1 X105.016 Y95.613 E5.85075
G1 X105.016 Y96.159 E5.87545
G1 X103.847 Y94.990 E5.95030
G1 X103.847 Y95.535 E5.97501
G1 X105.016 Y96.704 E6.04986
G1 X105.016 Y97.250 E6.07456
G1 X103.847 Y96.081 E6.14941
G1 X103.847 Y96.626 E6.17411
G1 X105.016 Y97.796 E6.24896
G1 X105.016 Y98.341 E6.27367
G1 X103.847 Y97.172 E6.34852
G1 X103.847 Y97.718 E6.37322
G1 X105.016 Y98.887 E6.44807
G1 X105.016 Y99.432 E6.47277
G1 X103.847 Y98.263 E6.54762
G1 X103.847 Y98.809 E6.57233
G1 X105.643 Y100.605 E6.68732
G1 X105.097 Y100.605 E6.71202
G1 X103.847 Y99.355 E6.79208
G1 X103.847 Y99.900 E6.81678
G1 X105.016 Y101.069 E6.89163
G1 X105.016 Y101.615 E6.91633
G1 X103.847 Y100.446 E6.99118
G1 X103.847 Y100.992 E7.01589
G1 X105.016 Y102.161 E7.09074
G1 X105.016 Y102.706 E7.11544
G1 X103.847 Y101.537 E7.19029
G1 X103.847 Y102.083 E7.21499
G1 X105.016 Y103.252 E7.28984
G1 X105.016 Y103.798 E7.31455
G1 X103.847 Y102.628 E7.38940
G1 X103.847 Y103.174 E7.41410
G1 X105.016 Y104.343 E7.48895
G1 X105.016 Y104.889 E7.51365
G1 X103.847 Y103.720 E7.58850
G1 X103.847 Y104.265 E7.61321
G1 X105.016 Y105.434 E7.68806
G1 X105.016 Y105.980 E7.71276
G1 X103.847 Y104.811 E7.78761
G1 X103.847 Y105.357 E7.81231
G1 X105.687 Y107.197 E7.93015
G1 X106.233 Y107.197 E7.95485
G1 X105.443 Y106.407 E8.00544
G1 X105.988 Y106.407 E8.03014
G1 X106.778 Y107.197 E8.08073
G1 X107.324 Y107.197 E8.10543
G1 X106.534 Y106.407 E8.15601
G1 X107.080 Y106.407 E8.18072
G1 X107.870 Y107.197 E8.23130
G1 X108.415 Y107.197 E8.25600
G1 X107.625 Y106.407 E8.30659
G1 X108.171 Y106.407 E8.33129
G1 X108.961 Y107.197 E8.38188
G1 X109.507 Y107.197 E8.40658
G1 X108.717 Y106.407 E8.45717
G1 X109.262 Y106.407 E8.48187
G1 X110.052 Y107.197 E8.53245
G1 X110.598 Y107.197 E8.55716
G1 X109.808 Y106.407 E8.60774
G1 X110.353 Y106.407 E8.63244
G1 X111.144 Y107.197 E8.68303
G1 X111.689 Y107.197 E8.70773
G1 X110.899 Y106.407 E8.75832
G1 X111.445 Y106.407 E8.78302
G1 X112.235 Y107.197 E8.83361
G1 X112.780 Y107.197 E8.85831
G1 X111.990 Y106.407 E8.90889
G1 X112.536 Y106.407 E8.93360
G1 X113.326 Y107.197 E8.98418
G1 X113.872 Y107.197 E9.00888
G1 X113.082 Y106.407 E9.05947
G1 X113.627 Y106.407 E9.08417
G1 X114.417 Y107.197 E9.13476
G1 X114.515 Y106.749 E9.15552
G1 X114.173 Y106.407 E9.17742
G92 E0
G1 X104.467 Y106.648 F7800.000
G1 X104.467 Y106.648 F7800.000
G1 X113.827 Y100.605 F7800.000
G1 X113.059 Y99.837 E0.04918 F540.000
G1 X113.605 Y99.837 E0.07388
G1 X113.865 Y100.097 E0.09053
G1 X113.282 Y100.605 F7800.000
G1 X112.514 Y99.837 E0.13971 F540.000
G1 X111.968 Y99.837 E0.16441
G1 X112.736 Y100.605 E0.21359
G1 X112.190 Y100.605 E0.23829
G1 X111.422 Y99.837 E0.28747
G1 X110.877 Y99.837 E0.31217
G1 X111.645 Y100.605 E0.36135
G1 X111.099 Y100.605 E0.38605
G1 X110.331 Y99.837 E0.43522
G1 X109.785 Y99.837 E0.45993
G1 X110.553 Y100.605 E0.50910
G1 X110.008 Y100.605 E0.53381
G1 X109.240 Y99.837 E0.58298
G1 X108.694 Y99.837 E0.60769
G1 X109.462 Y100.605 E0.65686
G1 X108.917 Y100.605 E0.68156
G1 X108.148 Y99.837 E0.73074
G1 X107.603 Y99.837 E0.75544
G1 X108.371 Y100.605 E0.80462
G1 X107.825 Y100.605 E0.82932
G1 X107.057 Y99.837 E0.87850
G1 X106.512 Y99.837 E0.90320
G1 X107.280 Y100.605 E0.95238
G1 X106.734 Y100.605 E0.97708
G1 X105.966 Y99.837 E1.02626
G1 X105.420 Y99.837 E1.05096
G1 X106.188 Y100.605 E1.10014
G92 E0
G1 X104.467 Y106.648 F7800.000
G1 X104.467 Y106.648 F7800.000
G1 X104.431 Y106.612 F7800.000
G1 X104.396 Y106.648 F7800.000
G1 X103.847 Y105.902 F7800.000
G1 X105.142 Y107.197 E0.08290 F540.000
G1 X104.596 Y107.197 E0.10760
G1 X103.847 Y106.448 E0.15557
G1 X103.847 Y106.993 E0.18027
G1 X104.050 Y107.197 E0.19331
G92 E0
G1 X105.467 Y101.056 F7800.000
G1 X115.863 Y101.056 F7800.000
G1 X116.410 Y94.044 F7800.000
G1 X115.410 Y91.352 F7800.000
G1 X94.737 Y91.352 F7800.000
G1 X89.778 Y93.468 F7800.000
G1 X88.378 Y97.365 F7800.000
G1 X86.661 Y98.214 F7800.000
G1 X84.815 Y94.875 F7800.000
G1 X84.815 Y92.577 E0.10397 F378.000
G1 X86.436 Y92.577 E0.17732
G1 X86.436 Y98.325 E0.43743
G1 X88.686 Y100.044 E0.56554 F378.000
G1 X94.843 Y92.577 E1.00350
G1 X96.820 Y92.577 E1.09296
G1 X89.644 Y101.015 E1.59418
G1 X95.907 Y107.423 E1.99964
G1 X94.097 Y107.423 E2.08151
G1 X86.436 Y99.424 E2.58270
G1 X86.436 Y107.423 E2.94466
G1 X84.815 Y107.423 E3.01801
G1 X84.815 Y95.106 E3.57535
G1 X86.210 Y93.007 F7800.000
G1 X86.007 Y92.803 E3.58876 F540.000
G1 X85.445 Y92.803 E3.61490
G1 X86.210 Y93.568 E3.66529
G1 X86.210 Y94.129 E3.69143
G1 X85.041 Y92.960 E3.76844
G1 X85.041 Y93.521 E3.79458
G1 X86.210 Y94.691 E3.87159
G1 X86.210 Y95.252 E3.89773
G1 X85.041 Y94.083 E3.97474
G1 X85.041 Y94.644 E4.00089
G1 X86.210 Y95.813 E4.07789
G1 X86.210 Y96.375 E4.10404
G1 X85.041 Y95.205 E4.18104
G1 X85.041 Y95.767 E4.20719
G1 X86.210 Y96.936 E4.28419
G1 X86.210 Y97.497 E4.31034
G1 X85.041 Y96.328 E4.38734
G1 X85.041 Y96.889 E4.41349
G1 X86.210 Y98.059 E4.49049
G1 X86.112 Y98.522 E4.51256
G1 X85.041 Y97.451 E4.58312
G1 X85.041 Y98.012 E4.60927
G1 X85.847 Y98.818 E4.66237
G1 X85.041 Y98.573 E4.70162
G1 X86.210 Y99.743 E4.77862
G1 X86.210 Y100.304 E4.80477
G1 X85.041 Y99.135 E4.88177
G1 X85.041 Y99.696 E4.90792
G1 X86.210 Y100.865 E4.98492
G1 X86.210 Y101.427 E5.01107
G1 X85.041 Y100.257 E5.08808
G1 X85.041 Y100.819 E5.11422
G1 X86.210 Y101.988 E5.19123
G1 X86.210 Y102.549 E5.21737
G1 X85.041 Y101.380 E5.29438
G1 X85.041 Y101.941 E5.32052
G1 X86.210 Y103.111 E5.39753
G1 X86.210 Y103.672 E5.42367
G1 X85.041 Y102.503 E5.50068
G1 X85.041 Y103.064 E5.52682
G1 X86.210 Y104.233 E5.60383
G1 X86.210 Y104.795 E5.62997
G1 X85.041 Y103.625 E5.70698
G1 X85.041 Y104.187 E5.73312
G1 X86.210 Y105.356 E5.81013
G1 X86.210 Y105.917 E5.83627
G1 X85.041 Y104.748 E5.91328
G1 X85.041 Y105.309 E5.93942
G1 X86.210 Y106.479 E6.01643
G1 X86.210 Y107.040 E6.04257
G1 X85.041 Y105.871 E6.11958
G1 X85.041 Y106.432 E6.14573
G1 X85.806 Y107.197 E6.19611
G1 X85.245 Y107.197 E6.22225
G1 X85.041 Y106.993 E6.23566
G92 E0
G1 X85.661 Y106.648 F7800.000
G1 X85.661 Y106.648 F7800.000
G1 X87.125 Y99.452 F7800.000
G1 X86.243 Y98.664 E0.11596 F540.000
G1 X87.279 Y99.583 F7800.000
G1 X94.893 Y107.197 E0.61086 F540.000
G1 X94.339 Y107.197 E0.63633
G1 X93.501 Y106.359 E0.69081
G1 X88.586 Y100.336 F7800.000
G1 X89.333 Y101.083 E0.73936 F540.000
G1 X89.588 Y100.784 E0.75743
G1 X88.896 Y100.092 E0.80237
G1 X89.146 Y99.789 E0.82046
G1 X89.842 Y100.484 E0.86569
G1 X90.097 Y100.185 E0.88375
G1 X89.397 Y99.485 E0.92925
G1 X89.647 Y99.181 E0.94734
G1 X90.351 Y99.886 E0.99312
G1 X90.606 Y99.586 E1.01118
G1 X89.897 Y98.878 E1.05723
G1 X90.148 Y98.574 E1.07532
G1 X90.861 Y99.287 E1.12165
G1 X91.115 Y98.988 E1.13972
G1 X90.398 Y98.271 E1.18633
G1 X90.648 Y97.967 E1.20441
G1 X91.370 Y98.688 E1.25130
G1 X91.624 Y98.389 E1.26936
G1 X90.899 Y97.663 E1.31653
G1 X91.149 Y97.360 E1.33461
G1 X91.879 Y98.090 E1.38206
G1 X92.134 Y97.790 E1.40012
G1 X91.400 Y97.056 E1.44784
G1 X91.650 Y96.753 E1.46592
G1 X92.388 Y97.491 E1.51392
G1 X92.643 Y97.192 E1.53198
G1 X91.900 Y96.449 E1.58025
G1 X92.151 Y96.145 E1.59834
G1 X92.897 Y96.892 E1.64689
G1 X93.152 Y96.593 E1.66495
G1 X92.401 Y95.842 E1.71378
G1 X92.651 Y95.538 E1.73187
G1 X93.407 Y96.294 E1.78097
G1 X93.661 Y95.994 E1.79903
G1 X92.902 Y95.235 E1.84841
G1 X93.152 Y94.931 E1.86650
G1 X93.916 Y95.695 E1.91616
G1 X94.171 Y95.396 E1.93422
G1 X93.402 Y94.627 E1.98415
G1 X93.653 Y94.324 E2.00224
G1 X94.425 Y95.096 E2.05245
G1 X94.680 Y94.797 E2.07052
G1 X93.903 Y94.020 E2.12101
G1 X94.153 Y93.716 E2.13909
G1 X94.934 Y94.497 E2.18986
G1 X95.189 Y94.198 E2.20792
G1 X94.404 Y93.413 E2.25896
G1 X94.654 Y93.109 E2.27705
G1 X95.444 Y93.899 E2.32837
G1 X95.698 Y93.599 E2.34643
G1 X94.904 Y92.806 E2.39803
G1 X95.456 Y92.803 E2.42337
G1 X95.953 Y93.300 E2.45568
G1 X96.010 Y92.803 E2.47868
G1 X96.207 Y93.001 E2.49154
M106 S255
G92 E0
G1 Z0.600 F7800.000
G1 X115.410 Y93.198 F7800.000
G1 X105.467 Y93.198 E2.97938 F600.000
G1 X104.511 Y93.468 E3.27683
G1 X104.431 Y94.044 E3.45118
G1 X104.431 Y99.386 E5.05189
G1 X105.302 Y103.706 E6.37226
G1 X104.467 Y106.648 F7800.000
G1 X104.467 Y106.648 F7800.000
G1 X114.966 Y106.802 F7800.000
G1 X105.467 Y106.802 E9.21860 F600.000
G1 X104.511 Y106.532 E9.51604
G1 X104.431 Y105.956 E9.69039
G1 X104.431 Y101.056 E11.15866
G1 X104.600 Y100.221 E11.41390
G1 X114.316 Y100.221 E14.32531
G92 E0
G1 X116.410 Y92.352 F7800.000
G1 X101.396 Y92.352 F7800.000
G1 X99.940 Y94.591 F7800.000
G1 X97.307 Y92.352 F7800.000
G1 X96.014 Y92.352 F7800.000
G1 X89.349 Y100.310 E3.11048 F600.000
G1 X88.902 Y100.775 E3.30375
G1 X89.352 Y101.587 E3.58188
G1 X95.215 Y107.648 E6.10884
G92 E0
G1 X85.661 Y106.648 F7800.000
G1 X85.661 Y106.648 F7800.000
G1 X86.558 Y102.575 F7800.000
G1 X85.626 Y98.214 E1.33630 F600.000
G1 X85.626 Y92.352 E3.09283
G1 X85.626 Y107.648 F7800.000
G1 X85.626 Y99.984 E5.38932 F600.000
G1 X85.815 Y99.099 E5.66049
G1 X85.985 Y99.099 E5.71145
G1 X87.172 Y99.495 E6.08644
G1 X88.159 Y100.377 E6.48307
G1 X90.627 Y101.699 E7.32204
G92 E0
G1 Z0.900 F7800.000
G1 X115.410 Y93.198 F7800.000
G1 X105.467 Y93.198 E2.97938 F600.000
G1 X104.511 Y93.468 E3.27683
G1 X104.431 Y94.044 E3.45118
G1 X104.431 Y99.386 E5.05189
G1 X105.302 Y103.706 E6.37226
G1 X104.467 Y106.648 F7800.000
G1 X104.467 Y106.648 F7800.000
G1 X114.966 Y106.802 F7800.000
G1 X105.467 Y106.802 E9.21860 F600.000
G1 X104.511 Y106.532 E9.51604
G1 X104.431 Y105.956 E9.69039
G1 X104.431 Y101.056 E11.15866
G1 X104.600 Y100.221 E11.41390
G1 X114.316 Y100.221 E14.32531
G92 E0
G1 X116.410 Y92.352 F7800.000
G1 X101.396 Y92.352 F7800.000
G1 X99.940 Y94.591 F7800.000
G1 X97.307 Y92.352 F7800.000
G1 X96.014 Y92.352 F7800.000
G1 X89.349 Y100.310 E3.11048 F600.000
G1 X88.902 Y100.775 E3.30375
G1 X89.352 Y101.587 E3.58188
G1 X95.215 Y107.648 E6.10884
G92 E0
G1 X85.661 Y106.648 F7800.000
G1 X85.661 Y106.648 F7800.000
G1 X86.558 Y102.575 F7800.000
G1 X85.626 Y98.214 E1.33630 F600.000
G1 X85.626 Y92.352 E3.09283
G1 X85.626 Y107.648 F7800.000
G1 X85.626 Y99.984 E5.38931 F600.000
G1 X85.815 Y99.099 E5.66049
G1 X85.985 Y99.099 E5.71145
G1 X87.172 Y99.495 E6.08644
G1 X88.159 Y100.377 E6.48307
G1 X90.627 Y101.699 E7.32204
G92 E0
G1 Z1.200 F7800.000
G1 X115.410 Y93.198 F7800.000
G1 X105.467 Y93.198 E2.97938 F600.000
G1 X104.511 Y93.468 E3.27683
G1 X104.431 Y94.044 E3.45118
G1 X104.431 Y99.386 E5.05189
G1 X105.302 Y103.706 E6.37226
G1 X104.467 Y106.648 F7800.000
G1 X104.467 Y106.648 F7800.000
G1 X114.966 Y106.802 F7800.000
G1 X105.467 Y106.802 E9.21860 F600.000
G1 X104.511 Y106.532 E9.51604
G1 X104.431 Y105.956 E9.69039
G1 X104.431 Y101.056 E11.15866
G1 X104.600 Y100.221 E11.41390
G1 X114.316 Y100.221 E14.32531
G92 E0
G1 X116.410 Y92.352 F7800.000
G1 X101.396 Y92.352 F7800.000
G1 X99.940 Y94.591 F7800.000
G1 X97.307 Y92.352 F7800.000
G1 X96.014 Y92.352 F7800.000
G1 X89.349 Y100.310 E3.11048 F600.000
G1 X88.902 Y100.775 E3.30375
G1 X89.352 Y101.587 E3.58188
G1 X95.215 Y107.648 E6.10884
G92 E0
G1 X85.661 Y106.648 F7800.000
G1 X85.661 Y106.648 F7800.000
G1 X86.558 Y102.575 F7800.000
G1 X85.626 Y98.214 E1.33630 F600.000
G1 X85.626 Y92.352 E3.09283
G1 X85.626 Y107.648 F7800.000
G1 X85.626 Y99.984 E5.38931 F600.000
G1 X85.815 Y99.099 E5.66049
G1 X85.985 Y99.099 E5.71145
G1 X87.172 Y99.495 E6.08644
G1 X88.159 Y100.377 E6.48307
G1 X90.627 Y101.699 E7.32204
G92 E0
G1 Z1.500 F7800.000
G1 X115.410 Y93.198 F7800.000
G1 X105.467 Y93.198 E2.97938 F600.000
G1 X104.511 Y93.468 E3.27683
G1 X104.431 Y94.044 E3.45118
G1 X104.431 Y99.386 E5.05189
G1 X105.302 Y103.706 E6.37226
G1 X104.467 Y106.648 F7800.000
G1 X104.467 Y106.648 F7800.000
G1 X114.966 Y106.802 F7800.000
G1 X105.467 Y106.802 E9.21860 F600.000
G1 X104.511 Y106.532 E9.51604
G1 X104.431 Y105.956 E9.69039
G1 X104.431 Y101.056 E11.15866
G1 X104.600 Y100.221 E11.41390
G1 X114.316 Y100.221 E14.32531
G92 E0
G1 X116.410 Y92.352 F7800.000
G1 X101.396 Y92.352 F7800.000
G1 X99.940 Y94.591 F7800.000
G1 X97.307 Y92.352 F7800.000
G1 X96.014 Y92.352 F7800.000
G1 X89.349 Y100.310 E3.11048 F600.000
G1 X88.902 Y100.775 E3.30375
G1 X89.352 Y101.587 E3.58188
G1 X95.215 Y107.648 E6.10884
G92 E0
G1 X85.661 Y106.648 F7800.000
G1 X85.661 Y106.648 F7800.000
G1 X86.558 Y102.575 F7800.000
G1 X85.626 Y98.214 E1.33630 F600.000
G1 X85.626 Y92.352 E3.09283
G1 X85.626 Y107.648 F7800.000
G1 X85.626 Y99.984 E5.38931 F600.000
G1 X85.815 Y99.099 E5.66049
G1 X85.985 Y99.099 E5.71145
G1 X87.172 Y99.495 E6.08644
G1 X88.159 Y100.377 E6.48307
G1 X90.627 Y101.699 E7.32204
G92 E0
G1 Z1.800 F7800.000
G1 X115.410 Y93.198 F7800.000
G1 X105.467 Y93.198 E2.97938 F600.000
G1 X104.511 Y93.468 E3.27683
G1 X104.431 Y94.044 E3.45118
G1 X104.431 Y99.386 E5.05189
G1 X105.302 Y103.706 E6.37226
G1 X104.467 Y106.648 F7800.000
G1 X104.467 Y106.648 F7800.000
G1 X114.966 Y106.802 F7800.000
G1 X105.467 Y106.802 E9.21860 F600.000
G1 X104.511 Y106.532 E9.51604
G1 X104.431 Y105.956 E9.69039
G1 X104.431 Y101.056 E11.15866
G1 X104.600 Y100.221 E11.41390
G1 X114.316 Y100.221 E14.32531
G92 E0
G1 X116.410 Y92.352 F7800.000
G1 X101.396 Y92.352 F7800.000
G1 X99.940 Y94.591 F7800.000
G1 X97.307 Y92.352 F7800.000
G1 X96.014 Y92.352 F7800.000
G1 X89.349 Y100.310 E3.11048 F600.000
G1 X88.902 Y100.775 E3.30375
G1 X89.352 Y101.587 E3.58188
G1 X95.215 Y107.648 E6.10884
G92 E0
G1 X85.661 Y106.648 F7800.000
G1 X85.661 Y106.648 F7800.000
G1 X86.558 Y102.575 F7800.000
G1 X85.626 Y98.214 E1.33630 F600.000
G1 X85.626 Y92.352 E3.09283
G1 X85.626 Y107.648 F7800.000
G1 X85.626 Y99.984 E5.38932 F600.000
G1 X85.815 Y99.099 E5.66049
G1 X85.985 Y99.099 E5.71146
G1 X87.172 Y99.495 E6.08644
G1 X88.159 Y100.377 E6.48307
G1 X90.627 Y101.699 E7.32204
G92 E0
G1 Z2.100 F7800.000
G1 X115.410 Y93.198 F7800.000
G1 X105.467 Y93.198 E2.97938 F600.000
G1 X104.511 Y93.468 E3.27683
G1 X104.431 Y94.044 E3.45118
G1 X104.431 Y99.386 E5.05189
