; generated by Slic3r 1.2.9 on 2016-03-11 at 01:26:30

; external perimeters extrusion width = 1.54mm
; perimeters extrusion width = 2.62mm
; infill extrusion width = 6.27mm
; solid infill extrusion width = 2.62mm
; top infill extrusion width = 2.62mm

M107
M104 S30 ; set temperature
G28 ; home all axes
G1 Z5 F5000 ; lift nozzle
M302
M92 E10000
M500
M501
G1 E100
M109 S30 ; wait for temperature to be reached
G21 ; set units to millimeters
G90 ; use absolute coordinates
M82 ; use absolute distances for extrusion
G92 E0
G1 Z0.300 F7800.000
G1 X113.773 Y104.018 F7800.000
G1 X113.773 Y100.959 E0.13843 F378.000
G1 X105.040 Y100.959 E0.53359
G1 X105.040 Y107.423 E0.82608
G1 X103.419 Y107.423 E0.89943
G1 X103.419 Y92.577 E1.57120
G1 X105.040 Y92.577 E1.64455
G1 X105.040 Y99.674 E1.96569
G1 X113.773 Y99.674 E2.36085 F378.000
G1 X113.773 Y92.577 E2.68198
G1 X115.394 Y92.577 E2.75533
G1 X115.394 Y107.423 E3.42710
G1 X113.773 Y107.423 E3.50045
G1 X113.773 Y104.249 E3.64406
G1 X113.999 Y101.265 F7800.000
G1 X115.168 Y102.434 E3.72014 F540.000
G1 X115.168 Y102.989 E3.74565
G1 X113.999 Y101.820 E3.82173
G1 X113.999 Y102.374 E3.84725
G1 X115.168 Y103.543 E3.92333
G1 X115.168 Y104.098 E3.94884
G1 X113.999 Y102.929 E4.02492
G1 X113.999 Y103.483 E4.05044
G1 X115.168 Y104.652 E4.12652
G1 X115.168 Y105.207 E4.15203
G1 X113.999 Y104.038 E4.22811
G1 X113.999 Y104.592 E4.25363
G1 X115.168 Y105.762 E4.32970
G1 X115.168 Y106.316 E4.35522
G1 X113.999 Y105.147 E4.43130
G1 X113.999 Y105.702 E4.45682
G1 X115.168 Y106.871 E4.53289
G1 X114.940 Y107.197 E4.55122
G1 X113.999 Y106.256 E4.61244
G1 X113.999 Y106.811 E4.63796
G1 X114.385 Y107.197 E4.66310
G1 X113.743 Y99.900 F7800.000
G1 X115.168 Y101.325 E4.75584 F540.000
G1 X115.168 Y101.880 E4.78135
G1 X113.188 Y99.900 E4.91018
G1 X112.634 Y99.900 E4.93570
G1 X113.467 Y100.733 E4.98991
G1 X112.912 Y100.733 E5.01543
G1 X112.079 Y99.900 E5.06964
G1 X111.525 Y99.900 E5.09516
G1 X112.358 Y100.733 E5.14937
G1 X111.803 Y100.733 E5.17489
G1 X110.970 Y99.900 E5.22910
G1 X110.415 Y99.900 E5.25462
G1 X111.248 Y100.733 E5.30883
G1 X110.694 Y100.733 E5.33435
G1 X109.861 Y99.900 E5.38856
G1 X109.306 Y99.900 E5.41408
G1 X110.139 Y100.733 E5.46829
G1 X109.585 Y100.733 E5.49381
G1 X108.752 Y99.900 E5.54802
G1 X108.197 Y99.900 E5.57354
G1 X109.030 Y100.733 E5.62775
G1 X108.476 Y100.733 E5.65327
G1 X107.643 Y99.900 E5.70748
G1 X107.088 Y99.900 E5.73300
G1 X107.921 Y100.733 E5.78721
G1 X107.367 Y100.733 E5.81273
G1 X106.533 Y99.900 E5.86694
G1 X105.979 Y99.900 E5.89246
G1 X106.812 Y100.733 E5.94667
G1 X106.257 Y100.733 E5.97219
G1 X105.424 Y99.900 E6.02640
G1 X104.870 Y99.900 E6.05192
G1 X105.703 Y100.733 E6.10613
G1 X105.148 Y100.733 E6.13165
G1 X103.645 Y99.230 E6.22948
G1 X103.645 Y99.784 E6.25500
G1 X104.814 Y100.953 E6.33108
G1 X104.814 Y101.508 E6.35660
G1 X103.645 Y100.339 E6.43267
G1 X103.645 Y100.893 E6.45819
G1 X104.814 Y102.062 E6.53427
G1 X104.814 Y102.617 E6.55979
G1 X103.645 Y101.448 E6.63586
G1 X103.645 Y102.002 E6.66138
G1 X104.814 Y103.171 E6.73746
G1 X104.814 Y103.726 E6.76298
G1 X103.645 Y102.557 E6.83905
G1 X103.645 Y103.112 E6.86457
G1 X104.814 Y104.281 E6.94065
G1 X104.814 Y104.835 E6.96617
G1 X103.645 Y103.666 E7.04224
G1 X103.645 Y104.221 E7.06776
G1 X104.814 Y105.390 E7.14384
G1 X104.814 Y105.944 E7.16936
G1 X103.645 Y104.775 E7.24543
G1 X103.645 Y105.330 E7.27095
G1 X104.814 Y106.499 E7.34703
G1 X104.814 Y107.053 E7.37255
G1 X103.645 Y105.884 E7.44862
G1 X103.645 Y106.439 E7.47414
G1 X104.403 Y107.197 E7.52348
G1 X103.848 Y107.197 E7.54899
G1 X103.645 Y106.993 E7.56224
G1 X104.814 Y99.844 F7800.000
G1 X103.645 Y98.675 E7.63832 F540.000
G1 X103.645 Y98.120 E7.66384
G1 X104.814 Y99.290 E7.73991
G1 X104.814 Y98.735 E7.76543
G1 X103.645 Y97.566 E7.84151
G1 X103.645 Y97.011 E7.86703
G1 X104.814 Y98.180 E7.94310
G1 X104.814 Y97.626 E7.96862
G1 X103.645 Y96.457 E8.04470
G1 X103.645 Y95.902 E8.07022
G1 X104.814 Y97.071 E8.14629
G1 X104.814 Y96.517 E8.17181
G1 X103.645 Y95.348 E8.24789
G1 X103.645 Y94.793 E8.27340
G1 X104.814 Y95.962 E8.34948
G1 X104.814 Y95.408 E8.37500
G1 X103.645 Y94.238 E8.45108
G1 X103.645 Y93.684 E8.47659
G1 X104.814 Y94.853 E8.55267
G1 X104.814 Y94.298 E8.57819
G1 X103.645 Y93.129 E8.65427
G1 X103.873 Y92.803 E8.67259
G1 X104.814 Y93.744 E8.73382
G1 X104.814 Y93.189 E8.75934
G1 X104.428 Y92.803 E8.78448
G92 E0
G1 X114.548 Y93.352 F7800.000
G1 X114.548 Y93.352 F7800.000
G1 X114.583 Y93.387 F7800.000
G1 X114.619 Y93.352 F7800.000
G1 X115.168 Y93.007 F7800.000
G1 X114.964 Y92.803 E0.01325 F540.000
G1 X114.410 Y92.803 E0.03877
G1 X115.168 Y93.561 E0.08810
G1 X115.168 Y94.116 E0.11362
G1 X113.999 Y92.947 E0.18970
G1 X113.999 Y93.501 E0.21522
G1 X115.168 Y94.670 E0.29129
G1 X115.168 Y95.225 E0.31681
G1 X113.999 Y94.056 E0.39289
G1 X113.999 Y94.610 E0.41841
G1 X115.168 Y95.779 E0.49448
G1 X115.168 Y96.334 E0.52000
G1 X113.999 Y95.165 E0.59608
G1 X113.999 Y95.719 E0.62160
G1 X115.168 Y96.889 E0.69767
G1 X115.168 Y97.443 E0.72319
G1 X113.999 Y96.274 E0.79927
G1 X113.999 Y96.829 E0.82479
G1 X115.168 Y97.998 E0.90086
G1 X115.168 Y98.552 E0.92638
G1 X113.999 Y97.383 E1.00246
G1 X113.999 Y97.938 E1.02798
G1 X115.168 Y99.107 E1.10405
G1 X115.168 Y99.661 E1.12957
G1 X113.999 Y98.492 E1.20565
G1 X113.999 Y99.047 E1.23117
G1 X115.168 Y100.216 E1.30724
G1 X115.168 Y100.770 E1.33276
G1 X113.999 Y99.601 E1.40884
G92 E0
G1 X105.265 Y99.449 F7800.000
G1 X105.265 Y91.352 F7800.000
G1 X100.036 Y93.510 F7800.000
G1 X99.734 Y94.594 F7800.000
G1 X97.098 Y92.352 F7800.000
G1 X94.007 Y95.639 F7800.000
G1 X89.435 Y101.015 E0.31934 F378.000
G1 X95.698 Y107.423 E0.72480
G1 X93.888 Y107.423 E0.80667
G1 X86.227 Y99.424 E1.30786
G1 X86.227 Y107.423 E1.66982
G1 X84.606 Y107.423 E1.74316
G1 X84.606 Y92.577 E2.41494
G1 X86.227 Y92.577 E2.48828
G1 X86.227 Y98.325 E2.74839
G1 X88.477 Y100.044 E2.87650 F378.000
G1 X94.634 Y92.577 E3.31446
G1 X96.611 Y92.577 E3.40392
G1 X94.157 Y95.463 E3.57535
G1 X95.998 Y93.001 F7800.000
G1 X95.801 Y92.803 E3.58821 F540.000
G1 X95.744 Y93.300 E3.61120
G1 X95.247 Y92.803 E3.64352
G1 X94.695 Y92.806 E3.66886
G1 X95.489 Y93.599 E3.72045
G1 X95.235 Y93.899 E3.73852
G1 X94.445 Y93.109 E3.78984
G1 X94.195 Y93.413 E3.80792
G1 X94.980 Y94.198 E3.85897
G1 X94.725 Y94.497 E3.87703
G1 X93.944 Y93.716 E3.92780
G1 X93.694 Y94.020 E3.94588
G1 X94.471 Y94.797 E3.99637
G1 X94.216 Y95.096 E4.01443
G1 X93.444 Y94.324 E4.06465
G1 X93.193 Y94.627 E4.08273
G1 X93.962 Y95.396 E4.13267
G1 X93.707 Y95.695 E4.15073
G1 X92.943 Y94.931 E4.20039
G1 X92.693 Y95.235 E4.21848
G1 X93.452 Y95.994 E4.26786
G1 X93.198 Y96.294 E4.28592
G1 X92.442 Y95.538 E4.33502
G1 X92.192 Y95.842 E4.35311
G1 X92.943 Y96.593 E4.40194
G1 X92.688 Y96.892 E4.42000
G1 X91.942 Y96.145 E4.46855
G1 X91.691 Y96.449 E4.48664
G1 X92.434 Y97.192 E4.53491
G1 X92.179 Y97.491 E4.55297
G1 X91.441 Y96.753 E4.60097
G1 X91.191 Y97.056 E4.61905
G1 X91.925 Y97.790 E4.66677
G1 X91.670 Y98.090 E4.68483
G1 X90.940 Y97.360 E4.73227
G1 X90.690 Y97.663 E4.75036
G1 X91.415 Y98.389 E4.79753
G1 X91.161 Y98.688 E4.81559
G1 X90.439 Y97.967 E4.86248
G1 X90.189 Y98.271 E4.88056
G1 X90.906 Y98.988 E4.92717
G1 X90.652 Y99.287 E4.94523
G1 X89.939 Y98.574 E4.99157
G1 X89.688 Y98.878 E5.00965
G1 X90.397 Y99.586 E5.05571
G1 X90.142 Y99.886 E5.07377
G1 X89.438 Y99.181 E5.11955
G1 X89.188 Y99.485 E5.13764
G1 X89.888 Y100.185 E5.18314
G1 X89.633 Y100.484 E5.20120
G1 X88.937 Y99.789 E5.24643
G1 X88.687 Y100.092 E5.26451
G1 X89.379 Y100.784 E5.30946
G1 X89.124 Y101.083 E5.32752
G1 X88.377 Y100.336 E5.37608
G1 X87.070 Y99.583 F7800.000
G1 X94.684 Y107.197 E5.87098 F540.000
G1 X94.130 Y107.197 E5.89644
G1 X93.292 Y106.359 E5.95092
G92 E0
G1 X85.452 Y106.648 F7800.000
G1 X85.452 Y106.648 F7800.000
G1 X85.417 Y106.612 F7800.000
G1 X85.381 Y106.648 F7800.000
G1 X84.832 Y106.993 F7800.000
G1 X85.036 Y107.197 E0.01341 F540.000
G1 X85.597 Y107.197 E0.03955
G1 X84.832 Y106.432 E0.08994
G1 X84.832 Y105.871 E0.11608
G1 X86.001 Y107.040 E0.19309
G1 X86.001 Y106.479 E0.21923
G1 X84.832 Y105.309 E0.29624
G1 X84.832 Y104.748 E0.32238
G1 X86.001 Y105.917 E0.39939
G1 X86.001 Y105.356 E0.42553
G1 X84.832 Y104.187 E0.50254
G1 X84.832 Y103.625 E0.52868
G1 X86.001 Y104.795 E0.60569
G1 X86.001 Y104.233 E0.63184
G1 X84.832 Y103.064 E0.70884
G1 X84.832 Y102.503 E0.73499
G1 X86.001 Y103.672 E0.81199
G1 X86.001 Y103.111 E0.83814
G1 X84.832 Y101.941 E0.91514
G1 X84.832 Y101.380 E0.94129
G1 X86.001 Y102.549 E1.01829
G1 X86.001 Y101.988 E1.04444
G1 X84.832 Y100.819 E1.12144
G1 X84.832 Y100.257 E1.14759
G1 X86.001 Y101.427 E1.22459
G1 X86.001 Y100.865 E1.25074
G1 X84.832 Y99.696 E1.32775
G1 X84.832 Y99.135 E1.35389
G1 X86.001 Y100.304 E1.43090
G1 X86.001 Y99.743 E1.45704
G1 X84.832 Y98.573 E1.53405
G1 X85.638 Y98.818 E1.57329
G1 X84.832 Y98.012 E1.62640
G1 X84.832 Y97.451 E1.65254
G1 X85.903 Y98.522 E1.72311
G1 X86.001 Y98.059 E1.74517
G1 X84.832 Y96.889 E1.82218
G1 X84.832 Y96.328 E1.84832
G1 X86.001 Y97.497 E1.92533
G1 X86.001 Y96.936 E1.95147
G1 X84.832 Y95.767 E2.02848
G1 X84.832 Y95.205 E2.05462
G1 X86.001 Y96.375 E2.13163
G1 X86.001 Y95.813 E2.15777
G1 X84.832 Y94.644 E2.23478
G1 X84.832 Y94.083 E2.26092
G1 X86.001 Y95.252 E2.33793
G1 X86.001 Y94.691 E2.36407
G1 X84.832 Y93.521 E2.44108
G1 X84.832 Y92.960 E2.46722
G1 X86.001 Y94.129 E2.54423
G1 X86.001 Y93.568 E2.57038
G1 X85.236 Y92.803 E2.62076
G1 X85.798 Y92.803 E2.64690
G1 X86.001 Y93.007 E2.66032
G1 X86.034 Y98.664 F7800.000
G1 X86.916 Y99.452 E2.77628 F540.000
M106 S255
G92 E0
G1 Z0.600 F7800.000
G1 X104.229 Y92.352 F7800.000
G1 X104.229 Y99.449 E2.12659 F600.000
G1 X105.140 Y103.796 E3.45730
G92 E0
G1 X114.548 Y106.648 F7800.000
G1 X114.548 Y106.648 F7800.000
G1 X114.583 Y107.648 F7800.000
G1 X114.583 Y101.184 E1.93691 F600.000
G1 X114.402 Y100.316 E2.20250
G1 X114.583 Y99.449 E2.46808
G1 X114.583 Y92.352 E4.59467
G92 E0
G1 X104.265 Y93.352 F7800.000
G1 X104.229 Y93.387 F7800.000
G1 X104.229 Y106.612 F7800.000
G1 X104.265 Y106.648 F7800.000
G1 X104.229 Y107.648 F7800.000
G1 X104.229 Y101.184 E1.93691 F600.000
G1 X104.411 Y100.316 E2.20250
G1 X115.619 Y100.316 E5.56087
G92 E0
G1 X105.265 Y99.449 F7800.000
G1 X105.265 Y99.449 F7800.000
G1 X109.406 Y95.307 F7800.000
G1 X109.406 Y94.493 F7800.000
G1 X107.265 Y92.352 F7800.000
G1 X105.265 Y91.352 F7800.000
G1 X103.194 Y91.352 F7800.000
G1 X101.194 Y92.352 F7800.000
G1 X100.036 Y93.510 F7800.000
G1 X99.734 Y94.594 F7800.000
G1 X97.098 Y92.352 F7800.000
G1 X95.805 Y92.352 F7800.000
G1 X89.140 Y100.310 E3.11048 F600.000
G1 X88.693 Y100.775 E3.30375
G1 X89.143 Y101.587 E3.58188
G1 X95.006 Y107.648 E6.10884
G92 E0
G1 X85.452 Y106.648 F7800.000
G1 X85.452 Y106.648 F7800.000
G1 X86.349 Y102.575 F7800.000
G1 X85.417 Y98.214 E1.33630 F600.000
G1 X85.417 Y92.352 E3.09283
G1 X85.417 Y107.648 F7800.000
G1 X85.417 Y99.984 E5.38932 F600.000
G1 X85.606 Y99.099 E5.66049
G1 X85.776 Y99.099 E5.71145
G1 X86.963 Y99.495 E6.08644
G1 X87.950 Y100.377 E6.48307
G1 X90.418 Y101.699 E7.32204
G92 E0
G1 Z0.900 F7800.000
G1 X104.229 Y92.352 F7800.000
G1 X104.229 Y99.449 E2.12659 F600.000
G1 X105.140 Y103.796 E3.45730
G92 E0
G1 X114.548 Y106.648 F7800.000
G1 X114.548 Y106.648 F7800.000
G1 X114.583 Y107.648 F7800.000
G1 X114.583 Y101.184 E1.93691 F600.000
G1 X114.402 Y100.316 E2.20250
G1 X114.583 Y99.449 E2.46808
G1 X114.583 Y92.352 E4.59467
G92 E0
G1 X104.265 Y93.352 F7800.000
G1 X104.229 Y93.387 F7800.000
G1 X104.229 Y106.612 F7800.000
G1 X104.265 Y106.648 F7800.000
G1 X104.229 Y107.648 F7800.000
G1 X104.229 Y101.184 E1.93691 F600.000
G1 X104.411 Y100.316 E2.20250
G1 X115.619 Y100.316 E5.56087
G92 E0
G1 X105.265 Y99.449 F7800.000
G1 X105.265 Y99.449 F7800.000
G1 X109.406 Y95.307 F7800.000
G1 X109.406 Y94.493 F7800.000
G1 X107.265 Y92.352 F7800.000
G1 X105.265 Y91.352 F7800.000
G1 X103.194 Y91.352 F7800.000
G1 X101.194 Y92.352 F7800.000
G1 X100.036 Y93.510 F7800.000
G1 X99.734 Y94.594 F7800.000
G1 X97.098 Y92.352 F7800.000
G1 X95.805 Y92.352 F7800.000
G1 X89.140 Y100.310 E3.11048 F600.000
G1 X88.693 Y100.775 E3.30375
G1 X89.143 Y101.587 E3.58188
G1 X95.006 Y107.648 E6.10884
G92 E0
G1 X85.452 Y106.648 F7800.000
G1 X85.452 Y106.648 F7800.000
G1 X86.349 Y102.575 F7800.000
G1 X85.417 Y98.214 E1.33630 F600.000
G1 X85.417 Y92.352 E3.09283
G1 X85.417 Y107.648 F7800.000
G1 X85.417 Y99.984 E5.38931 F600.000
G1 X85.606 Y99.099 E5.66049
G1 X85.776 Y99.099 E5.71145
G1 X86.963 Y99.495 E6.08644
G1 X87.950 Y100.377 E6.48307
G1 X90.418 Y101.699 E7.32204
G92 E0
G1 Z1.200 F7800.000
G1 X104.229 Y92.352 F7800.000
G1 X104.229 Y99.449 E2.12659 F600.000
G1 X105.140 Y103.796 E3.45730
G92 E0
G1 X114.548 Y106.648 F7800.000
G1 X114.548 Y106.648 F7800.000
G1 X114.583 Y107.648 F7800.000
G1 X114.583 Y101.184 E1.93691 F600.000
G1 X114.402 Y100.316 E2.20250
G1 X114.583 Y99.449 E2.46808
G1 X114.583 Y92.352 E4.59467
G92 E0
G1 X104.265 Y93.352 F7800.000
G1 X104.229 Y93.387 F7800.000
G1 X104.229 Y106.612 F7800.000
G1 X104.265 Y106.648 F7800.000
G1 X104.229 Y107.648 F7800.000
G1 X104.229 Y101.184 E1.93691 F600.000
G1 X104.411 Y100.316 E2.20250
G1 X115.619 Y100.316 E5.56087
G92 E0
G1 X105.265 Y99.449 F7800.000
G1 X105.265 Y99.449 F7800.000
G1 X109.406 Y95.307 F7800.000
G1 X109.406 Y94.493 F7800.000
G1 X107.265 Y92.352 F7800.000
G1 X105.265 Y91.352 F7800.000
G1 X103.194 Y91.352 F7800.000
G1 X101.194 Y92.352 F7800.000
G1 X100.036 Y93.510 F7800.000
G1 X99.734 Y94.594 F7800.000
G1 X97.098 Y92.352 F7800.000
G1 X95.805 Y92.352 F7800.000
G1 X89.140 Y100.310 E3.11048 F600.000
G1 X88.693 Y100.775 E3.30375
G1 X89.143 Y101.587 E3.58188
G1 X95.006 Y107.648 E6.10884
G92 E0
G1 X85.452 Y106.648 F7800.000
G1 X85.452 Y106.648 F7800.000
G1 X86.349 Y102.575 F7800.000
G1 X85.417 Y98.214 E1.33630 F600.000
G1 X85.417 Y92.352 E3.09283
G1 X85.417 Y107.648 F7800.000
G1 X85.417 Y99.984 E5.38931 F600.000
G1 X85.606 Y99.099 E5.66049
G1 X85.776 Y99.099 E5.71145
G1 X86.963 Y99.495 E6.08644
G1 X87.950 Y100.377 E6.48307
G1 X90.418 Y101.699 E7.32204
G92 E0
G1 Z1.500 F7800.000
G1 X104.229 Y92.352 F7800.000
G1 X104.229 Y99.449 E2.12659 F600.000
G1 X105.140 Y103.796 E3.45730
G92 E0
G1 X114.548 Y106.648 F7800.000
G1 X114.548 Y106.648 F7800.000
G1 X114.583 Y107.648 F7800.000
G1 X114.583 Y101.184 E1.93691 F600.000
G1 X114.402 Y100.316 E2.20250
G1 X114.583 Y99.449 E2.46808
G1 X114.583 Y92.352 E4.59467
G92 E0
G1 X104.265 Y93.352 F7800.000
G1 X104.229 Y93.387 F7800.000
G1 X104.229 Y106.612 F7800.000
G1 X104.265 Y106.648 F7800.000
G1 X104.229 Y107.648 F7800.000
G1 X104.229 Y101.184 E1.93691 F600.000
G1 X104.411 Y100.316 E2.20250
G1 X115.619 Y100.316 E5.56087
G92 E0
G1 X105.265 Y99.449 F7800.000
G1 X105.265 Y99.449 F7800.000
G1 X109.406 Y95.307 F7800.000
G1 X109.406 Y94.493 F7800.000
G1 X107.265 Y92.352 F7800.000
G1 X105.265 Y91.352 F7800.000
G1 X103.194 Y91.352 F7800.000
G1 X101.194 Y92.352 F7800.000
G1 X100.036 Y93.510 F7800.000
G1 X99.734 Y94.594 F7800.000
G1 X97.098 Y92.352 F7800.000
G1 X95.805 Y92.352 F7800.000
G1 X89.140 Y100.310 E3.11048 F600.000
G1 X88.693 Y100.775 E3.30375
G1 X89.143 Y101.587 E3.58188
G1 X95.006 Y107.648 E6.10884
G92 E0
G1 X85.452 Y106.648 F7800.000
G1 X85.452 Y106.648 F7800.000
G1 X86.349 Y102.575 F7800.000
G1 X85.417 Y98.214 E1.33630 F600.000
G1 X85.417 Y92.352 E3.09283
G1 X85.417 Y107.648 F7800.000
G1 X85.417 Y99.984 E5.38931 F600.000
G1 X85.606 Y99.099 E5.66049
G1 X85.776 Y99.099 E5.71145
G1 X86.963 Y99.495 E6.08644
G1 X87.950 Y100.377 E6.48307
G1 X90.418 Y101.699 E7.32204
G92 E0
G1 Z1.800 F7800.000
G1 X104.229 Y92.352 F7800.000
G1 X104.229 Y99.449 E2.12659 F600.000
G1 X105.140 Y103.796 E3.45730
G92 E0
G1 X114.548 Y106.648 F7800.000
G1 X114.548 Y106.648 F7800.000
G1 X114.583 Y107.648 F7800.000
G1 X114.583 Y101.184 E1.93691 F600.000
G1 X114.402 Y100.316 E2.20250
G1 X114.583 Y99.449 E2.46808
G1 X114.583 Y92.352 E4.59467
G92 E0
G1 X104.265 Y93.352 F7800.000
G1 X104.229 Y93.387 F7800.000
G1 X104.229 Y106.612 F7800.000
G1 X104.265 Y106.648 F7800.000
G1 X104.229 Y107.648 F7800.000
G1 X104.229 Y101.184 E1.93691 F600.000
G1 X104.411 Y100.316 E2.20250
G1 X115.619 Y100.316 E5.56087
G92 E0
G1 X105.265 Y99.449 F7800.000
G1 X105.265 Y99.449 F7800.000
