; generated by Slic3r 1.2.9 on 2016-03-11 at 01:26:35

; external perimeters extrusion width = 1.54mm
; perimeters extrusion width = 2.62mm
; infill extrusion width = 6.27mm
; solid infill extrusion width = 2.62mm
; top infill extrusion width = 2.62mm

M107
M104 S30 ; set temperature
G28 ; home all axes
G1 Z5 F5000 ; lift nozzle
M302
M92 E10000
M500
M501
G1 E100
M109 S30 ; wait for temperature to be reached
G21 ; set units to millimeters
G90 ; use absolute coordinates
M82 ; use absolute distances for extrusion
G92 E0
G1 Z0.300 F7800.000
G1 X103.595 Y96.386 F7800.000
G1 X103.595 Y102.555 E0.27915 F378.000
G1 X103.524 Y105.674 E0.42030 F378.000
G1 X103.999 Y105.750 E0.44205
G1 X104.317 Y104.688 E0.49221
G1 X104.921 Y102.851 E0.57975
G1 X108.865 Y92.577 E1.07769
G1 X110.008 Y92.577 E1.12941
G1 X113.898 Y102.853 E1.62658
G1 X114.190 Y103.672 E1.66593
G1 X114.506 Y104.678 E1.71366
G1 X114.794 Y105.690 E1.76128
G1 X115.276 Y105.611 E1.78337
G1 X115.202 Y103.667 E1.87137
G1 X115.191 Y102.557 E1.92162
G1 X115.191 Y92.577 E2.37320
G1 X116.606 Y92.577 E2.43723
G1 X116.606 Y107.423 E3.10900
G1 X114.330 Y107.423 E3.21200
G1 X110.313 Y96.741 E3.72839
G1 X109.863 Y95.324 E3.79565
G1 X109.661 Y94.557 E3.83157
G1 X109.235 Y94.559 E3.85085
G1 X108.830 Y96.083 E3.92220
G1 X108.552 Y96.966 E3.96410
G1 X104.545 Y107.423 E4.47083
G1 X102.202 Y107.423 E4.57681
G1 X102.202 Y92.577 E5.24858
G1 X103.595 Y92.577 E5.31162
G1 X103.595 Y96.155 E5.47353
G1 X103.369 Y93.143 F7800.000
G1 X103.029 Y92.803 E5.49541 F540.000
G1 X102.481 Y92.803 E5.52031
G1 X103.369 Y93.691 E5.57741
G1 X103.369 Y94.239 E5.60231
G1 X102.428 Y93.298 E5.66280
G1 X102.428 Y93.846 E5.68770
G1 X103.369 Y94.787 E5.74820
G1 X103.369 Y95.335 E5.77310
G1 X102.428 Y94.394 E5.83360
G1 X102.428 Y94.941 E5.85850
G1 X103.369 Y95.882 E5.91899
G1 X103.369 Y96.430 E5.94390
G1 X102.428 Y95.489 E6.00439
G1 X102.428 Y96.037 E6.02929
G1 X103.369 Y96.978 E6.08979
G1 X103.369 Y97.526 E6.11469
G1 X102.428 Y96.585 E6.17519
G1 X102.428 Y97.133 E6.20009
G1 X103.369 Y98.074 E6.26058
G1 X103.369 Y98.622 E6.28548
G1 X102.428 Y97.680 E6.34598
G1 X102.428 Y98.228 E6.37088
G1 X103.369 Y99.169 E6.43138
G1 X103.369 Y99.717 E6.45628
G1 X102.428 Y98.776 E6.51677
G1 X102.428 Y99.324 E6.54167
G1 X103.369 Y100.265 E6.60217
G1 X103.369 Y100.813 E6.62707
G1 X102.428 Y99.872 E6.68757
G1 X102.428 Y100.420 E6.71247
G1 X103.369 Y101.361 E6.77296
G1 X103.369 Y101.909 E6.79787
G1 X102.428 Y100.967 E6.85836
G1 X102.428 Y101.515 E6.88326
G1 X103.369 Y102.456 E6.94376
G1 X103.361 Y102.996 E6.96829
G1 X102.428 Y102.063 E7.02825
G1 X102.428 Y102.611 E7.05315
G1 X103.349 Y103.531 E7.11233
G1 X103.337 Y104.067 E7.13668
G1 X102.428 Y103.159 E7.19507
G1 X102.428 Y103.707 E7.21997
G1 X103.324 Y104.603 E7.27757
G1 X103.312 Y105.138 E7.30192
G1 X102.428 Y104.254 E7.35873
G1 X102.428 Y104.802 E7.38363
G1 X103.300 Y105.674 E7.43966
G1 X103.547 Y105.921 F7800.000
G1 X104.528 Y106.902 E7.50273 F540.000
G1 X104.680 Y106.506 E7.52201
G1 X104.147 Y105.973 E7.55626
G1 X104.273 Y105.551 E7.57626
G1 X104.831 Y106.110 E7.61214
G1 X104.983 Y105.714 E7.63142
G1 X104.400 Y105.130 E7.66894
G1 X104.526 Y104.709 E7.68894
G1 X105.135 Y105.318 E7.72809
G1 X105.287 Y104.922 E7.74737
G1 X104.661 Y104.296 E7.78757
G1 X104.797 Y103.884 E7.80730
G1 X105.438 Y104.525 E7.84855
G1 X105.590 Y104.129 E7.86783
G1 X104.932 Y103.472 E7.91012
G1 X105.068 Y103.059 E7.92984
G1 X105.742 Y103.733 E7.97317
G1 X105.894 Y103.337 E7.99245
G1 X105.212 Y102.656 E8.03625
G1 X105.364 Y102.260 E8.05552
G1 X106.046 Y102.941 E8.09931
G1 X106.197 Y102.545 E8.11859
G1 X105.516 Y101.864 E8.16236
G1 X105.668 Y101.468 E8.18164
G1 X106.349 Y102.149 E8.22540
G1 X106.501 Y101.753 E8.24468
G1 X105.820 Y101.072 E8.28843
G1 X105.972 Y100.677 E8.30770
G1 X106.653 Y101.357 E8.35144
G1 X106.804 Y100.961 E8.37072
G1 X106.124 Y100.281 E8.41444
G1 X106.276 Y99.885 E8.43371
G1 X106.956 Y100.565 E8.47743
G1 X107.108 Y100.169 E8.49671
G1 X106.428 Y99.489 E8.54041
G1 X106.580 Y99.093 E8.55968
G1 X107.260 Y99.773 E8.60337
G1 X107.411 Y99.377 E8.62265
G1 X106.732 Y98.697 E8.66632
G1 X106.884 Y98.301 E8.68560
G1 X107.563 Y98.981 E8.72926
G1 X107.715 Y98.585 E8.74854
G1 X107.036 Y97.906 E8.79219
G1 X107.188 Y97.510 E8.81147
G1 X107.867 Y98.189 E8.85511
G1 X108.019 Y97.793 E8.87439
G1 X107.340 Y97.114 E8.91801
G1 X107.492 Y96.718 E8.93729
G1 X108.170 Y97.396 E8.98090
G1 X108.322 Y97.000 E9.00018
G1 X107.644 Y96.322 E9.04379
G1 X107.796 Y95.926 E9.06306
G1 X108.456 Y96.587 E9.10551
G1 X108.587 Y96.170 E9.12536
G1 X107.948 Y95.530 E9.16648
G1 X108.100 Y95.135 E9.18575
G1 X108.706 Y95.741 E9.22472
G1 X108.821 Y95.308 E9.24507
G1 X108.252 Y94.739 E9.28167
G1 X108.404 Y94.343 E9.30095
G1 X108.936 Y94.875 E9.33518
G1 X109.051 Y94.443 E9.35553
G1 X108.556 Y93.947 E9.38739
G1 X108.707 Y93.551 E9.40666
G1 X109.488 Y94.332 E9.45687
G1 X110.278 Y94.026 F7800.000
G1 X109.055 Y92.803 E9.53550 F540.000
G1 X108.859 Y93.155 E9.55382
G1 X110.612 Y94.908 E9.66648
G1 X109.993 Y94.836 E9.69481
G1 X110.946 Y95.789 E9.75607
G1 X110.222 Y95.613 F7800.000
G1 X111.280 Y96.671 E9.82405 F540.000
G1 X110.793 Y97.280 F7800.000
G1 X111.947 Y98.434 E9.89823 F540.000
G1 X111.454 Y99.036 F7800.000
G1 X112.615 Y100.197 E9.97286 F540.000
G1 X112.114 Y100.792 F7800.000
G1 X113.282 Y101.960 E10.04795 F540.000
G1 X112.775 Y102.549 F7800.000
G1 X113.926 Y103.700 E10.12196 F540.000
G1 X113.105 Y103.427 F7800.000
G1 X114.186 Y104.508 E10.19145 F540.000
G1 X113.435 Y104.305 E10.22680
G1 X114.418 Y105.287 E10.28996
G1 X113.765 Y105.183 E10.32000
G1 X114.636 Y106.053 E10.37595
G1 X115.003 Y105.872 E10.39455
G1 X116.327 Y107.197 E10.47970
G1 X116.380 Y106.702 E10.50232
G1 X115.473 Y105.795 E10.56066
G1 X115.492 Y105.266 E10.58472
G1 X116.380 Y106.154 E10.64184
G1 X116.380 Y105.607 E10.66674
G1 X115.470 Y104.696 E10.72524
G1 X115.449 Y104.127 E10.75114
G1 X116.380 Y105.059 E10.81104
G1 X116.380 Y104.511 E10.83594
G1 X115.428 Y103.558 E10.89718
G1 X115.422 Y103.005 E10.92232
G1 X116.380 Y103.963 E10.98390
G1 X116.380 Y103.415 E11.00881
G1 X115.417 Y102.452 E11.07071
G1 X115.417 Y101.904 E11.09562
G1 X116.380 Y102.867 E11.15753
G1 X116.380 Y102.320 E11.18243
G1 X115.417 Y101.356 E11.24434
G1 X115.417 Y100.809 E11.26924
G1 X116.380 Y101.772 E11.33115
G1 X116.380 Y101.224 E11.35605
G1 X115.417 Y100.261 E11.41796
G1 X115.417 Y99.713 E11.44286
G1 X116.380 Y100.676 E11.50477
G1 X116.380 Y100.128 E11.52967
G1 X115.417 Y99.165 E11.59158
G1 X115.417 Y98.617 E11.61648
G1 X116.380 Y99.580 E11.67839
G1 X116.380 Y99.033 E11.70329
G1 X115.417 Y98.070 E11.76520
G1 X115.417 Y97.522 E11.79010
G1 X116.380 Y98.485 E11.85201
G1 X116.380 Y97.937 E11.87691
G1 X115.417 Y96.974 E11.93882
G1 X115.417 Y96.426 E11.96372
G1 X116.380 Y97.389 E12.02563
G1 X116.380 Y96.841 E12.05054
G1 X115.417 Y95.878 E12.11244
G1 X115.417 Y95.330 E12.13735
G1 X116.380 Y96.293 E12.19926
G1 X116.380 Y95.746 E12.22416
G1 X115.417 Y94.783 E12.28607
G1 X115.417 Y94.235 E12.31097
G1 X116.380 Y95.198 E12.37288
G1 X116.380 Y94.650 E12.39778
G1 X115.417 Y93.687 E12.45969
G1 X115.417 Y93.139 E12.48459
G1 X116.380 Y94.102 E12.54650
G1 X116.380 Y93.554 E12.57140
G1 X115.629 Y92.803 E12.61970
G1 X116.177 Y92.803 E12.64460
G1 X116.380 Y93.007 E12.65769
G92 E0
G1 X109.635 Y93.782 F7800.000
G1 X109.434 Y93.644 F7800.000
G1 X109.435 Y93.406 F7800.000
G1 X109.473 Y93.352 F7800.000
G1 X109.945 Y93.145 F7800.000
G1 X109.603 Y92.803 E0.02197 F540.000
G1 X110.476 Y96.416 F7800.000
G1 X111.613 Y97.553 E0.09505 F540.000
G1 X111.123 Y98.158 F7800.000
G1 X112.281 Y99.316 E0.16946 F540.000
G1 X111.784 Y99.914 F7800.000
G1 X112.948 Y101.079 E0.24432 F540.000
G1 X112.444 Y101.670 F7800.000
G1 X113.616 Y102.842 E0.31963 F540.000
G1 X114.533 Y105.950 F7800.000
G1 X115.780 Y107.197 E0.39977 F540.000
G1 X115.232 Y107.197 E0.42467
G1 X114.096 Y106.061 E0.49771
G1 X114.426 Y106.939 F7800.000
G1 X114.684 Y107.197 E0.51431 F540.000
G92 E0
G1 X114.801 Y106.475 F7800.000
G1 X114.801 Y106.475 F7800.000
G1 X104.275 Y107.197 F7800.000
G1 X102.428 Y105.350 E0.11873 F540.000
G1 X102.428 Y105.898 E0.14363
G1 X103.727 Y107.197 E0.22715
G1 X103.180 Y107.197 E0.25205
G1 X102.428 Y106.446 E0.30035
G1 X102.428 Y106.993 E0.32525
G1 X102.632 Y107.197 E0.33834
G92 E0
G1 X103.820 Y102.558 F7800.000
G1 X103.820 Y91.352 F7800.000
G1 X98.822 Y93.507 F7800.000
G1 X98.520 Y94.592 F7800.000
G1 X95.886 Y92.352 F7800.000
G1 X91.577 Y97.070 F7800.000
G1 X88.222 Y101.015 E0.23432 F378.000
G1 X94.485 Y107.423 E0.63978
G1 X92.676 Y107.423 E0.72166
G1 X85.015 Y99.424 E1.22284
G1 X85.015 Y107.423 E1.58480
G1 X83.394 Y107.423 E1.65815
G1 X83.394 Y92.577 E2.32992
G1 X85.015 Y92.577 E2.40327
G1 X85.015 Y98.325 E2.66338
G1 X87.264 Y100.044 E2.79149 F378.000
G1 X93.422 Y92.577 E3.22944
G1 X95.399 Y92.577 E3.31891
G1 X91.727 Y96.894 E3.57535
G1 X94.786 Y93.001 F7800.000
G1 X94.588 Y92.803 E3.58821 F540.000
G1 X94.531 Y93.300 E3.61120
G1 X94.034 Y92.803 E3.64352
G1 X93.483 Y92.806 E3.66886
G1 X94.277 Y93.599 E3.72045
G1 X94.022 Y93.899 E3.73852
G1 X93.233 Y93.109 E3.78984
G1 X92.982 Y93.413 E3.80792
G1 X93.767 Y94.198 E3.85897
G1 X93.513 Y94.497 E3.87703
G1 X92.732 Y93.716 E3.92780
G1 X92.481 Y94.020 E3.94588
G1 X93.258 Y94.797 E3.99637
G1 X93.004 Y95.096 E4.01443
G1 X92.231 Y94.324 E4.06465
G1 X91.981 Y94.627 E4.08273
G1 X92.749 Y95.396 E4.13267
G1 X92.494 Y95.695 E4.15073
G1 X91.730 Y94.931 E4.20039
G1 X91.480 Y95.235 E4.21848
G1 X92.240 Y95.994 E4.26786
G1 X91.985 Y96.294 E4.28592
G1 X91.230 Y95.538 E4.33502
G1 X90.979 Y95.842 E4.35311
G1 X91.731 Y96.593 E4.40194
G1 X91.476 Y96.892 E4.42000
G1 X90.729 Y96.145 E4.46855
G1 X90.479 Y96.449 E4.48664
G1 X91.221 Y97.192 E4.53491
G1 X90.967 Y97.491 E4.55297
G1 X90.228 Y96.753 E4.60097
G1 X89.978 Y97.056 E4.61905
G1 X90.712 Y97.790 E4.66677
G1 X90.458 Y98.090 E4.68483
G1 X89.728 Y97.360 E4.73227
G1 X89.477 Y97.663 E4.75036
G1 X90.203 Y98.389 E4.79753
G1 X89.948 Y98.688 E4.81559
G1 X89.227 Y97.967 E4.86248
G1 X88.977 Y98.271 E4.88056
G1 X89.694 Y98.988 E4.92717
G1 X89.439 Y99.287 E4.94523
G1 X88.726 Y98.574 E4.99157
G1 X88.476 Y98.878 E5.00965
G1 X89.184 Y99.586 E5.05571
G1 X88.930 Y99.886 E5.07377
G1 X88.226 Y99.181 E5.11955
G1 X87.975 Y99.485 E5.13764
G1 X88.675 Y100.185 E5.18314
G1 X88.421 Y100.484 E5.20120
G1 X87.725 Y99.789 E5.24643
G1 X87.475 Y100.092 E5.26451
G1 X88.166 Y100.784 E5.30946
G1 X87.911 Y101.083 E5.32752
G1 X87.164 Y100.336 E5.37608
G1 X85.858 Y99.583 F7800.000
G1 X93.471 Y107.197 E5.87098 F540.000
G1 X92.917 Y107.197 E5.89644
G1 X92.079 Y106.359 E5.95092
G92 E0
G1 X84.240 Y106.648 F7800.000
G1 X84.240 Y106.648 F7800.000
G1 X84.204 Y106.612 F7800.000
G1 X84.169 Y106.648 F7800.000
G1 X83.620 Y106.993 F7800.000
G1 X83.823 Y107.197 E0.01341 F540.000
G1 X84.385 Y107.197 E0.03955
G1 X83.620 Y106.432 E0.08994
G1 X83.620 Y105.871 E0.11608
G1 X84.789 Y107.040 E0.19309
G1 X84.789 Y106.479 E0.21923
G1 X83.620 Y105.309 E0.29624
G1 X83.620 Y104.748 E0.32238
G1 X84.789 Y105.917 E0.39939
G1 X84.789 Y105.356 E0.42553
G1 X83.620 Y104.187 E0.50254
G1 X83.620 Y103.625 E0.52868
G1 X84.789 Y104.795 E0.60569
G1 X84.789 Y104.233 E0.63184
G1 X83.620 Y103.064 E0.70884
G1 X83.620 Y102.503 E0.73499
G1 X84.789 Y103.672 E0.81199
G1 X84.789 Y103.111 E0.83814
G1 X83.620 Y101.941 E0.91514
G1 X83.620 Y101.380 E0.94129
G1 X84.789 Y102.549 E1.01829
G1 X84.789 Y101.988 E1.04444
G1 X83.620 Y100.819 E1.12144
G1 X83.620 Y100.257 E1.14759
G1 X84.789 Y101.427 E1.22459
G1 X84.789 Y100.865 E1.25074
G1 X83.620 Y99.696 E1.32775
G1 X83.620 Y99.135 E1.35389
G1 X84.789 Y100.304 E1.43090
G1 X84.789 Y99.743 E1.45704
G1 X83.620 Y98.573 E1.53405
G1 X84.426 Y98.818 E1.57329
G1 X83.620 Y98.012 E1.62640
G1 X83.620 Y97.451 E1.65254
G1 X84.691 Y98.522 E1.72311
G1 X84.789 Y98.059 E1.74517
G1 X83.620 Y96.889 E1.82218
G1 X83.620 Y96.328 E1.84832
G1 X84.789 Y97.497 E1.92533
G1 X84.789 Y96.936 E1.95147
G1 X83.620 Y95.767 E2.02848
G1 X83.620 Y95.205 E2.05462
G1 X84.789 Y96.375 E2.13163
G1 X84.789 Y95.813 E2.15777
G1 X83.620 Y94.644 E2.23478
G1 X83.620 Y94.083 E2.26092
G1 X84.789 Y95.252 E2.33793
G1 X84.789 Y94.691 E2.36407
G1 X83.620 Y93.521 E2.44108
G1 X83.620 Y92.960 E2.46722
G1 X84.789 Y94.129 E2.54423
G1 X84.789 Y93.568 E2.57038
G1 X84.024 Y92.803 E2.62076
G1 X84.585 Y92.803 E2.64690
G1 X84.789 Y93.007 E2.66032
G1 X84.822 Y98.664 F7800.000
G1 X85.703 Y99.452 E2.77628 F540.000
M106 S255
G92 E0
G1 Z0.600 F7800.000
G1 X115.899 Y92.352 F7800.000
G1 X115.899 Y102.554 E3.05685 F600.000
G1 X115.937 Y105.387 E3.90604
G1 X115.638 Y106.455 E4.23827
G1 X115.226 Y106.527 E4.36357
G1 X114.940 Y106.542 E4.44947
G1 X114.228 Y105.643 E4.79314
G1 X113.626 Y103.861 E5.35679
G1 X113.333 Y103.060 E5.61219
G1 X110.875 Y96.547 E7.69831
G1 X110.211 Y94.592 E8.31687
G1 X109.483 Y93.677 E8.66733
G1 X109.434 Y93.644 E8.68488
G1 X108.670 Y94.587 E9.04853
G1 X107.947 Y96.755 E9.73346
G1 X105.526 Y103.066 E11.75884
G1 X104.594 Y105.723 E12.60259
G1 X103.957 Y106.569 E12.91989
G1 X103.581 Y106.559 E13.03285
G1 X103.145 Y106.480 E13.16539
G1 X102.865 Y105.463 E13.48158
G1 X102.899 Y102.547 E14.35514
G1 X102.899 Y92.352 E17.41017
G92 E0
G1 X99.977 Y92.352 F7800.000
G1 X98.520 Y94.592 F7800.000
G1 X95.886 Y92.352 F7800.000
G1 X94.592 Y92.352 F7800.000
G1 X87.928 Y100.310 E3.11048 F600.000
G1 X87.480 Y100.775 E3.30375
G1 X87.930 Y101.587 E3.58188
G1 X93.794 Y107.648 E6.10884
G92 E0
G1 X84.240 Y106.648 F7800.000
G1 X84.240 Y106.648 F7800.000
G1 X85.136 Y102.575 F7800.000
G1 X84.204 Y98.214 E1.33630 F600.000
G1 X84.204 Y92.352 E3.09283
G1 X84.204 Y107.648 F7800.000
G1 X84.204 Y99.984 E5.38932 F600.000
G1 X84.393 Y99.099 E5.66049
G1 X84.563 Y99.099 E5.71145
G1 X85.751 Y99.495 E6.08644
G1 X86.737 Y100.377 E6.48307
G1 X89.206 Y101.699 E7.32204
G92 E0
G1 Z0.900 F7800.000
G1 X115.899 Y92.352 F7800.000
G1 X115.899 Y102.554 E3.05685 F600.000
G1 X115.937 Y105.387 E3.90604
G1 X115.638 Y106.455 E4.23827
G1 X115.226 Y106.527 E4.36357
G1 X114.940 Y106.542 E4.44947
G1 X114.228 Y105.643 E4.79314
G1 X113.626 Y103.861 E5.35679
G1 X113.333 Y103.060 E5.61219
G1 X110.875 Y96.547 E7.69831
G1 X110.211 Y94.592 E8.31687
G1 X109.483 Y93.677 E8.66733
G1 X109.434 Y93.644 E8.68488
G1 X108.670 Y94.587 E9.04854
G1 X107.947 Y96.755 E9.73346
G1 X105.526 Y103.066 E11.75884
G1 X104.594 Y105.723 E12.60259
G1 X103.957 Y106.569 E12.91989
G1 X103.581 Y106.559 E13.03285
G1 X103.145 Y106.480 E13.16539
G1 X102.865 Y105.463 E13.48158
G1 X102.899 Y102.547 E14.35514
G1 X102.899 Y92.352 E17.41017
G92 E0
G1 X99.977 Y92.352 F7800.000
G1 X98.520 Y94.592 F7800.000
G1 X95.886 Y92.352 F7800.000
G1 X94.592 Y92.352 F7800.000
G1 X87.928 Y100.310 E3.11048 F600.000
G1 X87.480 Y100.775 E3.30375
G1 X87.930 Y101.587 E3.58188
G1 X93.794 Y107.648 E6.10884
G92 E0
G1 X84.240 Y106.648 F7800.000
G1 X84.240 Y106.648 F7800.000
G1 X85.136 Y102.575 F7800.000
G1 X84.204 Y98.214 E1.33630 F600.000
G1 X84.204 Y92.352 E3.09283
G1 X84.204 Y107.648 F7800.000
G1 X84.204 Y99.984 E5.38931 F600.000
G1 X84.393 Y99.099 E5.66049
G1 X84.563 Y99.099 E5.71145
G1 X85.751 Y99.495 E6.08644
G1 X86.737 Y100.377 E6.48307
G1 X89.206 Y101.699 E7.32204
G92 E0
G1 Z1.200 F7800.000
G1 X115.899 Y92.352 F7800.000
G1 X115.899 Y102.554 E3.05685 F600.000
G1 X115.937 Y105.387 E3.90604
G1 X115.638 Y106.455 E4.23827
G1 X115.226 Y106.527 E4.36357
G1 X114.940 Y106.542 E4.44947
G1 X114.228 Y105.643 E4.79314
G1 X113.626 Y103.861 E5.35679
G1 X113.333 Y103.060 E5.61219
G1 X110.875 Y96.547 E7.69830
G1 X110.211 Y94.592 E8.31687
G1 X109.483 Y93.677 E8.66733
G1 X109.434 Y93.644 E8.68488
G1 X108.670 Y94.587 E9.04853
G1 X107.947 Y96.755 E9.73346
G1 X105.526 Y103.066 E11.75884
G1 X104.594 Y105.723 E12.60259
G1 X103.957 Y106.569 E12.91989
G1 X103.581 Y106.559 E13.03285
G1 X103.145 Y106.480 E13.16539
G1 X102.865 Y105.463 E13.48158
G1 X102.899 Y102.547 E14.35514
G1 X102.899 Y92.352 E17.41017
G92 E0
G1 X99.977 Y92.352 F7800.000
G1 X98.520 Y94.592 F7800.000
G1 X95.886 Y92.352 F7800.000
G1 X94.592 Y92.352 F7800.000
G1 X87.928 Y100.310 E3.11048 F600.000
G1 X87.480 Y100.775 E3.30375
G1 X87.930 Y101.587 E3.58188
G1 X93.794 Y107.648 E6.10884
G92 E0
G1 X84.240 Y106.648 F7800.000
