; generated by Slic3r 1.2.9 on 2016-03-11 at 01:26:37

; external perimeters extrusion width = 1.54mm
; perimeters extrusion width = 2.62mm
; infill extrusion width = 6.27mm
; solid infill extrusion width = 2.62mm
; top infill extrusion width = 2.62mm

M107
M104 S30 ; set temperature
G28 ; home all axes
G1 Z5 F5000 ; lift nozzle
M302
M92 E10000
M500
M501
G1 E100
M109 S30 ; wait for temperature to be reached
G21 ; set units to millimeters
G90 ; use absolute coordinates
M82 ; use absolute distances for extrusion
G92 E0
G1 Z0.300 F7800.000
G1 X111.836 Y107.197 F7800.000
G1 X110.484 Y107.514 E0.06283 F378.000
G1 X109.034 Y107.614 E0.12858
G1 X106.870 Y107.390 E0.22702
G1 X105.066 Y106.725 E0.31403
G1 X103.607 Y105.621 E0.39681
G1 X102.531 Y104.124 E0.48023
G1 X101.882 Y102.275 E0.56890
G1 X101.663 Y100.061 E0.66957
G1 X101.761 Y98.562 E0.73755
G1 X102.053 Y97.196 E0.80079
G1 X102.539 Y95.965 E0.86066
G1 X103.206 Y94.896 E0.91769
G1 X104.045 Y94.011 E0.97282
G1 X105.057 Y93.308 E1.02857
G1 X106.229 Y92.797 E1.08643
G1 X107.545 Y92.489 E1.14763
G1 X109.009 Y92.386 E1.21403
G1 X110.475 Y92.491 E1.28053
G1 X111.772 Y92.802 E1.34087 F378.000
G1 X112.945 Y93.319 E1.39887
G1 X113.962 Y94.028 E1.45499
G1 X114.808 Y94.915 E1.51044
G1 X115.484 Y95.983 E1.56765
G1 X115.979 Y97.209 E1.62748
G1 X116.277 Y98.570 E1.69049
G1 X116.377 Y100.065 E1.75831
G1 X116.278 Y101.563 E1.82625
G1 X115.984 Y102.916 E1.88888
G1 X115.496 Y104.124 E1.94786
G1 X114.825 Y105.169 E2.00404
G1 X113.984 Y106.032 E2.05856
G1 X112.969 Y106.716 E2.11398
G1 X112.048 Y107.107 E2.15921
G1 X111.541 Y105.846 F7800.000
G1 X110.692 Y106.188 E2.20063 F378.000
G1 X109.032 Y106.374 E2.27624
G1 X107.359 Y106.191 E2.35238
G1 X105.945 Y105.634 E2.42112
G1 X104.804 Y104.701 E2.48780
G1 X103.973 Y103.438 E2.55624
G1 X103.479 Y101.890 E2.62976
G1 X103.315 Y100.065 E2.71268
G1 X103.480 Y98.242 E2.79549
G1 X103.979 Y96.676 E2.86988
G1 X104.818 Y95.372 E2.94004
G1 X105.960 Y94.394 E3.00809
G1 X107.362 Y93.808 E3.07684
G1 X108.864 Y93.632 E3.14525
G1 X109.009 Y93.615 E3.15185 F378.000
G1 X110.692 Y93.801 E3.22850
G1 X112.108 Y94.368 E3.29752
G1 X113.243 Y95.317 E3.36445
G1 X114.065 Y96.605 E3.43360
G1 X114.553 Y98.190 E3.50863
G1 X114.714 Y100.065 E3.59381
G1 X114.552 Y101.868 E3.67572
G1 X114.059 Y103.408 E3.74888
G1 X113.231 Y104.678 E3.81747
G1 X112.096 Y105.623 E3.88429
G1 X111.755 Y105.760 E3.90092
G1 X106.560 Y107.000 F7800.000
G1 X102.327 Y102.766 E4.17563 F540.000
G1 X102.626 Y103.619 F7800.000
G1 X105.684 Y106.676 E4.37407 F540.000
G1 X106.083 Y105.969 F7800.000
G1 X107.314 Y107.200 E4.45394 F540.000
G1 X107.931 Y107.264 E4.48240
G1 X106.996 Y106.329 E4.54308
G1 X107.683 Y106.463 E4.57521
G1 X108.548 Y107.328 E4.63133
G1 X109.158 Y107.385 E4.65943
G1 X108.304 Y106.531 E4.71481
G1 X108.925 Y106.600 E4.74349
G1 X109.675 Y107.349 E4.79211
G1 X110.192 Y107.313 E4.81590
G1 X109.428 Y106.549 E4.86551
G1 X109.925 Y106.493 E4.88847
G1 X110.685 Y107.253 E4.93778
G1 X111.135 Y107.150 E4.95897
G1 X110.422 Y106.437 E5.00522
G1 X110.871 Y106.333 E5.02637
G1 X111.585 Y107.047 E5.07270
G1 X112.000 Y106.909 E5.09278
G1 X111.265 Y106.174 E5.14048
G1 X111.660 Y106.016 E5.15998
G1 X112.389 Y106.745 E5.20728
G1 X112.777 Y106.580 E5.22663
G1 X112.054 Y105.857 E5.27353
G1 X112.384 Y105.634 E5.29181
G1 X113.126 Y106.376 E5.33996
G1 X113.457 Y106.153 E5.35824
G1 X112.686 Y105.383 E5.40824
G1 X112.988 Y105.132 E5.42626
G1 X113.786 Y105.930 E5.47807
G1 X114.063 Y105.653 E5.49601
G1 X113.289 Y104.880 E5.54617
G1 X113.533 Y104.571 E5.56424
G1 X114.339 Y105.377 E5.61653
G1 X114.616 Y105.100 E5.63447
G1 X113.752 Y104.236 E5.69054
G1 X113.970 Y103.902 E5.70888
G1 X114.845 Y104.777 E5.76570
G1 X115.062 Y104.440 E5.78407
G1 X114.188 Y103.567 E5.84076
G1 X114.349 Y103.175 E5.86021
G1 X115.278 Y104.103 E5.92047
G1 X115.443 Y103.716 E5.93980
G1 X114.483 Y102.756 E6.00213
G1 X114.617 Y102.337 E6.02231
G1 X115.603 Y103.322 E6.08627
G1 X115.762 Y102.928 E6.10576
G1 X114.751 Y101.918 E6.17135
G1 X114.811 Y101.425 E6.19412
G1 X115.864 Y102.478 E6.26242
G1 X115.963 Y102.023 E6.28374
G1 X114.857 Y100.918 E6.35549
G1 X114.903 Y100.411 E6.37886
G1 X116.057 Y101.565 E6.45374
G1 X116.091 Y101.046 E6.47760
G1 X114.933 Y99.888 E6.55275
G1 X114.881 Y99.283 E6.58061
G1 X116.125 Y100.527 E6.66135
G1 X116.140 Y99.988 E6.68607
G1 X114.829 Y98.678 E6.77111
G1 X114.777 Y98.073 E6.79898
G1 X116.100 Y99.396 E6.88483
G1 X116.061 Y98.803 E6.91208
G1 X114.539 Y97.281 E7.01084
G1 X114.292 Y96.482 E7.04921
G1 X115.926 Y98.116 E7.15525
G1 X115.771 Y97.408 E7.18851
G1 X113.400 Y95.037 E7.34238
G1 X113.543 Y95.179 F7800.000
G1 X111.308 Y92.945 E7.48737 F540.000
G1 X110.581 Y92.771 F7800.000
G1 X111.754 Y93.944 E7.56352 F540.000
G1 X112.196 Y93.279 F7800.000
G1 X115.405 Y96.489 E7.77177 F540.000
G1 X114.424 Y94.955 F7800.000
G1 X113.585 Y94.116 E7.82619 F540.000
G1 X110.838 Y93.581 F7800.000
G1 X109.943 Y92.685 E7.88429 F540.000
G1 X109.347 Y92.643 E7.91170
G1 X110.216 Y93.512 E7.96810
G1 X109.594 Y93.443 E7.99682
G1 X108.774 Y92.623 E8.05000
G1 X108.258 Y92.660 E8.07376
G1 X108.996 Y93.398 E8.12165
G1 X108.501 Y93.456 E8.14452
G1 X107.741 Y92.696 E8.19382
G1 X107.263 Y92.770 E8.21605
G1 X108.006 Y93.514 E8.26431
G1 X107.511 Y93.572 E8.28717
G1 X106.814 Y92.875 E8.33239
G1 X106.366 Y92.980 E8.35351
G1 X107.090 Y93.704 E8.40049
G1 X106.700 Y93.867 E8.41989
G1 X105.964 Y93.131 E8.46767
G1 X105.579 Y93.299 E8.48694
G1 X106.310 Y94.030 E8.53440
G1 X105.920 Y94.193 E8.55379
G1 X105.194 Y93.467 E8.60092
G1 X104.857 Y93.683 E8.61929
G1 X105.612 Y94.438 E8.66830
G1 X105.314 Y94.693 E8.68629
G1 X104.531 Y93.910 E8.73714
G1 X104.213 Y94.144 E8.75529
G1 X105.016 Y94.948 E8.80745
G1 X104.718 Y95.203 E8.82545
G1 X103.936 Y94.421 E8.87622
G1 X103.660 Y94.697 E8.89416
G1 X104.488 Y95.525 E8.94788
G1 X104.271 Y95.862 E8.96624
G1 X103.390 Y94.981 E9.02341
G1 X103.173 Y95.317 E9.04177
G1 X104.055 Y96.199 E9.09897
G1 X103.838 Y96.535 E9.11733
G1 X102.961 Y95.658 E9.17429
G1 X102.748 Y95.998 E9.19271
G1 X103.683 Y96.932 E9.25334
G1 X103.549 Y97.352 E9.27354
G1 X102.588 Y96.391 E9.33591
G1 X102.431 Y96.787 E9.35547
G1 X103.415 Y97.771 E9.41933
G1 X103.282 Y98.191 E9.43953
G1 X102.275 Y97.184 E9.50486
G1 X102.174 Y97.636 E9.52614
G1 X103.221 Y98.683 E9.59403
G1 X103.175 Y99.190 E9.61739
G1 X102.077 Y98.092 E9.68864
G1 X101.983 Y98.551 E9.71014
G1 X103.129 Y99.697 E9.78451
G1 X103.094 Y100.215 E9.80835
G1 X101.949 Y99.070 E9.88268
G1 X101.915 Y99.589 E9.90656
G1 X103.149 Y100.823 E9.98661
G1 X103.203 Y101.430 E10.01458
G1 X101.906 Y100.133 E10.09877
G1 X101.966 Y100.746 E10.12706
G1 X103.259 Y102.039 E10.21092
G1 X103.518 Y102.851 E10.25006
G1 X102.027 Y101.360 E10.34683
G1 X102.087 Y101.973 E10.37512
G1 X103.787 Y103.673 E10.48543
G1 X103.675 Y105.220 F7800.000
G1 X104.029 Y105.574 E10.50841 F540.000
G92 E0
G1 X101.660 Y102.324 F7800.000
G1 X95.249 Y107.648 F7800.000
G1 X91.873 Y108.544 F7800.000
G1 X88.293 Y107.016 F7800.000
G1 X85.469 Y99.984 F7800.000
G1 X83.623 Y103.930 F7800.000
G1 X83.623 Y92.577 E0.51370 F378.000
G1 X85.244 Y92.577 E0.58705
G1 X85.244 Y98.325 E0.84716
G1 X87.493 Y100.044 E0.97527 F378.000
G1 X93.651 Y92.577 E1.41323
G1 X95.628 Y92.577 E1.50269
G1 X88.451 Y101.015 E2.00391
G1 X94.714 Y107.423 E2.40937
G1 X92.905 Y107.423 E2.49124
G1 X85.244 Y99.424 E2.99243
G1 X85.244 Y107.423 E3.35438
G1 X83.623 Y107.423 E3.42773
G1 X83.623 Y104.161 E3.57535
G1 X83.849 Y106.993 F7800.000
G1 X84.052 Y107.197 E3.58876 F540.000
G1 X84.614 Y107.197 E3.61490
G1 X83.849 Y106.432 E3.66529
G1 X83.849 Y105.871 E3.69143
G1 X85.018 Y107.040 E3.76844
G1 X85.018 Y106.479 E3.79458
G1 X83.849 Y105.309 E3.87159
G1 X83.849 Y104.748 E3.89773
G1 X85.018 Y105.917 E3.97474
G1 X85.018 Y105.356 E4.00088
G1 X83.849 Y104.187 E4.07789
G1 X83.849 Y103.625 E4.10403
G1 X85.018 Y104.795 E4.18104
G1 X85.018 Y104.233 E4.20718
G1 X83.849 Y103.064 E4.28419
G1 X83.849 Y102.503 E4.31033
G1 X85.018 Y103.672 E4.38734
G1 X85.018 Y103.111 E4.41349
G1 X83.849 Y101.941 E4.49049
G1 X83.849 Y101.380 E4.51664
G1 X85.018 Y102.549 E4.59364
G1 X85.018 Y101.988 E4.61979
G1 X83.849 Y100.819 E4.69679
G1 X83.849 Y100.257 E4.72294
G1 X85.018 Y101.427 E4.79994
G1 X85.018 Y100.865 E4.82609
G1 X83.849 Y99.696 E4.90309
G1 X83.849 Y99.135 E4.92924
G1 X85.018 Y100.304 E5.00624
G1 X85.018 Y99.743 E5.03239
G1 X83.849 Y98.573 E5.10939
G1 X84.655 Y98.818 E5.14864
G1 X83.849 Y98.012 E5.20175
G1 X83.849 Y97.451 E5.22789
G1 X84.920 Y98.522 E5.29845
G1 X85.018 Y98.059 E5.32052
G1 X83.849 Y96.889 E5.39752
G1 X83.849 Y96.328 E5.42367
G1 X85.018 Y97.497 E5.50068
G1 X85.018 Y96.936 E5.52682
G1 X83.849 Y95.767 E5.60383
G1 X83.849 Y95.205 E5.62997
G1 X85.018 Y96.375 E5.70698
G1 X85.018 Y95.813 E5.73312
G1 X83.849 Y94.644 E5.81013
G1 X83.849 Y94.083 E5.83627
G1 X85.018 Y95.252 E5.91328
G1 X85.018 Y94.691 E5.93942
G1 X83.849 Y93.521 E6.01643
G1 X83.849 Y92.960 E6.04257
G1 X85.018 Y94.129 E6.11958
G1 X85.018 Y93.568 E6.14572
G1 X84.253 Y92.803 E6.19611
G1 X84.814 Y92.803 E6.22225
G1 X85.018 Y93.007 E6.23566
G1 X85.051 Y98.664 F7800.000
G1 X85.932 Y99.452 E6.35163 F540.000
G1 X86.087 Y99.583 F7800.000
G1 X93.700 Y107.197 E6.84653 F540.000
G1 X93.146 Y107.197 E6.87199
G1 X92.308 Y106.359 E6.92647
G1 X87.393 Y100.336 F7800.000
G1 X88.140 Y101.083 E6.97503 F540.000
G1 X88.395 Y100.784 E6.99309
G1 X87.704 Y100.092 E7.03804
G1 X87.954 Y99.789 E7.05613
G1 X88.650 Y100.484 E7.10135
G1 X88.904 Y100.185 E7.11941
G1 X88.204 Y99.485 E7.16491
G1 X88.455 Y99.181 E7.18300
G1 X89.159 Y99.886 E7.22878
G1 X89.413 Y99.586 E7.24684
G1 X88.705 Y98.878 E7.29290
G1 X88.955 Y98.574 E7.31098
G1 X89.668 Y99.287 E7.35732
G1 X89.923 Y98.988 E7.37538
G1 X89.206 Y98.271 E7.42199
G1 X89.456 Y97.967 E7.44008
G1 X90.177 Y98.688 E7.48696
G1 X90.432 Y98.389 E7.50503
G1 X89.706 Y97.663 E7.55219
G1 X89.957 Y97.360 E7.57028
G1 X90.687 Y98.090 E7.61772
G1 X90.941 Y97.790 E7.63578
G1 X90.207 Y97.056 E7.68350
G1 X90.457 Y96.753 E7.70159
G1 X91.196 Y97.491 E7.74958
G1 X91.450 Y97.192 E7.76764
G1 X90.708 Y96.449 E7.81592
G1 X90.958 Y96.145 E7.83400
G1 X91.705 Y96.892 E7.88255
G1 X91.960 Y96.593 E7.90062
G1 X91.208 Y95.842 E7.94944
G1 X91.459 Y95.538 E7.96753
G1 X92.214 Y96.294 E8.01663
G1 X92.469 Y95.994 E8.03470
G1 X91.709 Y95.235 E8.08408
G1 X91.959 Y94.931 E8.10216
G1 X92.723 Y95.695 E8.15182
G1 X92.978 Y95.396 E8.16988
G1 X92.210 Y94.627 E8.21982
G1 X92.460 Y94.324 E8.23790
G1 X93.233 Y95.096 E8.28812
G1 X93.487 Y94.797 E8.30618
G1 X92.710 Y94.020 E8.35667
G1 X92.961 Y93.716 E8.37476
G1 X93.742 Y94.497 E8.42552
G1 X93.996 Y94.198 E8.44358
G1 X93.211 Y93.413 E8.49463
G1 X93.462 Y93.109 E8.51271
G1 X94.251 Y93.899 E8.56403
G1 X94.506 Y93.599 E8.58210
G1 X93.712 Y92.806 E8.63369
G1 X94.263 Y92.803 E8.65903
G1 X94.760 Y93.300 E8.69135
G1 X94.817 Y92.803 E8.71435
G1 X95.015 Y93.001 E8.72720
M106 S255
G92 E0
G1 Z0.600 F7800.000
G1 X102.491 Y100.047 F7800.000
G1 X102.596 Y98.678 E0.41153 F600.000
G1 X102.716 Y97.973 E0.62586
G1 X102.858 Y97.439 E0.79152
G1 X103.259 Y96.327 E1.14548
G1 X103.847 Y95.391 E1.47684
G1 X104.162 Y94.989 E1.62985
G1 X104.354 Y94.779 E1.71523
G1 X104.546 Y94.596 E1.79480
G1 X105.405 Y93.933 E2.11989
G1 X105.732 Y93.754 E2.23137
G1 X106.445 Y93.449 E2.46387
G1 X107.091 Y93.240 E2.66725
G1 X107.642 Y93.127 E2.83582
G1 X109.009 Y93.002 E3.24710
G1 X110.364 Y93.123 E3.65472
G1 X110.950 Y93.240 E3.83385
G1 X111.559 Y93.433 E4.02546
G1 X112.316 Y93.752 E4.27153
G1 X112.612 Y93.910 E4.37211
G1 X113.489 Y94.580 E4.70267
G1 X113.671 Y94.750 E4.77748
G1 X113.865 Y94.962 E4.86333
G1 X114.200 Y95.390 E5.02623
G1 X114.792 Y96.339 E5.36129
G1 X115.189 Y97.454 E5.71594
G1 X115.358 Y98.145 E5.92928
G1 X115.441 Y98.688 E6.09399
G1 X115.544 Y100.065 E6.50779
G1 X115.439 Y101.445 E6.92233
G1 X115.319 Y102.140 E7.13364
G1 X115.178 Y102.667 E7.29724
G1 X114.780 Y103.754 E7.64414
G1 X114.195 Y104.668 E7.96932
G1 X113.880 Y105.061 E8.12003
G1 X113.683 Y105.273 E8.20698
G1 X113.495 Y105.446 E8.28337
G1 X112.631 Y106.094 E8.60707
G1 X112.315 Y106.261 E8.71416
G1 X111.585 Y106.563 E8.95086
G1 X110.955 Y106.761 E9.14865
G1 X110.389 Y106.873 E9.32169
G1 X109.045 Y106.992 E9.72602
G1 X107.321 Y106.812 E10.24540
G1 X107.097 Y106.773 E10.31347
G1 X105.735 Y106.264 E10.74920
G1 X105.407 Y106.101 E10.85885
G1 X104.371 Y105.287 E11.25388
G1 X104.154 Y105.088 E11.34188
G1 X103.244 Y103.753 E11.82617
G1 X102.708 Y102.162 E12.32903
G1 X102.666 Y101.938 E12.39747
G1 X102.491 Y100.047 E12.96633
G92 E0
G1 X101.837 Y97.130 F7800.000
G1 X98.274 Y95.725 F7800.000
G1 X98.884 Y94.708 F7800.000
G1 X96.115 Y92.352 F7800.000
G1 X94.821 Y92.352 F7800.000
G1 X88.157 Y100.310 E3.11048 F600.000
G1 X87.709 Y100.775 E3.30375
G1 X88.159 Y101.587 E3.58188
G1 X94.023 Y107.648 E6.10884
G92 E0
G1 X84.469 Y106.648 F7800.000
G1 X84.469 Y106.648 F7800.000
G1 X85.365 Y102.575 F7800.000
G1 X84.433 Y98.214 E1.33630 F600.000
G1 X84.433 Y92.352 E3.09283
G1 X84.433 Y107.648 F7800.000
G1 X84.433 Y99.984 E5.38931 F600.000
G1 X84.622 Y99.099 E5.66049
G1 X84.792 Y99.099 E5.71145
G1 X85.980 Y99.495 E6.08644
G1 X86.966 Y100.377 E6.48307
G1 X89.435 Y101.699 E7.32204
G92 E0
G1 Z0.900 F7800.000
G1 X102.491 Y100.047 F7800.000
G1 X102.596 Y98.678 E0.41153 F600.000
G1 X102.716 Y97.973 E0.62586
G1 X102.858 Y97.439 E0.79152
G1 X103.259 Y96.327 E1.14548
G1 X103.847 Y95.391 E1.47685
G1 X104.162 Y94.989 E1.62985
G1 X104.354 Y94.779 E1.71523
G1 X104.546 Y94.596 E1.79480
G1 X105.405 Y93.933 E2.11989
G1 X105.732 Y93.754 E2.23137
G1 X106.445 Y93.449 E2.46387
G1 X107.091 Y93.240 E2.66725
G1 X107.642 Y93.127 E2.83582
G1 X109.009 Y93.002 E3.24710
G1 X110.364 Y93.123 E3.65472
G1 X110.950 Y93.240 E3.83385
G1 X111.559 Y93.433 E4.02546
G1 X112.316 Y93.752 E4.27153
G1 X112.612 Y93.910 E4.37211
G1 X113.489 Y94.580 E4.70267
G1 X113.671 Y94.750 E4.77748
G1 X113.865 Y94.962 E4.86333
G1 X114.200 Y95.390 E5.02623
G1 X114.792 Y96.339 E5.36129
G1 X115.189 Y97.454 E5.71594
G1 X115.358 Y98.145 E5.92928
G1 X115.441 Y98.688 E6.09399
G1 X115.544 Y100.065 E6.50779
G1 X115.439 Y101.445 E6.92233
G1 X115.319 Y102.140 E7.13364
G1 X115.178 Y102.667 E7.29724
G1 X114.780 Y103.754 E7.64414
G1 X114.195 Y104.668 E7.96932
G1 X113.880 Y105.061 E8.12004
G1 X113.683 Y105.273 E8.20698
G1 X113.495 Y105.446 E8.28337
G1 X112.631 Y106.094 E8.60707
G1 X112.315 Y106.261 E8.71416
G1 X111.585 Y106.563 E8.95086
G1 X110.955 Y106.761 E9.14865
G1 X110.389 Y106.873 E9.32169
G1 X109.045 Y106.992 E9.72602
G1 X107.321 Y106.812 E10.24540
G1 X107.097 Y106.773 E10.31347
G1 X105.735 Y106.264 E10.74920
G1 X105.407 Y106.101 E10.85885
G1 X104.371 Y105.287 E11.25388
G1 X104.154 Y105.088 E11.34188
G1 X103.244 Y103.753 E11.82618
G1 X102.708 Y102.162 E12.32903
G1 X102.666 Y101.938 E12.39747
G1 X102.491 Y100.047 E12.96633
G92 E0
G1 X101.837 Y97.130 F7800.000
G1 X98.274 Y95.725 F7800.000
G1 X98.884 Y94.708 F7800.000
G1 X96.115 Y92.352 F7800.000
G1 X94.821 Y92.352 F7800.000
G1 X88.157 Y100.310 E3.11048 F600.000
G1 X87.709 Y100.775 E3.30375
G1 X88.159 Y101.587 E3.58188
G1 X94.023 Y107.648 E6.10884
G92 E0
G1 X84.469 Y106.648 F7800.000
G1 X84.469 Y106.648 F7800.000
G1 X85.365 Y102.575 F7800.000
G1 X84.433 Y98.214 E1.33630 F600.000
G1 X84.433 Y92.352 E3.09283
G1 X84.433 Y107.648 F7800.000
G1 X84.433 Y99.984 E5.38931 F600.000
G1 X84.622 Y99.099 E5.66049
G1 X84.792 Y99.099 E5.71145
G1 X85.980 Y99.495 E6.08644
G1 X86.966 Y100.377 E6.48307
G1 X89.435 Y101.699 E7.32204
G92 E0
G1 Z1.200 F7800.000
G1 X102.491 Y100.047 F7800.000
G1 X102.596 Y98.678 E0.41153 F600.000
G1 X102.716 Y97.973 E0.62586
G1 X102.858 Y97.439 E0.79152
G1 X103.259 Y96.327 E1.14548
G1 X103.847 Y95.391 E1.47684
G1 X104.162 Y94.989 E1.62985
G1 X104.354 Y94.779 E1.71523
G1 X104.546 Y94.596 E1.79480
G1 X105.405 Y93.933 E2.11989
G1 X105.732 Y93.754 E2.23137
G1 X106.445 Y93.449 E2.46387
G1 X107.091 Y93.240 E2.66725
G1 X107.642 Y93.127 E2.83582
G1 X109.009 Y93.002 E3.24710
G1 X110.364 Y93.123 E3.65472
G1 X110.950 Y93.240 E3.83385
G1 X111.559 Y93.433 E4.02546
G1 X112.316 Y93.752 E4.27153
G1 X112.612 Y93.910 E4.37211
G1 X113.489 Y94.580 E4.70267
G1 X113.671 Y94.750 E4.77748
G1 X113.865 Y94.962 E4.86333
