; generated by Slic3r 1.2.9 on 2016-03-11 at 01:26:38

; external perimeters extrusion width = 1.54mm
; perimeters extrusion width = 2.62mm
; infill extrusion width = 6.27mm
; solid infill extrusion width = 2.62mm
; top infill extrusion width = 2.62mm

M107
M104 S30 ; set temperature
G28 ; home all axes
G1 Z5 F5000 ; lift nozzle
M302
M92 E10000
M500
M501
G1 E100
M109 S30 ; wait for temperature to be reached
G21 ; set units to millimeters
G90 ; use absolute coordinates
M82 ; use absolute distances for extrusion
G92 E0
G1 Z0.300 F7800.000
G1 X104.435 Y107.423 F7800.000
G1 X103.729 Y107.423 E0.03191 F378.000
G1 X103.729 Y92.577 E0.70369
G1 X105.350 Y92.577 E0.77703
G1 X105.350 Y98.556 E1.04758
G1 X110.044 Y98.556 E1.25995 F378.000
G1 X111.511 Y98.695 E1.32662
G1 X112.735 Y99.103 E1.38504
G1 X113.736 Y99.777 E1.43966
G1 X114.478 Y100.677 E1.49244
G1 X114.924 Y101.766 E1.54567
G1 X115.075 Y103.055 E1.60441
G1 X114.925 Y104.347 E1.66325
G1 X114.482 Y105.415 E1.71557
G1 X113.746 Y106.273 E1.76671
G1 X112.734 Y106.907 E1.82076
G1 X111.461 Y107.292 E1.88092
G1 X109.913 Y107.423 E1.95123
G1 X104.666 Y107.423 E2.18866
G1 X105.350 Y106.214 F7800.000
G1 X105.350 Y99.743 E2.48147 F378.000
G1 X109.779 Y99.743 E2.68187 F378.000
G1 X111.783 Y100.098 E2.77397
G1 X113.038 Y101.210 E2.84984
G1 X113.450 Y103.035 E2.93448
G1 X113.027 Y104.800 E3.01665
G1 X111.740 Y105.872 E3.09241
G1 X109.692 Y106.214 E3.18639
G1 X105.581 Y106.214 E3.37239
G1 X105.606 Y106.440 F7800.000
G1 X106.363 Y107.197 E3.42134 F540.000
G1 X106.914 Y107.197 E3.44653
G1 X106.157 Y106.440 E3.49548
G1 X106.708 Y106.440 E3.52067
G1 X107.465 Y107.197 E3.56962
G1 X108.016 Y107.197 E3.59481
G1 X107.259 Y106.440 E3.64376
G1 X107.810 Y106.440 E3.66894
G1 X108.567 Y107.197 E3.71789
G1 X109.118 Y107.197 E3.74308
G1 X108.361 Y106.440 E3.79203
G1 X108.912 Y106.440 E3.81722
G1 X109.669 Y107.197 E3.86617
G1 X110.201 Y107.178 E3.89052
G1 X109.463 Y106.440 E3.93827
G1 X109.960 Y106.386 E3.96113
G1 X110.709 Y107.136 E4.00959
G1 X111.217 Y107.093 E4.03290
G1 X110.432 Y106.307 E4.08368
G1 X110.904 Y106.228 E4.10556
G1 X111.685 Y107.009 E4.15605
G1 X112.108 Y106.881 E4.17625
G1 X111.376 Y106.150 E4.22355
G1 X111.828 Y106.050 E4.24469
G1 X112.531 Y106.753 E4.29013
G1 X112.901 Y106.572 E4.30896
G1 X112.128 Y105.800 E4.35888
G1 X112.429 Y105.549 E4.37677
G1 X113.239 Y106.360 E4.42916
G1 X113.572 Y106.142 E4.44736
G1 X112.729 Y105.299 E4.50187
G1 X113.030 Y105.048 E4.51976
G1 X113.844 Y105.863 E4.57240
G1 X114.098 Y105.566 E4.59027
G1 X113.259 Y104.727 E4.64452
G1 X113.366 Y104.283 E4.66541
G1 X114.333 Y105.250 E4.72793
G1 X114.495 Y104.860 E4.74720
G1 X113.473 Y103.838 E4.81328
G1 X113.579 Y103.394 E4.83417
G1 X114.656 Y104.471 E4.90380
G1 X114.746 Y104.009 E4.92529
G1 X113.683 Y102.946 E4.99403
G1 X113.522 Y102.234 E5.02738
G1 X114.803 Y103.516 E5.11020
G1 X114.830 Y102.991 E5.13419
G1 X113.361 Y101.523 E5.22915
G1 X113.743 Y100.252 F7800.000
G1 X113.358 Y99.867 E5.25406 F540.000
G1 X112.102 Y99.161 F7800.000
G1 X114.594 Y101.654 E5.41522 F540.000
G1 X114.757 Y102.368 E5.44868
G1 X111.299 Y98.910 E5.67226
G1 X110.691 Y98.852 E5.70020
G1 X111.671 Y99.833 E5.76361
G1 X111.002 Y99.714 E5.79470
G1 X110.082 Y98.795 E5.85416
G1 X109.518 Y98.782 E5.87994
G1 X110.332 Y99.596 E5.93255
G1 X109.702 Y99.517 E5.96156
G1 X108.967 Y98.782 E6.00909
G1 X108.416 Y98.782 E6.03428
G1 X109.151 Y99.517 E6.08180
G1 X108.600 Y99.517 E6.10699
G1 X107.865 Y98.782 E6.15452
G1 X107.314 Y98.782 E6.17971
G1 X108.050 Y99.517 E6.22723
G1 X107.499 Y99.517 E6.25242
G1 X106.763 Y98.782 E6.29995
G1 X106.212 Y98.782 E6.32514
G1 X106.948 Y99.517 E6.37266
G1 X106.397 Y99.517 E6.39785
G1 X105.661 Y98.782 E6.44538
G1 X105.124 Y98.796 E6.46994
G1 X103.955 Y97.627 E6.54553
G1 X103.955 Y97.076 E6.57072
G1 X105.124 Y98.245 E6.64630
G1 X105.110 Y98.782 E6.67087
G1 X105.846 Y99.517 E6.71839
G1 X105.295 Y99.517 E6.74358
G1 X103.955 Y98.178 E6.83017
G1 X103.955 Y98.729 E6.85536
G1 X105.124 Y99.898 E6.93095
G1 X105.124 Y100.449 E6.95614
G1 X103.955 Y99.280 E7.03172
G1 X103.955 Y99.831 E7.05691
G1 X105.124 Y101.000 E7.13250
G1 X105.124 Y101.551 E7.15769
G1 X103.955 Y100.382 E7.23327
G1 X103.955 Y100.933 E7.25846
G1 X105.124 Y102.102 E7.33405
G1 X105.124 Y102.653 E7.35924
G1 X103.955 Y101.484 E7.43482
G1 X103.955 Y102.035 E7.46001
G1 X105.124 Y103.204 E7.53560
G1 X105.124 Y103.755 E7.56079
G1 X103.955 Y102.586 E7.63637
G1 X103.955 Y103.137 E7.66156
G1 X105.124 Y104.306 E7.73715
G1 X105.124 Y104.857 E7.76234
G1 X103.955 Y103.688 E7.83792
G1 X103.955 Y104.239 E7.86311
G1 X105.124 Y105.408 E7.93870
G1 X105.124 Y105.959 E7.96389
G1 X103.955 Y104.790 E8.03947
G1 X103.955 Y105.341 E8.06466
G1 X105.812 Y107.197 E8.18470
G1 X105.261 Y107.197 E8.20988
G1 X103.955 Y105.891 E8.29429
G1 X103.955 Y106.442 E8.31948
G1 X104.710 Y107.197 E8.36827
G1 X104.159 Y107.197 E8.39346
G1 X103.955 Y106.993 E8.40662
G1 X105.124 Y97.694 F7800.000
G1 X103.955 Y96.525 E8.48220 F540.000
G1 X103.955 Y95.974 E8.50739
G1 X105.124 Y97.143 E8.58298
G1 X105.124 Y96.592 E8.60817
G1 X103.955 Y95.423 E8.68375
G1 X103.955 Y94.872 E8.70894
G1 X105.124 Y96.041 E8.78453
G1 X105.124 Y95.490 E8.80972
G1 X103.955 Y94.321 E8.88530
G1 X103.955 Y93.770 E8.91049
G1 X105.124 Y94.939 E8.98608
G1 X105.124 Y94.388 E9.01127
G1 X103.955 Y93.219 E9.08685
G1 X104.090 Y92.803 E9.10685
G1 X105.124 Y93.837 E9.17370
G1 X105.124 Y93.286 E9.19889
G1 X104.641 Y92.803 E9.23012
G92 E0
G1 X103.504 Y92.352 F7800.000
G1 X101.504 Y92.352 F7800.000
G1 X100.048 Y94.591 F7800.000
G1 X97.416 Y92.352 F7800.000
G1 X93.899 Y93.854 F7800.000
G1 X94.952 Y92.577 E0.07487 F378.000
G1 X96.929 Y92.577 E0.16433
G1 X89.752 Y101.015 E0.66555
G1 X96.015 Y107.423 E1.07101
G1 X94.206 Y107.423 E1.15288
G1 X86.545 Y99.424 E1.65407
G1 X86.545 Y107.423 E2.01603
G1 X84.924 Y107.423 E2.08937
G1 X84.924 Y92.577 E2.76115
G1 X86.545 Y92.577 E2.83449
G1 X86.545 Y98.325 E3.09460
G1 X88.794 Y100.044 E3.22271 F378.000
G1 X93.752 Y94.032 E3.57535
G1 X96.316 Y93.001 F7800.000
G1 X96.118 Y92.803 E3.58821 F540.000
G1 X96.061 Y93.300 E3.61120
G1 X95.564 Y92.803 E3.64352
G1 X95.013 Y92.806 E3.66886
G1 X95.807 Y93.599 E3.72045
G1 X95.552 Y93.899 E3.73852
G1 X94.763 Y93.109 E3.78984
G1 X94.512 Y93.413 E3.80792
G1 X95.297 Y94.198 E3.85897
G1 X95.043 Y94.497 E3.87703
G1 X94.262 Y93.716 E3.92780
G1 X94.011 Y94.020 E3.94588
G1 X94.788 Y94.797 E3.99637
G1 X94.534 Y95.096 E4.01443
G1 X93.761 Y94.324 E4.06465
G1 X93.511 Y94.627 E4.08273
G1 X94.279 Y95.396 E4.13267
G1 X94.024 Y95.695 E4.15073
G1 X93.260 Y94.931 E4.20039
G1 X93.010 Y95.235 E4.21848
G1 X93.770 Y95.994 E4.26786
G1 X93.515 Y96.294 E4.28592
G1 X92.760 Y95.538 E4.33502
G1 X92.509 Y95.842 E4.35311
G1 X93.261 Y96.593 E4.40194
G1 X93.006 Y96.892 E4.42000
G1 X92.259 Y96.145 E4.46855
G1 X92.009 Y96.449 E4.48664
G1 X92.751 Y97.192 E4.53491
G1 X92.497 Y97.491 E4.55297
G1 X91.758 Y96.753 E4.60097
G1 X91.508 Y97.056 E4.61905
G1 X92.242 Y97.790 E4.66677
G1 X91.988 Y98.090 E4.68483
G1 X91.258 Y97.360 E4.73227
G1 X91.007 Y97.663 E4.75036
G1 X91.733 Y98.389 E4.79753
G1 X91.478 Y98.688 E4.81559
G1 X90.757 Y97.967 E4.86248
G1 X90.507 Y98.271 E4.88056
G1 X91.224 Y98.988 E4.92717
G1 X90.969 Y99.287 E4.94523
G1 X90.256 Y98.574 E4.99157
G1 X90.006 Y98.878 E5.00965
G1 X90.714 Y99.586 E5.05571
G1 X90.460 Y99.886 E5.07377
G1 X89.756 Y99.181 E5.11955
G1 X89.505 Y99.485 E5.13764
G1 X90.205 Y100.185 E5.18314
G1 X89.951 Y100.484 E5.20120
G1 X89.255 Y99.789 E5.24643
G1 X89.005 Y100.092 E5.26451
G1 X89.696 Y100.784 E5.30946
G1 X89.441 Y101.083 E5.32752
G1 X88.694 Y100.336 E5.37608
G1 X87.388 Y99.583 F7800.000
G1 X95.001 Y107.197 E5.87098 F540.000
G1 X94.447 Y107.197 E5.89644
G1 X93.609 Y106.359 E5.95092
G92 E0
G1 X85.770 Y106.648 F7800.000
G1 X85.770 Y106.648 F7800.000
G1 X85.734 Y106.612 F7800.000
G1 X85.699 Y106.648 F7800.000
G1 X85.150 Y106.993 F7800.000
G1 X85.353 Y107.197 E0.01341 F540.000
G1 X85.915 Y107.197 E0.03955
G1 X85.150 Y106.432 E0.08994
G1 X85.150 Y105.871 E0.11608
G1 X86.319 Y107.040 E0.19309
G1 X86.319 Y106.479 E0.21923
G1 X85.150 Y105.309 E0.29624
G1 X85.150 Y104.748 E0.32238
G1 X86.319 Y105.917 E0.39939
G1 X86.319 Y105.356 E0.42553
G1 X85.150 Y104.187 E0.50254
G1 X85.150 Y103.625 E0.52868
G1 X86.319 Y104.795 E0.60569
G1 X86.319 Y104.233 E0.63183
G1 X85.150 Y103.064 E0.70884
G1 X85.150 Y102.503 E0.73499
G1 X86.319 Y103.672 E0.81199
G1 X86.319 Y103.111 E0.83814
G1 X85.150 Y101.941 E0.91514
G1 X85.150 Y101.380 E0.94129
G1 X86.319 Y102.549 E1.01829
G1 X86.319 Y101.988 E1.04444
G1 X85.150 Y100.819 E1.12144
G1 X85.150 Y100.257 E1.14759
G1 X86.319 Y101.427 E1.22459
G1 X86.319 Y100.865 E1.25074
G1 X85.150 Y99.696 E1.32774
G1 X85.150 Y99.135 E1.35389
G1 X86.319 Y100.304 E1.43089
G1 X86.319 Y99.743 E1.45704
G1 X85.150 Y98.573 E1.53405
G1 X85.956 Y98.818 E1.57329
G1 X85.150 Y98.012 E1.62640
G1 X85.150 Y97.451 E1.65254
G1 X86.221 Y98.522 E1.72310
G1 X86.319 Y98.059 E1.74517
G1 X85.150 Y96.889 E1.82218
G1 X85.150 Y96.328 E1.84832
G1 X86.319 Y97.497 E1.92533
G1 X86.319 Y96.936 E1.95147
G1 X85.150 Y95.767 E2.02848
G1 X85.150 Y95.205 E2.05462
G1 X86.319 Y96.375 E2.13163
G1 X86.319 Y95.813 E2.15777
G1 X85.150 Y94.644 E2.23478
G1 X85.150 Y94.083 E2.26092
G1 X86.319 Y95.252 E2.33793
G1 X86.319 Y94.691 E2.36407
G1 X85.150 Y93.521 E2.44108
G1 X85.150 Y92.960 E2.46722
G1 X86.319 Y94.129 E2.54423
G1 X86.319 Y93.568 E2.57037
G1 X85.554 Y92.803 E2.62076
G1 X86.115 Y92.803 E2.64690
G1 X86.319 Y93.007 E2.66031
G1 X86.352 Y98.664 F7800.000
G1 X87.233 Y99.452 E2.77628 F540.000
M106 S255
G92 E0
G1 Z0.600 F7800.000
G1 X105.391 Y102.637 F7800.000
G1 X104.540 Y98.331 E1.31513 F600.000
G1 X104.540 Y92.352 E3.10672
G1 X104.702 Y99.149 F7800.000
G1 X109.903 Y99.156 E4.66536 F600.000
G1 X111.372 Y99.350 E5.10941
G1 X111.831 Y99.466 E5.25112
G1 X112.269 Y99.645 E5.39308
G1 X112.425 Y99.734 E5.44673
G1 X113.218 Y100.349 E5.74739
G1 X113.471 Y100.612 E5.85684
G1 X113.805 Y101.080 E6.02917
G1 X114.089 Y101.981 E6.31226
G1 X114.257 Y103.055 E6.63799
G1 X114.079 Y104.127 E6.96347
G1 X113.795 Y104.993 E7.23646
G1 X113.458 Y105.435 E7.40300
G1 X113.224 Y105.666 E7.50172
G1 X112.431 Y106.241 E7.79522
G1 X112.221 Y106.354 E7.86654
G1 X111.786 Y106.519 E8.00592
G1 X111.333 Y106.625 E8.14537
G1 X109.887 Y106.807 E8.58221
G1 X109.673 Y106.818 E8.64628
G1 X105.575 Y106.818 E9.87423
G1 X104.613 Y106.539 E10.17449
G1 X104.540 Y105.989 E10.34085
G1 X104.540 Y99.968 E12.14502
G1 X104.702 Y99.149 E12.39502
G92 E0
G1 X103.504 Y92.352 F7800.000
G1 X100.351 Y93.506 F7800.000
G1 X100.048 Y94.591 F7800.000
G1 X97.416 Y92.352 F7800.000
G1 X96.122 Y92.352 F7800.000
G1 X89.458 Y100.310 E3.11048 F600.000
G1 X89.010 Y100.775 E3.30375
G1 X89.460 Y101.587 E3.58188
G1 X95.324 Y107.648 E6.10884
G92 E0
G1 X85.770 Y106.648 F7800.000
G1 X85.770 Y106.648 F7800.000
G1 X86.666 Y102.575 F7800.000
G1 X85.734 Y98.214 E1.33630 F600.000
G1 X85.734 Y92.352 E3.09283
G1 X85.734 Y107.648 F7800.000
G1 X85.734 Y99.984 E5.38932 F600.000
G1 X85.923 Y99.099 E5.66049
G1 X86.093 Y99.099 E5.71145
G1 X87.281 Y99.495 E6.08644
G1 X88.267 Y100.377 E6.48307
G1 X90.736 Y101.699 E7.32204
G92 E0
G1 Z0.900 F7800.000
G1 X105.391 Y102.637 F7800.000
G1 X104.540 Y98.331 E1.31513 F600.000
G1 X104.540 Y92.352 E3.10672
G1 X104.702 Y99.149 F7800.000
G1 X109.903 Y99.156 E4.66536 F600.000
G1 X111.372 Y99.350 E5.10941
G1 X111.831 Y99.466 E5.25112
G1 X112.269 Y99.645 E5.39308
G1 X112.425 Y99.734 E5.44673
G1 X113.218 Y100.349 E5.74739
G1 X113.471 Y100.612 E5.85684
G1 X113.805 Y101.080 E6.02917
G1 X114.089 Y101.981 E6.31226
G1 X114.257 Y103.055 E6.63799
G1 X114.079 Y104.127 E6.96347
G1 X113.795 Y104.993 E7.23646
G1 X113.458 Y105.435 E7.40300
G1 X113.224 Y105.666 E7.50172
G1 X112.431 Y106.241 E7.79522
G1 X112.221 Y106.354 E7.86654
G1 X111.786 Y106.519 E8.00592
G1 X111.333 Y106.625 E8.14537
G1 X109.887 Y106.807 E8.58221
G1 X109.673 Y106.818 E8.64628
G1 X105.575 Y106.818 E9.87423
G1 X104.613 Y106.539 E10.17449
G1 X104.540 Y105.989 E10.34085
G1 X104.540 Y99.968 E12.14502
G1 X104.702 Y99.149 E12.39502
G92 E0
G1 X103.504 Y92.352 F7800.000
G1 X100.351 Y93.506 F7800.000
G1 X100.048 Y94.591 F7800.000
G1 X97.416 Y92.352 F7800.000
G1 X96.122 Y92.352 F7800.000
G1 X89.458 Y100.310 E3.11048 F600.000
G1 X89.010 Y100.775 E3.30375
G1 X89.460 Y101.587 E3.58188
G1 X95.324 Y107.648 E6.10884
G92 E0
G1 X85.770 Y106.648 F7800.000
G1 X85.770 Y106.648 F7800.000
G1 X86.666 Y102.575 F7800.000
G1 X85.734 Y98.214 E1.33630 F600.000
G1 X85.734 Y92.352 E3.09283
G1 X85.734 Y107.648 F7800.000
G1 X85.734 Y99.984 E5.38931 F600.000
G1 X85.923 Y99.099 E5.66049
G1 X86.093 Y99.099 E5.71145
G1 X87.281 Y99.495 E6.08644
G1 X88.267 Y100.377 E6.48307
G1 X90.736 Y101.699 E7.32204
G92 E0
G1 Z1.200 F7800.000
G1 X105.391 Y102.637 F7800.000
G1 X104.540 Y98.331 E1.31513 F600.000
G1 X104.540 Y92.352 E3.10672
G1 X104.702 Y99.149 F7800.000
G1 X109.903 Y99.156 E4.66536 F600.000
G1 X111.372 Y99.350 E5.10941
G1 X111.831 Y99.466 E5.25112
G1 X112.269 Y99.645 E5.39308
G1 X112.425 Y99.734 E5.44673
G1 X113.218 Y100.349 E5.74739
G1 X113.471 Y100.612 E5.85684
G1 X113.805 Y101.080 E6.02917
G1 X114.089 Y101.981 E6.31226
G1 X114.257 Y103.055 E6.63799
G1 X114.079 Y104.127 E6.96347
G1 X113.795 Y104.993 E7.23646
G1 X113.458 Y105.435 E7.40300
G1 X113.224 Y105.666 E7.50172
G1 X112.431 Y106.241 E7.79522
G1 X112.221 Y106.354 E7.86654
G1 X111.786 Y106.519 E8.00592
G1 X111.333 Y106.625 E8.14537
G1 X109.887 Y106.807 E8.58221
G1 X109.673 Y106.818 E8.64628
G1 X105.575 Y106.818 E9.87423
G1 X104.613 Y106.539 E10.17449
G1 X104.540 Y105.989 E10.34085
G1 X104.540 Y99.968 E12.14502
G1 X104.702 Y99.149 E12.39502
G92 E0
G1 X103.504 Y92.352 F7800.000
G1 X100.351 Y93.506 F7800.000
G1 X100.048 Y94.591 F7800.000
G1 X97.416 Y92.352 F7800.000
G1 X96.122 Y92.352 F7800.000
G1 X89.458 Y100.310 E3.11048 F600.000
G1 X89.010 Y100.775 E3.30375
G1 X89.460 Y101.587 E3.58188
G1 X95.324 Y107.648 E6.10884
G92 E0
G1 X85.770 Y106.648 F7800.000
G1 X85.770 Y106.648 F7800.000
G1 X86.666 Y102.575 F7800.000
G1 X85.734 Y98.214 E1.33630 F600.000
G1 X85.734 Y92.352 E3.09283
G1 X85.734 Y107.648 F7800.000
G1 X85.734 Y99.984 E5.38931 F600.000
G1 X85.923 Y99.099 E5.66049
G1 X86.093 Y99.099 E5.71145
G1 X87.281 Y99.495 E6.08644
G1 X88.267 Y100.377 E6.48307
G1 X90.736 Y101.699 E7.32204
G92 E0
G1 Z1.500 F7800.000
G1 X105.391 Y102.637 F7800.000
G1 X104.540 Y98.331 E1.31513 F600.000
G1 X104.540 Y92.352 E3.10672
G1 X104.702 Y99.149 F7800.000
G1 X109.903 Y99.156 E4.66536 F600.000
G1 X111.372 Y99.350 E5.10941
G1 X111.831 Y99.466 E5.25112
G1 X112.269 Y99.645 E5.39308
G1 X112.425 Y99.734 E5.44673
G1 X113.218 Y100.349 E5.74739
G1 X113.471 Y100.612 E5.85684
G1 X113.805 Y101.080 E6.02917
G1 X114.089 Y101.981 E6.31226
G1 X114.257 Y103.055 E6.63799
G1 X114.079 Y104.127 E6.96347
G1 X113.795 Y104.993 E7.23646
G1 X113.458 Y105.435 E7.40300
G1 X113.224 Y105.666 E7.50172
G1 X112.431 Y106.241 E7.79522
G1 X112.221 Y106.354 E7.86654
G1 X111.786 Y106.519 E8.00592
G1 X111.333 Y106.625 E8.14537
G1 X109.887 Y106.807 E8.58221
G1 X109.673 Y106.818 E8.64628
G1 X105.575 Y106.818 E9.87423
G1 X104.613 Y106.539 E10.17449
G1 X104.540 Y105.989 E10.34085
G1 X104.540 Y99.968 E12.14502
G1 X104.702 Y99.149 E12.39502
G92 E0
G1 X103.504 Y92.352 F7800.000
G1 X100.351 Y93.506 F7800.000
G1 X100.048 Y94.591 F7800.000
G1 X97.416 Y92.352 F7800.000
G1 X96.122 Y92.352 F7800.000
G1 X89.458 Y100.310 E3.11048 F600.000
G1 X89.010 Y100.775 E3.30375
G1 X89.460 Y101.587 E3.58188
G1 X95.324 Y107.648 E6.10884
G92 E0
G1 X85.770 Y106.648 F7800.000
G1 X85.770 Y106.648 F7800.000
G1 X86.666 Y102.575 F7800.000
G1 X85.734 Y98.214 E1.33630 F600.000
G1 X85.734 Y92.352 E3.09283
G1 X85.734 Y107.648 F7800.000
G1 X85.734 Y99.984 E5.38931 F600.000
G1 X85.923 Y99.099 E5.66049
G1 X86.093 Y99.099 E5.71145
G1 X87.281 Y99.495 E6.08644
G1 X88.267 Y100.377 E6.48307
G1 X90.736 Y101.699 E7.32204
G92 E0
G1 Z1.800 F7800.000
G1 X105.391 Y102.637 F7800.000
G1 X104.540 Y98.331 E1.31513 F600.000
G1 X104.540 Y92.352 E3.10672
G1 X104.702 Y99.149 F7800.000
G1 X109.903 Y99.156 E4.66536 F600.000
G1 X111.372 Y99.350 E5.10941
G1 X111.831 Y99.466 E5.25112
G1 X112.269 Y99.645 E5.39307
