; generated by Slic3r 1.2.9 on 2016-03-11 at 01:26:39

; external perimeters extrusion width = 1.54mm
; perimeters extrusion width = 2.62mm
; infill extrusion width = 6.27mm
; solid infill extrusion width = 2.62mm
; top infill extrusion width = 2.62mm

M107
M104 S30 ; set temperature
G28 ; home all axes
G1 Z5 F5000 ; lift nozzle
M302
M92 E10000
M500
M501
G1 E100
M109 S30 ; wait for temperature to be reached
G21 ; set units to millimeters
G90 ; use absolute coordinates
M82 ; use absolute distances for extrusion
G92 E0
G1 Z0.300 F7800.000
G1 X112.426 Y108.961 F7800.000
G1 X111.796 Y109.229 E0.03098 F378.000
G1 X110.484 Y109.530 E0.09189
G1 X109.034 Y109.630 E0.15763
G1 X106.870 Y109.406 E0.25607
G1 X105.066 Y108.738 E0.34311
G1 X103.607 Y107.631 E0.42598
G1 X102.531 Y106.131 E0.50954
G1 X101.882 Y104.276 E0.59845
G1 X101.663 Y102.055 E0.69945
G1 X101.752 Y100.611 E0.76491
G1 X102.018 Y99.290 E0.82590
G1 X102.461 Y98.094 E0.88358
G1 X103.068 Y97.048 E0.93833
G1 X103.831 Y96.169 E0.99097
G1 X104.752 Y95.456 E1.04368
G1 X105.818 Y94.918 E1.09771
G1 X107.016 Y94.566 E1.15420
G1 X108.499 Y94.383 E1.22184
G1 X109.032 Y92.960 E1.29059
G1 X109.589 Y91.961 E1.34234
G1 X110.216 Y91.243 E1.38546
G1 X110.937 Y90.760 E1.42472
G1 X111.783 Y90.468 E1.46522
G1 X112.769 Y90.369 E1.51004
G1 X113.322 Y90.393 E1.53509
G1 X113.995 Y90.473 E1.56576 F378.000
G1 X114.468 Y90.567 E1.58761
G1 X114.468 Y91.566 E1.63280
G1 X113.898 Y91.490 E1.65883
G1 X113.439 Y91.470 E1.67961
G1 X112.703 Y91.541 E1.71306
G1 X112.043 Y91.762 E1.74457
G1 X111.471 Y92.132 E1.77539
G1 X110.985 Y92.661 E1.80790
G1 X110.576 Y93.357 E1.84443
G1 X110.148 Y94.442 E1.89721
G1 X112.159 Y94.939 E1.99098
G1 X113.615 Y95.730 E2.06594
G1 X114.797 Y96.886 E2.14076
G1 X115.672 Y98.354 E2.21806
G1 X116.199 Y100.076 E2.29959
G1 X116.377 Y102.063 E2.38982
G1 X116.278 Y103.562 E2.45782
G1 X115.984 Y104.919 E2.52062
G1 X115.495 Y106.130 E2.57975
G1 X114.825 Y107.179 E2.63605
G1 X113.984 Y108.044 E2.69065
G1 X112.968 Y108.730 E2.74613
G1 X112.638 Y108.871 E2.76235
G1 X112.097 Y107.636 F7800.000
G1 X110.692 Y108.203 E2.83090 F378.000
G1 X109.032 Y108.390 E2.90651
G1 X107.359 Y108.206 E2.98267
G1 X105.945 Y107.647 E3.05145
G1 X104.804 Y106.711 E3.11823
G1 X103.973 Y105.443 E3.18683
G1 X103.478 Y103.890 E3.26057
G1 X103.315 Y102.059 E3.34377
G1 X103.480 Y100.230 E3.42685
G1 X103.979 Y98.659 E3.50147
G1 X104.818 Y97.350 E3.57180
G1 X105.960 Y96.369 E3.63995
G1 X107.362 Y95.781 E3.70873
G1 X108.735 Y95.619 E3.77127
G1 X109.009 Y95.587 E3.78375 F378.000
G1 X110.692 Y95.774 E3.86042
G1 X112.109 Y96.343 E3.92947
G1 X113.244 Y97.295 E3.99651
G1 X114.065 Y98.588 E4.06582
G1 X114.553 Y100.178 E4.14108
G1 X114.714 Y102.059 E4.22653
G1 X114.552 Y103.869 E4.30873
G1 X114.059 Y105.414 E4.38211
G1 X113.232 Y106.688 E4.45086
G1 X112.274 Y107.488 E4.50732
G92 E0
G1 X114.023 Y106.892 F7800.000
G1 X114.023 Y106.892 F7800.000
G1 X106.972 Y108.335 F7800.000
G1 X107.915 Y109.278 E0.06067 F540.000
G1 X108.527 Y109.341 E0.08864
G1 X107.662 Y108.476 E0.14429
G1 X108.278 Y108.544 E0.17248
G1 X109.136 Y109.402 E0.22767
G1 X109.648 Y109.367 E0.25104
G1 X108.894 Y108.612 E0.29957
G1 X109.398 Y108.568 E0.32258
G1 X110.161 Y109.331 E0.37167
G1 X110.654 Y109.276 E0.39422
G1 X109.891 Y108.512 E0.44332
G1 X110.383 Y108.457 E0.46587
G1 X111.100 Y109.173 E0.51196
G1 X111.546 Y109.071 E0.53277
G1 X110.837 Y108.362 E0.57838
G1 X111.227 Y108.204 E0.59753
G1 X111.963 Y108.940 E0.64486
G1 X112.347 Y108.777 E0.66387
G1 X111.618 Y108.047 E0.71081
G1 X112.008 Y107.889 E0.72997
G1 X112.732 Y108.613 E0.77653
G1 X113.085 Y108.417 E0.79487
G1 X112.346 Y107.679 E0.84238
G1 X112.645 Y107.429 E0.86008
G1 X113.412 Y108.196 E0.90942
G1 X113.739 Y107.975 E0.92737
G1 X112.943 Y107.180 E0.97855
G1 X113.242 Y106.930 E0.99625
G1 X114.020 Y107.708 E1.04627
G1 X114.294 Y107.434 E1.06390
G1 X113.497 Y106.637 E1.11516
G1 X113.713 Y106.305 E1.13318
G1 X114.568 Y107.160 E1.18818
G1 X114.805 Y106.849 E1.20597
G1 X113.928 Y105.972 E1.26235
G1 X114.144 Y105.640 E1.28037
G1 X115.019 Y106.514 E1.33661
G1 X115.233 Y106.180 E1.35467
G1 X114.321 Y105.268 E1.41331
G1 X114.453 Y104.853 E1.43316
G1 X115.408 Y105.808 E1.49460
G1 X115.566 Y105.417 E1.51376
G1 X114.586 Y104.437 E1.57680
G1 X114.718 Y104.021 E1.59664
G1 X115.723 Y105.026 E1.66129
G1 X115.839 Y104.594 E1.68166
G1 X114.800 Y103.555 E1.74850
G1 X114.845 Y103.052 E1.77147
G1 X115.937 Y104.143 E1.84170
G1 X116.034 Y103.693 E1.86266
G1 X114.890 Y102.549 E1.93627
G1 X114.935 Y102.046 E1.95923
G1 X116.081 Y103.192 E2.03295
G1 X116.115 Y102.677 E2.05639
G1 X114.897 Y101.459 E2.13475
G1 X114.846 Y100.860 E2.16212
G1 X116.149 Y102.163 E2.24595
G1 X116.098 Y101.564 E2.27330
G1 X114.794 Y100.260 E2.35715
G1 X114.623 Y99.541 E2.39080
G1 X116.044 Y100.962 E2.48222
G1 X115.990 Y100.360 E2.50970
G1 X114.380 Y98.750 E2.61328
G1 X115.551 Y98.824 F7800.000
G1 X111.843 Y95.116 E2.85182 F540.000
G1 X111.115 Y94.936 E2.88593
G1 X112.326 Y96.147 E2.96385
G1 X112.965 Y95.690 F7800.000
G1 X114.931 Y97.656 E3.09030 F540.000
G1 X113.761 Y97.583 F7800.000
G1 X115.793 Y99.614 E3.22098 F540.000
G1 X111.410 Y95.779 F7800.000
G1 X110.386 Y94.756 E3.28681 F540.000
G1 X109.816 Y94.734 E3.31279
G1 X108.920 Y93.838 E3.37042
G1 X110.250 Y92.382 F7800.000
G1 X110.250 Y92.382 F7800.000
G1 X114.242 Y90.938 F7800.000
G1 X114.033 Y90.729 E3.38387 F540.000
G1 X114.023 Y91.267 E3.40835
G1 X113.396 Y90.640 E3.44870
G1 X112.809 Y90.601 E3.47545
G1 X113.457 Y91.248 E3.51710
G1 X112.957 Y91.297 E3.53992
G1 X112.296 Y90.636 E3.58243
G1 X111.798 Y90.686 E3.60520
G1 X112.504 Y91.392 E3.65062
G1 X112.093 Y91.530 E3.67033
G1 X111.385 Y90.821 E3.71589
G1 X110.980 Y90.965 E3.73541
G1 X111.741 Y91.725 E3.78433
G1 X111.408 Y91.941 E3.80236
G1 X110.652 Y91.185 E3.85097
G1 X110.328 Y91.408 E3.86890
G1 X111.134 Y92.215 E3.92077
G1 X110.872 Y92.501 E3.93842
G1 X110.072 Y91.701 E3.98986
G1 X109.816 Y91.993 E4.00753
G1 X110.657 Y92.834 E4.06158
G1 X110.453 Y93.179 E4.07979
G1 X109.607 Y92.332 E4.13423
G1 X109.411 Y92.684 E4.15255
G1 X110.281 Y93.554 E4.20852
G1 X110.126 Y93.947 E4.22774
G1 X109.218 Y93.040 E4.28610
G1 X109.069 Y93.439 E4.30547
G1 X109.971 Y94.340 E4.36347
G1 X109.658 Y94.576 E4.38127
G1 X110.610 Y95.528 E4.44248
G1 X109.993 Y95.459 E4.47071
G1 X108.770 Y94.236 E4.54938
G1 X108.577 Y94.591 E4.56776
G1 X109.376 Y95.391 E4.61917
G1 X108.827 Y95.389 E4.64415
G1 X108.089 Y94.651 E4.69162
G1 X107.601 Y94.712 E4.71398
G1 X108.337 Y95.447 E4.76128
G1 X107.846 Y95.505 E4.78374
G1 X107.113 Y94.772 E4.83088
G1 X106.674 Y94.881 E4.85146
G1 X107.358 Y95.565 E4.89542
G1 X106.972 Y95.727 E4.91446
G1 X106.251 Y95.006 E4.96083
G1 X105.830 Y95.133 E4.98082
G1 X106.586 Y95.889 E5.02939
G1 X106.199 Y96.051 E5.04844
G1 X105.466 Y95.317 E5.09560
G1 X105.102 Y95.501 E5.11416
G1 X105.829 Y96.228 E5.16091
G1 X105.534 Y96.481 E5.17859
G1 X104.752 Y95.700 E5.22885
G1 X104.443 Y95.939 E5.24662
G1 X105.239 Y96.735 E5.29777
G1 X104.944 Y96.988 E5.31545
G1 X104.135 Y96.178 E5.36751
G1 X103.855 Y96.447 E5.38514
G1 X104.653 Y97.245 E5.43648
G1 X104.439 Y97.579 E5.45452
G1 X103.595 Y96.735 E5.50886
G1 X103.340 Y97.028 E5.52653
G1 X104.225 Y97.914 E5.58349
G1 X104.011 Y98.248 E5.60153
G1 X103.117 Y97.354 E5.65905
G1 X102.916 Y97.700 E5.67729
G1 X103.797 Y98.582 E5.73400
G1 X103.659 Y98.991 E5.75366
G1 X102.714 Y98.047 E5.81439
G1 X102.552 Y98.433 E5.83341
G1 X103.526 Y99.407 E5.89612
G1 X103.394 Y99.824 E5.91598
G1 X102.403 Y98.833 E5.97971
G1 X102.255 Y99.233 E5.99912
G1 X103.262 Y100.240 E6.06388
G1 X103.215 Y100.740 E6.08674
G1 X102.155 Y99.681 E6.15488
G1 X102.063 Y100.137 E6.17604
G1 X103.169 Y101.243 E6.24718
G1 X103.124 Y101.746 E6.27015
G1 X101.974 Y100.596 E6.34408
G1 X101.943 Y101.112 E6.36761
G1 X103.100 Y102.270 E6.44205
G1 X103.153 Y102.871 E6.46952
G1 X101.911 Y101.629 E6.54945
G1 X101.910 Y102.177 E6.57437
G1 X103.207 Y103.473 E6.65776
G1 X103.274 Y104.089 E6.68593
G1 X101.970 Y102.785 E6.76982
G1 X102.030 Y103.393 E6.79761
G1 X103.530 Y104.893 E6.89410
G1 X103.824 Y105.735 F7800.000
G1 X102.090 Y104.001 E7.00562 F540.000
G1 X102.336 Y104.795 E7.04345
G1 X106.552 Y109.011 E7.31465
G1 X107.304 Y109.214 E7.35004
G1 X106.065 Y107.976 E7.42969
G1 X105.683 Y108.690 F7800.000
G1 X102.632 Y105.639 E7.62594 F540.000
G1 X103.676 Y107.231 F7800.000
G1 X104.031 Y107.586 E7.64874 F540.000
G92 E0
G1 X101.660 Y104.325 F7800.000
G1 X98.184 Y97.889 F7800.000
G1 X98.872 Y96.713 F7800.000
G1 X96.115 Y91.256 F7800.000
G1 X89.419 Y92.510 F7800.000
G1 X87.186 Y99.381 F7800.000
G1 X87.458 Y101.750 F7800.000
G1 X83.623 Y101.670 F7800.000
G1 X83.623 Y94.593 E0.32021 F378.000
G1 X85.244 Y94.593 E0.39356
G1 X85.244 Y100.341 E0.65366
G1 X87.493 Y102.060 E0.78178 F378.000
G1 X93.651 Y94.593 E1.21973
G1 X95.628 Y94.593 E1.30919
G1 X88.451 Y103.031 E1.81041
G1 X94.714 Y109.439 E2.21587
G1 X92.905 Y109.439 E2.29775
G1 X85.244 Y101.440 E2.79893
G1 X85.244 Y109.439 E3.16089
G1 X83.623 Y109.439 E3.23424
G1 X83.623 Y101.901 E3.57535
G1 X85.051 Y100.680 F7800.000
G1 X85.932 Y101.468 E3.69131 F540.000
G92 E0
G1 X84.469 Y95.368 F7800.000
G1 X84.469 Y95.368 F7800.000
G1 X85.018 Y95.023 F7800.000
G1 X84.814 Y94.819 E0.01341 F540.000
G1 X84.253 Y94.819 E0.03956
G1 X85.018 Y95.584 E0.08994
G1 X85.018 Y96.145 E0.11608
G1 X83.849 Y94.976 E0.19309
G1 X83.849 Y95.537 E0.21924
G1 X85.018 Y96.707 E0.29624
G1 X85.018 Y97.268 E0.32239
G1 X83.849 Y96.099 E0.39939
G1 X83.849 Y96.660 E0.42554
G1 X85.018 Y97.829 E0.50254
G1 X85.018 Y98.391 E0.52869
G1 X83.849 Y97.221 E0.60569
G1 X83.849 Y97.783 E0.63184
G1 X85.018 Y98.952 E0.70884
G1 X85.018 Y99.513 E0.73499
G1 X83.849 Y98.344 E0.81199
G1 X83.849 Y98.905 E0.83814
G1 X85.018 Y100.075 E0.91515
G1 X84.920 Y100.538 E0.93721
G1 X83.849 Y99.467 E1.00777
G1 X83.849 Y100.028 E1.03392
G1 X84.655 Y100.834 E1.08702
G1 X83.849 Y100.589 E1.12627
G1 X85.018 Y101.759 E1.20327
G1 X85.018 Y102.320 E1.22942
G1 X83.849 Y101.151 E1.30643
G1 X83.849 Y101.712 E1.33257
G1 X85.018 Y102.881 E1.40958
G1 X85.018 Y103.443 E1.43572
G1 X83.849 Y102.273 E1.51273
G1 X83.849 Y102.835 E1.53887
G1 X85.018 Y104.004 E1.61588
G1 X85.018 Y104.565 E1.64202
G1 X83.849 Y103.396 E1.71903
G1 X83.849 Y103.957 E1.74517
G1 X85.018 Y105.127 E1.82218
G1 X85.018 Y105.688 E1.84832
G1 X83.849 Y104.519 E1.92533
G1 X83.849 Y105.080 E1.95147
G1 X85.018 Y106.249 E2.02848
G1 X85.018 Y106.811 E2.05462
G1 X83.849 Y105.641 E2.13163
G1 X83.849 Y106.203 E2.15777
G1 X85.018 Y107.372 E2.23478
G1 X85.018 Y107.933 E2.26093
G1 X83.849 Y106.764 E2.33793
G1 X83.849 Y107.325 E2.36408
G1 X85.018 Y108.495 E2.44108
G1 X85.018 Y109.056 E2.46723
G1 X83.849 Y107.887 E2.54423
G1 X83.849 Y108.448 E2.57038
G1 X84.614 Y109.213 E2.62076
G1 X84.052 Y109.213 E2.64691
G1 X83.849 Y109.009 E2.66032
G92 E0
G1 X84.469 Y108.664 F7800.000
G1 X84.469 Y108.664 F7800.000
G1 X87.393 Y102.352 F7800.000
G1 X88.140 Y103.099 E0.04855 F540.000
G1 X88.395 Y102.800 E0.06662
G1 X87.704 Y102.108 E0.11156
G1 X87.954 Y101.805 E0.12965
G1 X88.650 Y102.500 E0.17487
G1 X88.904 Y102.201 E0.19294
G1 X88.204 Y101.501 E0.23844
G1 X88.455 Y101.197 E0.25653
G1 X89.159 Y101.902 E0.30230
G1 X89.413 Y101.602 E0.32037
G1 X88.705 Y100.894 E0.36642
G1 X88.955 Y100.590 E0.38451
G1 X89.668 Y101.303 E0.43084
G1 X89.923 Y101.004 E0.44890
G1 X89.206 Y100.287 E0.49551
G1 X89.456 Y99.983 E0.51360
G1 X90.177 Y100.704 E0.56049
G1 X90.432 Y100.405 E0.57855
G1 X89.706 Y99.679 E0.62572
G1 X89.957 Y99.376 E0.64380
G1 X90.687 Y100.106 E0.69124
G1 X90.941 Y99.806 E0.70931
G1 X90.207 Y99.072 E0.75702
G1 X90.457 Y98.769 E0.77511
G1 X91.196 Y99.507 E0.82311
G1 X91.450 Y99.208 E0.84117
G1 X90.708 Y98.465 E0.88944
G1 X90.958 Y98.161 E0.90753
G1 X91.705 Y98.908 E0.95608
G1 X91.960 Y98.609 E0.97414
G1 X91.208 Y97.858 E1.02297
G1 X91.459 Y97.554 E1.04105
G1 X92.214 Y98.310 E1.09016
G1 X92.469 Y98.010 E1.10822
G1 X91.709 Y97.251 E1.15760
G1 X91.959 Y96.947 E1.17569
G1 X92.723 Y97.711 E1.22535
G1 X92.978 Y97.412 E1.24341
G1 X92.210 Y96.643 E1.29334
G1 X92.460 Y96.340 E1.31143
G1 X93.233 Y97.112 E1.36164
G1 X93.487 Y96.813 E1.37970
G1 X92.710 Y96.036 E1.43019
G1 X92.961 Y95.732 E1.44828
G1 X93.742 Y96.513 E1.49905
G1 X93.996 Y96.214 E1.51711
G1 X93.211 Y95.429 E1.56815
G1 X93.462 Y95.125 E1.58624
G1 X94.251 Y95.915 E1.63756
G1 X94.506 Y95.615 E1.65562
G1 X93.712 Y94.822 E1.70722
G1 X94.263 Y94.819 E1.73256
G1 X94.760 Y95.316 E1.76487
G1 X94.817 Y94.819 E1.78787
G1 X95.015 Y95.017 E1.80073
G92 E0
G1 X84.469 Y95.368 F7800.000
G1 X84.469 Y95.368 F7800.000
G1 X86.087 Y101.599 F7800.000
G1 X93.700 Y109.213 E0.49490 F540.000
G1 X93.146 Y109.213 E0.52036
G1 X92.308 Y108.375 E0.57485
M106 S255
G92 E0
G1 Z0.600 F7800.000
G1 X108.285 Y94.182 F7800.000
G1 X110.249 Y95.103 E0.65005 F600.000
G1 X110.940 Y95.241 E0.86102
G1 X111.919 Y95.558 E1.16951
G1 X112.311 Y95.742 E1.29934
G1 X112.547 Y95.877 E1.38056
G1 X113.185 Y96.312 E1.61210
G1 X113.661 Y96.743 E1.80458
G1 X113.855 Y96.948 E1.88904
G1 X114.192 Y97.363 E2.04931
G1 X114.682 Y98.160 E2.32964
G1 X114.933 Y98.681 E2.50305
G1 X115.313 Y99.920 E2.89116
G1 X115.386 Y100.236 E2.98830
G1 X115.544 Y102.072 E3.54073
G1 X115.439 Y103.444 E3.95299
G1 X115.320 Y104.140 E4.16440
G1 X115.178 Y104.671 E4.32910
G1 X114.780 Y105.761 E4.67707
G1 X114.194 Y106.678 E5.00311
G1 X113.881 Y107.070 E5.15316
G1 X113.494 Y107.459 E5.31762
G1 X112.630 Y108.109 E5.64159
G1 X112.316 Y108.275 E5.74797
G1 X111.585 Y108.578 E5.98535
G1 X110.956 Y108.776 E6.18267
G1 X110.388 Y108.888 E6.35614
G1 X109.045 Y109.008 E6.76036
G1 X107.321 Y108.827 E7.27987
G1 X107.019 Y108.769 E7.37202
G1 X105.734 Y108.277 E7.78427
G1 X105.408 Y108.115 E7.89326
G1 X104.369 Y107.296 E8.28978
G1 X104.155 Y107.098 E8.37708
G1 X103.244 Y105.760 E8.86223
G1 X102.687 Y104.098 E9.38730
G1 X102.491 Y102.040 E10.00690
G1 X102.590 Y100.721 E10.40330
G1 X102.713 Y99.961 E10.63391
G1 X102.827 Y99.519 E10.77062
G1 X103.197 Y98.441 E11.11219
G1 X103.322 Y98.202 E11.19289
G1 X103.736 Y97.525 E11.43075
G1 X104.155 Y96.965 E11.64044
G1 X104.344 Y96.747 E11.72669
G1 X105.150 Y96.086 E12.03908
G1 X105.481 Y95.865 E12.15842
G1 X105.729 Y95.726 E12.24362
G1 X106.075 Y95.567 E12.35759
G1 X107.145 Y95.188 E12.69775
G1 X108.508 Y95.012 E13.10954
G1 X108.902 Y94.900 E13.23230
G1 X109.370 Y94.691 E13.38601
G1 X109.377 Y94.566 E13.42359
G1 X109.512 Y93.914 E13.62297
G1 X109.751 Y93.293 E13.82257
G1 X109.920 Y92.950 E13.93700
G1 X110.229 Y92.411 E14.12310
G1 X110.444 Y92.132 E14.22862
G1 X110.724 Y91.820 E14.35425
G1 X111.105 Y91.513 E14.50097
G1 X111.260 Y91.410 E14.55670
G1 X111.863 Y91.132 E14.75563
G1 X112.672 Y90.962 E15.00348
G1 X113.485 Y90.946 E15.24695
G1 X114.693 Y91.078 E15.61124
G92 E0
G1 X108.828 Y92.865 F7800.000
G1 X108.828 Y92.865 F7800.000
G1 X106.096 Y91.342 F7800.000
G1 X106.082 Y91.325 F7800.000
G1 X106.070 Y91.310 F7800.000
G1 X104.790 Y91.494 F7800.000
G1 X104.172 Y91.612 F7800.000
G1 X102.936 Y91.906 F7800.000
G1 X102.196 Y92.121 F7800.000
G1 X100.987 Y92.534 F7800.000
G1 X100.423 Y92.747 F7800.000
G1 X96.115 Y91.256 F7800.000
G1 X96.115 Y94.368 F7800.000
G1 X94.821 Y94.368 F7800.000
G1 X88.157 Y102.326 E3.11048 F600.000
G1 X87.709 Y102.791 E3.30375
G1 X88.159 Y103.603 E3.58188
G1 X94.023 Y109.664 E6.10884
G92 E0
G1 X84.469 Y108.664 F7800.000
G1 X84.469 Y108.664 F7800.000
G1 X85.365 Y104.591 F7800.000
G1 X84.433 Y100.230 E1.33630 F600.000
G1 X84.433 Y94.368 E3.09283
G1 X84.433 Y109.664 F7800.000
G1 X84.433 Y102.000 E5.38931 F600.000
G1 X84.622 Y101.115 E5.66049
G1 X84.792 Y101.115 E5.71145
G1 X85.980 Y101.511 E6.08644
G1 X86.966 Y102.393 E6.48307
G1 X89.435 Y103.715 E7.32204
G92 E0
G1 Z0.900 F7800.000
G1 X108.285 Y94.182 F7800.000
G1 X110.249 Y95.103 E0.65005 F600.000
G1 X110.940 Y95.241 E0.86102
G1 X111.919 Y95.558 E1.16951
G1 X112.311 Y95.742 E1.29934
G1 X112.547 Y95.877 E1.38056
G1 X113.185 Y96.312 E1.61210
G1 X113.661 Y96.743 E1.80458
G1 X113.855 Y96.948 E1.88904
G1 X114.192 Y97.363 E2.04931
G1 X114.682 Y98.160 E2.32964
G1 X114.933 Y98.681 E2.50305
G1 X115.313 Y99.920 E2.89116
G1 X115.386 Y100.236 E2.98831
G1 X115.544 Y102.072 E3.54073
G1 X115.439 Y103.444 E3.95299
