; generated by Slic3r 1.2.9 on 2016-03-11 at 01:26:40

; external perimeters extrusion width = 1.54mm
; perimeters extrusion width = 2.62mm
; infill extrusion width = 6.27mm
; solid infill extrusion width = 2.62mm
; top infill extrusion width = 2.62mm

M107
M104 S30 ; set temperature
G28 ; home all axes
G1 Z5 F5000 ; lift nozzle
M302
M92 E10000
M500
M501
G1 E100
M109 S30 ; wait for temperature to be reached
G21 ; set units to millimeters
G90 ; use absolute coordinates
M82 ; use absolute distances for extrusion
G92 E0
G1 Z0.300 F7800.000
G1 X111.864 Y107.208 F7800.000
G1 X111.555 Y107.297 E0.01454 F378.000
G1 X109.995 Y107.423 E0.08538
G1 X103.028 Y107.423 E0.40063
G1 X103.028 Y92.577 E1.07240
G1 X104.649 Y92.577 E1.14575
G1 X104.649 Y98.940 E1.43367
G1 X109.773 Y98.940 E1.66552 F378.000
G1 X113.749 Y92.577 E2.00503
G1 X115.592 Y92.577 E2.08846
G1 X111.307 Y99.088 E2.44116
G1 X112.663 Y99.461 E2.50482
G1 X113.531 Y99.924 E2.54932
G1 X114.236 Y100.565 E2.59242
G1 X114.757 Y101.351 E2.63511
G1 X115.070 Y102.254 E2.67834
G1 X115.175 Y103.277 E2.72488
G1 X115.026 Y104.492 E2.78026
G1 X114.585 Y105.500 E2.83005
G1 X113.850 Y106.318 E2.87980
G1 X112.836 Y106.927 E2.93334
G1 X112.086 Y107.144 E2.96867
G1 X111.754 Y105.902 F7800.000
G1 X110.885 Y106.134 E3.00937 F378.000
G1 X109.806 Y106.214 E3.05831
G1 X104.649 Y106.214 E3.29167
G1 X104.649 Y100.127 E3.56711
G1 X109.894 Y100.127 E3.80446 F378.000
G1 X110.938 Y100.215 E3.85187
G1 X111.836 Y100.485 E3.89427
G1 X112.571 Y100.943 E3.93347
G1 X113.115 Y101.573 E3.97115
G1 X113.440 Y102.349 E4.00922
G1 X113.546 Y103.258 E4.05060
G1 X113.438 Y104.137 E4.09068
G1 X113.106 Y104.880 E4.12750
G1 X112.552 Y105.469 E4.16411
G1 X111.960 Y105.801 E4.19481
G1 X114.193 Y104.347 F7800.000
G1 X114.237 Y104.275 F7800.000
G1 X114.361 Y103.264 F7800.000
G1 X114.327 Y103.260 F7800.000
G1 X113.535 Y101.893 F7800.000
G1 X114.942 Y103.300 E4.28550 F540.000
G1 X114.893 Y103.800 E4.30842
G1 X113.709 Y102.616 E4.38474
G1 X113.769 Y103.225 E4.41264
G1 X114.833 Y104.289 E4.48123
G1 X114.710 Y104.716 E4.50146
G1 X113.708 Y103.714 E4.56600
G1 X113.634 Y104.189 E4.58790
G1 X114.542 Y105.098 E4.64648
G1 X114.359 Y105.464 E4.66514
G1 X113.464 Y104.569 E4.72282
G1 X113.294 Y104.948 E4.74178
G1 X114.099 Y105.753 E4.79364
G1 X113.831 Y106.034 E4.81135
G1 X113.034 Y105.237 E4.86271
G1 X112.768 Y105.520 E4.88042
G1 X113.529 Y106.282 E4.92951
G1 X113.186 Y106.488 E4.94776
G1 X112.450 Y105.752 E4.99523
G1 X112.097 Y105.949 E5.01363
G1 X112.843 Y106.694 E5.06168
G1 X112.429 Y106.830 E5.08154
G1 X111.724 Y106.125 E5.12698
G1 X111.290 Y106.241 E5.14743
G1 X112.003 Y106.953 E5.19335
G1 X111.576 Y107.075 E5.21360
G1 X110.857 Y106.356 E5.25993
G1 X110.346 Y106.395 E5.28329
G1 X111.067 Y107.116 E5.32979
G1 X110.559 Y107.157 E5.35304
G1 X109.834 Y106.433 E5.39975
G1 X109.292 Y106.440 E5.42446
G1 X110.049 Y107.197 E5.47326
G1 X109.500 Y107.197 E5.49830
G1 X108.743 Y106.440 E5.54710
G1 X108.194 Y106.440 E5.57214
G1 X108.951 Y107.197 E5.62094
G1 X108.401 Y107.197 E5.64598
G1 X107.644 Y106.440 E5.69479
G1 X107.095 Y106.440 E5.71982
G1 X107.852 Y107.197 E5.76863
G1 X107.303 Y107.197 E5.79367
G1 X106.546 Y106.440 E5.84247
G1 X105.996 Y106.440 E5.86751
G1 X106.753 Y107.197 E5.91631
G1 X106.204 Y107.197 E5.94135
G1 X105.447 Y106.440 E5.99016
G1 X104.898 Y106.440 E6.01519
G1 X105.655 Y107.197 E6.06400
G1 X105.105 Y107.197 E6.08904
G1 X103.254 Y105.345 E6.20839
G1 X103.254 Y104.796 E6.23343
G1 X104.423 Y105.965 E6.30879
G1 X104.423 Y105.416 E6.33383
G1 X103.254 Y104.247 E6.40919
G1 X103.254 Y103.697 E6.43423
G1 X104.423 Y104.866 E6.50959
G1 X104.423 Y104.317 E6.53463
G1 X103.254 Y103.148 E6.60999
G1 X103.254 Y102.599 E6.63503
G1 X104.423 Y103.768 E6.71039
G1 X104.423 Y103.218 E6.73543
G1 X103.254 Y102.049 E6.81079
G1 X103.254 Y101.500 E6.83583
G1 X104.423 Y102.669 E6.91119
G1 X104.423 Y102.120 E6.93623
G1 X103.254 Y100.951 E7.01160
G1 X103.254 Y100.401 E7.03663
G1 X104.423 Y101.570 E7.11200
G1 X104.423 Y101.021 E7.13703
G1 X103.254 Y99.852 E7.21240
G1 X103.254 Y99.303 E7.23744
G1 X104.423 Y100.472 E7.31280
G1 X104.423 Y99.922 E7.33784
G1 X103.254 Y98.753 E7.41320
G1 X103.254 Y98.204 E7.43824
G1 X104.951 Y99.901 E7.54763
G1 X105.500 Y99.901 E7.57267
G1 X104.765 Y99.166 E7.62006
G1 X105.314 Y99.166 E7.64509
G1 X106.050 Y99.901 E7.69248
G1 X106.599 Y99.901 E7.71752
G1 X105.864 Y99.166 E7.76490
G1 X106.413 Y99.166 E7.78994
G1 X107.148 Y99.901 E7.83733
G1 X107.698 Y99.901 E7.86237
G1 X106.962 Y99.166 E7.90975
G1 X107.512 Y99.166 E7.93479
G1 X108.247 Y99.901 E7.98218
G1 X108.796 Y99.901 E8.00722
G1 X108.061 Y99.166 E8.05460
G1 X108.610 Y99.166 E8.07964
G1 X109.346 Y99.901 E8.12702
G1 X109.895 Y99.901 E8.15206
G1 X109.160 Y99.166 E8.19945
G1 X109.709 Y99.166 E8.22449
G1 X110.486 Y99.943 E8.27456
G1 X111.088 Y99.995 E8.30211
G1 X110.014 Y98.921 E8.37134
G1 X110.225 Y98.583 E8.38951
G1 X110.937 Y99.295 E8.43540
G1 X111.627 Y99.436 E8.46750
G1 X114.879 Y102.688 E8.67710
G1 X114.693 Y101.953 E8.71165
G1 X112.385 Y99.645 E8.86043
G1 X111.874 Y100.232 F7800.000
G1 X110.869 Y99.227 E8.92520 F540.000
G1 X111.155 Y98.964 E8.94292
G1 X110.437 Y98.245 E8.98925
G1 X110.648 Y97.907 E9.00743
G1 X111.373 Y98.633 E9.05420
G1 X111.591 Y98.302 E9.07227
G1 X110.859 Y97.569 E9.11948
G1 X111.070 Y97.231 E9.13765
G1 X111.810 Y97.970 E9.18530
G1 X112.028 Y97.639 E9.20338
G1 X111.282 Y96.893 E9.25147
G1 X111.493 Y96.555 E9.26964
G1 X112.246 Y97.308 E9.31816
G1 X112.464 Y96.976 E9.33624
G1 X111.704 Y96.217 E9.38520
G1 X111.915 Y95.879 E9.40337
G1 X112.682 Y96.645 E9.45278
G1 X112.900 Y96.314 E9.47085
G1 X112.127 Y95.541 E9.52069
G1 X112.338 Y95.203 E9.53887
G1 X113.118 Y95.983 E9.58915
G1 X113.336 Y95.651 E9.60722
G1 X112.549 Y94.864 E9.65794
G1 X112.760 Y94.526 E9.67611
G1 X113.554 Y95.320 E9.72727
G1 X113.772 Y94.989 E9.74535
G1 X112.972 Y94.188 E9.79694
G1 X113.183 Y93.850 E9.81511
G1 X113.990 Y94.657 E9.86715
G1 X114.208 Y94.326 E9.88522
G1 X113.394 Y93.512 E9.93770
G1 X113.605 Y93.174 E9.95587
G1 X114.426 Y93.995 E10.00878
G1 X114.644 Y93.664 E10.02686
G1 X113.817 Y92.836 E10.08020
G1 X114.333 Y92.803 E10.10379
G1 X114.862 Y93.332 E10.13791
G1 X114.882 Y92.803 E10.16205
G1 X115.080 Y93.001 E10.17482
G92 E0
G1 X103.874 Y93.352 F7800.000
G1 X103.874 Y93.352 F7800.000
G1 X103.896 Y92.803 F7800.000
G1 X104.423 Y93.330 E0.03399 F540.000
G1 X104.423 Y93.880 E0.05903
G1 X103.346 Y92.803 E0.12843
G1 X103.254 Y93.260 E0.14968
G1 X104.423 Y94.429 E0.22504
G1 X104.423 Y94.978 E0.25008
G1 X103.254 Y93.809 E0.32544
G1 X103.254 Y94.359 E0.35048
G1 X104.423 Y95.528 E0.42584
G1 X104.423 Y96.077 E0.45088
G1 X103.254 Y94.908 E0.52624
G1 X103.254 Y95.457 E0.55128
G1 X104.423 Y96.626 E0.62665
G1 X104.423 Y97.176 E0.65168
G1 X103.254 Y96.007 E0.72705
G1 X103.254 Y96.556 E0.75209
G1 X104.423 Y97.725 E0.82745
G1 X104.423 Y98.274 E0.85249
G1 X103.254 Y97.105 E0.92785
G1 X103.254 Y97.655 E0.95289
G1 X104.423 Y98.824 E1.02825
G1 X103.254 Y105.895 F7800.000
G1 X104.556 Y107.197 E1.11219 F540.000
G1 X104.007 Y107.197 E1.13723
G1 X103.254 Y106.444 E1.18576
G1 X103.254 Y106.993 E1.21080
G1 X103.457 Y107.197 E1.22393
G92 E0
G1 X102.803 Y107.648 F7800.000
G1 X95.841 Y108.648 F7800.000
G1 X88.830 Y106.879 F7800.000
G1 X88.061 Y107.648 F7800.000
G1 X86.061 Y107.648 F7800.000
G1 X84.215 Y103.358 F7800.000
G1 X84.215 Y92.577 E0.48784 F378.000
G1 X85.836 Y92.577 E0.56119
G1 X85.836 Y98.325 E0.82129
G1 X88.086 Y100.044 E0.94941 F378.000
G1 X94.243 Y92.577 E1.38736
G1 X96.220 Y92.577 E1.47683
G1 X89.044 Y101.015 E1.97804
G1 X95.307 Y107.423 E2.38350
G1 X93.497 Y107.423 E2.46538
G1 X85.836 Y99.424 E2.96656
G1 X85.836 Y107.423 E3.32852
G1 X84.215 Y107.423 E3.40187
G1 X84.215 Y103.589 E3.57535
G1 X84.441 Y106.993 F7800.000
G1 X84.645 Y107.197 E3.58876 F540.000
G1 X85.206 Y107.197 E3.61490
G1 X84.441 Y106.432 E3.66529
G1 X84.441 Y105.871 E3.69143
G1 X85.610 Y107.040 E3.76844
G1 X85.610 Y106.479 E3.79458
G1 X84.441 Y105.309 E3.87159
G1 X84.441 Y104.748 E3.89773
G1 X85.610 Y105.917 E3.97474
G1 X85.610 Y105.356 E4.00088
G1 X84.441 Y104.187 E4.07789
G1 X84.441 Y103.625 E4.10403
G1 X85.610 Y104.795 E4.18104
G1 X85.610 Y104.233 E4.20718
G1 X84.441 Y103.064 E4.28419
G1 X84.441 Y102.503 E4.31033
G1 X85.610 Y103.672 E4.38734
G1 X85.610 Y103.111 E4.41348
G1 X84.441 Y101.941 E4.49049
G1 X84.441 Y101.380 E4.51663
G1 X85.610 Y102.549 E4.59364
G1 X85.610 Y101.988 E4.61978
G1 X84.441 Y100.819 E4.69679
G1 X84.441 Y100.257 E4.72294
G1 X85.610 Y101.427 E4.79994
G1 X85.610 Y100.865 E4.82609
G1 X84.441 Y99.696 E4.90309
G1 X84.441 Y99.135 E4.92924
G1 X85.610 Y100.304 E5.00624
G1 X85.610 Y99.743 E5.03239
G1 X84.441 Y98.573 E5.10939
G1 X85.247 Y98.818 E5.14864
G1 X84.441 Y98.012 E5.20174
G1 X84.441 Y97.451 E5.22789
G1 X85.512 Y98.522 E5.29845
G1 X85.610 Y98.059 E5.32052
G1 X84.441 Y96.889 E5.39752
G1 X84.441 Y96.328 E5.42367
G1 X85.610 Y97.497 E5.50067
G1 X85.610 Y96.936 E5.52682
G1 X84.441 Y95.767 E5.60382
G1 X84.441 Y95.205 E5.62997
G1 X85.610 Y96.375 E5.70697
G1 X85.610 Y95.813 E5.73312
G1 X84.441 Y94.644 E5.81013
G1 X84.441 Y94.083 E5.83627
G1 X85.610 Y95.252 E5.91328
G1 X85.610 Y94.691 E5.93942
G1 X84.441 Y93.521 E6.01643
G1 X84.441 Y92.960 E6.04257
G1 X85.610 Y94.129 E6.11958
G1 X85.610 Y93.568 E6.14572
G1 X84.845 Y92.803 E6.19611
G1 X85.407 Y92.803 E6.22225
G1 X85.610 Y93.007 E6.23566
G1 X85.643 Y98.664 F7800.000
G1 X86.525 Y99.452 E6.35163 F540.000
G1 X86.679 Y99.583 F7800.000
G1 X94.293 Y107.197 E6.84653 F540.000
G1 X93.739 Y107.197 E6.87199
G1 X92.901 Y106.359 E6.92647
G1 X87.986 Y100.336 F7800.000
G1 X88.733 Y101.083 E6.97503 F540.000
G1 X88.988 Y100.784 E6.99309
G1 X88.296 Y100.092 E7.03804
G1 X88.546 Y99.789 E7.05612
G1 X89.242 Y100.484 E7.10135
G1 X89.497 Y100.185 E7.11941
G1 X88.797 Y99.485 E7.16491
G1 X89.047 Y99.181 E7.18300
G1 X89.751 Y99.886 E7.22878
G1 X90.006 Y99.586 E7.24684
G1 X89.297 Y98.878 E7.29290
G1 X89.548 Y98.574 E7.31098
G1 X90.261 Y99.287 E7.35732
G1 X90.515 Y98.988 E7.37538
G1 X89.798 Y98.271 E7.42199
G1 X90.048 Y97.967 E7.44008
G1 X90.770 Y98.688 E7.48696
G1 X91.024 Y98.389 E7.50502
G1 X90.299 Y97.663 E7.55219
G1 X90.549 Y97.360 E7.57028
G1 X91.279 Y98.090 E7.61772
G1 X91.534 Y97.790 E7.63578
G1 X90.800 Y97.056 E7.68350
G1 X91.050 Y96.753 E7.70158
G1 X91.788 Y97.491 E7.74958
G1 X92.043 Y97.192 E7.76764
G1 X91.300 Y96.449 E7.81591
G1 X91.551 Y96.145 E7.83400
G1 X92.297 Y96.892 E7.88255
G1 X92.552 Y96.593 E7.90061
G1 X91.801 Y95.842 E7.94944
G1 X92.051 Y95.538 E7.96753
G1 X92.807 Y96.294 E8.01663
G1 X93.061 Y95.994 E8.03469
G1 X92.302 Y95.235 E8.08407
G1 X92.552 Y94.931 E8.10216
G1 X93.316 Y95.695 E8.15182
G1 X93.571 Y95.396 E8.16988
G1 X92.802 Y94.627 E8.21982
G1 X93.053 Y94.324 E8.23790
G1 X93.825 Y95.096 E8.28812
G1 X94.080 Y94.797 E8.30618
G1 X93.303 Y94.020 E8.35667
G1 X93.553 Y93.716 E8.37475
G1 X94.334 Y94.497 E8.42552
G1 X94.589 Y94.198 E8.44358
G1 X93.804 Y93.413 E8.49463
G1 X94.054 Y93.109 E8.51271
G1 X94.844 Y93.899 E8.56403
G1 X95.098 Y93.599 E8.58210
G1 X94.304 Y92.806 E8.63369
G1 X94.856 Y92.803 E8.65903
G1 X95.353 Y93.300 E8.69135
G1 X95.410 Y92.803 E8.71434
G1 X95.607 Y93.001 E8.72720
M106 S255
G92 E0
G1 Z0.600 F7800.000
G1 X103.838 Y92.352 F7800.000
G1 X103.838 Y98.715 E1.90665 F600.000
G1 X104.689 Y103.021 E3.22178
G92 E0
G1 X103.874 Y106.648 F7800.000
G1 X103.874 Y106.648 F7800.000
G1 X109.669 Y98.681 F7800.000
G1 X110.972 Y99.535 E0.46678 F600.000
G1 X111.141 Y99.623 E0.52394
G1 X111.447 Y99.745 E0.62257
G1 X112.189 Y99.974 E0.85543
G1 X112.418 Y100.075 E0.93036
G1 X112.899 Y100.352 E1.09667
G1 X113.122 Y100.504 E1.17750
G1 X113.661 Y101.058 E1.40909
G1 X113.826 Y101.314 E1.50046
G1 X114.036 Y101.708 E1.63415
G1 X114.154 Y102.016 E1.73297
G1 X114.270 Y102.431 E1.86219
G1 X114.358 Y103.269 E2.11448
G1 X114.236 Y104.275 E2.41822
G1 X113.903 Y105.060 E2.67378
G1 X113.835 Y105.164 E2.71086
G1 X113.632 Y105.426 E2.81031
G1 X113.360 Y105.723 E2.93104
G1 X112.863 Y106.096 E3.11710
G1 X112.552 Y106.276 E3.22482
G1 X111.942 Y106.516 E3.42115
G1 X111.438 Y106.657 E3.57798
G1 X111.064 Y106.721 E3.69188
G1 X109.798 Y106.818 E4.07227
G1 X104.874 Y106.818 E5.54773
G1 X103.911 Y106.539 E5.84798
G1 X103.838 Y105.989 E6.01435
G1 X103.838 Y100.352 E7.70345
G1 X104.000 Y99.533 E7.95346
G1 X109.648 Y99.533 E9.64579
G1 X109.956 Y99.506 E9.73845
G1 X110.602 Y99.293 E9.94242
G1 X110.898 Y98.448 E10.21056
G1 X114.808 Y92.352 E12.38069
G92 E0
G1 X104.874 Y91.352 F7800.000
G1 X99.645 Y93.510 F7800.000
G1 X99.343 Y94.594 F7800.000
G1 X96.707 Y92.352 F7800.000
G1 X95.414 Y92.352 F7800.000
G1 X88.749 Y100.310 E3.11048 F600.000
G1 X88.302 Y100.775 E3.30375
G1 X88.752 Y101.587 E3.58188
G1 X94.615 Y107.648 E6.10884
G92 E0
G1 X85.061 Y106.648 F7800.000
G1 X85.061 Y106.648 F7800.000
G1 X85.958 Y102.575 F7800.000
G1 X85.026 Y98.214 E1.33630 F600.000
G1 X85.026 Y92.352 E3.09283
G1 X85.026 Y107.648 F7800.000
G1 X85.026 Y99.984 E5.38932 F600.000
G1 X85.215 Y99.099 E5.66049
G1 X85.385 Y99.099 E5.71145
G1 X86.572 Y99.495 E6.08644
G1 X87.559 Y100.377 E6.48307
G1 X90.027 Y101.699 E7.32204
G92 E0
G1 Z0.900 F7800.000
G1 X103.838 Y92.352 F7800.000
G1 X103.838 Y98.715 E1.90665 F600.000
G1 X104.689 Y103.021 E3.22178
G92 E0
G1 X103.874 Y106.648 F7800.000
G1 X103.874 Y106.648 F7800.000
G1 X109.669 Y98.681 F7800.000
G1 X110.972 Y99.535 E0.46678 F600.000
G1 X111.141 Y99.623 E0.52394
G1 X111.447 Y99.745 E0.62257
G1 X112.189 Y99.974 E0.85543
G1 X112.418 Y100.075 E0.93036
G1 X112.899 Y100.352 E1.09667
G1 X113.122 Y100.504 E1.17750
G1 X113.661 Y101.058 E1.40909
G1 X113.826 Y101.314 E1.50046
G1 X114.036 Y101.708 E1.63415
G1 X114.154 Y102.016 E1.73297
G1 X114.270 Y102.431 E1.86219
G1 X114.358 Y103.269 E2.11448
G1 X114.236 Y104.275 E2.41822
G1 X113.903 Y105.060 E2.67378
G1 X113.835 Y105.164 E2.71086
G1 X113.632 Y105.426 E2.81031
G1 X113.360 Y105.723 E2.93104
G1 X112.863 Y106.096 E3.11710
G1 X112.552 Y106.276 E3.22482
G1 X111.942 Y106.516 E3.42115
G1 X111.438 Y106.657 E3.57798
G1 X111.064 Y106.721 E3.69188
G1 X109.798 Y106.818 E4.07227
G1 X104.874 Y106.818 E5.54773
G1 X103.911 Y106.539 E5.84798
G1 X103.838 Y105.989 E6.01435
G1 X103.838 Y100.352 E7.70345
G1 X104.000 Y99.533 E7.95346
G1 X109.648 Y99.533 E9.64579
G1 X109.956 Y99.506 E9.73845
G1 X110.602 Y99.293 E9.94242
G1 X110.898 Y98.448 E10.21056
G1 X114.808 Y92.352 E12.38069
G92 E0
G1 X104.874 Y91.352 F7800.000
G1 X99.645 Y93.510 F7800.000
G1 X99.343 Y94.594 F7800.000
G1 X96.707 Y92.352 F7800.000
G1 X95.414 Y92.352 F7800.000
G1 X88.749 Y100.310 E3.11048 F600.000
G1 X88.302 Y100.775 E3.30375
G1 X88.752 Y101.587 E3.58188
G1 X94.615 Y107.648 E6.10884
G92 E0
G1 X85.061 Y106.648 F7800.000
G1 X85.061 Y106.648 F7800.000
G1 X85.958 Y102.575 F7800.000
G1 X85.026 Y98.214 E1.33630 F600.000
G1 X85.026 Y92.352 E3.09283
G1 X85.026 Y107.648 F7800.000
G1 X85.026 Y99.984 E5.38931 F600.000
G1 X85.215 Y99.099 E5.66049
G1 X85.385 Y99.099 E5.71145
G1 X86.572 Y99.495 E6.08644
G1 X87.559 Y100.377 E6.48307
G1 X90.027 Y101.699 E7.32204
G92 E0
G1 Z1.200 F7800.000
G1 X103.838 Y92.352 F7800.000
G1 X103.838 Y98.715 E1.90665 F600.000
G1 X104.689 Y103.021 E3.22178
G92 E0
G1 X103.874 Y106.648 F7800.000
G1 X103.874 Y106.648 F7800.000
G1 X109.669 Y98.681 F7800.000
G1 X110.972 Y99.535 E0.46678 F600.000
G1 X111.141 Y99.623 E0.52394
G1 X111.447 Y99.745 E0.62257
G1 X112.189 Y99.974 E0.85543
G1 X112.418 Y100.075 E0.93036
G1 X112.899 Y100.352 E1.09667
G1 X113.122 Y100.504 E1.17750
G1 X113.661 Y101.058 E1.40909
G1 X113.826 Y101.314 E1.50046
G1 X114.036 Y101.708 E1.63415
G1 X114.154 Y102.016 E1.73297
G1 X114.270 Y102.431 E1.86219
G1 X114.358 Y103.269 E2.11448
G1 X114.236 Y104.275 E2.41822
G1 X113.903 Y105.060 E2.67378
G1 X113.835 Y105.164 E2.71086
G1 X113.632 Y105.426 E2.81031
G1 X113.360 Y105.723 E2.93104
G1 X112.863 Y106.096 E3.11710
G1 X112.552 Y106.276 E3.22482
G1 X111.942 Y106.516 E3.42115
G1 X111.438 Y106.657 E3.57798
G1 X111.064 Y106.721 E3.69188
G1 X109.798 Y106.818 E4.07227
G1 X104.874 Y106.818 E5.54773
G1 X103.911 Y106.539 E5.84798
G1 X103.838 Y105.989 E6.01435
G1 X103.838 Y100.352 E7.70345
G1 X104.000 Y99.533 E7.95346
G1 X109.648 Y99.533 E9.64579
G1 X109.956 Y99.506 E9.73845
