; generated by Slic3r 1.2.9 on 2016-03-11 at 01:26:41

; external perimeters extrusion width = 1.54mm
; perimeters extrusion width = 2.62mm
; infill extrusion width = 6.27mm
; solid infill extrusion width = 2.62mm
; top infill extrusion width = 2.62mm

M107
M104 S30 ; set temperature
G28 ; home all axes
G1 Z5 F5000 ; lift nozzle
M302
M92 E10000
M500
M501
G1 E100
M109 S30 ; wait for temperature to be reached
G21 ; set units to millimeters
G90 ; use absolute coordinates
M82 ; use absolute distances for extrusion
G92 E0
G1 Z0.300 F7800.000
G1 X112.231 Y105.604 F7800.000
G1 X112.429 Y105.449 E0.01140 F378.000
G1 X112.889 Y104.813 E0.04692
G1 X113.123 Y104.221 E0.07570
G1 X114.708 Y104.500 E0.14851
G1 X114.361 Y105.373 E0.19104
G1 X113.752 Y106.231 E0.23861
G1 X112.976 Y106.848 E0.28347
G1 X111.974 Y107.270 E0.33269
G1 X110.688 Y107.528 E0.39203
G1 X109.123 Y107.615 E0.46297
G1 X107.439 Y107.499 E0.53936
G1 X106.053 Y107.157 E0.60395
G1 X104.963 Y106.595 E0.65943
G1 X104.182 Y105.839 E0.70861
G1 X103.716 Y104.901 E0.75602
G1 X103.557 Y103.754 E0.80842
G1 X103.587 Y103.243 E0.83159
G1 X103.676 Y102.768 E0.85343
G1 X103.825 Y102.338 E0.87403
G1 X104.029 Y101.947 E0.89401
G1 X104.286 Y101.589 E0.91395
G1 X104.597 Y101.265 E0.93425
G1 X104.978 Y100.966 E0.95618
G1 X105.449 Y100.681 E0.98108
G1 X106.010 Y100.413 E1.00921
G1 X106.714 Y100.153 E1.04316
G1 X107.615 Y99.890 E1.08565
G1 X110.614 Y99.180 E1.22509
G1 X111.168 Y99.030 E1.25108
G1 X111.674 Y98.855 E1.27530
G1 X112.131 Y98.655 E1.29787
G1 X112.537 Y98.420 E1.31910
G1 X112.885 Y98.141 E1.33927
G1 X113.172 Y97.817 E1.35889
G1 X113.386 Y97.431 E1.37884
G1 X113.513 Y96.981 E1.40000
G1 X113.555 Y96.467 E1.42331
G1 X113.424 Y95.589 E1.46350
G1 X113.024 Y94.847 E1.50165
G1 X112.365 Y94.270 E1.54127
G1 X111.488 Y93.866 E1.58497
G1 X110.496 Y93.646 E1.63093
G1 X109.156 Y93.551 E1.69175
G1 X107.924 Y93.624 E1.74757
G1 X106.866 Y93.847 E1.79649
G1 X105.980 Y94.225 E1.84011
G1 X105.268 Y94.774 E1.88076
G1 X104.742 Y95.498 E1.92129
G1 X104.481 Y96.185 E1.95451
G1 X102.954 Y95.880 E2.02499
G1 X103.900 Y94.045 E2.11839
G1 X105.959 Y92.808 E2.22709
G1 X109.086 Y92.386 E2.36984
G1 X110.773 Y92.503 E2.44638
G1 X110.892 Y92.512 E2.45177 F378.000
G1 X112.397 Y92.886 E2.52195
G1 X113.594 Y93.502 E2.58288
G1 X114.460 Y94.330 E2.63708
G1 X114.976 Y95.351 E2.68885
G1 X115.152 Y96.593 E2.74562
G1 X115.127 Y97.090 E2.76813
G1 X115.054 Y97.546 E2.78902
G1 X114.933 Y97.953 E2.80823
G1 X114.770 Y98.320 E2.82642
G1 X114.570 Y98.653 E2.84397
G1 X114.333 Y98.952 E2.86121
G1 X114.061 Y99.220 E2.87852
G1 X113.758 Y99.461 E2.89607
G1 X113.420 Y99.675 E2.91416
G1 X113.055 Y99.867 E2.93278
G1 X112.259 Y100.205 E2.97194
G1 X111.399 Y100.480 E3.01278
G1 X108.299 Y101.222 E3.15701
G1 X107.352 Y101.487 E3.20150
G1 X106.706 Y101.724 E3.23268
G1 X106.246 Y101.967 E3.25618
G1 X105.859 Y102.246 E3.27779
G1 X105.543 Y102.568 E3.29819
G1 X105.308 Y102.947 E3.31835
G1 X105.168 Y103.384 E3.33914
G1 X105.122 Y103.877 E3.36154
G1 X105.238 Y104.675 E3.39804
G1 X105.597 Y105.346 E3.43248
G1 X106.187 Y105.864 E3.46800
G1 X106.976 Y106.224 E3.50726
G1 X107.947 Y106.434 E3.55220
G1 X109.100 Y106.503 E3.60448
G1 X110.160 Y106.441 E3.65250
G1 X111.066 Y106.250 E3.69442
G1 X111.821 Y105.925 E3.73160
G1 X112.049 Y105.747 E3.74470
G1 X114.276 Y105.040 F7800.000
G1 X113.826 Y104.590 E3.77371 F540.000
G1 X113.218 Y104.531 E3.80153
G1 X114.097 Y105.410 E3.85817
G1 X113.869 Y105.731 E3.87610
G1 X113.054 Y104.916 E3.92861
G1 X112.823 Y105.234 E3.94652
G1 X113.634 Y106.045 E3.99873
G1 X113.347 Y106.307 E4.01642
G1 X112.593 Y105.552 E4.06500
G1 X112.292 Y105.801 E4.08276
G1 X113.041 Y106.550 E4.13099
G1 X112.692 Y106.750 E4.14931
G1 X111.985 Y106.042 E4.19489
G1 X111.622 Y106.229 E4.21344
G1 X112.306 Y106.912 E4.25747
G1 X111.911 Y107.067 E4.27677
G1 X111.239 Y106.394 E4.32009
G1 X110.814 Y106.518 E4.34023
G1 X111.454 Y107.158 E4.38144
G1 X110.997 Y107.250 E4.40268
G1 X110.361 Y106.614 E4.44365
G1 X109.877 Y106.679 E4.46587
G1 X110.514 Y107.315 E4.50686
G1 X109.994 Y107.344 E4.53058
G1 X109.359 Y106.710 E4.57145
G1 X108.818 Y106.718 E4.59608
G1 X109.474 Y107.373 E4.63828
G1 X108.920 Y107.368 E4.66350
G1 X108.235 Y106.683 E4.70765
G1 X107.616 Y106.613 E4.73599
G1 X108.331 Y107.328 E4.78201
G1 X107.741 Y107.288 E4.80891
G1 X106.915 Y106.461 E4.86211
G1 X107.054 Y107.149 E4.89403
G1 X105.959 Y106.054 E4.96455
G1 X105.237 Y106.430 F7800.000
G1 X104.324 Y105.517 E5.02336 F540.000
G1 X105.325 Y105.420 F7800.000
G1 X103.820 Y103.915 E5.12035 F540.000
G1 X103.802 Y103.349 E5.14614
G1 X104.975 Y104.521 E5.22164
G1 X104.900 Y103.897 E5.25022
G1 X103.873 Y102.870 E5.31637
G1 X104.002 Y102.450 E5.33639
G1 X104.949 Y103.397 E5.39739
G1 X105.082 Y102.981 E5.41727
G1 X104.181 Y102.081 E5.47527
G1 X104.405 Y101.755 E5.49324
G1 X105.277 Y102.627 E5.54941
G1 X105.518 Y102.320 E5.56721
G1 X104.667 Y101.469 E5.62201
G1 X104.967 Y101.220 E5.63976
G1 X105.799 Y102.051 E5.69333
G1 X106.117 Y101.821 E5.71123
G1 X105.297 Y101.001 E5.76404
G1 X105.650 Y100.805 E5.78243
G1 X106.470 Y101.625 E5.83524
G1 X106.849 Y101.455 E5.85416
G1 X106.022 Y100.628 E5.90744
G1 X106.420 Y100.478 F7800.000
G1 X107.251 Y101.308 E5.96093 F540.000
G1 X107.674 Y101.182 E5.98103
G1 X106.827 Y100.335 E6.03559
G1 X107.251 Y100.211 E6.05575
G1 X108.103 Y101.062 E6.11057
G1 X108.539 Y100.950 E6.13110
G1 X107.679 Y100.090 E6.18648
G1 X108.123 Y99.985 E6.20725
G1 X108.982 Y100.844 E6.26257
G1 X109.425 Y100.738 E6.28332
G1 X108.567 Y99.880 E6.33858
G1 X109.011 Y99.775 E6.35935
G1 X109.868 Y100.632 E6.41456
G1 X110.311 Y100.526 E6.43530
G1 X109.454 Y99.670 E6.49045
G1 X109.898 Y99.564 E6.51122
G1 X110.754 Y100.420 E6.56631
G1 X111.197 Y100.314 E6.58705
G1 X110.342 Y99.459 E6.64208
G1 X110.781 Y99.350 E6.66269
G1 X111.625 Y100.193 E6.71702
G1 X112.040 Y100.060 E6.73690
G1 X111.211 Y99.230 E6.79032
G1 X112.440 Y99.910 F7800.000
G1 X111.619 Y99.089 E6.84319 F540.000
G1 X112.006 Y98.928 E6.86231
G1 X112.825 Y99.747 E6.91504
G1 X113.197 Y99.569 E6.93380
G1 X112.370 Y98.743 E6.98702
G1 X112.707 Y98.531 E7.00514
G1 X113.543 Y99.367 E7.05896
G1 X113.859 Y99.135 E7.07684
G1 X113.012 Y98.287 E7.13143
G1 X113.270 Y97.996 E7.14914
G1 X114.143 Y98.869 E7.20538
G1 X114.391 Y98.568 E7.22314
G1 X113.483 Y97.661 E7.28159
G1 X113.645 Y97.274 E7.30070
G1 X114.594 Y98.223 E7.36182
G1 X114.754 Y97.833 E7.38099
G1 X113.746 Y96.825 E7.44589
G1 X113.772 Y96.302 E7.46975
G1 X114.862 Y97.393 E7.53997
G1 X114.914 Y96.896 E7.56270
G1 X113.676 Y95.658 E7.64247
G1 X113.244 Y94.677 F7800.000
G1 X114.870 Y96.303 E7.74717 F540.000
G1 X114.780 Y95.664 E7.77657
G1 X112.215 Y93.099 E7.94175
G1 X113.478 Y93.813 F7800.000
G1 X114.320 Y94.655 E7.99597 F540.000
G1 X112.955 Y94.388 F7800.000
G1 X111.481 Y92.914 E8.09091 F540.000
G1 X110.753 Y92.734 E8.12509
G1 X111.676 Y93.658 E8.18458
G1 X110.969 Y93.499 E8.21762
G1 X110.163 Y92.693 E8.26952
G1 X109.573 Y92.652 E8.29645
G1 X110.321 Y93.401 E8.34467
G1 X109.730 Y93.359 E8.37165
G1 X108.988 Y92.617 E8.41944
G1 X108.505 Y92.682 E8.44167
G1 X109.152 Y93.329 E8.48334
G1 X108.634 Y93.360 E8.50697
G1 X108.021 Y92.747 E8.54642
G1 X107.538 Y92.813 E8.56865
G1 X108.116 Y93.391 E8.60589
G1 X107.644 Y93.468 E8.62768
G1 X107.054 Y92.878 E8.66566
G1 X106.570 Y92.943 E8.68789
G1 X107.190 Y93.563 E8.72782
G1 X106.755 Y93.677 E8.74831
G1 X106.087 Y93.009 E8.79135
G1 X105.713 Y93.184 E8.81014
G1 X106.370 Y93.841 E8.85245
G1 X105.985 Y94.005 E8.87150
G1 X105.370 Y93.390 E8.91111
G1 X105.028 Y93.596 E8.92933
G1 X105.660 Y94.228 E8.97005
G1 X105.350 Y94.467 E8.98787
G1 X104.685 Y93.802 E9.03072
G1 X104.342 Y94.008 E9.04894
G1 X105.062 Y94.728 E9.09534
G1 X104.831 Y95.046 E9.11324
G1 X104.024 Y94.239 E9.16522
G1 X103.836 Y94.600 E9.18375
G1 X104.600 Y95.364 E9.23295
G1 X104.432 Y95.745 E9.25191
G1 X103.649 Y94.962 E9.30231
G1 X103.463 Y95.324 E9.32087
G1 X103.973 Y95.835 E9.35375
G92 E0
G1 X105.118 Y101.841 F7800.000
G1 X104.918 Y102.074 F7800.000
G1 X104.562 Y102.655 F7800.000
G1 X104.392 Y103.226 F7800.000
G1 X104.376 Y103.340 F7800.000
G1 X104.358 Y103.337 F7800.000
G1 X103.908 Y104.551 F7800.000
G1 X106.325 Y106.968 E0.15568 F540.000
G92 E0
G1 X103.498 Y104.968 F7800.000
G1 X99.676 Y105.496 F7800.000
G1 X99.377 Y104.810 F7800.000
G1 X96.474 Y107.648 F7800.000
G1 X93.148 Y106.398 F7800.000
G1 X86.469 Y99.424 E0.43694 F378.000
G1 X86.469 Y107.423 E0.79890
G1 X84.848 Y107.423 E0.87225
G1 X84.848 Y92.577 E1.54402
G1 X86.469 Y92.577 E1.61737
G1 X86.469 Y98.325 E1.87747
G1 X88.718 Y100.044 E2.00559 F378.000
G1 X94.876 Y92.577 E2.44354
G1 X96.853 Y92.577 E2.53301
G1 X89.676 Y101.015 E3.03422
G1 X95.939 Y107.423 E3.43968
G1 X94.130 Y107.423 E3.52156
G1 X93.308 Y106.564 E3.57535
G1 X93.533 Y106.359 F7800.000
G1 X94.371 Y107.197 E3.62983 F540.000
G1 X94.925 Y107.197 E3.65530
G1 X87.312 Y99.583 E4.15020
G1 X88.618 Y100.336 F7800.000
G1 X89.365 Y101.083 E4.19875 F540.000
G1 X89.620 Y100.784 E4.21681
G1 X88.929 Y100.092 E4.26176
G1 X89.179 Y99.789 E4.27985
G1 X89.875 Y100.484 E4.32507
G1 X90.129 Y100.185 E4.34313
G1 X89.429 Y99.485 E4.38863
G1 X89.680 Y99.181 E4.40672
G1 X90.384 Y99.886 E4.45250
G1 X90.638 Y99.586 E4.47056
G1 X89.930 Y98.878 E4.51662
G1 X90.180 Y98.574 E4.53471
G1 X90.893 Y99.287 E4.58104
G1 X91.148 Y98.988 E4.59910
G1 X90.431 Y98.271 E4.64571
G1 X90.681 Y97.967 E4.66380
G1 X91.402 Y98.688 E4.71069
G1 X91.657 Y98.389 E4.72875
G1 X90.931 Y97.663 E4.77591
G1 X91.182 Y97.360 E4.79400
G1 X91.912 Y98.090 E4.84144
G1 X92.166 Y97.790 E4.85950
G1 X91.432 Y97.056 E4.90722
G1 X91.682 Y96.753 E4.92531
G1 X92.421 Y97.491 E4.97330
G1 X92.675 Y97.192 E4.99137
G1 X91.933 Y96.449 E5.03964
G1 X92.183 Y96.145 E5.05773
G1 X92.930 Y96.892 E5.10627
G1 X93.185 Y96.593 E5.12434
G1 X92.433 Y95.842 E5.17316
G1 X92.684 Y95.538 E5.19125
G1 X93.439 Y96.294 E5.24035
G1 X93.694 Y95.994 E5.25842
G1 X92.934 Y95.235 E5.30780
G1 X93.184 Y94.931 E5.32588
G1 X93.948 Y95.695 E5.37554
G1 X94.203 Y95.396 E5.39360
G1 X93.435 Y94.627 E5.44354
G1 X93.685 Y94.324 E5.46163
G1 X94.458 Y95.096 E5.51184
G1 X94.712 Y94.797 E5.52990
G1 X93.935 Y94.020 E5.58039
G1 X94.186 Y93.716 E5.59848
G1 X94.967 Y94.497 E5.64924
G1 X95.221 Y94.198 E5.66731
G1 X94.436 Y93.413 E5.71835
G1 X94.687 Y93.109 E5.73644
G1 X95.476 Y93.899 E5.78776
G1 X95.731 Y93.599 E5.80582
G1 X94.937 Y92.806 E5.85742
G1 X95.488 Y92.803 E5.88275
G1 X95.985 Y93.300 E5.91507
G1 X96.042 Y92.803 E5.93807
G1 X96.240 Y93.001 E5.95092
G92 E0
G1 X85.694 Y93.352 F7800.000
G1 X85.694 Y93.352 F7800.000
G1 X86.243 Y93.007 F7800.000
G1 X86.039 Y92.803 E0.01341 F540.000
G1 X85.478 Y92.803 E0.03956
G1 X86.243 Y93.568 E0.08994
G1 X86.243 Y94.129 E0.11608
G1 X85.074 Y92.960 E0.19309
G1 X85.074 Y93.521 E0.21924
G1 X86.243 Y94.691 E0.29624
G1 X86.243 Y95.252 E0.32239
G1 X85.074 Y94.083 E0.39939
G1 X85.074 Y94.644 E0.42554
G1 X86.243 Y95.813 E0.50254
G1 X86.243 Y96.375 E0.52869
G1 X85.074 Y95.205 E0.60569
G1 X85.074 Y95.767 E0.63184
G1 X86.243 Y96.936 E0.70884
G1 X86.243 Y97.497 E0.73499
G1 X85.074 Y96.328 E0.81199
G1 X85.074 Y96.889 E0.83814
G1 X86.243 Y98.059 E0.91515
G1 X86.145 Y98.522 E0.93721
G1 X85.074 Y97.451 E1.00777
G1 X85.074 Y98.012 E1.03392
G1 X85.880 Y98.818 E1.08702
G1 X85.074 Y98.573 E1.12627
G1 X86.243 Y99.743 E1.20327
G1 X86.243 Y100.304 E1.22942
G1 X85.074 Y99.135 E1.30643
G1 X85.074 Y99.696 E1.33257
G1 X86.243 Y100.865 E1.40958
G1 X86.243 Y101.427 E1.43572
G1 X85.074 Y100.257 E1.51273
G1 X85.074 Y100.819 E1.53887
G1 X86.243 Y101.988 E1.61588
G1 X86.243 Y102.549 E1.64202
G1 X85.074 Y101.380 E1.71903
G1 X85.074 Y101.941 E1.74517
G1 X86.243 Y103.111 E1.82218
G1 X86.243 Y103.672 E1.84832
G1 X85.074 Y102.503 E1.92533
G1 X85.074 Y103.064 E1.95147
G1 X86.243 Y104.233 E2.02848
G1 X86.243 Y104.795 E2.05462
G1 X85.074 Y103.625 E2.13163
G1 X85.074 Y104.187 E2.15777
G1 X86.243 Y105.356 E2.23478
G1 X86.243 Y105.917 E2.26092
G1 X85.074 Y104.748 E2.33793
G1 X85.074 Y105.309 E2.36407
G1 X86.243 Y106.479 E2.44108
G1 X86.243 Y107.040 E2.46722
G1 X85.074 Y105.871 E2.54423
G1 X85.074 Y106.432 E2.57038
G1 X85.839 Y107.197 E2.62076
G1 X85.277 Y107.197 E2.64690
G1 X85.074 Y106.993 E2.66031
G92 E0
G1 X85.694 Y106.648 F7800.000
G1 X85.694 Y106.648 F7800.000
G1 X87.157 Y99.452 F7800.000
G1 X86.276 Y98.664 E0.11596 F540.000
M106 S255
G92 E0
G1 Z0.600 F7800.000
G1 X114.270 Y104.194 F7800.000
G1 X113.191 Y105.700 E0.55491 F600.000
G1 X112.847 Y106.033 E0.69860
G1 X112.606 Y106.223 E0.79046
G1 X112.254 Y106.430 E0.91289
G1 X111.783 Y106.647 E1.06842
G1 X111.166 Y106.831 E1.26133
G1 X110.614 Y106.944 E1.43012
G1 X110.176 Y106.998 E1.56233
G1 X109.126 Y107.058 E1.87733
G1 X107.932 Y106.983 E2.23605
G1 X107.528 Y106.930 E2.35813
G1 X106.881 Y106.780 E2.55716
G1 X106.270 Y106.577 E2.74986
G1 X105.754 Y106.307 E2.92442
G1 X105.361 Y106.040 E3.06680
G1 X105.185 Y105.878 E3.13852
G1 X104.967 Y105.636 E3.23611
G1 X104.787 Y105.397 E3.32584
G1 X104.610 Y105.055 E3.44121
G1 X104.460 Y104.671 E3.56451
G1 X104.367 Y104.014 E3.76345
G1 X104.347 Y103.723 E3.85102
G1 X104.376 Y103.334 E3.96772
G1 X104.455 Y102.975 E4.07798
G1 X104.563 Y102.656 E4.17893
G1 X104.643 Y102.501 E4.23124
G1 X104.900 Y102.100 E4.37392
G1 X105.131 Y101.855 E4.47474
G1 X105.420 Y101.606 E4.58916
G1 X105.809 Y101.349 E4.72874
G1 X106.347 Y101.077 E4.90935
G1 X107.164 Y100.782 E5.16987
G1 X108.099 Y100.523 E5.46057
G1 X111.203 Y99.777 E6.41693
G1 X111.976 Y99.524 E6.66076
G1 X112.513 Y99.291 E6.83617
G1 X113.032 Y99.010 E7.01295
G1 X113.363 Y98.768 E7.13573
G1 X113.729 Y98.410 E7.28923
G1 X113.898 Y98.188 E7.37288
G1 X114.041 Y97.941 E7.45825
G1 X114.166 Y97.670 E7.54785
G1 X114.255 Y97.364 E7.64338
G1 X114.322 Y97.006 E7.75242
G1 X114.346 Y96.630 E7.86529
G1 X114.324 Y96.327 E7.95631
G1 X114.217 Y95.589 E8.17975
G1 X114.063 Y95.199 E8.30541
G1 X113.846 Y94.785 E8.44550
G1 X113.665 Y94.547 E8.53510
G1 X113.444 Y94.305 E8.63322
G1 X113.189 Y94.072 E8.73700
G1 X112.597 Y93.690 E8.94805
G1 X112.172 Y93.484 E9.08944
G1 X111.591 Y93.289 E9.27307
G1 X110.799 Y93.103 E9.51705
G1 X110.561 Y93.068 E9.58912
G1 X109.105 Y92.971 E10.02639
G1 X107.797 Y93.102 E10.42013
G1 X106.615 Y93.314 E10.78002
G1 X106.179 Y93.434 E10.91555
G1 X105.764 Y93.646 E11.05522
G1 X104.888 Y94.228 E11.37028
G1 X104.473 Y94.582 E11.53377
G1 X104.066 Y95.275 E11.77440
G1 X103.634 Y96.245 E12.09276
G92 E0
G1 X102.617 Y96.042 F7800.000
G1 X99.731 Y94.554 F7800.000
G1 X99.802 Y94.447 F7800.000
G1 X97.340 Y92.352 F7800.000
G1 X96.046 Y92.352 F7800.000
G1 X89.382 Y100.310 E3.11048 F600.000
G1 X88.934 Y100.775 E3.30375
G1 X89.384 Y101.587 E3.58188
G1 X95.248 Y107.648 E6.10884
G92 E0
G1 X85.694 Y106.648 F7800.000
G1 X85.694 Y106.648 F7800.000
G1 X86.590 Y102.575 F7800.000
G1 X85.658 Y98.214 E1.33630 F600.000
G1 X85.658 Y92.352 E3.09283
G1 X85.658 Y107.648 F7800.000
G1 X85.658 Y99.984 E5.38931 F600.000
G1 X85.847 Y99.099 E5.66049
G1 X86.017 Y99.099 E5.71145
G1 X87.205 Y99.495 E6.08644
G1 X88.191 Y100.377 E6.48307
G1 X90.660 Y101.699 E7.32204
G92 E0
G1 Z0.900 F7800.000
G1 X114.270 Y104.194 F7800.000
G1 X113.191 Y105.700 E0.55491 F600.000
G1 X112.847 Y106.033 E0.69860
G1 X112.606 Y106.223 E0.79046
G1 X112.254 Y106.430 E0.91289
G1 X111.783 Y106.647 E1.06842
G1 X111.166 Y106.831 E1.26133
G1 X110.614 Y106.944 E1.43012
G1 X110.176 Y106.998 E1.56233
G1 X109.126 Y107.058 E1.87733
G1 X107.932 Y106.983 E2.23605
G1 X107.528 Y106.930 E2.35813
G1 X106.881 Y106.780 E2.55716
G1 X106.270 Y106.577 E2.74986
G1 X105.754 Y106.307 E2.92442
G1 X105.361 Y106.040 E3.06680
G1 X105.185 Y105.878 E3.13852
G1 X104.967 Y105.636 E3.23611
G1 X104.787 Y105.397 E3.32584
G1 X104.610 Y105.055 E3.44121
G1 X104.460 Y104.671 E3.56451
G1 X104.367 Y104.014 E3.76345
G1 X104.347 Y103.723 E3.85102
G1 X104.376 Y103.334 E3.96772
G1 X104.455 Y102.975 E4.07798
G1 X104.563 Y102.656 E4.17893
G1 X104.643 Y102.501 E4.23124
G1 X104.900 Y102.100 E4.37392
G1 X105.131 Y101.855 E4.47474
G1 X105.420 Y101.606 E4.58916
G1 X105.809 Y101.349 E4.72874
G1 X106.347 Y101.077 E4.90935
G1 X107.164 Y100.782 E5.16987
G1 X108.099 Y100.523 E5.46057
G1 X111.203 Y99.777 E6.41693
G1 X111.976 Y99.524 E6.66076
G1 X112.513 Y99.291 E6.83617
