; generated by Slic3r 1.2.9 on 2016-03-11 at 01:26:46

; external perimeters extrusion width = 1.54mm
; perimeters extrusion width = 2.62mm
; infill extrusion width = 6.27mm
; solid infill extrusion width = 2.62mm
; top infill extrusion width = 2.62mm

M107
M104 S30 ; set temperature
G28 ; home all axes
G1 Z5 F5000 ; lift nozzle
M302
M92 E10000
M500
M501
G1 E100
M109 S30 ; wait for temperature to be reached
G21 ; set units to millimeters
G90 ; use absolute coordinates
M82 ; use absolute distances for extrusion
G92 E0
G1 Z0.300 F7800.000
G1 X112.124 Y96.964 F7800.000
G1 X109.716 Y100.376 E0.18897 F378.000
G1 X114.771 Y107.423 E0.58139
G1 X113.040 Y107.423 E0.65972
G1 X108.805 Y101.251 E0.99842
G1 X104.448 Y107.423 E1.34027
G1 X102.719 Y107.423 E1.41851
G1 X107.912 Y100.299 E1.81742
G1 X102.275 Y92.577 E2.25002
G1 X104.003 Y92.577 E2.32821
G1 X108.257 Y98.666 E2.66431
G1 X108.793 Y99.435 E2.70672 F378.000
G1 X113.484 Y92.577 E3.08267
G1 X115.219 Y92.577 E3.16119
G1 X112.257 Y96.775 E3.39367
G1 X114.683 Y93.001 F7800.000
G1 X114.485 Y92.803 E3.40651 F540.000
G1 X114.454 Y93.325 E3.43047
G1 X113.932 Y92.803 E3.46430
G1 X113.490 Y92.913 E3.48522
G1 X114.226 Y93.649 E3.53295
G1 X113.997 Y93.973 E3.55112
G1 X113.265 Y93.241 E3.59858
G1 X113.041 Y93.569 E3.61680
G1 X113.769 Y94.297 E3.66399
G1 X113.540 Y94.621 E3.68216
G1 X112.816 Y93.897 E3.72908
G1 X112.592 Y94.225 E3.74730
G1 X113.312 Y94.944 E3.79395
G1 X113.083 Y95.268 E3.81213
G1 X112.368 Y94.553 E3.85851
G1 X112.143 Y94.881 E3.87673
G1 X112.854 Y95.592 E3.92284
G1 X112.626 Y95.916 E3.94102
G1 X111.919 Y95.209 E3.98686
G1 X111.694 Y95.537 E4.00508
G1 X112.397 Y96.240 E4.05066
G1 X112.169 Y96.564 E4.06883
G1 X111.470 Y95.865 E4.11414
G1 X111.246 Y96.193 E4.13236
G1 X111.940 Y96.888 E4.17739
G1 X111.712 Y97.212 E4.19557
G1 X111.021 Y96.521 E4.24033
G1 X110.797 Y96.849 E4.25855
G1 X111.483 Y97.536 E4.30305
G1 X111.255 Y97.860 E4.32123
G1 X110.572 Y97.177 E4.36546
G1 X110.348 Y97.506 E4.38368
G1 X111.026 Y98.184 E4.42764
G1 X110.797 Y98.508 E4.44581
G1 X110.124 Y97.834 E4.48950
G1 X109.899 Y98.162 E4.50772
G1 X110.569 Y98.831 E4.55114
G1 X110.340 Y99.155 E4.56932
G1 X109.675 Y98.490 E4.61247
G1 X109.450 Y98.818 E4.63069
G1 X110.112 Y99.479 E4.67357
G1 X109.883 Y99.803 E4.69175
G1 X109.226 Y99.146 E4.73436
G1 X109.001 Y99.474 E4.75258
G1 X109.655 Y100.127 E4.79493
G1 X109.426 Y100.451 E4.81310
G1 X105.559 Y96.584 E5.06380
G1 X105.958 Y95.878 F7800.000
G1 X102.883 Y92.803 E5.26318 F540.000
G1 X103.435 Y92.803 E5.28850
G1 X104.678 Y94.046 E5.36908
G1 X104.066 Y94.538 F7800.000
G1 X107.238 Y97.711 E5.57477 F540.000
G1 X107.052 Y98.630 F7800.000
G1 X110.787 Y102.364 E5.81685 F540.000
G1 X110.429 Y103.111 F7800.000
G1 X113.590 Y106.273 E6.02180 F540.000
G1 X112.845 Y106.632 F7800.000
G1 X113.410 Y107.197 E6.05843 F540.000
G1 X113.962 Y107.197 E6.08376
G1 X111.637 Y104.872 E6.23451
G1 X112.188 Y104.318 F7800.000
G1 X108.159 Y100.289 E6.49575 F540.000
G1 X107.926 Y100.608 E6.51388
G1 X108.568 Y101.251 E6.55552
G1 X108.340 Y101.574 E6.57370
G1 X107.693 Y100.928 E6.61562
G1 X107.460 Y101.247 E6.63375
G1 X108.111 Y101.898 E6.67595
G1 X107.882 Y102.222 E6.69412
G1 X107.227 Y101.567 E6.73661
G1 X106.994 Y101.886 E6.75473
G1 X107.654 Y102.546 E6.79749
G1 X107.425 Y102.870 E6.81567
G1 X106.761 Y102.206 E6.85871
G1 X106.528 Y102.525 E6.87683
G1 X107.196 Y103.194 E6.92015
G1 X106.968 Y103.518 E6.93833
G1 X106.295 Y102.845 E6.98192
G1 X106.062 Y103.165 E7.00005
G1 X106.739 Y103.841 E7.04393
G1 X106.510 Y104.165 E7.06210
G1 X105.829 Y103.484 E7.10625
G1 X105.596 Y103.804 E7.12438
G1 X106.282 Y104.489 E7.16882
G1 X106.053 Y104.813 E7.18699
G1 X105.364 Y104.123 E7.23170
G1 X105.131 Y104.443 E7.24983
G1 X105.825 Y105.137 E7.29482
G1 X105.596 Y105.461 E7.31299
G1 X104.898 Y104.762 E7.35826
G1 X104.665 Y105.082 E7.37639
G1 X105.367 Y105.784 E7.42194
G1 X105.139 Y106.108 E7.44011
G1 X104.432 Y105.401 E7.48594
G1 X104.199 Y105.721 E7.50407
G1 X104.910 Y106.432 E7.55017
G1 X104.681 Y106.756 E7.56835
G1 X103.966 Y106.040 E7.61473
G1 X103.733 Y106.360 E7.63286
G1 X104.453 Y107.080 E7.67952
G1 X104.018 Y107.197 E7.70019
G1 X103.500 Y106.680 E7.73373
G1 X103.267 Y106.999 E7.75186
G1 X103.465 Y107.197 E7.76469
G92 E0
G1 X102.276 Y107.648 F7800.000
G1 X99.237 Y105.433 F7800.000
G1 X98.920 Y100.686 F7800.000
G1 X89.705 Y101.004 F7800.000
G1 X93.603 Y93.786 F7800.000
G1 X94.600 Y92.577 E0.07090 F378.000
G1 X96.577 Y92.577 E0.16036
G1 X89.400 Y101.015 E0.66158
G1 X95.663 Y107.423 E1.06704
G1 X93.854 Y107.423 E1.14891
G1 X86.193 Y99.424 E1.65010
G1 X86.193 Y107.423 E2.01206
G1 X84.572 Y107.423 E2.08541
G1 X84.572 Y92.577 E2.75718
G1 X86.193 Y92.577 E2.83053
G1 X86.193 Y98.325 E3.09063
G1 X88.442 Y100.044 E3.21875 F378.000
G1 X93.456 Y93.964 E3.57535
G1 X95.964 Y93.001 F7800.000
G1 X95.766 Y92.803 E3.58821 F540.000
G1 X95.709 Y93.300 E3.61120
G1 X95.212 Y92.803 E3.64352
G1 X94.661 Y92.806 E3.66886
G1 X95.455 Y93.599 E3.72045
G1 X95.200 Y93.899 E3.73852
G1 X94.411 Y93.109 E3.78984
G1 X94.160 Y93.413 E3.80792
G1 X94.945 Y94.198 E3.85897
G1 X94.691 Y94.497 E3.87703
G1 X93.910 Y93.716 E3.92780
G1 X93.659 Y94.020 E3.94588
G1 X94.436 Y94.797 E3.99637
G1 X94.182 Y95.096 E4.01443
G1 X93.409 Y94.324 E4.06465
G1 X93.159 Y94.627 E4.08273
G1 X93.927 Y95.396 E4.13267
G1 X93.672 Y95.695 E4.15073
G1 X92.908 Y94.931 E4.20039
G1 X92.658 Y95.235 E4.21848
G1 X93.418 Y95.994 E4.26786
G1 X93.163 Y96.294 E4.28592
G1 X92.408 Y95.538 E4.33502
G1 X92.157 Y95.842 E4.35311
G1 X92.909 Y96.593 E4.40194
G1 X92.654 Y96.892 E4.42000
G1 X91.907 Y96.145 E4.46855
G1 X91.657 Y96.449 E4.48664
G1 X92.399 Y97.192 E4.53491
G1 X92.145 Y97.491 E4.55297
G1 X91.406 Y96.753 E4.60097
G1 X91.156 Y97.056 E4.61905
G1 X91.890 Y97.790 E4.66677
G1 X91.636 Y98.090 E4.68483
G1 X90.906 Y97.360 E4.73227
G1 X90.655 Y97.663 E4.75036
G1 X91.381 Y98.389 E4.79753
G1 X91.126 Y98.688 E4.81559
G1 X90.405 Y97.967 E4.86248
G1 X90.155 Y98.271 E4.88056
G1 X90.872 Y98.988 E4.92717
G1 X90.617 Y99.287 E4.94523
G1 X89.904 Y98.574 E4.99157
G1 X89.654 Y98.878 E5.00965
G1 X90.362 Y99.586 E5.05571
G1 X90.108 Y99.886 E5.07377
G1 X89.404 Y99.181 E5.11955
G1 X89.153 Y99.485 E5.13764
G1 X89.853 Y100.185 E5.18314
G1 X89.599 Y100.484 E5.20120
G1 X88.903 Y99.789 E5.24643
G1 X88.653 Y100.092 E5.26451
G1 X89.344 Y100.784 E5.30946
G1 X89.089 Y101.083 E5.32752
G1 X88.342 Y100.336 E5.37608
G1 X87.036 Y99.583 F7800.000
G1 X94.649 Y107.197 E5.87098 F540.000
G1 X94.095 Y107.197 E5.89644
G1 X93.257 Y106.359 E5.95092
G92 E0
G1 X85.418 Y106.648 F7800.000
G1 X85.418 Y106.648 F7800.000
G1 X85.382 Y106.612 F7800.000
G1 X85.347 Y106.648 F7800.000
G1 X84.798 Y106.993 F7800.000
G1 X85.001 Y107.197 E0.01341 F540.000
G1 X85.563 Y107.197 E0.03955
G1 X84.798 Y106.432 E0.08994
G1 X84.798 Y105.871 E0.11608
G1 X85.967 Y107.040 E0.19309
G1 X85.967 Y106.479 E0.21923
G1 X84.798 Y105.309 E0.29624
G1 X84.798 Y104.748 E0.32238
G1 X85.967 Y105.917 E0.39939
G1 X85.967 Y105.356 E0.42553
G1 X84.798 Y104.187 E0.50254
G1 X84.798 Y103.625 E0.52868
G1 X85.967 Y104.795 E0.60569
G1 X85.967 Y104.233 E0.63184
G1 X84.798 Y103.064 E0.70884
G1 X84.798 Y102.503 E0.73499
G1 X85.967 Y103.672 E0.81199
G1 X85.967 Y103.111 E0.83814
G1 X84.798 Y101.941 E0.91514
G1 X84.798 Y101.380 E0.94129
G1 X85.967 Y102.549 E1.01829
G1 X85.967 Y101.988 E1.04444
G1 X84.798 Y100.819 E1.12144
G1 X84.798 Y100.257 E1.14759
G1 X85.967 Y101.427 E1.22459
G1 X85.967 Y100.865 E1.25074
G1 X84.798 Y99.696 E1.32774
G1 X84.798 Y99.135 E1.35389
G1 X85.967 Y100.304 E1.43090
G1 X85.967 Y99.743 E1.45704
G1 X84.798 Y98.573 E1.53405
G1 X85.604 Y98.818 E1.57329
G1 X84.798 Y98.012 E1.62640
G1 X84.798 Y97.451 E1.65254
G1 X85.869 Y98.522 E1.72310
G1 X85.967 Y98.059 E1.74517
G1 X84.798 Y96.889 E1.82218
G1 X84.798 Y96.328 E1.84832
G1 X85.967 Y97.497 E1.92533
G1 X85.967 Y96.936 E1.95147
G1 X84.798 Y95.767 E2.02848
G1 X84.798 Y95.205 E2.05462
G1 X85.967 Y96.375 E2.13163
G1 X85.967 Y95.813 E2.15777
G1 X84.798 Y94.644 E2.23478
G1 X84.798 Y94.083 E2.26092
G1 X85.967 Y95.252 E2.33793
G1 X85.967 Y94.691 E2.36407
G1 X84.798 Y93.521 E2.44108
G1 X84.798 Y92.960 E2.46722
G1 X85.967 Y94.129 E2.54423
G1 X85.967 Y93.568 E2.57037
G1 X85.202 Y92.803 E2.62076
G1 X85.763 Y92.803 E2.64690
G1 X85.967 Y93.007 E2.66031
G1 X86.000 Y98.664 F7800.000
G1 X86.881 Y99.452 E2.77628 F540.000
M106 S255
G92 E0
G1 Z0.600 F7800.000
G1 X114.504 Y92.352 F7800.000
G1 X109.514 Y99.533 E2.62027 F600.000
G1 X109.240 Y99.844 E2.74446
G1 X108.816 Y100.224 E2.91494
G1 X108.809 Y100.459 E2.98522
G1 X109.271 Y100.892 E3.17516
G1 X109.506 Y101.162 E3.28236
G1 X114.057 Y107.648 E5.65652
G1 X111.434 Y102.630 F7800.000
G1 X108.338 Y99.785 E6.91634 F600.000
G1 X108.103 Y99.520 E7.02241
G1 X102.985 Y92.352 E9.66157
G92 E0
G1 X103.427 Y107.648 F7800.000
G1 X108.093 Y101.144 E2.39857 F600.000
G1 X108.372 Y100.838 E2.52286
G1 X111.493 Y98.128 E3.76123
G92 E0
G1 X108.791 Y99.039 F7800.000
G1 X105.163 Y91.624 F7800.000
G1 X99.448 Y92.773 F7800.000
G1 X97.064 Y91.352 F7800.000
G1 X97.064 Y92.352 F7800.000
G1 X95.770 Y92.352 F7800.000
G1 X89.106 Y100.310 E3.11048 F600.000
G1 X88.658 Y100.775 E3.30375
G1 X89.108 Y101.587 E3.58188
G1 X94.972 Y107.648 E6.10884
G92 E0
G1 X85.418 Y106.648 F7800.000
G1 X85.418 Y106.648 F7800.000
G1 X86.314 Y102.575 F7800.000
G1 X85.382 Y98.214 E1.33630 F600.000
G1 X85.382 Y92.352 E3.09283
G1 X85.382 Y107.648 F7800.000
G1 X85.382 Y99.984 E5.38932 F600.000
G1 X85.571 Y99.099 E5.66049
G1 X85.741 Y99.099 E5.71145
G1 X86.929 Y99.495 E6.08644
G1 X87.915 Y100.377 E6.48307
G1 X90.384 Y101.699 E7.32204
G92 E0
G1 Z0.900 F7800.000
G1 X114.504 Y92.352 F7800.000
G1 X109.514 Y99.533 E2.62027 F600.000
G1 X109.240 Y99.844 E2.74446
G1 X108.816 Y100.224 E2.91494
G1 X108.809 Y100.459 E2.98522
G1 X109.271 Y100.892 E3.17516
G1 X109.506 Y101.162 E3.28236
G1 X114.057 Y107.648 E5.65652
G1 X111.434 Y102.630 F7800.000
G1 X108.338 Y99.785 E6.91634 F600.000
G1 X108.103 Y99.520 E7.02241
G1 X102.985 Y92.352 E9.66157
G92 E0
G1 X103.427 Y107.648 F7800.000
G1 X108.093 Y101.144 E2.39857 F600.000
G1 X108.372 Y100.838 E2.52286
G1 X111.493 Y98.128 E3.76123
G92 E0
G1 X108.791 Y99.039 F7800.000
G1 X104.120 Y91.352 F7800.000
G1 X99.448 Y92.773 F7800.000
G1 X97.064 Y91.352 F7800.000
G1 X97.064 Y92.352 F7800.000
G1 X95.770 Y92.352 F7800.000
G1 X89.106 Y100.310 E3.11048 F600.000
G1 X88.658 Y100.775 E3.30375
G1 X89.108 Y101.587 E3.58188
G1 X94.972 Y107.648 E6.10884
G92 E0
G1 X85.418 Y106.648 F7800.000
G1 X85.418 Y106.648 F7800.000
G1 X86.314 Y102.575 F7800.000
G1 X85.382 Y98.214 E1.33630 F600.000
G1 X85.382 Y92.352 E3.09283
G1 X85.382 Y107.648 F7800.000
G1 X85.382 Y99.984 E5.38931 F600.000
G1 X85.571 Y99.099 E5.66049
G1 X85.741 Y99.099 E5.71145
G1 X86.929 Y99.495 E6.08644
G1 X87.915 Y100.377 E6.48307
G1 X90.384 Y101.699 E7.32204
G92 E0
G1 Z1.200 F7800.000
G1 X114.504 Y92.352 F7800.000
G1 X109.514 Y99.533 E2.62027 F600.000
G1 X109.240 Y99.844 E2.74446
G1 X108.816 Y100.224 E2.91494
G1 X108.809 Y100.459 E2.98522
G1 X109.271 Y100.892 E3.17516
G1 X109.506 Y101.162 E3.28236
G1 X114.057 Y107.648 E5.65652
G1 X111.434 Y102.630 F7800.000
G1 X108.338 Y99.785 E6.91634 F600.000
G1 X108.103 Y99.520 E7.02241
G1 X102.985 Y92.352 E9.66156
G92 E0
G1 X103.427 Y107.648 F7800.000
G1 X108.093 Y101.144 E2.39857 F600.000
G1 X108.372 Y100.838 E2.52286
G1 X111.493 Y98.128 E3.76123
G92 E0
G1 X108.791 Y99.039 F7800.000
G1 X105.163 Y91.624 F7800.000
G1 X99.448 Y92.773 F7800.000
G1 X97.064 Y91.352 F7800.000
G1 X97.064 Y92.352 F7800.000
G1 X95.770 Y92.352 F7800.000
G1 X89.106 Y100.310 E3.11048 F600.000
G1 X88.658 Y100.775 E3.30375
G1 X89.108 Y101.587 E3.58188
G1 X94.972 Y107.648 E6.10884
G92 E0
G1 X85.418 Y106.648 F7800.000
G1 X85.418 Y106.648 F7800.000
G1 X86.314 Y102.575 F7800.000
G1 X85.382 Y98.214 E1.33630 F600.000
G1 X85.382 Y92.352 E3.09283
G1 X85.382 Y107.648 F7800.000
G1 X85.382 Y99.984 E5.38931 F600.000
G1 X85.571 Y99.099 E5.66049
G1 X85.741 Y99.099 E5.71145
G1 X86.929 Y99.495 E6.08644
G1 X87.915 Y100.377 E6.48307
G1 X90.384 Y101.699 E7.32204
G92 E0
G1 Z1.500 F7800.000
G1 X114.504 Y92.352 F7800.000
G1 X109.514 Y99.533 E2.62027 F600.000
G1 X109.240 Y99.844 E2.74446
G1 X108.816 Y100.224 E2.91494
G1 X108.809 Y100.459 E2.98522
G1 X109.271 Y100.892 E3.17516
G1 X109.506 Y101.162 E3.28236
G1 X114.057 Y107.648 E5.65652
G1 X111.434 Y102.630 F7800.000
G1 X108.338 Y99.785 E6.91634 F600.000
G1 X108.103 Y99.520 E7.02241
G1 X102.985 Y92.352 E9.66157
G92 E0
G1 X103.427 Y107.648 F7800.000
G1 X108.093 Y101.144 E2.39857 F600.000
G1 X108.372 Y100.838 E2.52286
G1 X111.493 Y98.128 E3.76123
G92 E0
G1 X108.791 Y99.039 F7800.000
G1 X104.120 Y91.352 F7800.000
G1 X99.448 Y92.773 F7800.000
G1 X97.064 Y91.352 F7800.000
G1 X97.064 Y92.352 F7800.000
G1 X95.770 Y92.352 F7800.000
G1 X89.106 Y100.310 E3.11048 F600.000
G1 X88.658 Y100.775 E3.30375
G1 X89.108 Y101.587 E3.58188
G1 X94.972 Y107.648 E6.10884
G92 E0
G1 X85.418 Y106.648 F7800.000
G1 X85.418 Y106.648 F7800.000
G1 X86.314 Y102.575 F7800.000
G1 X85.382 Y98.214 E1.33630 F600.000
G1 X85.382 Y92.352 E3.09283
G1 X85.382 Y107.648 F7800.000
G1 X85.382 Y99.984 E5.38931 F600.000
G1 X85.571 Y99.099 E5.66049
G1 X85.741 Y99.099 E5.71145
G1 X86.929 Y99.495 E6.08644
G1 X87.915 Y100.377 E6.48307
G1 X90.384 Y101.699 E7.32204
G92 E0
G1 Z1.800 F7800.000
G1 X114.504 Y92.352 F7800.000
G1 X109.514 Y99.533 E2.62027 F600.000
G1 X109.240 Y99.844 E2.74446
G1 X108.816 Y100.224 E2.91494
G1 X108.809 Y100.459 E2.98522
G1 X109.271 Y100.892 E3.17516
G1 X109.506 Y101.162 E3.28236
G1 X114.057 Y107.648 E5.65652
G1 X111.434 Y102.630 F7800.000
G1 X108.338 Y99.785 E6.91634 F600.000
G1 X108.103 Y99.520 E7.02241
G1 X102.985 Y92.352 E9.66157
G92 E0
G1 X103.427 Y107.648 F7800.000
G1 X108.093 Y101.144 E2.39857 F600.000
G1 X108.372 Y100.838 E2.52286
G1 X111.493 Y98.128 E3.76123
G92 E0
G1 X108.791 Y99.039 F7800.000
G1 X105.163 Y91.624 F7800.000
G1 X99.448 Y92.773 F7800.000
G1 X97.064 Y91.352 F7800.000
G1 X97.064 Y92.352 F7800.000
G1 X95.770 Y92.352 F7800.000
G1 X89.106 Y100.310 E3.11048 F600.000
G1 X88.658 Y100.775 E3.30375
G1 X89.108 Y101.587 E3.58188
G1 X94.972 Y107.648 E6.10884
G92 E0
G1 X85.418 Y106.648 F7800.000
G1 X85.418 Y106.648 F7800.000
G1 X86.314 Y102.575 F7800.000
G1 X85.382 Y98.214 E1.33630 F600.000
G1 X85.382 Y92.352 E3.09283
G1 X85.382 Y107.648 F7800.000
G1 X85.382 Y99.984 E5.38932 F600.000
G1 X85.571 Y99.099 E5.66049
G1 X85.741 Y99.099 E5.71146
G1 X86.929 Y99.495 E6.08644
G1 X87.915 Y100.377 E6.48307
G1 X90.384 Y101.699 E7.32204
G92 E0
G1 Z2.100 F7800.000
G1 X114.504 Y92.352 F7800.000
G1 X109.514 Y99.533 E2.62027 F600.000
G1 X109.240 Y99.844 E2.74446
G1 X108.816 Y100.224 E2.91494
G1 X108.809 Y100.459 E2.98522
G1 X109.271 Y100.892 E3.17516
G1 X109.506 Y101.162 E3.28236
G1 X114.057 Y107.648 E5.65652
G92 E0
G1 X111.434 Y102.630 F7800.000
G1 X108.338 Y99.785 E1.25982 F600.000
G1 X108.103 Y99.520 E1.36589
G1 X102.985 Y92.352 E4.00505
G92 E0
G1 X103.427 Y107.648 F7800.000
G1 X108.093 Y101.144 E2.39857 F600.000
G1 X108.372 Y100.838 E2.52286
G1 X111.493 Y98.128 E3.76123
G92 E0
G1 X108.791 Y99.039 F7800.000
G1 X104.120 Y91.352 F7800.000
G1 X99.448 Y92.773 F7800.000
G1 X97.064 Y91.352 F7800.000
G1 X97.064 Y92.352 F7800.000
G1 X95.770 Y92.352 F7800.000
G1 X89.106 Y100.310 E3.11048 F600.000
G1 X88.658 Y100.775 E3.30375
G1 X89.108 Y101.587 E3.58188
G1 X94.972 Y107.648 E6.10884
G92 E0
G1 X85.418 Y106.648 F7800.000
G1 X85.418 Y106.648 F7800.000
G1 X86.314 Y102.575 F7800.000
G1 X85.382 Y98.214 E1.33630 F600.000
G1 X85.382 Y92.352 E3.09283
G92 E0
G1 X85.382 Y107.648 F7800.000
G1 X85.382 Y99.984 E2.29649 F600.000
G1 X85.571 Y99.099 E2.56766
G1 X85.741 Y99.099 E2.61863
G1 X86.929 Y99.495 E2.99361
G1 X87.915 Y100.377 E3.39025
G1 X90.384 Y101.699 E4.22921
G92 E0
M107
M104 S0 ; turn off temperature
G28 X0  ; home X axis
M84     ; disable motors

; filament used = 177.6mm (1.4cm3)

; avoid_crossing_perimeters = 1
; bed_shape = 0x0,250x0,250x250,0x250
; bed_temperature = 0
; before_layer_gcode = 
; bridge_acceleration = 0
; bridge_fan_speed = 100
; brim_width = 0
; complete_objects = 0
; cooling = 1
; default_acceleration = 0
; disable_fan_first_layers = 1
