; generated by Slic3r 1.2.9 on 2016-03-11 at 01:26:47

; external perimeters extrusion width = 1.54mm
; perimeters extrusion width = 2.62mm
; infill extrusion width = 6.27mm
; solid infill extrusion width = 2.62mm
; top infill extrusion width = 2.62mm

M107
M104 S30 ; set temperature
G28 ; home all axes
G1 Z5 F5000 ; lift nozzle
M302
M92 E10000
M500
M501
G1 E100
M109 S30 ; wait for temperature to be reached
G21 ; set units to millimeters
G90 ; use absolute coordinates
M82 ; use absolute distances for extrusion
G92 E0
G1 Z0.300 F7800.000
G1 X104.729 Y106.257 F7800.000
G1 X103.986 Y107.423 E0.06256 F378.000
G1 X102.249 Y107.423 E0.14117
G1 X107.923 Y98.759 E0.60981
G1 X107.923 Y92.577 E0.88954
G1 X109.534 Y92.577 E0.96244
G1 X109.534 Y98.759 E1.24219
G1 X115.225 Y107.423 E1.71122 F378.000
G1 X113.488 Y107.423 E1.78983
G1 X108.751 Y99.942 E2.19049
G1 X104.853 Y106.062 E2.51881
G1 X102.957 Y107.197 F7800.000
G1 X102.759 Y106.999 E2.53171 F540.000
G1 X102.979 Y106.664 E2.55018
G1 X103.512 Y107.197 E2.58494
G1 X103.964 Y107.094 E2.60631
G1 X103.198 Y106.328 E2.65621
G1 X103.418 Y105.993 E2.67469
G1 X104.180 Y106.755 E2.72435
G1 X104.396 Y106.416 E2.74287
G1 X103.638 Y105.657 E2.79230
G1 X103.857 Y105.322 E2.81077
G1 X104.612 Y106.077 E2.85996
G1 X104.828 Y105.738 E2.87848
G1 X104.077 Y104.986 E2.92743
G1 X104.297 Y104.651 E2.94590
G1 X105.045 Y105.398 E2.99460
G1 X105.261 Y105.059 E3.01313
G1 X104.517 Y104.315 E3.06159
G1 X104.736 Y103.980 E3.08006
G1 X105.477 Y104.720 E3.12829
G1 X105.693 Y104.381 E3.14681
G1 X104.956 Y103.644 E3.19479
G1 X105.176 Y103.309 E3.21327
G1 X105.909 Y104.042 E3.26101
G1 X106.125 Y103.703 E3.27953
G1 X105.396 Y102.973 E3.32703
G1 X105.615 Y102.638 E3.34551
G1 X106.341 Y103.363 E3.39277
G1 X106.557 Y103.024 E3.41129
G1 X105.835 Y102.303 E3.45831
G1 X106.055 Y101.967 E3.47679
G1 X106.773 Y102.685 E3.52357
G1 X106.989 Y102.346 E3.54209
G1 X106.274 Y101.632 E3.58863
G1 X106.494 Y101.296 E3.60710
G1 X107.205 Y102.007 E3.65340
G1 X107.421 Y101.668 E3.67193
G1 X106.714 Y100.961 E3.71799
G1 X106.934 Y100.625 E3.73646
G1 X107.637 Y101.329 E3.78228
G1 X107.853 Y100.989 E3.80080
G1 X107.153 Y100.290 E3.84638
G1 X107.373 Y99.954 E3.86486
G1 X108.069 Y100.650 E3.91019
G1 X108.285 Y100.311 E3.92872
G1 X107.593 Y99.619 E3.97382
G1 X107.812 Y99.283 E3.99229
G1 X108.501 Y99.972 E4.03715
G1 X108.717 Y99.633 E4.05567
G1 X108.032 Y98.948 E4.10029
G1 X108.149 Y98.510 E4.12118
G1 X110.717 Y101.077 E4.28844
G1 X110.145 Y101.616 F7800.000
G1 X112.842 Y104.313 E4.46419 F540.000
G1 X112.062 Y104.643 F7800.000
G1 X114.616 Y107.197 E4.63055 F540.000
G1 X114.061 Y107.197 E4.65612
G1 X113.021 Y106.157 E4.72386
G1 X113.905 Y105.931 F7800.000
G1 X111.103 Y103.129 E4.90639 F540.000
G1 X111.780 Y102.695 F7800.000
G1 X109.186 Y100.102 E5.07535 F540.000
G1 X109.654 Y99.459 F7800.000
G1 X108.149 Y97.955 E5.17338 F540.000
G1 X108.149 Y97.399 E5.19895
G1 X109.308 Y98.558 E5.27446
G1 X109.308 Y98.003 E5.30004
G1 X108.149 Y96.844 E5.37555
G1 X108.149 Y96.289 E5.40112
G1 X109.308 Y97.448 E5.47663
G1 X109.308 Y96.893 E5.50221
G1 X108.149 Y95.734 E5.57772
G1 X108.149 Y95.179 E5.60330
G1 X109.308 Y96.338 E5.67881
G1 X109.308 Y95.782 E5.70438
G1 X108.149 Y94.623 E5.77989
G1 X108.149 Y94.068 E5.80547
G1 X109.308 Y95.227 E5.88098
G1 X109.308 Y94.672 E5.90655
G1 X108.149 Y93.513 E5.98207
G1 X108.149 Y92.958 E6.00764
G1 X109.308 Y94.117 E6.08315
G1 X109.308 Y93.562 E6.10873
G1 X108.550 Y92.803 E6.15816
G1 X109.105 Y92.803 E6.18373
G1 X109.308 Y93.007 E6.19700
G92 E0
G1 X107.698 Y98.692 F7800.000
G1 X101.458 Y96.830 F7800.000
G1 X98.977 Y104.943 F7800.000
G1 X96.209 Y107.648 F7800.000
G1 X92.990 Y106.510 F7800.000
G1 X86.204 Y99.424 E0.44397 F378.000
G1 X86.204 Y107.423 E0.80593
G1 X84.583 Y107.423 E0.87928
G1 X84.583 Y92.577 E1.55105
G1 X86.204 Y92.577 E1.62440
G1 X86.204 Y98.325 E1.88451
G1 X88.453 Y100.044 E2.01262 F378.000
G1 X94.611 Y92.577 E2.45058
G1 X96.588 Y92.577 E2.54004
G1 X89.411 Y101.015 E3.04126
G1 X95.674 Y107.423 E3.44671
G1 X93.865 Y107.423 E3.52859
G1 X93.150 Y106.677 E3.57535
G1 X93.268 Y106.359 F7800.000
G1 X94.106 Y107.197 E3.62983 F540.000
G1 X94.660 Y107.197 E3.65530
G1 X87.047 Y99.583 E4.15020
G1 X88.353 Y100.336 F7800.000
G1 X89.100 Y101.083 E4.19875 F540.000
G1 X89.355 Y100.784 E4.21681
G1 X88.664 Y100.092 E4.26176
G1 X88.914 Y99.789 E4.27985
G1 X89.610 Y100.484 E4.32507
G1 X89.864 Y100.185 E4.34313
G1 X89.164 Y99.485 E4.38863
G1 X89.415 Y99.181 E4.40672
G1 X90.119 Y99.886 E4.45250
G1 X90.373 Y99.586 E4.47056
G1 X89.665 Y98.878 E4.51662
G1 X89.915 Y98.574 E4.53471
G1 X90.628 Y99.287 E4.58104
G1 X90.883 Y98.988 E4.59910
G1 X90.166 Y98.271 E4.64571
G1 X90.416 Y97.967 E4.66380
G1 X91.137 Y98.688 E4.71068
G1 X91.392 Y98.389 E4.72875
G1 X90.666 Y97.663 E4.77591
G1 X90.917 Y97.360 E4.79400
G1 X91.647 Y98.090 E4.84144
G1 X91.901 Y97.790 E4.85950
G1 X91.167 Y97.056 E4.90722
G1 X91.417 Y96.753 E4.92531
G1 X92.156 Y97.491 E4.97330
G1 X92.410 Y97.192 E4.99137
G1 X91.668 Y96.449 E5.03964
G1 X91.918 Y96.145 E5.05772
G1 X92.665 Y96.892 E5.10627
G1 X92.920 Y96.593 E5.12434
G1 X92.168 Y95.842 E5.17316
G1 X92.419 Y95.538 E5.19125
G1 X93.174 Y96.294 E5.24035
G1 X93.429 Y95.994 E5.25842
G1 X92.669 Y95.235 E5.30780
G1 X92.919 Y94.931 E5.32588
G1 X93.683 Y95.695 E5.37554
G1 X93.938 Y95.396 E5.39360
G1 X93.170 Y94.627 E5.44354
G1 X93.420 Y94.324 E5.46163
G1 X94.193 Y95.096 E5.51184
G1 X94.447 Y94.797 E5.52990
G1 X93.670 Y94.020 E5.58039
G1 X93.921 Y93.716 E5.59848
G1 X94.702 Y94.497 E5.64924
G1 X94.956 Y94.198 E5.66731
G1 X94.171 Y93.413 E5.71835
G1 X94.422 Y93.109 E5.73644
G1 X95.211 Y93.899 E5.78776
G1 X95.466 Y93.599 E5.80582
G1 X94.672 Y92.806 E5.85742
G1 X95.223 Y92.803 E5.88275
G1 X95.720 Y93.300 E5.91507
G1 X95.777 Y92.803 E5.93807
G1 X95.975 Y93.001 E5.95092
G92 E0
G1 X85.429 Y93.352 F7800.000
G1 X85.429 Y93.352 F7800.000
G1 X85.978 Y93.007 F7800.000
G1 X85.774 Y92.803 E0.01341 F540.000
G1 X85.213 Y92.803 E0.03956
G1 X85.978 Y93.568 E0.08994
G1 X85.978 Y94.129 E0.11608
G1 X84.809 Y92.960 E0.19309
G1 X84.809 Y93.521 E0.21924
G1 X85.978 Y94.691 E0.29624
G1 X85.978 Y95.252 E0.32239
G1 X84.809 Y94.083 E0.39939
G1 X84.809 Y94.644 E0.42554
G1 X85.978 Y95.813 E0.50254
G1 X85.978 Y96.375 E0.52869
G1 X84.809 Y95.205 E0.60569
G1 X84.809 Y95.767 E0.63184
G1 X85.978 Y96.936 E0.70884
G1 X85.978 Y97.497 E0.73499
G1 X84.809 Y96.328 E0.81199
G1 X84.809 Y96.889 E0.83814
G1 X85.978 Y98.059 E0.91514
G1 X85.880 Y98.522 E0.93721
G1 X84.809 Y97.451 E1.00777
G1 X84.809 Y98.012 E1.03392
G1 X85.615 Y98.818 E1.08702
G1 X84.809 Y98.573 E1.12627
G1 X85.978 Y99.743 E1.20327
G1 X85.978 Y100.304 E1.22942
G1 X84.809 Y99.135 E1.30643
G1 X84.809 Y99.696 E1.33257
G1 X85.978 Y100.865 E1.40958
G1 X85.978 Y101.427 E1.43572
G1 X84.809 Y100.257 E1.51273
G1 X84.809 Y100.819 E1.53887
G1 X85.978 Y101.988 E1.61588
G1 X85.978 Y102.549 E1.64202
G1 X84.809 Y101.380 E1.71903
G1 X84.809 Y101.941 E1.74517
G1 X85.978 Y103.111 E1.82218
G1 X85.978 Y103.672 E1.84832
G1 X84.809 Y102.503 E1.92533
G1 X84.809 Y103.064 E1.95147
G1 X85.978 Y104.233 E2.02848
G1 X85.978 Y104.795 E2.05462
G1 X84.809 Y103.625 E2.13163
G1 X84.809 Y104.187 E2.15777
G1 X85.978 Y105.356 E2.23478
G1 X85.978 Y105.917 E2.26092
G1 X84.809 Y104.748 E2.33793
G1 X84.809 Y105.309 E2.36408
G1 X85.978 Y106.479 E2.44108
G1 X85.978 Y107.040 E2.46723
G1 X84.809 Y105.871 E2.54423
G1 X84.809 Y106.432 E2.57038
G1 X85.574 Y107.197 E2.62076
G1 X85.012 Y107.197 E2.64690
G1 X84.809 Y106.993 E2.66031
G92 E0
G1 X85.429 Y106.648 F7800.000
G1 X85.429 Y106.648 F7800.000
G1 X86.892 Y99.452 F7800.000
G1 X86.011 Y98.664 E0.11596 F540.000
M106 S255
G92 E0
G1 Z0.600 F7800.000
G1 X108.729 Y92.352 F7800.000
G1 X108.729 Y99.209 E2.05473 F600.000
G1 X108.855 Y99.286 E2.09907
G1 X109.494 Y99.891 E2.36271
G1 X114.497 Y107.648 E5.12860
G1 X108.698 Y98.582 F7800.000
G1 X108.698 Y98.582 F7800.000
G1 X102.975 Y107.648 F7800.000
G1 X107.993 Y99.880 E7.89969 F600.000
G1 X108.606 Y99.287 E8.15525
G1 X109.759 Y98.560 E8.56368
G92 E0
G1 X107.698 Y92.352 F7800.000
G1 X107.698 Y92.352 F7800.000
G1 X105.698 Y92.352 F7800.000
G1 X101.596 Y96.454 F7800.000
G1 X101.401 Y96.032 F7800.000
G1 X97.075 Y92.352 F7800.000
G1 X95.781 Y92.352 F7800.000
G1 X89.117 Y100.310 E3.11048 F600.000
G1 X88.669 Y100.775 E3.30375
G1 X89.119 Y101.587 E3.58188
G1 X94.983 Y107.648 E6.10884
G92 E0
G1 X85.429 Y106.648 F7800.000
G1 X85.429 Y106.648 F7800.000
G1 X86.325 Y102.575 F7800.000
G1 X85.393 Y98.214 E1.33630 F600.000
G1 X85.393 Y92.352 E3.09283
G1 X85.393 Y107.648 F7800.000
G1 X85.393 Y99.984 E5.38932 F600.000
G1 X85.582 Y99.099 E5.66049
G1 X85.752 Y99.099 E5.71145
G1 X86.940 Y99.495 E6.08644
G1 X87.926 Y100.377 E6.48307
G1 X90.395 Y101.699 E7.32204
G92 E0
G1 Z0.900 F7800.000
G1 X108.729 Y92.352 F7800.000
G1 X108.729 Y99.209 E2.05473 F600.000
G1 X108.855 Y99.286 E2.09907
G1 X109.494 Y99.891 E2.36271
G1 X114.497 Y107.648 E5.12860
G1 X108.698 Y98.582 F7800.000
G1 X108.698 Y98.582 F7800.000
G1 X102.975 Y107.648 F7800.000
G1 X107.993 Y99.880 E7.89969 F600.000
G1 X108.606 Y99.287 E8.15525
G1 X109.759 Y98.560 E8.56368
G92 E0
G1 X107.698 Y92.352 F7800.000
G1 X107.698 Y92.352 F7800.000
G1 X105.698 Y92.352 F7800.000
G1 X101.596 Y96.454 F7800.000
G1 X101.401 Y96.032 F7800.000
G1 X97.075 Y92.352 F7800.000
G1 X95.781 Y92.352 F7800.000
G1 X89.117 Y100.310 E3.11048 F600.000
G1 X88.669 Y100.775 E3.30375
G1 X89.119 Y101.587 E3.58188
G1 X94.983 Y107.648 E6.10884
G92 E0
G1 X85.429 Y106.648 F7800.000
G1 X85.429 Y106.648 F7800.000
G1 X86.325 Y102.575 F7800.000
G1 X85.393 Y98.214 E1.33630 F600.000
G1 X85.393 Y92.352 E3.09283
G1 X85.393 Y107.648 F7800.000
G1 X85.393 Y99.984 E5.38931 F600.000
G1 X85.582 Y99.099 E5.66049
G1 X85.752 Y99.099 E5.71145
G1 X86.940 Y99.495 E6.08644
G1 X87.926 Y100.377 E6.48307
G1 X90.395 Y101.699 E7.32204
G92 E0
G1 Z1.200 F7800.000
G1 X108.729 Y92.352 F7800.000
G1 X108.729 Y99.209 E2.05473 F600.000
G1 X108.855 Y99.286 E2.09907
G1 X109.494 Y99.891 E2.36271
G1 X114.497 Y107.648 E5.12860
G1 X108.698 Y98.582 F7800.000
G1 X108.698 Y98.582 F7800.000
G1 X102.975 Y107.648 F7800.000
G1 X107.993 Y99.880 E7.89969 F600.000
G1 X108.606 Y99.287 E8.15525
G1 X109.759 Y98.560 E8.56368
G92 E0
G1 X107.698 Y92.352 F7800.000
G1 X107.698 Y92.352 F7800.000
G1 X105.698 Y92.352 F7800.000
G1 X101.596 Y96.454 F7800.000
G1 X101.401 Y96.032 F7800.000
G1 X97.075 Y92.352 F7800.000
G1 X95.781 Y92.352 F7800.000
G1 X89.117 Y100.310 E3.11048 F600.000
G1 X88.669 Y100.775 E3.30375
G1 X89.119 Y101.587 E3.58188
G1 X94.983 Y107.648 E6.10884
G92 E0
G1 X85.429 Y106.648 F7800.000
G1 X85.429 Y106.648 F7800.000
G1 X86.325 Y102.575 F7800.000
G1 X85.393 Y98.214 E1.33630 F600.000
G1 X85.393 Y92.352 E3.09283
G1 X85.393 Y107.648 F7800.000
G1 X85.393 Y99.984 E5.38931 F600.000
G1 X85.582 Y99.099 E5.66049
G1 X85.752 Y99.099 E5.71145
G1 X86.940 Y99.495 E6.08644
G1 X87.926 Y100.377 E6.48307
G1 X90.395 Y101.699 E7.32204
G92 E0
G1 Z1.500 F7800.000
G1 X108.729 Y92.352 F7800.000
G1 X108.729 Y99.209 E2.05473 F600.000
G1 X108.855 Y99.286 E2.09907
G1 X109.494 Y99.891 E2.36271
G1 X114.497 Y107.648 E5.12860
G1 X108.698 Y98.582 F7800.000
G1 X108.698 Y98.582 F7800.000
G1 X102.975 Y107.648 F7800.000
G1 X107.993 Y99.880 E7.89969 F600.000
G1 X108.606 Y99.287 E8.15525
G1 X109.759 Y98.560 E8.56368
G92 E0
G1 X107.698 Y92.352 F7800.000
G1 X107.698 Y92.352 F7800.000
G1 X105.698 Y92.352 F7800.000
G1 X101.596 Y96.454 F7800.000
G1 X101.401 Y96.032 F7800.000
G1 X97.075 Y92.352 F7800.000
G1 X95.781 Y92.352 F7800.000
G1 X89.117 Y100.310 E3.11048 F600.000
G1 X88.669 Y100.775 E3.30375
G1 X89.119 Y101.587 E3.58188
G1 X94.983 Y107.648 E6.10884
G92 E0
G1 X85.429 Y106.648 F7800.000
G1 X85.429 Y106.648 F7800.000
G1 X86.325 Y102.575 F7800.000
G1 X85.393 Y98.214 E1.33630 F600.000
G1 X85.393 Y92.352 E3.09283
G1 X85.393 Y107.648 F7800.000
G1 X85.393 Y99.984 E5.38931 F600.000
G1 X85.582 Y99.099 E5.66049
G1 X85.752 Y99.099 E5.71145
G1 X86.940 Y99.495 E6.08644
G1 X87.926 Y100.377 E6.48307
G1 X90.395 Y101.699 E7.32204
G92 E0
G1 Z1.800 F7800.000
G1 X108.729 Y92.352 F7800.000
G1 X108.729 Y99.209 E2.05473 F600.000
G1 X108.855 Y99.286 E2.09907
G1 X109.494 Y99.891 E2.36271
G1 X114.497 Y107.648 E5.12860
G1 X108.698 Y98.582 F7800.000
G1 X108.698 Y98.582 F7800.000
G1 X102.975 Y107.648 F7800.000
G1 X107.993 Y99.880 E7.89969 F600.000
G1 X108.606 Y99.287 E8.15525
G1 X109.759 Y98.560 E8.56368
G92 E0
G1 X107.698 Y92.352 F7800.000
G1 X107.698 Y92.352 F7800.000
G1 X105.698 Y92.352 F7800.000
G1 X101.596 Y96.454 F7800.000
G1 X101.401 Y96.032 F7800.000
G1 X97.075 Y92.352 F7800.000
G1 X95.781 Y92.352 F7800.000
G1 X89.117 Y100.310 E3.11048 F600.000
G1 X88.669 Y100.775 E3.30375
G1 X89.119 Y101.587 E3.58188
G1 X94.983 Y107.648 E6.10884
G92 E0
G1 X85.429 Y106.648 F7800.000
G1 X85.429 Y106.648 F7800.000
G1 X86.325 Y102.575 F7800.000
G1 X85.393 Y98.214 E1.33630 F600.000
G1 X85.393 Y92.352 E3.09283
G1 X85.393 Y107.648 F7800.000
G1 X85.393 Y99.984 E5.38932 F600.000
G1 X85.582 Y99.099 E5.66049
G1 X85.752 Y99.099 E5.71146
G1 X86.940 Y99.495 E6.08644
G1 X87.926 Y100.377 E6.48307
G1 X90.395 Y101.699 E7.32204
G92 E0
G1 Z2.100 F7800.000
G1 X108.729 Y92.352 F7800.000
G1 X108.729 Y99.209 E2.05473 F600.000
G1 X108.855 Y99.286 E2.09907
G1 X109.494 Y99.891 E2.36271
G1 X114.497 Y107.648 E5.12860
G92 E0
G1 X108.698 Y98.582 F7800.000
G1 X108.698 Y98.582 F7800.000
G1 X102.975 Y107.648 F7800.000
G1 X107.993 Y99.880 E2.77109 F600.000
G1 X108.606 Y99.287 E3.02666
G1 X109.759 Y98.560 E3.43508
G92 E0
G1 X107.698 Y92.352 F7800.000
G1 X107.698 Y92.352 F7800.000
G1 X105.698 Y92.352 F7800.000
G1 X101.596 Y96.454 F7800.000
G1 X101.401 Y96.032 F7800.000
G1 X97.075 Y92.352 F7800.000
G1 X95.781 Y92.352 F7800.000
G1 X89.117 Y100.310 E3.11048 F600.000
G1 X88.669 Y100.775 E3.30375
G1 X89.119 Y101.587 E3.58188
G1 X94.983 Y107.648 E6.10884
G92 E0
G1 X85.429 Y106.648 F7800.000
G1 X85.429 Y106.648 F7800.000
G1 X86.325 Y102.575 F7800.000
G1 X85.393 Y98.214 E1.33630 F600.000
G1 X85.393 Y92.352 E3.09283
G92 E0
G1 X85.393 Y107.648 F7800.000
G1 X85.393 Y99.984 E2.29649 F600.000
G1 X85.582 Y99.099 E2.56766
G1 X85.752 Y99.099 E2.61863
G1 X86.940 Y99.495 E2.99361
G1 X87.926 Y100.377 E3.39025
G1 X90.395 Y101.699 E4.22921
G92 E0
M107
M104 S0 ; turn off temperature
G28 X0  ; home X axis
M84     ; disable motors

; filament used = 146.9mm (1.1cm3)

; avoid_crossing_perimeters = 1
; bed_shape = 0x0,250x0,250x250,0x250
; bed_temperature = 0
; before_layer_gcode = 
; bridge_acceleration = 0
; bridge_fan_speed = 100
; brim_width = 0
; complete_objects = 0
; cooling = 1
; default_acceleration = 0
; disable_fan_first_layers = 1
; duplicate_distance = 6
; end_gcode = M104 S0 ; turn off temperature\nG28 X0  ; home X axis\nM84     ; disable motors\n
; extruder_clearance_height = 20
; extruder_clearance_radius = 20
; extruder_offset = 0x0
; extrusion_axis = E
; extrusion_multiplier = 3
; fan_always_on = 0
; fan_below_layer_time = 60
; filament_colour = #FFFFFF
; filament_diameter = 3.125
; first_layer_acceleration = 0
; first_layer_bed_temperature = 0
; first_layer_extrusion_width = 150%
; first_layer_speed = 90%
; first_layer_temperature = 30
; gcode_arcs = 0
; gcode_comments = 0
; gcode_flavor = reprap
; infill_acceleration = 0
; infill_first = 0
; layer_gcode = 
; max_fan_speed = 100
; max_print_speed = 80
; max_volumetric_speed = 0
; min_fan_speed = 35
; min_print_speed = 10
; min_skirt_length = 0
; notes = 
; nozzle_diameter = 1.54
; only_retract_when_crossing_perimeters = 1
; ooze_prevention = 0
; output_filename_format = [input_filename_base].gcode
; perimeter_acceleration = 0
; post_process = 
; pressure_advance = 0
; resolution = 0
; retract_before_travel = 2
; retract_layer_change = 1
; retract_length = 0
; retract_length_toolchange = 10
; retract_lift = 0
; retract_restart_extra = 0
; retract_restart_extra_toolchange = 0
; retract_speed = 0
; skirt_distance = 6
; skirt_height = 1
; skirts = 0
; slowdown_below_layer_time = 30
; spiral_vase = 0
; standby_temperature_delta = -5
; start_gcode = G28 ; home all axes\nG1 Z5 F5000 ; lift nozzle\nM302\nM92 E10000\nM500\nM501\nG1 E100
; temperature = 30
; threads = 2
