; generated by Slic3r 1.2.9 on 2016-03-11 at 01:26:48

; external perimeters extrusion width = 1.54mm
; perimeters extrusion width = 2.62mm
; infill extrusion width = 6.27mm
; solid infill extrusion width = 2.62mm
; top infill extrusion width = 2.62mm

M107
M104 S30 ; set temperature
G28 ; home all axes
G1 Z5 F5000 ; lift nozzle
M302
M92 E10000
M500
M501
G1 E100
M109 S30 ; wait for temperature to be reached
G21 ; set units to millimeters
G90 ; use absolute coordinates
M82 ; use absolute distances for extrusion
G92 E0
G1 Z0.300 F7800.000
G1 X112.944 Y93.819 F7800.000
G1 X104.658 Y93.819 E0.37496 F378.000
G1 X114.196 Y106.218 E1.08279
G1 X114.196 Y107.423 E1.13733
G1 X103.779 Y107.423 E1.60869
G1 X103.779 Y106.181 E1.66489
G1 X112.526 Y106.181 E2.06069
G1 X102.987 Y93.826 E2.76697
G1 X102.987 Y92.577 E2.82350
G1 X114.706 Y92.577 E3.35378
G1 X114.706 Y93.819 E3.40997
G1 X113.175 Y93.819 E3.47922 F378.000
G1 X114.480 Y93.007 F7800.000
G1 X114.276 Y92.803 E3.49251 F540.000
G1 X113.720 Y92.803 E3.51815
G1 X114.480 Y93.563 E3.56770
G1 X113.954 Y93.593 E3.59198
G1 X113.164 Y92.803 E3.64352
G1 X112.608 Y92.803 E3.66917
G1 X113.398 Y93.593 E3.72071
G1 X112.843 Y93.593 E3.74636
G1 X112.052 Y92.803 E3.79790
G1 X111.496 Y92.803 E3.82355
G1 X112.287 Y93.593 E3.87509
G1 X111.731 Y93.593 E3.90073
G1 X110.941 Y92.803 E3.95228
G1 X110.385 Y92.803 E3.97792
G1 X111.175 Y93.593 E4.02946
G1 X110.619 Y93.593 E4.05511
G1 X109.829 Y92.803 E4.10665
G1 X109.273 Y92.803 E4.13230
G1 X110.063 Y93.593 E4.18384
G1 X109.507 Y93.593 E4.20949
G1 X108.717 Y92.803 E4.26103
G1 X108.161 Y92.803 E4.28667
G1 X108.951 Y93.593 E4.33822
G1 X108.395 Y93.593 E4.36386
G1 X107.605 Y92.803 E4.41540
G1 X107.049 Y92.803 E4.44105
G1 X107.839 Y93.593 E4.49259
G1 X107.283 Y93.593 E4.51824
G1 X106.493 Y92.803 E4.56978
G1 X105.937 Y92.803 E4.59543
G1 X106.727 Y93.593 E4.64697
G1 X106.171 Y93.593 E4.67261
G1 X105.381 Y92.803 E4.72416
G1 X104.825 Y92.803 E4.74980
G1 X105.615 Y93.593 E4.80134
G1 X105.059 Y93.593 E4.82699
G1 X104.269 Y92.803 E4.87853
G1 X103.713 Y92.803 E4.90418
G1 X104.503 Y93.593 E4.95572
G1 X104.673 Y94.318 F7800.000
G1 X103.213 Y92.859 E5.05096 F540.000
G1 X103.213 Y93.415 E5.07661
G1 X106.526 Y96.728 E5.29277
G1 X106.218 Y97.531 F7800.000
G1 X110.234 Y101.547 E5.55478 F540.000
G1 X109.984 Y102.410 F7800.000
G1 X113.941 Y106.367 E5.81292 F540.000
G1 X113.970 Y106.951 E5.83992
G1 X111.868 Y104.849 E5.97705
G1 X112.088 Y103.957 F7800.000
G1 X108.101 Y99.971 E6.23712 F540.000
G1 X108.380 Y99.138 F7800.000
G1 X104.334 Y95.092 E6.50107 F540.000
G92 E0
G1 X104.530 Y106.407 F7800.000
G1 X105.320 Y107.197 E0.05154 F540.000
G1 X105.876 Y107.197 E0.07719
G1 X105.086 Y106.407 E0.12873
G1 X105.642 Y106.407 E0.15438
G1 X106.432 Y107.197 E0.20592
G1 X106.988 Y107.197 E0.23157
G1 X106.198 Y106.407 E0.28311
G1 X106.754 Y106.407 E0.30875
G1 X107.544 Y107.197 E0.36030
G1 X108.100 Y107.197 E0.38594
G1 X107.310 Y106.407 E0.43749
G1 X107.866 Y106.407 E0.46313
G1 X108.656 Y107.197 E0.51467
G1 X109.212 Y107.197 E0.54032
G1 X108.422 Y106.407 E0.59186
G1 X108.978 Y106.407 E0.61751
G1 X109.768 Y107.197 E0.66905
G1 X110.324 Y107.197 E0.69470
G1 X109.534 Y106.407 E0.74624
G1 X110.090 Y106.407 E0.77189
G1 X110.880 Y107.197 E0.82343
G1 X111.436 Y107.197 E0.84908
G1 X110.646 Y106.407 E0.90062
G1 X111.202 Y106.407 E0.92626
G1 X111.992 Y107.197 E0.97781
G1 X112.548 Y107.197 E1.00345
G1 X111.758 Y106.407 E1.05500
G1 X112.314 Y106.407 E1.08064
G1 X113.104 Y107.197 E1.13218
G1 X113.660 Y107.197 E1.15783
G1 X112.869 Y106.407 E1.20937
G1 X104.764 Y107.197 F7800.000
G1 X104.005 Y106.438 E1.25892 F540.000
G1 X104.005 Y106.993 E1.28457
G1 X104.208 Y107.197 E1.29785
G92 E0
G1 X103.554 Y105.956 F7800.000
G1 X99.516 Y100.632 F7800.000
G1 X99.944 Y94.187 F7800.000
G1 X97.786 Y92.352 F7800.000
G1 X94.278 Y93.844 F7800.000
G1 X95.322 Y92.577 E0.07428 F378.000
G1 X97.299 Y92.577 E0.16375
G1 X90.123 Y101.015 E0.66496
G1 X96.386 Y107.423 E1.07042
G1 X94.576 Y107.423 E1.15230
G1 X86.915 Y99.424 E1.65348
G1 X86.915 Y107.423 E2.01544
G1 X85.294 Y107.423 E2.08879
G1 X85.294 Y92.577 E2.76056
G1 X86.915 Y92.577 E2.83391
G1 X86.915 Y98.325 E3.09401
G1 X89.165 Y100.044 E3.22213 F378.000
G1 X94.131 Y94.022 E3.57535
G1 X96.686 Y93.001 F7800.000
G1 X96.489 Y92.803 E3.58821 F540.000
G1 X96.432 Y93.300 E3.61120
G1 X95.935 Y92.803 E3.64352
G1 X95.383 Y92.806 E3.66886
G1 X96.177 Y93.599 E3.72045
G1 X95.923 Y93.899 E3.73852
G1 X95.133 Y93.109 E3.78984
G1 X94.883 Y93.413 E3.80792
G1 X95.668 Y94.198 E3.85897
G1 X95.413 Y94.497 E3.87703
G1 X94.632 Y93.716 E3.92780
G1 X94.382 Y94.020 E3.94588
G1 X95.159 Y94.797 E3.99637
G1 X94.904 Y95.096 E4.01443
G1 X94.132 Y94.324 E4.06465
G1 X93.881 Y94.627 E4.08273
G1 X94.650 Y95.396 E4.13267
G1 X94.395 Y95.695 E4.15073
G1 X93.631 Y94.931 E4.20039
G1 X93.381 Y95.235 E4.21848
G1 X94.140 Y95.994 E4.26786
G1 X93.886 Y96.294 E4.28592
G1 X93.130 Y95.538 E4.33502
G1 X92.880 Y95.842 E4.35311
G1 X93.631 Y96.593 E4.40194
G1 X93.376 Y96.892 E4.42000
G1 X92.630 Y96.145 E4.46855
G1 X92.379 Y96.449 E4.48664
G1 X93.122 Y97.192 E4.53491
G1 X92.867 Y97.491 E4.55297
G1 X92.129 Y96.753 E4.60097
G1 X91.879 Y97.056 E4.61905
G1 X92.613 Y97.790 E4.66677
G1 X92.358 Y98.090 E4.68483
G1 X91.628 Y97.360 E4.73227
G1 X91.378 Y97.663 E4.75036
G1 X92.103 Y98.389 E4.79753
G1 X91.849 Y98.688 E4.81559
G1 X91.127 Y97.967 E4.86248
G1 X90.877 Y98.271 E4.88056
G1 X91.594 Y98.988 E4.92717
G1 X91.340 Y99.287 E4.94523
G1 X90.627 Y98.574 E4.99157
G1 X90.376 Y98.878 E5.00965
G1 X91.085 Y99.586 E5.05571
G1 X90.830 Y99.886 E5.07377
G1 X90.126 Y99.181 E5.11955
G1 X89.876 Y99.485 E5.13764
G1 X90.576 Y100.185 E5.18314
G1 X90.321 Y100.484 E5.20120
G1 X89.625 Y99.789 E5.24643
G1 X89.375 Y100.092 E5.26451
G1 X90.067 Y100.784 E5.30946
G1 X89.812 Y101.083 E5.32752
G1 X89.065 Y100.336 E5.37608
G1 X87.758 Y99.583 F7800.000
G1 X95.372 Y107.197 E5.87098 F540.000
G1 X94.818 Y107.197 E5.89644
G1 X93.980 Y106.359 E5.95093
G92 E0
G1 X86.140 Y106.648 F7800.000
G1 X86.140 Y106.648 F7800.000
G1 X86.105 Y106.612 F7800.000
G1 X86.069 Y106.648 F7800.000
G1 X85.520 Y106.993 F7800.000
G1 X85.724 Y107.197 E0.01341 F540.000
G1 X86.285 Y107.197 E0.03955
G1 X85.520 Y106.432 E0.08994
G1 X85.520 Y105.871 E0.11608
G1 X86.689 Y107.040 E0.19309
G1 X86.689 Y106.479 E0.21923
G1 X85.520 Y105.309 E0.29624
G1 X85.520 Y104.748 E0.32238
G1 X86.689 Y105.917 E0.39939
G1 X86.689 Y105.356 E0.42553
G1 X85.520 Y104.187 E0.50254
G1 X85.520 Y103.625 E0.52868
G1 X86.689 Y104.795 E0.60569
G1 X86.689 Y104.233 E0.63183
G1 X85.520 Y103.064 E0.70884
G1 X85.520 Y102.503 E0.73499
G1 X86.689 Y103.672 E0.81199
G1 X86.689 Y103.111 E0.83814
G1 X85.520 Y101.941 E0.91514
G1 X85.520 Y101.380 E0.94129
G1 X86.689 Y102.549 E1.01829
G1 X86.689 Y101.988 E1.04444
G1 X85.520 Y100.819 E1.12144
G1 X85.520 Y100.257 E1.14759
G1 X86.689 Y101.427 E1.22459
G1 X86.689 Y100.865 E1.25074
G1 X85.520 Y99.696 E1.32774
G1 X85.520 Y99.135 E1.35389
G1 X86.689 Y100.304 E1.43089
G1 X86.689 Y99.743 E1.45704
G1 X85.520 Y98.573 E1.53405
G1 X86.326 Y98.818 E1.57329
G1 X85.520 Y98.012 E1.62640
G1 X85.520 Y97.451 E1.65254
G1 X86.591 Y98.522 E1.72310
G1 X86.689 Y98.059 E1.74517
G1 X85.520 Y96.889 E1.82218
G1 X85.520 Y96.328 E1.84832
G1 X86.689 Y97.497 E1.92533
G1 X86.689 Y96.936 E1.95147
G1 X85.520 Y95.767 E2.02848
G1 X85.520 Y95.205 E2.05462
G1 X86.689 Y96.375 E2.13163
G1 X86.689 Y95.813 E2.15777
G1 X85.520 Y94.644 E2.23478
G1 X85.520 Y94.083 E2.26092
G1 X86.689 Y95.252 E2.33793
G1 X86.689 Y94.691 E2.36407
G1 X85.520 Y93.521 E2.44108
G1 X85.520 Y92.960 E2.46722
G1 X86.689 Y94.129 E2.54423
G1 X86.689 Y93.568 E2.57037
G1 X85.924 Y92.803 E2.62076
G1 X86.486 Y92.803 E2.64690
G1 X86.689 Y93.007 E2.66031
G1 X86.722 Y98.664 F7800.000
G1 X87.604 Y99.452 E2.77628 F540.000
M106 S255
G92 E0
G1 Z0.600 F7800.000
G1 X114.931 Y93.198 F7800.000
G1 X105.115 Y93.198 E2.94133 F600.000
G1 X104.015 Y93.556 E3.28802
G1 X104.411 Y94.586 E3.61865
G1 X112.761 Y105.421 E7.71765
G1 X113.154 Y106.453 E8.04874
G1 X112.068 Y106.802 E8.39055
G1 X103.554 Y106.802 E10.94174
G92 E0
G1 X99.516 Y100.632 F7800.000
G1 X99.944 Y94.187 F7800.000
G1 X97.786 Y92.352 F7800.000
G1 X96.493 Y92.352 F7800.000
G1 X89.828 Y100.310 E3.11048 F600.000
G1 X89.381 Y100.775 E3.30375
G1 X89.831 Y101.587 E3.58188
G1 X95.694 Y107.648 E6.10884
G92 E0
G1 X86.140 Y106.648 F7800.000
G1 X86.140 Y106.648 F7800.000
G1 X87.037 Y102.575 F7800.000
G1 X86.105 Y98.214 E1.33630 F600.000
G1 X86.105 Y92.352 E3.09283
G1 X86.105 Y107.648 F7800.000
G1 X86.105 Y99.984 E5.38932 F600.000
G1 X86.294 Y99.099 E5.66049
G1 X86.464 Y99.099 E5.71145
G1 X87.651 Y99.495 E6.08644
G1 X88.638 Y100.377 E6.48307
G1 X91.106 Y101.699 E7.32204
G92 E0
G1 Z0.900 F7800.000
G1 X114.931 Y93.198 F7800.000
G1 X105.115 Y93.198 E2.94133 F600.000
G1 X104.015 Y93.556 E3.28802
G1 X104.411 Y94.586 E3.61865
G1 X112.761 Y105.421 E7.71765
G1 X113.154 Y106.453 E8.04874
G1 X112.068 Y106.802 E8.39055
G1 X103.554 Y106.802 E10.94174
G92 E0
G1 X99.516 Y100.632 F7800.000
G1 X99.944 Y94.187 F7800.000
G1 X97.786 Y92.352 F7800.000
G1 X96.493 Y92.352 F7800.000
G1 X89.828 Y100.310 E3.11048 F600.000
G1 X89.381 Y100.775 E3.30375
G1 X89.831 Y101.587 E3.58188
G1 X95.694 Y107.648 E6.10884
G92 E0
G1 X86.140 Y106.648 F7800.000
G1 X86.140 Y106.648 F7800.000
G1 X87.037 Y102.575 F7800.000
G1 X86.105 Y98.214 E1.33630 F600.000
G1 X86.105 Y92.352 E3.09283
G1 X86.105 Y107.648 F7800.000
G1 X86.105 Y99.984 E5.38931 F600.000
G1 X86.294 Y99.099 E5.66049
G1 X86.464 Y99.099 E5.71145
G1 X87.651 Y99.495 E6.08644
G1 X88.638 Y100.377 E6.48307
G1 X91.106 Y101.699 E7.32204
G92 E0
G1 Z1.200 F7800.000
G1 X114.931 Y93.198 F7800.000
G1 X105.115 Y93.198 E2.94133 F600.000
G1 X104.015 Y93.556 E3.28802
G1 X104.411 Y94.586 E3.61865
G1 X112.761 Y105.421 E7.71765
G1 X113.154 Y106.453 E8.04874
G1 X112.068 Y106.802 E8.39055
G1 X103.554 Y106.802 E10.94174
G92 E0
G1 X99.516 Y100.632 F7800.000
G1 X99.944 Y94.187 F7800.000
G1 X97.786 Y92.352 F7800.000
G1 X96.493 Y92.352 F7800.000
G1 X89.828 Y100.310 E3.11048 F600.000
G1 X89.381 Y100.775 E3.30375
G1 X89.831 Y101.587 E3.58188
G1 X95.694 Y107.648 E6.10884
G92 E0
G1 X86.140 Y106.648 F7800.000
G1 X86.140 Y106.648 F7800.000
G1 X87.037 Y102.575 F7800.000
G1 X86.105 Y98.214 E1.33630 F600.000
G1 X86.105 Y92.352 E3.09283
G1 X86.105 Y107.648 F7800.000
G1 X86.105 Y99.984 E5.38931 F600.000
G1 X86.294 Y99.099 E5.66049
G1 X86.464 Y99.099 E5.71145
G1 X87.651 Y99.495 E6.08644
G1 X88.638 Y100.377 E6.48307
G1 X91.106 Y101.699 E7.32204
G92 E0
G1 Z1.500 F7800.000
G1 X114.931 Y93.198 F7800.000
G1 X105.115 Y93.198 E2.94133 F600.000
G1 X104.015 Y93.556 E3.28802
G1 X104.411 Y94.586 E3.61865
G1 X112.761 Y105.421 E7.71765
G1 X113.154 Y106.453 E8.04874
G1 X112.068 Y106.802 E8.39055
G1 X103.554 Y106.802 E10.94174
G92 E0
G1 X99.516 Y100.632 F7800.000
G1 X99.944 Y94.187 F7800.000
G1 X97.786 Y92.352 F7800.000
G1 X96.493 Y92.352 F7800.000
G1 X89.828 Y100.310 E3.11048 F600.000
G1 X89.381 Y100.775 E3.30375
G1 X89.831 Y101.587 E3.58188
G1 X95.694 Y107.648 E6.10884
G92 E0
G1 X86.140 Y106.648 F7800.000
G1 X86.140 Y106.648 F7800.000
G1 X87.037 Y102.575 F7800.000
G1 X86.105 Y98.214 E1.33630 F600.000
G1 X86.105 Y92.352 E3.09283
G1 X86.105 Y107.648 F7800.000
G1 X86.105 Y99.984 E5.38931 F600.000
G1 X86.294 Y99.099 E5.66049
G1 X86.464 Y99.099 E5.71145
G1 X87.651 Y99.495 E6.08644
G1 X88.638 Y100.377 E6.48307
G1 X91.106 Y101.699 E7.32204
G92 E0
G1 Z1.800 F7800.000
G1 X114.931 Y93.198 F7800.000
G1 X105.115 Y93.198 E2.94133 F600.000
G1 X104.015 Y93.556 E3.28802
G1 X104.411 Y94.586 E3.61865
G1 X112.761 Y105.421 E7.71765
G1 X113.154 Y106.453 E8.04874
G1 X112.068 Y106.802 E8.39055
G1 X103.554 Y106.802 E10.94174
G92 E0
G1 X99.516 Y100.632 F7800.000
G1 X99.944 Y94.187 F7800.000
G1 X97.786 Y92.352 F7800.000
G1 X96.493 Y92.352 F7800.000
G1 X89.828 Y100.310 E3.11048 F600.000
G1 X89.381 Y100.775 E3.30375
G1 X89.831 Y101.587 E3.58188
G1 X95.694 Y107.648 E6.10884
G92 E0
G1 X86.140 Y106.648 F7800.000
G1 X86.140 Y106.648 F7800.000
G1 X87.037 Y102.575 F7800.000
G1 X86.105 Y98.214 E1.33630 F600.000
G1 X86.105 Y92.352 E3.09283
G1 X86.105 Y107.648 F7800.000
G1 X86.105 Y99.984 E5.38932 F600.000
G1 X86.294 Y99.099 E5.66049
G1 X86.464 Y99.099 E5.71146
G1 X87.651 Y99.495 E6.08644
G1 X88.638 Y100.377 E6.48307
G1 X91.106 Y101.699 E7.32204
G92 E0
G1 Z2.100 F7800.000
G1 X114.931 Y93.198 F7800.000
G1 X105.115 Y93.198 E2.94133 F600.000
G1 X104.015 Y93.556 E3.28802
G1 X104.411 Y94.586 E3.61865
G1 X112.761 Y105.421 E7.71765
G1 X113.154 Y106.453 E8.04874
G1 X112.068 Y106.802 E8.39055
G1 X103.554 Y106.802 E10.94174
G92 E0
G1 X99.516 Y100.632 F7800.000
G1 X99.944 Y94.187 F7800.000
G1 X97.786 Y92.352 F7800.000
G1 X96.493 Y92.352 F7800.000
G1 X89.828 Y100.310 E3.11048 F600.000
G1 X89.381 Y100.775 E3.30375
G1 X89.831 Y101.587 E3.58188
G1 X95.694 Y107.648 E6.10884
G92 E0
G1 X86.140 Y106.648 F7800.000
G1 X86.140 Y106.648 F7800.000
G1 X87.037 Y102.575 F7800.000
G1 X86.105 Y98.214 E1.33630 F600.000
G1 X86.105 Y92.352 E3.09283
G92 E0
G1 X86.105 Y107.648 F7800.000
G1 X86.105 Y99.984 E2.29649 F600.000
G1 X86.294 Y99.099 E2.56766
G1 X86.464 Y99.099 E2.61863
G1 X87.651 Y99.495 E2.99361
G1 X88.638 Y100.377 E3.39025
G1 X91.106 Y101.699 E4.22921
G92 E0
M107
M104 S0 ; turn off temperature
G28 X0  ; home X axis
M84     ; disable motors

; filament used = 162.8mm (1.2cm3)

; avoid_crossing_perimeters = 1
; bed_shape = 0x0,250x0,250x250,0x250
; bed_temperature = 0
; before_layer_gcode = 
; bridge_acceleration = 0
; bridge_fan_speed = 100
; brim_width = 0
; complete_objects = 0
; cooling = 1
; default_acceleration = 0
; disable_fan_first_layers = 1
; duplicate_distance = 6
; end_gcode = M104 S0 ; turn off temperature\nG28 X0  ; home X axis\nM84     ; disable motors\n
; extruder_clearance_height = 20
; extruder_clearance_radius = 20
; extruder_offset = 0x0
; extrusion_axis = E
; extrusion_multiplier = 3
; fan_always_on = 0
; fan_below_layer_time = 60
; filament_colour = #FFFFFF
; filament_diameter = 3.125
; first_layer_acceleration = 0
; first_layer_bed_temperature = 0
; first_layer_extrusion_width = 150%
; first_layer_speed = 90%
; first_layer_temperature = 30
; gcode_arcs = 0
; gcode_comments = 0
; gcode_flavor = reprap
; infill_acceleration = 0
; infill_first = 0
; layer_gcode = 
; max_fan_speed = 100
; max_print_speed = 80
; max_volumetric_speed = 0
; min_fan_speed = 35
; min_print_speed = 10
; min_skirt_length = 0
; notes = 
; nozzle_diameter = 1.54
; only_retract_when_crossing_perimeters = 1
; ooze_prevention = 0
; output_filename_format = [input_filename_base].gcode
; perimeter_acceleration = 0
; post_process = 
; pressure_advance = 0
; resolution = 0
; retract_before_travel = 2
; retract_layer_change = 1
; retract_length = 0
; retract_length_toolchange = 10
; retract_lift = 0
; retract_restart_extra = 0
; retract_restart_extra_toolchange = 0
; retract_speed = 0
; skirt_distance = 6
; skirt_height = 1
; skirts = 0
; slowdown_below_layer_time = 30
; spiral_vase = 0
; standby_temperature_delta = -5
; start_gcode = G28 ; home all axes\nG1 Z5 F5000 ; lift nozzle\nM302\nM92 E10000\nM500\nM501\nG1 E100
; temperature = 30
; threads = 2
; toolchange_gcode = 
; travel_speed = 130
; use_firmware_retraction = 0
; use_relative_e_distances = 0
; use_volumetric_e = 0
; vibration_limit = 0
; wipe = 0
; z_offset = 0
; dont_support_bridges = 1
; extrusion_width = 0
; first_layer_height = 100%
; infill_only_where_needed = 0
; interface_shells = 0
; layer_height = 0.3
; raft_layers = 0
; seam_position = random
; support_material = 0
; support_material_angle = 0
; support_material_contact_distance = 0.2
; support_material_enforce_layers = 0
; support_material_extruder = 1
; support_material_extrusion_width = 0
; support_material_interface_extruder = 1
; support_material_interface_layers = 3
; support_material_interface_spacing = 0
; support_material_interface_speed = 100%
; support_material_pattern = pillars
; support_material_spacing = 2.5
; support_material_speed = 7
; support_material_threshold = 0
; xy_size_compensation = 0
; bottom_solid_layers = 3
; bridge_flow_ratio = 1
; bridge_speed = 10
