; generated by Slic3r 1.2.9 on 2016-03-10 at 20:35:24

; external perimeters extrusion width = 1.54mm
; perimeters extrusion width = 2.62mm
; infill extrusion width = 6.27mm
; solid infill extrusion width = 2.62mm
; top infill extrusion width = 2.62mm

M107
M104 S30 ; set temperature
G28 ; home all axes
G1 Z5 F5000 ; lift nozzle
M302
M92 E10000
M500
M501
G1 E100
M109 S30 ; wait for temperature to be reached
G21 ; set units to millimeters
G90 ; use absolute coordinates
M82 ; use absolute distances for extrusion
G92 E0
G1 Z0.300 F7800.000
G1 X120.328 Y123.479 F7800.000
G1 X120.328 Y117.577 E0.26706 F600.000
G1 X129.672 Y117.577 E0.68982
G1 X129.672 Y118.819 E0.74602
G1 X121.950 Y118.819 E1.09544 F600.000
G1 X121.950 Y132.423 E1.71101
G1 X120.328 Y132.423 E1.78436
G1 X120.328 Y123.710 E2.17862
G1 X120.758 Y132.197 F7800.000
G1 X120.554 Y131.993 E2.19195 F600.000
G1 X120.554 Y131.435 E2.21778
G1 X121.316 Y132.197 E2.26765
G1 X121.724 Y132.047 E2.28776
G1 X120.554 Y130.877 E2.36431
G1 X120.554 Y130.319 E2.39014
G1 X121.724 Y131.489 E2.46669
G1 X121.724 Y130.931 E2.49253
G1 X120.554 Y129.761 E2.56908
G1 X120.554 Y129.203 E2.59491
G1 X121.724 Y130.373 E2.67146
G1 X121.724 Y129.815 E2.69730
G1 X120.554 Y128.645 E2.77384
G1 X120.554 Y128.087 E2.79968
G1 X121.724 Y129.257 E2.87623
G1 X121.724 Y128.699 E2.90206
G1 X120.554 Y127.529 E2.97861
G1 X120.554 Y126.971 E3.00445
G1 X121.724 Y128.141 E3.08100
G1 X121.724 Y127.583 E3.10683
G1 X120.554 Y126.413 E3.18338
G1 X120.554 Y125.855 E3.20921
G1 X121.724 Y127.025 E3.28576
G1 X121.724 Y126.467 E3.31160
G1 X120.554 Y125.297 E3.38815
G1 X120.554 Y124.739 E3.41398
G1 X121.724 Y125.909 E3.49053
G1 X121.724 Y125.351 E3.51637
G1 X120.554 Y124.181 E3.59291
G1 X120.554 Y123.623 E3.61875
G1 X121.724 Y124.793 E3.69530
G1 X121.724 Y124.235 E3.72113
G1 X120.554 Y123.065 E3.79768
G1 X120.554 Y122.507 E3.82352
G1 X121.724 Y123.677 E3.90007
G1 X121.724 Y123.119 E3.92590
G1 X120.554 Y121.949 E4.00245
G1 X120.554 Y121.391 E4.02828
G1 X121.724 Y122.561 E4.10483
G1 X121.724 Y122.003 E4.13067
G1 X120.554 Y120.833 E4.20722
G1 X120.554 Y120.275 E4.23305
G1 X121.724 Y121.445 E4.30960
G1 X121.724 Y120.887 E4.33544
G1 X120.554 Y119.717 E4.41198
G1 X120.554 Y119.159 E4.43782
G1 X121.724 Y120.329 E4.51437
G1 X121.724 Y119.771 E4.54020
G1 X120.554 Y118.601 E4.61675
G1 X120.554 Y118.043 E4.64259
G1 X121.724 Y119.213 E4.71914
G1 X121.724 Y118.655 E4.74497
G1 X120.872 Y117.803 E4.80073
G1 X121.430 Y117.803 E4.82657
G1 X122.220 Y118.593 E4.87830
G1 X122.778 Y118.593 E4.90413
G1 X121.988 Y117.803 E4.95586
G1 X122.546 Y117.803 E4.98170
G1 X123.336 Y118.593 E5.03343
G1 X123.894 Y118.593 E5.05927
G1 X123.104 Y117.803 E5.11100
G1 X123.662 Y117.803 E5.13683
G1 X124.452 Y118.593 E5.18857
G1 X125.010 Y118.593 E5.21440
G1 X124.220 Y117.803 E5.26613
G1 X124.778 Y117.803 E5.29197
G1 X125.568 Y118.593 E5.34370
G1 X126.126 Y118.593 E5.36953
G1 X125.336 Y117.803 E5.42127
G1 X125.894 Y117.803 E5.44710
G1 X126.684 Y118.593 E5.49883
G1 X127.242 Y118.593 E5.52467
G1 X126.452 Y117.803 E5.57640
G1 X127.010 Y117.803 E5.60223
G1 X127.800 Y118.593 E5.65397
G1 X128.358 Y118.593 E5.67980
G1 X127.568 Y117.803 E5.73153
G1 X128.126 Y117.803 E5.75737
G1 X128.916 Y118.593 E5.80910
G1 X129.446 Y118.565 E5.83365
G1 X128.684 Y117.803 E5.88352
G1 X129.242 Y117.803 E5.90935
G1 X129.446 Y118.007 E5.92269
M106 S255
G92 E0
G1 Z0.600 F7800.000
G1 X121.139 Y132.648 F7800.000
G1 X121.139 Y119.044 E4.07639 F600.000
G1 X121.219 Y118.468 E4.25074
G1 X122.175 Y118.198 E4.54819
G1 X129.897 Y118.198 E6.86205
G92 E0
G1 Z0.900 F7800.000
G1 X121.139 Y132.648 F7800.000
G1 X121.139 Y119.044 E4.07639 F600.000
G1 X121.219 Y118.468 E4.25074
G1 X122.175 Y118.198 E4.54819
G1 X129.897 Y118.198 E6.86205
G92 E0
G1 Z1.200 F7800.000
G1 X121.139 Y132.648 F7800.000
G1 X121.139 Y119.044 E4.07639 F600.000
G1 X121.219 Y118.468 E4.25074
G1 X122.175 Y118.198 E4.54819
G1 X129.897 Y118.198 E6.86205
G92 E0
G1 Z1.500 F7800.000
G1 X121.139 Y132.648 F7800.000
G1 X121.139 Y119.044 E4.07639 F600.000
G1 X121.219 Y118.468 E4.25074
G1 X122.175 Y118.198 E4.54819
G1 X129.897 Y118.198 E6.86205
G92 E0
G1 Z1.800 F7800.000
G1 X121.139 Y132.648 F7800.000
G1 X121.139 Y119.044 E4.07639 F600.000
G1 X121.219 Y118.468 E4.25074
G1 X122.175 Y118.198 E4.54819
G1 X129.897 Y118.198 E6.86205
G92 E0
G1 Z2.100 F7800.000
G1 X121.139 Y132.648 F7800.000
G1 X121.139 Y119.044 E4.07639 F600.000
G1 X121.219 Y118.468 E4.25074
G1 X122.175 Y118.198 E4.54819
G1 X129.897 Y118.198 E6.86205
G92 E0
M107
M104 S0 ; turn off temperature
G28 X0  ; home X axis
M84     ; disable motors

; filament used = 47.1mm (0.4cm3)

; avoid_crossing_perimeters = 1
; bed_shape = 0x0,250x0,250x250,0x250
; bed_temperature = 0
; before_layer_gcode = 
; bridge_acceleration = 0
; bridge_fan_speed = 100
; brim_width = 0
; complete_objects = 0
; cooling = 1
; default_acceleration = 0
; disable_fan_first_layers = 1
; duplicate_distance = 6
; end_gcode = M104 S0 ; turn off temperature\nG28 X0  ; home X axis\nM84     ; disable motors\n
; extruder_clearance_height = 20
; extruder_clearance_radius = 20
; extruder_offset = 0x0
; extrusion_axis = E
; extrusion_multiplier = 3
; fan_always_on = 0
; fan_below_layer_time = 60
; filament_colour = #FFFFFF
; filament_diameter = 3.125
; first_layer_acceleration = 0
; first_layer_bed_temperature = 0
; first_layer_extrusion_width = 150%
; first_layer_speed = 90%
; first_layer_temperature = 30
; gcode_arcs = 0
; gcode_comments = 0
; gcode_flavor = reprap
; infill_acceleration = 0
; infill_first = 0
; layer_gcode = 
; max_fan_speed = 100
; max_print_speed = 80
; max_volumetric_speed = 0
; min_fan_speed = 35
; min_print_speed = 10
; min_skirt_length = 0
; notes = 
; nozzle_diameter = 1.54
; only_retract_when_crossing_perimeters = 1
; ooze_prevention = 0
; output_filename_format = [input_filename_base].gcode
; perimeter_acceleration = 0
; post_process = 
; pressure_advance = 0
; resolution = 0
; retract_before_travel = 2
; retract_layer_change = 1
; retract_length = 0
; retract_length_toolchange = 10
; retract_lift = 0
; retract_restart_extra = 0
; retract_restart_extra_toolchange = 0
; retract_speed = 0
; skirt_distance = 6
; skirt_height = 1
; skirts = 0
; slowdown_below_layer_time = 30
; spiral_vase = 0
; standby_temperature_delta = -5
; start_gcode = G28 ; home all axes\nG1 Z5 F5000 ; lift nozzle\nM302\nM92 E10000\nM500\nM501\nG1 E100
; temperature = 30
; threads = 2
; toolchange_gcode = 
; travel_speed = 130
; use_firmware_retraction = 0
; use_relative_e_distances = 0
; use_volumetric_e = 0
; vibration_limit = 0
; wipe = 0
; z_offset = 0
; dont_support_bridges = 1
; extrusion_width = 0
; first_layer_height = 100%
; infill_only_where_needed = 0
; interface_shells = 0
; layer_height = 0.3
; raft_layers = 0
; seam_position = random
; support_material = 0
; support_material_angle = 0
; support_material_contact_distance = 0.2
; support_material_enforce_layers = 0
; support_material_extruder = 1
; support_material_extrusion_width = 0
; support_material_interface_extruder = 1
; support_material_interface_layers = 3
; support_material_interface_spacing = 0
; support_material_interface_speed = 100%
; support_material_pattern = pillars
; support_material_spacing = 2.5
; support_material_speed = 7
; support_material_threshold = 0
; xy_size_compensation = 0
; bottom_solid_layers = 3
; bridge_flow_ratio = 1
; bridge_speed = 10
; external_fill_pattern = rectilinear
; external_perimeter_extrusion_width = 0
; external_perimeter_speed = 70%
; external_perimeters_first = 1
; extra_perimeters = 1
; fill_angle = 45
; fill_density = 60%
; fill_pattern = rectilinear
; gap_fill_speed = 10
; infill_every_layers = 1
; infill_extruder = 1
; infill_extrusion_width = 0
; infill_overlap = 15%
; infill_speed = 10
; overhangs = 1
; perimeter_extruder = 1
; perimeter_extrusion_width = 0
; perimeter_speed = 10
; perimeters = 1
; small_perimeter_speed = 70%
; solid_infill_below_area = 70
; solid_infill_every_layers = 0
; solid_infill_extruder = 1
; solid_infill_extrusion_width = 0
; solid_infill_speed = 10
; thin_walls = 1
; top_infill_extrusion_width = 0
; top_solid_infill_speed = 10
; top_solid_layers = 3
