; generated by Slic3r 1.2.9 on 2016-03-11 at 01:26:49

; external perimeters extrusion width = 1.54mm
; perimeters extrusion width = 2.62mm
; infill extrusion width = 6.27mm
; solid infill extrusion width = 2.62mm
; top infill extrusion width = 2.62mm

M107
M104 S30 ; set temperature
G28 ; home all axes
G1 Z5 F5000 ; lift nozzle
M302
M92 E10000
M500
M501
G1 E100
M109 S30 ; wait for temperature to be reached
G21 ; set units to millimeters
G90 ; use absolute coordinates
M82 ; use absolute distances for extrusion
G92 E0
G1 Z0.300 F7800.000
G1 X109.743 Y103.128 F7800.000
G1 X108.024 Y107.423 E0.20932 F378.000
G1 X105.975 Y107.423 E0.30205
G1 X99.936 Y92.577 E1.02727
G1 X101.595 Y92.577 E1.10235
G1 X103.160 Y96.563 E1.29613
G1 X103.347 Y97.041 E1.31934 F378.000
G1 X110.597 Y97.041 E1.64741
G1 X112.338 Y92.577 E1.86422
G1 X113.967 Y92.577 E1.93792
G1 X109.829 Y102.914 E2.44174
G1 X108.529 Y102.411 F7800.000
G1 X107.880 Y104.086 E2.52305 F378.000
G1 X107.171 Y106.198 E2.62386
G1 X106.772 Y106.197 E2.64191
G1 X106.453 Y105.195 E2.68949
G1 X105.864 Y103.544 E2.76881
G1 X103.799 Y98.207 E3.02775
G1 X110.156 Y98.207 E3.31539 F378.000
G1 X108.612 Y102.195 E3.50889
G92 E0
G1 X105.354 Y102.949 F7800.000
G1 X103.811 Y101.407 E0.09965 F540.000
G1 X104.659 Y101.153 F7800.000
G1 X103.056 Y99.550 E0.20322 F540.000
G1 X103.964 Y99.357 F7800.000
G1 X102.301 Y97.694 E0.31069 F540.000
G1 X101.923 Y96.765 F7800.000
G1 X103.617 Y98.459 E0.42013 F540.000
G1 X102.679 Y98.622 F7800.000
G1 X104.312 Y100.255 E0.52565 F540.000
G1 X103.434 Y100.479 F7800.000
G1 X105.006 Y102.051 E0.62726 F540.000
G1 X104.189 Y102.335 F7800.000
G1 X105.696 Y103.842 E0.72461 F540.000
G1 X104.944 Y104.192 F7800.000
G1 X106.297 Y105.544 E0.81201 F540.000
G1 X105.700 Y106.049 F7800.000
G1 X106.848 Y107.197 E0.88621 F540.000
G1 X107.399 Y107.197 E0.91138
G1 X106.625 Y106.423 E0.96140
G1 X107.177 Y106.424 E0.98663
G1 X107.907 Y107.154 E1.03381
G1 X108.070 Y106.767 E1.05303
G1 X107.415 Y106.112 E1.09534
G1 X107.554 Y105.700 E1.11521
G1 X108.227 Y106.374 E1.15875
G1 X108.385 Y105.980 E1.17811
G1 X107.692 Y105.288 E1.22288
G1 X107.830 Y104.875 E1.24275
G1 X108.542 Y105.587 E1.28874
G1 X108.700 Y105.194 E1.30810
G1 X107.969 Y104.463 E1.35531
G1 X108.110 Y104.053 E1.37513
G1 X108.857 Y104.800 E1.42343
G1 X109.014 Y104.407 E1.44279
G1 X108.263 Y103.656 E1.49133
G1 X108.417 Y103.259 E1.51079
G1 X109.172 Y104.014 E1.55957
G1 X109.329 Y103.621 E1.57893
G1 X108.571 Y102.862 E1.62796
G1 X108.724 Y102.465 E1.64742
G1 X109.487 Y103.227 E1.69669
G1 X109.644 Y102.834 E1.71605
G1 X108.878 Y102.068 E1.76556
G1 X109.032 Y101.671 E1.78502
G1 X109.802 Y102.441 E1.83477
G1 X109.959 Y102.047 E1.85413
G1 X109.185 Y101.274 E1.90413
G1 X109.339 Y100.877 E1.92358
G1 X110.117 Y101.654 E1.97383
G1 X110.274 Y101.261 E1.99318
G1 X109.493 Y100.480 E2.04367
G1 X109.646 Y100.083 E2.06312
G1 X110.431 Y100.868 E2.11385
G1 X110.589 Y100.474 E2.13321
G1 X109.800 Y99.686 E2.18418
G1 X109.954 Y99.289 E2.20363
G1 X110.746 Y100.081 E2.25484
G1 X110.904 Y99.688 E2.27420
G1 X110.107 Y98.892 E2.32566
G1 X110.261 Y98.495 E2.34511
G1 X111.061 Y99.294 E2.39681
G1 X111.219 Y98.901 E2.41617
G1 X109.584 Y97.267 E2.52178
G1 X110.135 Y97.267 E2.54694
G1 X111.376 Y98.508 E2.62714
G1 X111.533 Y98.115 E2.64649
G1 X110.686 Y97.267 E2.70127
G1 X110.869 Y96.900 E2.72003
G1 X111.691 Y97.721 E2.77314
G1 X111.848 Y97.328 E2.79250
G1 X111.024 Y96.503 E2.84579
G1 X111.178 Y96.107 E2.86522
G1 X112.006 Y96.935 E2.91871
G1 X112.163 Y96.542 E2.93806
G1 X111.333 Y95.711 E2.99173
G1 X111.487 Y95.315 E3.01117
G1 X112.321 Y96.148 E3.06503
G1 X112.478 Y95.755 E3.08438
G1 X111.642 Y94.919 E3.13843
G1 X111.796 Y94.522 E3.15786
G1 X112.635 Y95.362 E3.21210
G1 X112.793 Y94.968 E3.23145
G1 X111.951 Y94.126 E3.28588
G1 X112.105 Y93.730 E3.30531
G1 X112.950 Y94.575 E3.35992
G1 X113.108 Y94.182 E3.37928
G1 X112.260 Y93.334 E3.43408
G1 X112.414 Y92.938 E3.45351
G1 X113.265 Y93.789 E3.50850
G1 X113.423 Y93.395 E3.52785
G1 X112.830 Y92.803 E3.56613
G1 X113.381 Y92.803 E3.59129
G1 X113.580 Y93.002 E3.60415
G92 E0
G1 X109.034 Y97.267 F7800.000
G1 X109.748 Y97.981 E0.04615 F540.000
G1 X109.197 Y97.981 E0.07131
G1 X108.483 Y97.267 E0.11746
G1 X107.932 Y97.267 E0.14262
G1 X108.646 Y97.981 E0.18877
G1 X108.096 Y97.981 E0.21393
G1 X107.381 Y97.267 E0.26008
G1 X106.831 Y97.267 E0.28525
G1 X107.545 Y97.981 E0.33139
G1 X106.994 Y97.981 E0.35656
G1 X106.280 Y97.267 E0.40270
G1 X105.729 Y97.267 E0.42787
G1 X106.443 Y97.981 E0.47402
G1 X105.893 Y97.981 E0.49918
G1 X105.179 Y97.267 E0.54533
G1 X104.628 Y97.267 E0.57049
G1 X105.342 Y97.981 E0.61664
G1 X104.791 Y97.981 E0.64180
G1 X104.077 Y97.267 E0.68795
G1 X103.526 Y97.267 E0.71312
G1 X104.240 Y97.981 E0.75926
G1 X103.690 Y97.981 E0.78443
G1 X101.546 Y95.837 E0.92298
G1 X101.168 Y94.909 F7800.000
G1 X102.915 Y96.655 E1.03586 F540.000
G1 X102.559 Y95.749 F7800.000
G1 X100.790 Y93.980 E1.15015 F540.000
G1 X100.413 Y93.052 F7800.000
G1 X102.203 Y94.842 E1.26585 F540.000
G1 X101.848 Y93.936 F7800.000
G1 X100.715 Y92.803 E1.33907 F540.000
G1 X101.265 Y92.803 E1.36423
G1 X101.492 Y93.029 E1.37887
G1 X104.567 Y103.264 F7800.000
G1 X106.001 Y104.698 E1.47157 F540.000
G1 X105.322 Y105.120 F7800.000
G1 X106.554 Y106.352 E1.55119 F540.000
G1 X106.077 Y106.977 F7800.000
G1 X106.297 Y107.197 E1.56540 F540.000
G92 E0
G1 X103.501 Y96.816 F7800.000
G1 X103.112 Y91.817 F7800.000
G1 X97.548 Y92.406 F7800.000
G1 X97.800 Y94.044 F7800.000
G1 X95.494 Y94.044 F7800.000
G1 X93.934 Y93.819 F7800.000
G1 X87.547 Y93.819 E0.28902 F378.000
G1 X87.547 Y107.423 E0.90459
G1 X85.925 Y107.423 E0.97794
G1 X85.925 Y92.577 E1.64971
G1 X95.269 Y92.577 E2.07248
G1 X95.269 Y93.819 E2.12867
G1 X94.165 Y93.819 E2.17862 F378.000
G1 X95.043 Y93.007 F7800.000
G1 X94.839 Y92.803 E2.19195 F540.000
G1 X94.281 Y92.803 E2.21778
G1 X95.043 Y93.565 E2.26765
G1 X94.513 Y93.593 E2.29220
G1 X93.723 Y92.803 E2.34393
G1 X93.165 Y92.803 E2.36977
G1 X93.955 Y93.593 E2.42150
G1 X93.397 Y93.593 E2.44734
G1 X92.607 Y92.803 E2.49907
G1 X92.049 Y92.803 E2.52490
G1 X92.839 Y93.593 E2.57664
G1 X92.281 Y93.593 E2.60247
G1 X91.491 Y92.803 E2.65420
G1 X90.933 Y92.803 E2.68004
G1 X91.723 Y93.593 E2.73177
G1 X91.165 Y93.593 E2.75760
G1 X90.375 Y92.803 E2.80934
G1 X89.817 Y92.803 E2.83517
G1 X90.607 Y93.593 E2.88690
G1 X90.049 Y93.593 E2.91274
G1 X89.259 Y92.803 E2.96447
G1 X88.701 Y92.803 E2.99030
G1 X89.491 Y93.593 E3.04204
G1 X88.933 Y93.593 E3.06787
G1 X88.143 Y92.803 E3.11960
G1 X87.585 Y92.803 E3.14544
G1 X88.375 Y93.593 E3.19717
G1 X87.817 Y93.593 E3.22300
G1 X87.027 Y92.803 E3.27474
G1 X86.469 Y92.803 E3.30057
G1 X87.321 Y93.655 E3.35633
G1 X87.321 Y94.213 E3.38217
G1 X86.151 Y93.043 E3.45872
G1 X86.151 Y93.601 E3.48455
G1 X87.321 Y94.771 E3.56110
G1 X87.321 Y95.329 E3.58693
G1 X86.151 Y94.159 E3.66348
G1 X86.151 Y94.717 E3.68932
G1 X87.321 Y95.887 E3.76587
G1 X87.321 Y96.445 E3.79170
G1 X86.151 Y95.275 E3.86825
G1 X86.151 Y95.833 E3.89409
G1 X87.321 Y97.003 E3.97063
G1 X87.321 Y97.561 E3.99647
G1 X86.151 Y96.391 E4.07302
G1 X86.151 Y96.949 E4.09885
G1 X87.321 Y98.119 E4.17540
G1 X87.321 Y98.677 E4.20124
G1 X86.151 Y97.507 E4.27779
G1 X86.151 Y98.065 E4.30362
G1 X87.321 Y99.235 E4.38017
G1 X87.321 Y99.793 E4.40600
G1 X86.151 Y98.623 E4.48255
G1 X86.151 Y99.181 E4.50839
G1 X87.321 Y100.351 E4.58494
G1 X87.321 Y100.909 E4.61077
G1 X86.151 Y99.739 E4.68732
G1 X86.151 Y100.297 E4.71316
G1 X87.321 Y101.467 E4.78970
G1 X87.321 Y102.025 E4.81554
G1 X86.151 Y100.855 E4.89209
G1 X86.151 Y101.413 E4.91792
G1 X87.321 Y102.583 E4.99447
G1 X87.321 Y103.141 E5.02031
G1 X86.151 Y101.971 E5.09686
G1 X86.151 Y102.529 E5.12269
G1 X87.321 Y103.699 E5.19924
G1 X87.321 Y104.257 E5.22507
G1 X86.151 Y103.087 E5.30162
G1 X86.151 Y103.645 E5.32746
G1 X87.321 Y104.815 E5.40401
G1 X87.321 Y105.373 E5.42984
G1 X86.151 Y104.203 E5.50639
G1 X86.151 Y104.761 E5.53223
G1 X87.321 Y105.931 E5.60877
G1 X87.321 Y106.489 E5.63461
G1 X86.151 Y105.319 E5.71116
G1 X86.151 Y105.877 E5.73699
G1 X87.321 Y107.047 E5.81354
G1 X86.913 Y107.197 E5.83365
G1 X86.151 Y106.435 E5.88352
G1 X86.151 Y106.993 E5.90936
G1 X86.355 Y107.197 E5.92268
M106 S255
G92 E0
G1 Z0.600 F7800.000
G1 X104.979 Y100.633 F7800.000
G1 X102.602 Y97.168 E1.25890 F600.000
G1 X100.678 Y92.352 E2.81311
G92 E0
G1 X111.363 Y94.457 F7800.000
G1 X110.710 Y98.774 E1.30813 F600.000
G1 X108.526 Y104.320 E3.09418
G1 X107.819 Y106.245 E3.70872
G1 X107.550 Y106.723 E3.87304
G1 X107.007 Y106.810 E4.03792
G1 X106.437 Y106.736 E4.21017
G1 X106.143 Y106.225 E4.38676
G1 X105.227 Y103.781 E5.16887
G1 X103.241 Y98.775 E6.78269
G1 X103.104 Y97.900 E7.04820
G1 X103.501 Y97.746 E7.17570
G1 X104.128 Y97.624 E7.36708
G1 X109.828 Y97.624 E9.07507
G1 X110.444 Y97.741 E9.26297
G1 X110.843 Y97.894 E9.39110
G1 X111.338 Y97.165 E9.65512
G1 X113.240 Y92.352 E11.20582
G92 E0
G1 X105.823 Y107.648 F7800.000
G1 X105.823 Y107.648 F7800.000
G1 X104.478 Y108.195 F7800.000
G1 X95.359 Y102.060 F7800.000
G1 X89.772 Y107.648 F7800.000
G1 X87.772 Y107.648 F7800.000
G1 X86.736 Y107.648 F7800.000
G1 X86.736 Y94.044 E4.07639 F600.000
G1 X86.816 Y93.468 E4.25074
G1 X87.772 Y93.198 E4.54819
G1 X95.494 Y93.198 E6.86206
G92 E0
G1 Z0.900 F7800.000
G1 X104.979 Y100.633 F7800.000
G1 X102.602 Y97.168 E1.25890 F600.000
G1 X100.678 Y92.352 E2.81311
G92 E0
G1 X111.363 Y94.457 F7800.000
G1 X110.710 Y98.774 E1.30813 F600.000
G1 X108.526 Y104.320 E3.09418
G1 X107.819 Y106.245 E3.70872
G1 X107.550 Y106.723 E3.87304
G1 X107.007 Y106.810 E4.03792
G1 X106.437 Y106.736 E4.21017
G1 X106.143 Y106.225 E4.38676
G1 X105.227 Y103.781 E5.16887
G1 X103.241 Y98.775 E6.78269
G1 X103.104 Y97.900 E7.04820
G1 X103.501 Y97.746 E7.17570
G1 X104.128 Y97.624 E7.36708
G1 X109.828 Y97.624 E9.07507
G1 X110.444 Y97.741 E9.26297
G1 X110.843 Y97.894 E9.39110
G1 X111.338 Y97.165 E9.65512
G1 X113.240 Y92.352 E11.20582
G92 E0
G1 X105.823 Y107.648 F7800.000
G1 X105.823 Y107.648 F7800.000
G1 X104.478 Y108.195 F7800.000
G1 X95.359 Y102.060 F7800.000
G1 X89.772 Y107.648 F7800.000
G1 X87.772 Y107.648 F7800.000
G1 X86.736 Y107.648 F7800.000
G1 X86.736 Y94.044 E4.07639 F600.000
G1 X86.816 Y93.468 E4.25074
G1 X87.772 Y93.198 E4.54819
G1 X95.494 Y93.198 E6.86206
G92 E0
G1 Z1.200 F7800.000
G1 X104.979 Y100.633 F7800.000
G1 X102.602 Y97.168 E1.25890 F600.000
G1 X100.678 Y92.352 E2.81311
G92 E0
G1 X111.363 Y94.457 F7800.000
G1 X110.710 Y98.774 E1.30813 F600.000
G1 X108.526 Y104.320 E3.09418
G1 X107.819 Y106.245 E3.70872
G1 X107.550 Y106.723 E3.87304
G1 X107.007 Y106.810 E4.03792
G1 X106.437 Y106.736 E4.21017
G1 X106.143 Y106.225 E4.38676
G1 X105.227 Y103.781 E5.16887
G1 X103.241 Y98.775 E6.78269
G1 X103.104 Y97.900 E7.04820
G1 X103.501 Y97.746 E7.17570
G1 X104.128 Y97.624 E7.36708
G1 X109.828 Y97.624 E9.07507
G1 X110.444 Y97.741 E9.26297
G1 X110.843 Y97.894 E9.39110
G1 X111.338 Y97.165 E9.65512
G1 X113.240 Y92.352 E11.20582
G92 E0
G1 X105.823 Y107.648 F7800.000
G1 X105.823 Y107.648 F7800.000
G1 X104.478 Y108.195 F7800.000
G1 X95.359 Y102.060 F7800.000
G1 X89.772 Y107.648 F7800.000
G1 X87.772 Y107.648 F7800.000
G1 X86.736 Y107.648 F7800.000
G1 X86.736 Y94.044 E4.07639 F600.000
G1 X86.816 Y93.468 E4.25074
G1 X87.772 Y93.198 E4.54819
G1 X95.494 Y93.198 E6.86206
G92 E0
G1 Z1.500 F7800.000
G1 X104.979 Y100.633 F7800.000
G1 X102.602 Y97.168 E1.25890 F600.000
G1 X100.678 Y92.352 E2.81311
G92 E0
G1 X111.363 Y94.457 F7800.000
G1 X110.710 Y98.774 E1.30813 F600.000
G1 X108.526 Y104.320 E3.09418
G1 X107.819 Y106.245 E3.70872
G1 X107.550 Y106.723 E3.87304
G1 X107.007 Y106.810 E4.03792
G1 X106.437 Y106.736 E4.21017
G1 X106.143 Y106.225 E4.38676
G1 X105.227 Y103.781 E5.16887
G1 X103.241 Y98.775 E6.78269
G1 X103.104 Y97.900 E7.04820
G1 X103.501 Y97.746 E7.17570
G1 X104.128 Y97.624 E7.36708
G1 X109.828 Y97.624 E9.07507
G1 X110.444 Y97.741 E9.26297
G1 X110.843 Y97.894 E9.39110
G1 X111.338 Y97.165 E9.65512
G1 X113.240 Y92.352 E11.20582
G92 E0
G1 X105.823 Y107.648 F7800.000
G1 X105.823 Y107.648 F7800.000
G1 X104.478 Y108.195 F7800.000
G1 X95.359 Y102.060 F7800.000
G1 X89.772 Y107.648 F7800.000
G1 X87.772 Y107.648 F7800.000
G1 X86.736 Y107.648 F7800.000
G1 X86.736 Y94.044 E4.07639 F600.000
G1 X86.816 Y93.468 E4.25074
G1 X87.772 Y93.198 E4.54819
G1 X95.494 Y93.198 E6.86206
G92 E0
G1 Z1.800 F7800.000
G1 X104.979 Y100.633 F7800.000
G1 X102.602 Y97.168 E1.25890 F600.000
G1 X100.678 Y92.352 E2.81311
G92 E0
G1 X111.363 Y94.457 F7800.000
G1 X110.710 Y98.774 E1.30813 F600.000
G1 X108.526 Y104.320 E3.09418
G1 X107.819 Y106.245 E3.70872
G1 X107.550 Y106.723 E3.87304
G1 X107.007 Y106.810 E4.03792
G1 X106.437 Y106.736 E4.21017
G1 X106.143 Y106.225 E4.38676
G1 X105.227 Y103.781 E5.16887
G1 X103.241 Y98.775 E6.78269
G1 X103.104 Y97.900 E7.04820
G1 X103.501 Y97.746 E7.17570
G1 X104.128 Y97.624 E7.36708
G1 X109.828 Y97.624 E9.07507
G1 X110.444 Y97.741 E9.26297
G1 X110.843 Y97.894 E9.39110
G1 X111.338 Y97.165 E9.65512
G1 X113.240 Y92.352 E11.20582
G92 E0
G1 X105.823 Y107.648 F7800.000
G1 X105.823 Y107.648 F7800.000
G1 X104.478 Y108.195 F7800.000
G1 X95.359 Y102.060 F7800.000
G1 X89.772 Y107.648 F7800.000
G1 X87.772 Y107.648 F7800.000
G1 X86.736 Y107.648 F7800.000
G1 X86.736 Y94.044 E4.07639 F600.000
G1 X86.816 Y93.468 E4.25074
G1 X87.772 Y93.198 E4.54819
G1 X95.494 Y93.198 E6.86206
G92 E0
G1 Z2.100 F7800.000
G1 X104.979 Y100.633 F7800.000
G1 X102.602 Y97.168 E1.25890 F600.000
G1 X100.678 Y92.352 E2.81311
G92 E0
G1 X111.363 Y94.457 F7800.000
G1 X110.710 Y98.774 E1.30813 F600.000
G1 X108.526 Y104.320 E3.09418
G1 X107.819 Y106.245 E3.70872
G1 X107.550 Y106.723 E3.87304
G1 X107.007 Y106.810 E4.03792
G1 X106.437 Y106.736 E4.21017
G1 X106.143 Y106.225 E4.38676
G1 X105.227 Y103.781 E5.16887
G1 X103.241 Y98.775 E6.78269
G1 X103.104 Y97.900 E7.04820
G1 X103.501 Y97.746 E7.17570
G1 X104.128 Y97.624 E7.36708
G1 X109.828 Y97.624 E9.07507
G1 X110.444 Y97.741 E9.26297
G1 X110.843 Y97.894 E9.39110
G1 X111.338 Y97.165 E9.65512
G1 X113.240 Y92.352 E11.20582
G92 E0
G1 X105.823 Y107.648 F7800.000
G1 X105.823 Y107.648 F7800.000
G1 X104.478 Y108.195 F7800.000
G1 X95.359 Y102.060 F7800.000
G1 X89.772 Y107.648 F7800.000
G1 X87.772 Y107.648 F7800.000
G1 X86.736 Y107.648 F7800.000
G1 X86.736 Y94.044 E4.07639 F600.000
G1 X86.816 Y93.468 E4.25074
G1 X87.772 Y93.198 E4.54819
G1 X95.494 Y93.198 E6.86206
G92 E0
M107
M104 S0 ; turn off temperature
G28 X0  ; home X axis
M84     ; disable motors

; filament used = 139.9mm (1.1cm3)

; avoid_crossing_perimeters = 1
; bed_shape = 0x0,250x0,250x250,0x250
; bed_temperature = 0
; before_layer_gcode = 
; bridge_acceleration = 0
; bridge_fan_speed = 100
; brim_width = 0
; complete_objects = 0
; cooling = 1
; default_acceleration = 0
; disable_fan_first_layers = 1
; duplicate_distance = 6
; end_gcode = M104 S0 ; turn off temperature\nG28 X0  ; home X axis\nM84     ; disable motors\n
; extruder_clearance_height = 20
; extruder_clearance_radius = 20
; extruder_offset = 0x0
; extrusion_axis = E
; extrusion_multiplier = 3
; fan_always_on = 0
; fan_below_layer_time = 60
; filament_colour = #FFFFFF
; filament_diameter = 3.125
; first_layer_acceleration = 0
; first_layer_bed_temperature = 0
; first_layer_extrusion_width = 150%
; first_layer_speed = 90%
; first_layer_temperature = 30
; gcode_arcs = 0
; gcode_comments = 0
; gcode_flavor = reprap
; infill_acceleration = 0
; infill_first = 0
; layer_gcode = 
; max_fan_speed = 100
; max_print_speed = 80
; max_volumetric_speed = 0
; min_fan_speed = 35
; min_print_speed = 10
; min_skirt_length = 0
; notes = 
; nozzle_diameter = 1.54
; only_retract_when_crossing_perimeters = 1
; ooze_prevention = 0
; output_filename_format = [input_filename_base].gcode
; perimeter_acceleration = 0
; post_process = 
; pressure_advance = 0
; resolution = 0
; retract_before_travel = 2
; retract_layer_change = 1
; retract_length = 0
; retract_length_toolchange = 10
; retract_lift = 0
; retract_restart_extra = 0
; retract_restart_extra_toolchange = 0
; retract_speed = 0
; skirt_distance = 6
; skirt_height = 1
; skirts = 0
; slowdown_below_layer_time = 30
; spiral_vase = 0
; standby_temperature_delta = -5
