; generated by Slic3r 1.2.9 on 2016-03-11 at 01:26:52

; external perimeters extrusion width = 1.54mm
; perimeters extrusion width = 2.62mm
; infill extrusion width = 6.27mm
; solid infill extrusion width = 2.62mm
; top infill extrusion width = 2.62mm

M107
M104 S30 ; set temperature
G28 ; home all axes
G1 Z5 F5000 ; lift nozzle
M302
M92 E10000
M500
M501
G1 E100
M109 S30 ; wait for temperature to be reached
G21 ; set units to millimeters
G90 ; use absolute coordinates
M82 ; use absolute distances for extrusion
G92 E0
G1 Z0.300 F7800.000
G1 X104.890 Y107.423 F7800.000
G1 X101.479 Y107.423 E0.15435 F378.000
G1 X101.479 Y92.577 E0.82612
G1 X106.970 Y92.577 E1.07457
G1 X108.274 Y92.673 E1.13376
G1 X108.362 Y92.680 E1.13776 F378.000
G1 X109.628 Y92.986 E1.19668
G1 X110.778 Y93.493 E1.25354
G1 X111.786 Y94.190 E1.30900
G1 X112.628 Y95.065 E1.36393
G1 X113.306 Y96.120 E1.42069
G1 X113.803 Y97.333 E1.47999
G1 X114.103 Y98.678 E1.54234
G1 X114.203 Y100.153 E1.60924
G1 X113.974 Y102.317 E1.70774
G1 X113.292 Y104.105 E1.79430
G1 X112.161 Y105.532 E1.87669
G1 X110.611 Y106.578 E1.96131
G1 X108.665 Y107.210 E2.05390
G1 X106.305 Y107.423 E2.16112
G1 X105.121 Y107.423 E2.21468
G1 X105.121 Y106.214 F7800.000
G1 X103.100 Y106.214 E2.30613 F378.000
G1 X103.100 Y93.786 E2.86849
G1 X106.747 Y93.786 E3.03349 F378.000
G1 X107.852 Y93.870 E3.08366
G1 X108.878 Y94.126 E3.13150
G1 X109.814 Y94.553 E3.17805
G1 X110.635 Y95.145 E3.22386
G1 X111.320 Y95.887 E3.26957
G1 X111.864 Y96.778 E3.31680
G1 X112.259 Y97.796 E3.36620
G1 X112.494 Y98.923 E3.41829
G1 X112.573 Y100.161 E3.47443
G1 X112.395 Y101.954 E3.55596
G1 X111.854 Y103.459 E3.62832
G1 X110.945 Y104.660 E3.69649
G1 X109.693 Y105.529 E3.76542
G1 X108.133 Y106.045 E3.83980
G1 X106.281 Y106.214 E3.92392
G1 X105.352 Y106.214 E3.96597
G1 X103.886 Y106.440 F7800.000
G1 X104.643 Y107.197 E4.01455 F540.000
G1 X105.189 Y107.197 E4.03936
G1 X104.432 Y106.440 E4.08794
G1 X104.979 Y106.440 E4.11275
G1 X105.736 Y107.197 E4.16132
G1 X106.283 Y107.197 E4.18613
G1 X105.526 Y106.440 E4.23471
G1 X106.073 Y106.440 E4.25952
G1 X106.792 Y107.159 E4.30567
G1 X107.293 Y107.114 E4.32851
G1 X106.586 Y106.406 E4.37393
G1 X107.087 Y106.360 E4.39676
G1 X107.795 Y107.068 E4.44220
G1 X108.296 Y107.023 E4.46505
G1 X107.588 Y106.314 E4.51052
G1 X108.089 Y106.269 E4.53335
G1 X108.778 Y106.958 E4.57756
G1 X109.191 Y106.824 E4.59725
G1 X108.504 Y106.137 E4.64129
G1 X108.915 Y106.001 E4.66093
G1 X109.603 Y106.690 E4.70509
G1 X110.016 Y106.556 E4.72478
G1 X109.326 Y105.866 E4.76905
G1 X109.737 Y105.730 E4.78869
G1 X110.429 Y106.421 E4.83308
G1 X110.782 Y106.228 E4.85135
G1 X110.063 Y105.509 E4.89751
G1 X110.386 Y105.285 E4.91533
G1 X111.109 Y106.008 E4.96173
G1 X111.435 Y105.787 E4.97960
G1 X110.708 Y105.061 E5.02625
G1 X111.031 Y104.836 E5.04407
G1 X111.762 Y105.567 E5.09095
G1 X112.065 Y105.323 E5.10860
G1 X111.279 Y104.538 E5.15899
G1 X111.515 Y104.227 E5.17670
G1 X112.315 Y105.027 E5.22805
G1 X112.557 Y104.722 E5.24571
G1 X111.750 Y103.915 E5.29746
G1 X111.986 Y103.604 E5.31517
G1 X112.799 Y104.417 E5.36733
G1 X113.040 Y104.112 E5.38499
G1 X112.154 Y103.225 E5.44189
G1 X112.298 Y102.823 E5.46128
G1 X113.215 Y103.739 E5.52011
G1 X113.366 Y103.344 E5.53933
G1 X112.443 Y102.421 E5.59856
G1 X112.587 Y102.018 E5.61795
G1 X113.517 Y102.948 E5.67758
G1 X113.668 Y102.552 E5.69680
G1 X112.655 Y101.539 E5.76177
G1 X112.705 Y101.042 E5.78445
G1 X113.776 Y102.113 E5.85321
G1 X113.829 Y101.619 E5.87576
G1 X112.754 Y100.544 E5.94471
G1 X112.797 Y100.040 E5.96766
G1 X113.881 Y101.125 E6.03723
G1 X113.934 Y100.630 E6.05979
G1 X112.760 Y99.457 E6.13509
G1 X112.723 Y98.873 E6.16163
G1 X113.969 Y100.119 E6.24155
G1 X113.929 Y99.532 E6.26823
G1 X112.592 Y98.195 E6.35400
G1 X112.412 Y97.468 E6.38798
G1 X113.889 Y98.945 E6.48276
G1 X113.760 Y98.270 E6.51396
G1 X112.066 Y96.576 E6.62267
G1 X113.242 Y96.658 F7800.000
G1 X110.044 Y93.460 E6.82785 F540.000
G1 X109.696 Y94.206 F7800.000
G1 X108.445 Y92.954 E6.90815 F540.000
G1 X109.166 Y93.128 E6.94180
G1 X113.604 Y97.566 E7.22656
G1 X112.395 Y95.264 F7800.000
G1 X111.412 Y94.281 E7.28965 F540.000
G1 X108.792 Y93.849 F7800.000
G1 X107.816 Y92.872 E7.35229 F540.000
G1 X107.226 Y92.829 E7.37916
G1 X108.064 Y93.667 E7.43295
G1 X107.457 Y93.607 E7.46063
G1 X106.653 Y92.803 E7.51222
G1 X106.106 Y92.803 E7.53703
G1 X106.865 Y93.562 E7.58573
G1 X106.316 Y93.560 E7.61063
G1 X105.559 Y92.803 E7.65920
G1 X105.013 Y92.803 E7.68401
G1 X105.770 Y93.560 E7.73259
G1 X105.223 Y93.560 E7.75740
G1 X104.466 Y92.803 E7.80598
G1 X103.919 Y92.803 E7.83079
G1 X104.676 Y93.560 E7.87937
G1 X104.129 Y93.560 E7.90418
G1 X103.372 Y92.803 E7.95276
G1 X102.825 Y92.803 E7.97756
G1 X103.582 Y93.560 E8.02614
G1 X103.036 Y93.560 E8.05095
G1 X102.278 Y92.803 E8.09953
G1 X101.738 Y92.810 E8.12404
G1 X102.874 Y93.945 E8.19691
G1 X102.874 Y94.492 E8.22172
G1 X101.705 Y93.323 E8.29674
G1 X101.705 Y93.870 E8.32155
G1 X102.874 Y95.039 E8.39656
G1 X102.874 Y95.586 E8.42137
G1 X101.705 Y94.417 E8.49639
G1 X101.705 Y94.964 E8.52120
G1 X102.874 Y96.133 E8.59621
G1 X102.874 Y96.679 E8.62102
G1 X101.705 Y95.510 E8.69603
G1 X101.705 Y96.057 E8.72084
G1 X102.874 Y97.226 E8.79586
G1 X102.874 Y97.773 E8.82067
G1 X101.705 Y96.604 E8.89568
G1 X101.705 Y97.151 E8.92049
G1 X102.874 Y98.320 E8.99550
G1 X102.874 Y98.867 E9.02031
G1 X101.705 Y97.698 E9.09533
G1 X101.705 Y98.244 E9.12014
G1 X102.874 Y99.414 E9.19515
G1 X102.874 Y99.960 E9.21996
G1 X101.705 Y98.791 E9.29497
G1 X101.705 Y99.338 E9.31978
G1 X102.874 Y100.507 E9.39480
G1 X102.874 Y101.054 E9.41961
G1 X101.705 Y99.885 E9.49462
G1 X101.705 Y100.432 E9.51943
G1 X102.874 Y101.601 E9.59445
G1 X102.874 Y102.148 E9.61925
G1 X101.705 Y100.978 E9.69427
G1 X101.705 Y101.525 E9.71908
G1 X102.874 Y102.694 E9.79409
G1 X102.874 Y103.241 E9.81890
G1 X101.705 Y102.072 E9.89392
G1 X101.705 Y102.619 E9.91873
G1 X102.874 Y103.788 E9.99374
G1 X102.874 Y104.335 E10.01855
G1 X101.705 Y103.166 E10.09356
G1 X101.705 Y103.713 E10.11837
G1 X102.874 Y104.882 E10.19339
G1 X102.874 Y105.428 E10.21820
G1 X101.705 Y104.259 E10.29321
G1 X101.705 Y104.806 E10.31802
G1 X102.874 Y105.975 E10.39303
G1 X102.792 Y106.440 E10.41444
G1 X103.549 Y107.197 E10.46302
G1 X104.096 Y107.197 E10.48783
G1 X103.339 Y106.440 E10.53641
G1 X102.874 Y106.522 E10.55782
G1 X101.705 Y105.353 E10.63283
G1 X101.705 Y105.900 E10.65764
G1 X103.002 Y107.197 E10.74088
G1 X102.455 Y107.197 E10.76569
G1 X101.705 Y106.447 E10.81383
G1 X101.705 Y106.993 E10.83864
G1 X101.909 Y107.197 E10.85171
G92 E0
G1 X101.254 Y107.648 F7800.000
G1 X99.254 Y107.648 F7800.000
G1 X89.642 Y107.648 F7800.000
G1 X87.642 Y107.648 F7800.000
G1 X85.796 Y94.990 F7800.000
G1 X85.796 Y92.577 E0.10920 F378.000
G1 X95.139 Y92.577 E0.53196
G1 X95.139 Y93.819 E0.58816
G1 X87.417 Y93.819 E0.93758 F378.000
G1 X87.417 Y107.423 E1.55315
G1 X85.796 Y107.423 E1.62650
G1 X85.796 Y95.221 E2.17862
G1 X86.571 Y93.352 F7800.000
G1 X86.571 Y93.352 F7800.000
G1 X86.606 Y93.388 F7800.000
G1 X86.642 Y93.352 F7800.000
G1 X94.913 Y93.007 F7800.000
G1 X94.709 Y92.803 E2.19195 F540.000
G1 X94.151 Y92.803 E2.21778
G1 X94.913 Y93.565 E2.26765
G1 X94.384 Y93.593 E2.29220
G1 X93.593 Y92.803 E2.34393
G1 X93.035 Y92.803 E2.36977
G1 X93.826 Y93.593 E2.42150
G1 X93.268 Y93.593 E2.44734
G1 X92.477 Y92.803 E2.49907
G1 X91.919 Y92.803 E2.52490
G1 X92.710 Y93.593 E2.57664
G1 X92.152 Y93.593 E2.60247
G1 X91.361 Y92.803 E2.65420
G1 X90.803 Y92.803 E2.68004
G1 X91.594 Y93.593 E2.73177
G1 X91.036 Y93.593 E2.75760
G1 X90.245 Y92.803 E2.80934
G1 X89.687 Y92.803 E2.83517
G1 X90.478 Y93.593 E2.88690
G1 X89.920 Y93.593 E2.91274
G1 X89.129 Y92.803 E2.96447
G1 X88.571 Y92.803 E2.99030
G1 X89.362 Y93.593 E3.04204
G1 X88.804 Y93.593 E3.06787
G1 X88.013 Y92.803 E3.11960
G1 X87.455 Y92.803 E3.14544
G1 X88.246 Y93.593 E3.19717
G1 X87.688 Y93.593 E3.22300
G1 X86.897 Y92.803 E3.27474
G1 X86.339 Y92.803 E3.30057
G1 X87.191 Y93.655 E3.35633
G1 X87.191 Y94.213 E3.38217
G1 X86.022 Y93.043 E3.45872
G1 X86.022 Y93.601 E3.48455
G1 X87.191 Y94.771 E3.56110
G1 X87.191 Y95.329 E3.58693
G1 X86.022 Y94.159 E3.66348
G1 X86.022 Y94.717 E3.68932
G1 X87.191 Y95.887 E3.76587
G1 X87.191 Y96.445 E3.79170
G1 X86.022 Y95.275 E3.86825
G1 X86.022 Y95.833 E3.89409
G1 X87.191 Y97.003 E3.97063
G1 X87.191 Y97.561 E3.99647
G1 X86.022 Y96.391 E4.07302
G1 X86.022 Y96.949 E4.09885
G1 X87.191 Y98.119 E4.17540
G1 X87.191 Y98.677 E4.20124
G1 X86.022 Y97.507 E4.27779
G1 X86.022 Y98.065 E4.30362
G1 X87.191 Y99.235 E4.38017
G1 X87.191 Y99.793 E4.40600
G1 X86.022 Y98.623 E4.48255
G1 X86.022 Y99.181 E4.50839
G1 X87.191 Y100.351 E4.58494
G1 X87.191 Y100.909 E4.61077
G1 X86.022 Y99.739 E4.68732
G1 X86.022 Y100.297 E4.71316
G1 X87.191 Y101.467 E4.78970
G1 X87.191 Y102.025 E4.81554
G1 X86.022 Y100.855 E4.89209
G1 X86.022 Y101.413 E4.91792
G1 X87.191 Y102.583 E4.99447
G1 X87.191 Y103.141 E5.02031
G1 X86.022 Y101.971 E5.09686
G1 X86.022 Y102.529 E5.12269
G1 X87.191 Y103.699 E5.19924
G1 X87.191 Y104.257 E5.22507
G1 X86.022 Y103.087 E5.30162
G1 X86.022 Y103.645 E5.32746
G1 X87.191 Y104.815 E5.40401
G1 X87.191 Y105.373 E5.42984
G1 X86.022 Y104.203 E5.50639
G1 X86.022 Y104.761 E5.53223
G1 X87.191 Y105.931 E5.60877
G1 X87.191 Y106.489 E5.63461
G1 X86.022 Y105.319 E5.71116
G1 X86.022 Y105.877 E5.73699
G1 X87.191 Y107.047 E5.81354
G1 X86.784 Y107.197 E5.83366
G1 X86.022 Y106.435 E5.88352
G1 X86.022 Y106.993 E5.90936
G1 X86.226 Y107.197 E5.92269
M106 S255
G92 E0
G1 Z0.600 F7800.000
G1 X102.363 Y93.461 F7800.000
G1 X103.325 Y93.181 E0.30026 F600.000
G1 X106.801 Y93.183 E1.34183
G1 X107.880 Y93.258 E1.66578
G1 X108.263 Y93.314 E1.78194
G1 X109.013 Y93.498 E2.01328
G1 X109.411 Y93.627 E2.13870
G1 X110.076 Y93.926 E2.35724
G1 X110.428 Y94.118 E2.47721
G1 X111.037 Y94.547 E2.70057
G1 X111.299 Y94.762 E2.80221
G1 X112.018 Y95.547 E3.12097
G1 X112.601 Y96.488 E3.45262
G1 X113.032 Y97.575 E3.80314
G1 X113.296 Y98.794 E4.17697
G1 X113.386 Y100.137 E4.58030
G1 X113.182 Y102.128 E5.17987
G1 X112.600 Y103.711 E5.68534
G1 X112.442 Y103.947 E5.77029
G1 X111.646 Y104.976 E6.16009
G1 X111.315 Y105.257 E6.29025
G1 X110.304 Y105.949 E6.65727
G1 X110.096 Y106.052 E6.72690
G1 X109.864 Y106.147 E6.80218
G1 X108.536 Y106.582 E7.22073
G1 X108.162 Y106.649 E7.33463
G1 X106.278 Y106.818 E7.90156
G1 X103.325 Y106.818 E8.78629
G1 X102.363 Y106.539 E9.08654
G1 X102.290 Y105.989 E9.25291
G1 X102.290 Y94.011 E12.84207
G1 X102.363 Y93.461 E13.00844
G92 E0
G1 X101.254 Y107.648 F7800.000
G1 X94.448 Y102.842 F7800.000
G1 X89.642 Y107.648 F7800.000
G1 X87.642 Y107.648 F7800.000
G1 X86.606 Y107.648 F7800.000
G1 X86.606 Y94.044 E4.07639 F600.000
G1 X86.687 Y93.468 E4.25074
G1 X87.642 Y93.198 E4.54819
G1 X95.364 Y93.198 E6.86206
G92 E0
G1 Z0.900 F7800.000
G1 X102.363 Y93.461 F7800.000
G1 X103.325 Y93.181 E0.30026 F600.000
G1 X106.801 Y93.183 E1.34183
G1 X107.880 Y93.258 E1.66578
G1 X108.263 Y93.314 E1.78194
G1 X109.013 Y93.498 E2.01328
G1 X109.411 Y93.627 E2.13870
G1 X110.076 Y93.926 E2.35724
G1 X110.428 Y94.118 E2.47721
G1 X111.037 Y94.547 E2.70057
G1 X111.299 Y94.762 E2.80221
G1 X112.018 Y95.547 E3.12097
G1 X112.601 Y96.488 E3.45262
G1 X113.032 Y97.575 E3.80314
G1 X113.296 Y98.794 E4.17697
G1 X113.386 Y100.137 E4.58030
G1 X113.182 Y102.128 E5.17987
G1 X112.600 Y103.711 E5.68534
G1 X112.442 Y103.947 E5.77029
G1 X111.646 Y104.976 E6.16009
G1 X111.315 Y105.257 E6.29025
G1 X110.304 Y105.949 E6.65727
G1 X110.096 Y106.052 E6.72690
G1 X109.864 Y106.147 E6.80218
G1 X108.536 Y106.582 E7.22073
G1 X108.162 Y106.649 E7.33463
G1 X106.278 Y106.818 E7.90156
G1 X103.325 Y106.818 E8.78629
G1 X102.363 Y106.539 E9.08654
G1 X102.290 Y105.989 E9.25291
G1 X102.290 Y94.011 E12.84207
G1 X102.363 Y93.461 E13.00844
G92 E0
G1 X101.254 Y107.648 F7800.000
G1 X94.448 Y102.842 F7800.000
G1 X89.642 Y107.648 F7800.000
G1 X87.642 Y107.648 F7800.000
G1 X86.606 Y107.648 F7800.000
G1 X86.606 Y94.044 E4.07639 F600.000
G1 X86.687 Y93.468 E4.25074
G1 X87.642 Y93.198 E4.54819
G1 X95.364 Y93.198 E6.86206
G92 E0
G1 Z1.200 F7800.000
G1 X102.363 Y93.461 F7800.000
G1 X103.325 Y93.181 E0.30026 F600.000
G1 X106.801 Y93.183 E1.34183
G1 X107.880 Y93.258 E1.66579
G1 X108.263 Y93.314 E1.78194
G1 X109.013 Y93.498 E2.01328
G1 X109.411 Y93.627 E2.13870
G1 X110.076 Y93.926 E2.35724
G1 X110.428 Y94.118 E2.47722
G1 X111.037 Y94.547 E2.70057
G1 X111.299 Y94.762 E2.80221
G1 X112.018 Y95.547 E3.12097
G1 X112.601 Y96.488 E3.45262
G1 X113.032 Y97.575 E3.80314
G1 X113.296 Y98.794 E4.17697
G1 X113.386 Y100.137 E4.58030
G1 X113.182 Y102.128 E5.17987
G1 X112.600 Y103.711 E5.68534
G1 X112.442 Y103.947 E5.77029
G1 X111.646 Y104.976 E6.16009
G1 X111.315 Y105.257 E6.29025
G1 X110.304 Y105.949 E6.65727
G1 X110.096 Y106.052 E6.72690
G1 X109.864 Y106.147 E6.80218
G1 X108.536 Y106.582 E7.22073
G1 X108.162 Y106.649 E7.33463
G1 X106.278 Y106.818 E7.90156
G1 X103.325 Y106.818 E8.78629
G1 X102.363 Y106.539 E9.08654
G1 X102.290 Y105.989 E9.25291
G1 X102.290 Y94.011 E12.84207
G1 X102.363 Y93.461 E13.00844
G92 E0
G1 X101.254 Y107.648 F7800.000
G1 X94.448 Y102.842 F7800.000
G1 X89.642 Y107.648 F7800.000
G1 X87.642 Y107.648 F7800.000
G1 X86.606 Y107.648 F7800.000
G1 X86.606 Y94.044 E4.07639 F600.000
G1 X86.687 Y93.468 E4.25074
G1 X87.642 Y93.198 E4.54819
G1 X95.364 Y93.198 E6.86206
G92 E0
G1 Z1.500 F7800.000
G1 X102.363 Y93.461 F7800.000
G1 X103.325 Y93.181 E0.30026 F600.000
G1 X106.801 Y93.183 E1.34183
G1 X107.880 Y93.258 E1.66579
G1 X108.263 Y93.314 E1.78194
G1 X109.013 Y93.498 E2.01328
G1 X109.411 Y93.627 E2.13870
G1 X110.076 Y93.926 E2.35724
G1 X110.428 Y94.118 E2.47721
G1 X111.037 Y94.547 E2.70057
G1 X111.299 Y94.762 E2.80221
G1 X112.018 Y95.547 E3.12097
G1 X112.601 Y96.488 E3.45262
G1 X113.032 Y97.575 E3.80314
G1 X113.296 Y98.794 E4.17697
G1 X113.386 Y100.137 E4.58030
G1 X113.182 Y102.128 E5.17987
G1 X112.600 Y103.711 E5.68534
G1 X112.442 Y103.947 E5.77029
G1 X111.646 Y104.976 E6.16009
G1 X111.315 Y105.257 E6.29025
G1 X110.304 Y105.949 E6.65727
G1 X110.096 Y106.052 E6.72690
G1 X109.864 Y106.147 E6.80218
G1 X108.536 Y106.582 E7.22073
G1 X108.162 Y106.649 E7.33463
G1 X106.278 Y106.818 E7.90156
G1 X103.325 Y106.818 E8.78629
G1 X102.363 Y106.539 E9.08654
G1 X102.290 Y105.989 E9.25291
G1 X102.290 Y94.011 E12.84207
G1 X102.363 Y93.461 E13.00844
G92 E0
G1 X101.254 Y107.648 F7800.000
G1 X94.448 Y102.842 F7800.000
G1 X89.642 Y107.648 F7800.000
G1 X87.642 Y107.648 F7800.000
G1 X86.606 Y107.648 F7800.000
G1 X86.606 Y94.044 E4.07639 F600.000
G1 X86.687 Y93.468 E4.25074
G1 X87.642 Y93.198 E4.54819
G1 X95.364 Y93.198 E6.86206
G92 E0
G1 Z1.800 F7800.000
G1 X102.363 Y93.461 F7800.000
G1 X103.325 Y93.181 E0.30026 F600.000
G1 X106.894 Y93.184 E1.36968
G1 X107.880 Y93.258 E1.66582
G1 X108.263 Y93.314 E1.78197
G1 X109.013 Y93.498 E2.01332
G1 X109.411 Y93.627 E2.13874
G1 X110.076 Y93.926 E2.35728
G1 X110.428 Y94.118 E2.47725
G1 X111.037 Y94.547 E2.70061
G1 X111.299 Y94.762 E2.80225
G1 X112.018 Y95.547 E3.12101
G1 X112.601 Y96.488 E3.45266
G1 X113.032 Y97.575 E3.80318
G1 X113.296 Y98.794 E4.17700
G1 X113.386 Y100.137 E4.58034
G1 X113.182 Y102.128 E5.17991
G1 X112.600 Y103.711 E5.68538
G1 X112.442 Y103.947 E5.77033
G1 X111.646 Y104.976 E6.16013
G1 X111.315 Y105.257 E6.29029
G1 X110.304 Y105.949 E6.65731
G1 X110.096 Y106.052 E6.72694
G1 X109.864 Y106.147 E6.80222
G1 X108.536 Y106.582 E7.22077
G1 X108.162 Y106.649 E7.33467
G1 X106.278 Y106.818 E7.90160
G1 X103.325 Y106.818 E8.78633
G1 X102.363 Y106.539 E9.08658
G1 X102.290 Y105.989 E9.25295
G1 X102.290 Y94.011 E12.84211
G1 X102.363 Y93.461 E13.00848
G92 E0
G1 X101.254 Y107.648 F7800.000
G1 X94.448 Y102.842 F7800.000
G1 X89.642 Y107.648 F7800.000
G1 X87.642 Y107.648 F7800.000
G1 X86.606 Y107.648 F7800.000
G1 X86.606 Y94.044 E4.07639 F600.000
G1 X86.687 Y93.468 E4.25074
G1 X87.642 Y93.198 E4.54819
G1 X95.364 Y93.198 E6.86206
G92 E0
G1 Z2.100 F7800.000
G1 X102.363 Y93.461 F7800.000
G1 X103.325 Y93.182 E0.30028 F600.000
G1 X106.801 Y93.184 E1.34182
G1 X107.880 Y93.258 E1.66578
G1 X108.263 Y93.314 E1.78193
G1 X109.013 Y93.498 E2.01327
G1 X109.411 Y93.627 E2.13870
G1 X110.076 Y93.926 E2.35724
G1 X110.428 Y94.118 E2.47721
G1 X111.037 Y94.547 E2.70057
