; generated by Slic3r 1.2.9 on 2016-03-11 at 01:26:53

; external perimeters extrusion width = 1.54mm
; perimeters extrusion width = 2.62mm
; infill extrusion width = 6.27mm
; solid infill extrusion width = 2.62mm
; top infill extrusion width = 2.62mm

M107
M104 S30 ; set temperature
G28 ; home all axes
G1 Z5 F5000 ; lift nozzle
M302
M92 E10000
M500
M501
G1 E100
M109 S30 ; wait for temperature to be reached
G21 ; set units to millimeters
G90 ; use absolute coordinates
M82 ; use absolute distances for extrusion
G92 E0
G1 Z0.300 F7800.000
G1 X102.056 Y97.605 F7800.000
G1 X102.056 Y92.577 E0.22751 F378.000
G1 X113.620 Y92.577 E0.75077
G1 X113.620 Y93.819 E0.80697
G1 X103.677 Y93.819 E1.25688 F378.000
G1 X103.677 Y99.611 E1.51897
G1 X112.526 Y99.611 E1.91938
G1 X112.526 Y100.831 E1.97458
G1 X103.677 Y100.831 E2.37499
G1 X103.677 Y106.181 E2.61708
G1 X113.176 Y106.181 E3.04690
G1 X113.176 Y107.423 E3.10310
G1 X102.056 Y107.423 E3.60627
G1 X102.056 Y97.836 E4.04008
G1 X104.624 Y100.605 F7800.000
G1 X103.856 Y99.837 E4.08926 F540.000
G1 X104.401 Y99.837 E4.11396
G1 X105.169 Y100.605 E4.16314
G1 X105.715 Y100.605 E4.18784
G1 X104.947 Y99.837 E4.23702
G1 X105.492 Y99.837 E4.26172
G1 X106.261 Y100.605 E4.31090
G1 X106.806 Y100.605 E4.33560
G1 X106.038 Y99.837 E4.38478
G1 X106.584 Y99.837 E4.40948
G1 X107.352 Y100.605 E4.45865
G1 X107.897 Y100.605 E4.48336
G1 X107.129 Y99.837 E4.53253
G1 X107.675 Y99.837 E4.55724
G1 X108.443 Y100.605 E4.60641
G1 X108.989 Y100.605 E4.63112
G1 X108.221 Y99.837 E4.68029
G1 X108.766 Y99.837 E4.70499
G1 X109.534 Y100.605 E4.75417
G1 X110.080 Y100.605 E4.77887
G1 X109.312 Y99.837 E4.82805
G1 X109.857 Y99.837 E4.85275
G1 X110.626 Y100.605 E4.90193
G1 X111.171 Y100.605 E4.92663
G1 X110.403 Y99.837 E4.97581
G1 X110.949 Y99.837 E5.00051
G1 X111.717 Y100.605 E5.04969
G1 X112.262 Y100.605 F7800.000
G1 X111.494 Y99.837 E5.09887 F540.000
G1 X112.040 Y99.837 E5.12357
G1 X112.300 Y100.097 E5.14022
G92 E0
G1 X102.902 Y100.056 F7800.000
G1 X102.902 Y100.056 F7800.000
G1 X112.608 Y106.407 F7800.000
G1 X112.950 Y106.749 E0.02190 F540.000
G1 X112.853 Y107.197 E0.04266
G1 X112.062 Y106.407 E0.09324
G1 X111.517 Y106.407 E0.11795
G1 X112.307 Y107.197 E0.16853
G1 X111.761 Y107.197 E0.19323
G1 X110.971 Y106.407 E0.24382
G1 X110.426 Y106.407 E0.26852
G1 X111.216 Y107.197 E0.31911
G1 X110.670 Y107.197 E0.34381
G1 X109.880 Y106.407 E0.39440
G1 X109.334 Y106.407 E0.41910
G1 X110.124 Y107.197 E0.46968
G1 X109.579 Y107.197 E0.49439
G1 X108.789 Y106.407 E0.54497
G1 X108.243 Y106.407 E0.56967
G1 X109.033 Y107.197 E0.62026
G1 X108.487 Y107.197 E0.64496
G1 X107.697 Y106.407 E0.69555
G1 X107.152 Y106.407 E0.72025
G1 X107.942 Y107.197 E0.77084
G1 X107.396 Y107.197 E0.79554
G1 X106.606 Y106.407 E0.84612
G1 X106.060 Y106.407 E0.87083
G1 X106.851 Y107.197 E0.92141
G1 X106.305 Y107.197 E0.94611
G1 X105.515 Y106.407 E0.99670
G1 X104.969 Y106.407 E1.02140
G1 X105.759 Y107.197 E1.07199
G1 X105.214 Y107.197 E1.09669
G1 X104.424 Y106.407 E1.14728
G1 X103.878 Y106.407 E1.17198
G1 X104.668 Y107.197 E1.22256
G1 X104.122 Y107.197 E1.24727
G1 X102.282 Y105.357 E1.36510
G1 X102.282 Y104.811 E1.38980
G1 X103.451 Y105.980 E1.46466
G1 X103.451 Y105.434 E1.48936
G1 X102.282 Y104.265 E1.56421
G1 X102.282 Y103.720 E1.58891
G1 X103.451 Y104.889 E1.66376
G1 X103.451 Y104.343 E1.68847
G1 X102.282 Y103.174 E1.76332
G1 X102.282 Y102.628 E1.78802
G1 X103.451 Y103.798 E1.86287
G1 X103.451 Y103.252 E1.88757
G1 X102.282 Y102.083 E1.96242
G1 X102.282 Y101.537 E1.98713
G1 X103.451 Y102.706 E2.06198
G1 X103.451 Y102.161 E2.08668
G1 X102.282 Y100.992 E2.16153
G1 X102.282 Y100.446 E2.18623
G1 X103.451 Y101.615 E2.26109
G1 X103.451 Y101.069 E2.28579
G1 X102.282 Y99.900 E2.36064
G1 X102.282 Y99.355 E2.38534
G1 X103.532 Y100.605 E2.46540
G1 X104.078 Y100.605 E2.49010
G1 X102.282 Y98.809 E2.60509
G1 X102.282 Y98.263 E2.62979
G1 X103.451 Y99.432 E2.70465
G1 X103.451 Y98.887 E2.72935
G1 X102.282 Y97.718 E2.80420
G1 X102.282 Y97.172 E2.82890
G1 X103.451 Y98.341 E2.90375
G1 X103.451 Y97.796 E2.92845
G1 X102.282 Y96.626 E3.00331
G1 X102.282 Y96.081 E3.02801
G1 X103.451 Y97.250 E3.10286
G1 X103.451 Y96.704 E3.12756
G1 X102.282 Y95.535 E3.20241
G1 X102.282 Y94.990 E3.22712
G1 X103.451 Y96.159 E3.30197
G1 X103.451 Y95.613 E3.32667
G1 X102.282 Y94.444 E3.40152
G1 X102.282 Y93.898 E3.42622
G1 X103.451 Y95.067 E3.50107
G1 X103.451 Y94.522 E3.52578
G1 X102.282 Y93.353 E3.60063
G1 X102.300 Y92.825 E3.62453
G1 X103.451 Y93.976 E3.69823
G1 X103.614 Y93.593 F7800.000
G1 X102.823 Y92.803 E3.74882 F540.000
G1 X103.369 Y92.803 E3.77352
G1 X104.159 Y93.593 E3.82411
G1 X104.705 Y93.593 E3.84881
G1 X103.915 Y92.803 E3.89939
G1 X104.460 Y92.803 E3.92410
G1 X105.250 Y93.593 E3.97468
G1 X105.796 Y93.593 E3.99938
G1 X105.006 Y92.803 E4.04997
G1 X105.552 Y92.803 E4.07467
G1 X106.342 Y93.593 E4.12526
G1 X106.887 Y93.593 E4.14996
G1 X106.097 Y92.803 E4.20054
G1 X106.643 Y92.803 E4.22524
G1 X107.433 Y93.593 E4.27583
G1 X107.979 Y93.593 E4.30053
G1 X107.189 Y92.803 E4.35112
G1 X107.734 Y92.803 E4.37582
G1 X108.524 Y93.593 E4.42640
G1 X109.070 Y93.593 E4.45111
G1 X108.280 Y92.803 E4.50169
G1 X108.825 Y92.803 E4.52639
G1 X109.615 Y93.593 E4.57698
G1 X110.161 Y93.593 E4.60168
G1 X109.371 Y92.803 E4.65227
G1 X109.917 Y92.803 E4.67697
G1 X110.707 Y93.593 E4.72755
G1 X111.252 Y93.593 E4.75226
G1 X110.462 Y92.803 E4.80284
G1 X111.008 Y92.803 E4.82754
G1 X111.798 Y93.593 E4.87813
G1 X112.344 Y93.593 E4.90283
G1 X111.554 Y92.803 E4.95342
G1 X112.099 Y92.803 E4.97812
G1 X112.889 Y93.593 E5.02870
G1 X113.394 Y93.552 E5.05163
G1 X112.645 Y92.803 E5.09960
G1 X113.190 Y92.803 E5.12430
G1 X113.394 Y93.007 E5.13734
G92 E0
G1 X102.902 Y100.056 F7800.000
G1 X102.902 Y100.056 F7800.000
G1 X102.867 Y106.612 F7800.000
G1 X102.831 Y106.648 F7800.000
G1 X102.282 Y105.902 F7800.000
G1 X103.577 Y107.197 E0.08290 F540.000
G1 X103.031 Y107.197 E0.10760
G1 X102.282 Y106.448 E0.15557
G1 X102.282 Y106.993 E0.18027
G1 X102.486 Y107.197 E0.19331
G92 E0
G1 X101.831 Y107.648 F7800.000
G1 X99.831 Y107.648 F7800.000
G1 X90.226 Y107.648 F7800.000
G1 X88.226 Y107.648 F7800.000
G1 X88.001 Y105.261 F7800.000
G1 X88.001 Y107.423 E0.09783 F378.000
G1 X86.380 Y107.423 E0.17118
G1 X86.380 Y92.577 E0.84295
G1 X95.723 Y92.577 E1.26571
G1 X95.723 Y93.819 E1.32191
G1 X88.001 Y93.819 E1.67133 F378.000
G1 X88.001 Y105.030 E2.17862
G1 X86.810 Y107.197 F7800.000
G1 X86.606 Y106.993 E2.19195 F540.000
G1 X86.606 Y106.435 E2.21778
G1 X87.368 Y107.197 E2.26765
G1 X87.775 Y107.047 E2.28776
G1 X86.606 Y105.877 E2.36431
G1 X86.606 Y105.319 E2.39014
G1 X87.775 Y106.489 E2.46669
G1 X87.775 Y105.931 E2.49253
G1 X86.606 Y104.761 E2.56908
G1 X86.606 Y104.203 E2.59491
G1 X87.775 Y105.373 E2.67146
G1 X87.775 Y104.815 E2.69730
G1 X86.606 Y103.645 E2.77384
G1 X86.606 Y103.087 E2.79968
G1 X87.775 Y104.257 E2.87623
G1 X87.775 Y103.699 E2.90206
G1 X86.606 Y102.529 E2.97861
G1 X86.606 Y101.971 E3.00445
G1 X87.775 Y103.141 E3.08100
G1 X87.775 Y102.583 E3.10683
G1 X86.606 Y101.413 E3.18338
G1 X86.606 Y100.855 E3.20921
G1 X87.775 Y102.025 E3.28576
G1 X87.775 Y101.467 E3.31160
G1 X86.606 Y100.297 E3.38815
G1 X86.606 Y99.739 E3.41398
G1 X87.775 Y100.909 E3.49053
G1 X87.775 Y100.351 E3.51637
G1 X86.606 Y99.181 E3.59291
G1 X86.606 Y98.623 E3.61875
G1 X87.775 Y99.793 E3.69530
G1 X87.775 Y99.235 E3.72113
G1 X86.606 Y98.065 E3.79768
G1 X86.606 Y97.507 E3.82352
G1 X87.775 Y98.677 E3.90007
G1 X87.775 Y98.119 E3.92590
G1 X86.606 Y96.949 E4.00245
G1 X86.606 Y96.391 E4.02828
G1 X87.775 Y97.561 E4.10483
G1 X87.775 Y97.003 E4.13067
G1 X86.606 Y95.833 E4.20722
G1 X86.606 Y95.275 E4.23305
G1 X87.775 Y96.445 E4.30960
G1 X87.775 Y95.887 E4.33544
G1 X86.606 Y94.717 E4.41198
G1 X86.606 Y94.159 E4.43782
G1 X87.775 Y95.329 E4.51437
G1 X87.775 Y94.771 E4.54020
G1 X86.606 Y93.601 E4.61675
G1 X86.606 Y93.043 E4.64259
G1 X87.775 Y94.213 E4.71914
G1 X87.775 Y93.655 E4.74497
G1 X86.923 Y92.803 E4.80073
G1 X87.481 Y92.803 E4.82657
G1 X88.272 Y93.593 E4.87830
G1 X88.830 Y93.593 E4.90413
G1 X88.039 Y92.803 E4.95586
G1 X88.597 Y92.803 E4.98170
G1 X89.388 Y93.593 E5.03343
G1 X89.946 Y93.593 E5.05927
G1 X89.155 Y92.803 E5.11100
G1 X89.713 Y92.803 E5.13683
G1 X90.504 Y93.593 E5.18856
G1 X91.062 Y93.593 E5.21440
G1 X90.271 Y92.803 E5.26613
G1 X90.829 Y92.803 E5.29197
G1 X91.620 Y93.593 E5.34370
G1 X92.178 Y93.593 E5.36953
G1 X91.387 Y92.803 E5.42127
G1 X91.945 Y92.803 E5.44710
G1 X92.736 Y93.593 E5.49883
G1 X93.294 Y93.593 E5.52467
G1 X92.503 Y92.803 E5.57640
G1 X93.061 Y92.803 E5.60223
G1 X93.852 Y93.593 E5.65397
G1 X94.410 Y93.593 E5.67980
G1 X93.619 Y92.803 E5.73153
G1 X94.177 Y92.803 E5.75737
G1 X94.968 Y93.593 E5.80910
G1 X95.497 Y93.565 E5.83365
G1 X94.735 Y92.803 E5.88352
G1 X95.293 Y92.803 E5.90935
G1 X95.497 Y93.007 E5.92268
M106 S255
G92 E0
G1 Z0.600 F7800.000
G1 X113.845 Y93.198 F7800.000
G1 X103.902 Y93.198 E2.97938 F600.000
G1 X102.947 Y93.468 E3.27683
G1 X102.867 Y94.044 E3.45118
G1 X102.867 Y99.386 E5.05189
G1 X103.737 Y103.706 E6.37226
G1 X102.902 Y106.648 F7800.000
G1 X102.902 Y106.648 F7800.000
G1 X113.401 Y106.802 F7800.000
G1 X103.902 Y106.802 E9.21860 F600.000
G1 X102.947 Y106.532 E9.51604
G1 X102.867 Y105.956 E9.69039
G1 X102.867 Y101.056 E11.15866
G1 X103.035 Y100.221 E11.41390
G1 X112.751 Y100.221 E14.32531
G92 E0
G1 X114.623 Y107.648 F7800.000
G1 X99.831 Y107.648 F7800.000
G1 X90.226 Y107.648 F7800.000
G1 X88.226 Y107.648 F7800.000
G1 X87.190 Y107.648 F7800.000
G1 X87.190 Y94.044 E4.07639 F600.000
G1 X87.271 Y93.468 E4.25074
G1 X88.226 Y93.198 E4.54819
G1 X95.948 Y93.198 E6.86206
G92 E0
G1 Z0.900 F7800.000
G1 X113.845 Y93.198 F7800.000
G1 X103.902 Y93.198 E2.97938 F600.000
G1 X102.947 Y93.468 E3.27683
G1 X102.867 Y94.044 E3.45118
G1 X102.867 Y99.386 E5.05189
G1 X103.737 Y103.706 E6.37226
G1 X102.902 Y106.648 F7800.000
G1 X102.902 Y106.648 F7800.000
G1 X113.401 Y106.802 F7800.000
G1 X103.902 Y106.802 E9.21860 F600.000
G1 X102.947 Y106.532 E9.51604
G1 X102.867 Y105.956 E9.69039
G1 X102.867 Y101.056 E11.15866
G1 X103.035 Y100.221 E11.41390
G1 X112.751 Y100.221 E14.32531
G92 E0
G1 X114.623 Y107.648 F7800.000
G1 X99.831 Y107.648 F7800.000
G1 X90.226 Y107.648 F7800.000
G1 X88.226 Y107.648 F7800.000
G1 X87.190 Y107.648 F7800.000
G1 X87.190 Y94.044 E4.07639 F600.000
G1 X87.271 Y93.468 E4.25074
G1 X88.226 Y93.198 E4.54819
G1 X95.948 Y93.198 E6.86206
G92 E0
G1 Z1.200 F7800.000
G1 X113.845 Y93.198 F7800.000
G1 X103.902 Y93.198 E2.97938 F600.000
G1 X102.947 Y93.468 E3.27683
G1 X102.867 Y94.044 E3.45118
G1 X102.867 Y99.386 E5.05189
G1 X103.737 Y103.706 E6.37226
G1 X102.902 Y106.648 F7800.000
G1 X102.902 Y106.648 F7800.000
G1 X113.401 Y106.802 F7800.000
G1 X103.902 Y106.802 E9.21860 F600.000
G1 X102.947 Y106.532 E9.51604
G1 X102.867 Y105.956 E9.69039
G1 X102.867 Y101.056 E11.15866
G1 X103.035 Y100.221 E11.41390
G1 X112.751 Y100.221 E14.32531
G92 E0
G1 X114.623 Y107.648 F7800.000
G1 X99.831 Y107.648 F7800.000
G1 X90.226 Y107.648 F7800.000
G1 X88.226 Y107.648 F7800.000
G1 X87.190 Y107.648 F7800.000
G1 X87.190 Y94.044 E4.07639 F600.000
G1 X87.271 Y93.468 E4.25074
G1 X88.226 Y93.198 E4.54819
G1 X95.948 Y93.198 E6.86206
G92 E0
G1 Z1.500 F7800.000
G1 X113.845 Y93.198 F7800.000
G1 X103.902 Y93.198 E2.97938 F600.000
G1 X102.947 Y93.468 E3.27683
G1 X102.867 Y94.044 E3.45118
G1 X102.867 Y99.386 E5.05189
G1 X103.737 Y103.706 E6.37226
G1 X102.902 Y106.648 F7800.000
G1 X102.902 Y106.648 F7800.000
G1 X113.401 Y106.802 F7800.000
G1 X103.902 Y106.802 E9.21860 F600.000
G1 X102.947 Y106.532 E9.51604
G1 X102.867 Y105.956 E9.69039
G1 X102.867 Y101.056 E11.15866
G1 X103.035 Y100.221 E11.41390
G1 X112.751 Y100.221 E14.32531
G92 E0
G1 X114.623 Y107.648 F7800.000
G1 X99.831 Y107.648 F7800.000
G1 X90.226 Y107.648 F7800.000
G1 X88.226 Y107.648 F7800.000
G1 X87.190 Y107.648 F7800.000
G1 X87.190 Y94.044 E4.07639 F600.000
G1 X87.271 Y93.468 E4.25074
G1 X88.226 Y93.198 E4.54819
G1 X95.948 Y93.198 E6.86206
G92 E0
G1 Z1.800 F7800.000
G1 X113.845 Y93.198 F7800.000
G1 X103.902 Y93.198 E2.97938 F600.000
G1 X102.947 Y93.468 E3.27683
G1 X102.867 Y94.044 E3.45118
G1 X102.867 Y99.386 E5.05189
G1 X103.737 Y103.706 E6.37226
G1 X102.902 Y106.648 F7800.000
G1 X102.902 Y106.648 F7800.000
G1 X113.401 Y106.802 F7800.000
G1 X103.902 Y106.802 E9.21860 F600.000
G1 X102.947 Y106.532 E9.51604
G1 X102.867 Y105.956 E9.69039
G1 X102.867 Y101.056 E11.15866
G1 X103.035 Y100.221 E11.41390
G1 X112.751 Y100.221 E14.32531
G92 E0
G1 X114.623 Y107.648 F7800.000
G1 X99.831 Y107.648 F7800.000
G1 X90.226 Y107.648 F7800.000
G1 X88.226 Y107.648 F7800.000
G1 X87.190 Y107.648 F7800.000
G1 X87.190 Y94.044 E4.07639 F600.000
G1 X87.271 Y93.468 E4.25074
G1 X88.226 Y93.198 E4.54819
G1 X95.948 Y93.198 E6.86206
G92 E0
G1 Z2.100 F7800.000
G1 X113.845 Y93.198 F7800.000
G1 X103.902 Y93.198 E2.97938 F600.000
G1 X102.947 Y93.468 E3.27683
G1 X102.867 Y94.044 E3.45118
G1 X102.867 Y99.386 E5.05189
G1 X103.737 Y103.706 E6.37226
G92 E0
G1 X102.902 Y106.648 F7800.000
G1 X102.902 Y106.648 F7800.000
G1 X113.401 Y106.802 F7800.000
G1 X103.902 Y106.802 E2.84634 F600.000
G1 X102.947 Y106.532 E3.14378
G1 X102.867 Y105.956 E3.31814
G1 X102.867 Y101.056 E4.78640
G1 X103.035 Y100.221 E5.04164
G1 X112.751 Y100.221 E7.95305
G92 E0
G1 X114.623 Y107.648 F7800.000
G1 X99.831 Y107.648 F7800.000
G1 X90.226 Y107.648 F7800.000
G1 X88.226 Y107.648 F7800.000
G1 X87.190 Y107.648 F7800.000
G1 X87.190 Y94.044 E4.07639 F600.000
G1 X87.271 Y93.468 E4.25074
G1 X88.226 Y93.198 E4.54819
G1 X95.948 Y93.198 E6.86206
G92 E0
M107
M104 S0 ; turn off temperature
G28 X0  ; home X axis
M84     ; disable motors

; filament used = 143.5mm (1.1cm3)

; avoid_crossing_perimeters = 1
; bed_shape = 0x0,250x0,250x250,0x250
; bed_temperature = 0
; before_layer_gcode = 
; bridge_acceleration = 0
; bridge_fan_speed = 100
; brim_width = 0
; complete_objects = 0
; cooling = 1
; default_acceleration = 0
; disable_fan_first_layers = 1
; duplicate_distance = 6
; end_gcode = M104 S0 ; turn off temperature\nG28 X0  ; home X axis\nM84     ; disable motors\n
; extruder_clearance_height = 20
; extruder_clearance_radius = 20
; extruder_offset = 0x0
; extrusion_axis = E
; extrusion_multiplier = 3
; fan_always_on = 0
; fan_below_layer_time = 60
; filament_colour = #FFFFFF
; filament_diameter = 3.125
; first_layer_acceleration = 0
; first_layer_bed_temperature = 0
; first_layer_extrusion_width = 150%
; first_layer_speed = 90%
; first_layer_temperature = 30
; gcode_arcs = 0
; gcode_comments = 0
; gcode_flavor = reprap
; infill_acceleration = 0
; infill_first = 0
; layer_gcode = 
; max_fan_speed = 100
; max_print_speed = 80
; max_volumetric_speed = 0
; min_fan_speed = 35
; min_print_speed = 10
; min_skirt_length = 0
; notes = 
; nozzle_diameter = 1.54
; only_retract_when_crossing_perimeters = 1
; ooze_prevention = 0
; output_filename_format = [input_filename_base].gcode
; perimeter_acceleration = 0
; post_process = 
; pressure_advance = 0
; resolution = 0
; retract_before_travel = 2
; retract_layer_change = 1
; retract_length = 0
; retract_length_toolchange = 10
; retract_lift = 0
; retract_restart_extra = 0
; retract_restart_extra_toolchange = 0
; retract_speed = 0
; skirt_distance = 6
; skirt_height = 1
; skirts = 0
; slowdown_below_layer_time = 30
; spiral_vase = 0
; standby_temperature_delta = -5
; start_gcode = G28 ; home all axes\nG1 Z5 F5000 ; lift nozzle\nM302\nM92 E10000\nM500\nM501\nG1 E100
; temperature = 30
; threads = 2
; toolchange_gcode = 
; travel_speed = 130
; use_firmware_retraction = 0
; use_relative_e_distances = 0
; use_volumetric_e = 0
; vibration_limit = 0
; wipe = 0
; z_offset = 0
; dont_support_bridges = 1
; extrusion_width = 0
; first_layer_height = 100%
; infill_only_where_needed = 0
; interface_shells = 0
; layer_height = 0.3
; raft_layers = 0
; seam_position = random
; support_material = 0
; support_material_angle = 0
; support_material_contact_distance = 0.2
; support_material_enforce_layers = 0
; support_material_extruder = 1
; support_material_extrusion_width = 0
; support_material_interface_extruder = 1
; support_material_interface_layers = 3
; support_material_interface_spacing = 0
