; generated by Slic3r 1.2.9 on 2016-03-11 at 01:26:55

; external perimeters extrusion width = 1.54mm
; perimeters extrusion width = 2.62mm
; infill extrusion width = 6.27mm
; solid infill extrusion width = 2.62mm
; top infill extrusion width = 2.62mm

M107
M104 S30 ; set temperature
G28 ; home all axes
G1 Z5 F5000 ; lift nozzle
M302
M92 E10000
M500
M501
G1 E100
M109 S30 ; wait for temperature to be reached
G21 ; set units to millimeters
G90 ; use absolute coordinates
M82 ; use absolute distances for extrusion
G92 E0
G1 Z0.300 F7800.000
G1 X103.388 Y106.390 F7800.000
G1 X102.394 Y105.648 E0.05611 F378.000
G1 X101.325 Y104.161 E0.13900
G1 X100.679 Y102.303 E0.22799
G1 X100.462 Y100.062 E0.32989
G1 X100.561 Y98.552 E0.39834
G1 X100.859 Y97.183 E0.46173
G1 X101.353 Y95.956 E0.52157
G1 X102.032 Y94.893 E0.57866
G1 X102.884 Y94.012 E0.63413
G1 X103.913 Y93.309 E0.69050
G1 X105.105 Y92.797 E0.74921
G1 X106.446 Y92.489 E0.81148
G1 X107.939 Y92.385 E0.87921
G1 X109.153 Y92.454 E0.93422
G1 X110.501 Y92.681 E0.99605 F378.000
G1 X111.680 Y93.048 E1.05195
G1 X112.767 Y93.550 E1.10612
G1 X113.732 Y94.172 E1.15808
G1 X114.514 Y94.857 E1.20511
G1 X114.514 Y99.807 E1.42909
G1 X108.488 Y99.807 E1.70176
G1 X108.488 Y98.522 E1.75991
G1 X113.056 Y98.522 E1.96661
G1 X113.056 Y95.430 E2.10653
G1 X112.370 Y94.866 E2.14671
G1 X111.642 Y94.436 E2.18496
G1 X110.806 Y94.084 E2.22601
G1 X109.894 Y93.824 E2.26893
G1 X108.938 Y93.668 E2.31277
G1 X107.931 Y93.615 E2.35838
G1 X106.258 Y93.806 E2.43456
G1 X104.827 Y94.387 E2.50447
G1 X103.657 Y95.358 E2.57326
G1 X102.796 Y96.660 E2.64387
G1 X102.283 Y98.231 E2.71866
G1 X102.114 Y100.064 E2.80197
G1 X102.273 Y101.895 E2.88510
G1 X102.756 Y103.443 E2.95851
G1 X103.569 Y104.705 E3.02642
G1 X104.695 Y105.636 E3.09254
G1 X106.106 Y106.191 E3.16113
G1 X107.781 Y106.374 E3.23737
G1 X108.889 Y106.306 E3.28762
G1 X109.873 Y106.102 E3.33309
G1 X110.738 Y105.758 E3.37520
G1 X111.487 Y105.261 E3.41589
G1 X112.119 Y104.600 E3.45726
G1 X112.529 Y103.944 E3.49227
G1 X114.066 Y104.397 E3.56477
G1 X113.568 Y105.266 E3.61008
G1 X112.787 Y106.137 E3.66302
G1 X111.854 Y106.789 E3.71453
G1 X110.735 Y107.245 E3.76921
G1 X109.397 Y107.522 E3.83103
G1 X107.845 Y107.614 E3.90139
G1 X105.662 Y107.393 E4.00066
G1 X103.850 Y106.736 E4.08786
G1 X103.573 Y106.529 E4.10355
G1 X104.440 Y106.675 F7800.000
G1 X101.422 Y103.657 E4.29796 F540.000
G1 X101.130 Y102.816 F7800.000
G1 X105.301 Y106.987 E4.56674 F540.000
G1 X104.835 Y105.972 F7800.000
G1 X106.061 Y107.198 E4.64569 F540.000
G1 X106.672 Y107.260 E4.67368
G1 X105.741 Y106.329 E4.73364
G1 X106.424 Y106.463 E4.76533
G1 X107.283 Y107.322 E4.82068
G1 X107.894 Y107.383 E4.84866
G1 X107.040 Y106.530 E4.90367
G1 X107.657 Y106.597 E4.93191
G1 X108.418 Y107.358 E4.98098
G1 X108.936 Y107.328 E5.00463
G1 X108.180 Y106.571 E5.05339
G1 X108.697 Y106.539 E5.07701
G1 X109.453 Y107.295 E5.12568
G1 X109.908 Y107.201 E5.14685
G1 X109.170 Y106.463 E5.19436
G1 X109.625 Y106.369 E5.21552
G1 X110.363 Y107.106 E5.26304
G1 X110.805 Y106.999 E5.28376
G1 X110.053 Y106.248 E5.33221
G1 X110.446 Y106.091 E5.35147
G1 X111.195 Y106.840 E5.39974
G1 X111.585 Y106.681 E5.41893
G1 X110.832 Y105.929 E5.46742
G1 X111.162 Y105.710 E5.48547
G1 X111.943 Y106.490 E5.53577
G1 X112.266 Y106.265 E5.55374
G1 X111.492 Y105.490 E5.60362
G1 X111.781 Y105.230 E5.62134
G1 X112.587 Y106.036 E5.67322
G1 X112.861 Y105.761 E5.69091
G1 X112.050 Y104.950 E5.74318
G1 X112.310 Y104.661 E5.76090
G1 X113.123 Y105.474 E5.81326
G1 X113.382 Y105.184 E5.83098
G1 X112.522 Y104.323 E5.88644
G1 X113.133 Y104.385 E5.91441
G1 X113.586 Y104.839 E5.94365
G92 E0
G1 X112.874 Y104.854 F7800.000
G1 X112.874 Y104.854 F7800.000
G1 X108.714 Y98.868 F7800.000
G1 X109.427 Y99.581 E0.04592 F540.000
G1 X109.976 Y99.581 E0.07094
G1 X109.143 Y98.748 E0.12462
G1 X109.692 Y98.748 E0.14964
G1 X110.525 Y99.581 E0.20332
G1 X111.074 Y99.581 E0.22834
G1 X110.241 Y98.748 E0.28202
G1 X110.790 Y98.748 E0.30704
G1 X111.623 Y99.581 E0.36072
G1 X112.172 Y99.581 E0.38574
G1 X111.339 Y98.748 E0.43942
G1 X111.888 Y98.748 E0.46444
G1 X112.721 Y99.581 E0.51812
G1 X113.271 Y99.581 E0.54314
G1 X112.437 Y98.748 E0.59682
G1 X112.987 Y98.748 E0.62184
G1 X113.820 Y99.581 E0.67552
G1 X114.288 Y99.500 E0.69718
G1 X113.282 Y98.494 E0.76200
G1 X113.282 Y97.945 E0.78702
G1 X114.288 Y98.951 E0.85185
G1 X114.288 Y98.402 E0.87687
G1 X113.282 Y97.396 E0.94170
G1 X113.282 Y96.847 E0.96671
G1 X114.288 Y97.853 E1.03154
G1 X114.288 Y97.304 E1.05656
G1 X113.282 Y96.298 E1.12139
G1 X113.282 Y95.749 E1.14641
G1 X114.288 Y96.755 E1.21123
G1 X114.288 Y96.206 E1.23625
G1 X111.269 Y93.186 E1.43081
G1 X110.807 Y93.823 F7800.000
G1 X109.789 Y92.805 E1.49642 F540.000
G1 X110.471 Y92.937 E1.52806
G1 X111.713 Y94.180 E1.60810
G1 X112.228 Y93.597 F7800.000
G1 X114.288 Y95.656 E1.74083 F540.000
G1 X114.288 Y95.107 F7800.000
G1 X113.889 Y94.709 E1.76652 F540.000
G1 X110.039 Y93.604 F7800.000
G1 X109.129 Y92.694 E1.82519 F540.000
G1 X109.383 Y93.497 F7800.000
G1 X108.536 Y92.650 E1.87976 F540.000
G1 X107.954 Y92.617 E1.90631
G1 X108.765 Y93.428 E1.95855
G1 X108.186 Y93.398 E1.98497
G1 X107.430 Y92.642 E2.03369
G1 X106.916 Y92.677 E2.05715
G1 X107.666 Y93.427 E2.10545
G1 X107.173 Y93.483 E2.12805
G1 X106.403 Y92.714 E2.17763
G1 X105.957 Y92.817 E2.19850
G1 X106.680 Y93.540 E2.24509
G1 X106.203 Y93.612 E2.26707
G1 X105.511 Y92.919 E2.31168
G1 X105.072 Y93.030 E2.33230
G1 X105.812 Y93.770 E2.38001
G1 X105.422 Y93.929 E2.39922
G1 X104.688 Y93.195 E2.44653
G1 X104.303 Y93.359 E2.46558
G1 X105.031 Y94.087 E2.51247
G1 X104.666 Y94.271 E2.53111
G1 X103.928 Y93.534 E2.57862
G1 X103.602 Y93.756 E2.59662
G1 X104.366 Y94.520 E2.64582
G1 X104.065 Y94.769 E2.66359
G1 X103.276 Y93.979 E2.71447
G1 X102.972 Y94.224 E2.73226
G1 X103.765 Y95.018 E2.78338
G1 X103.476 Y95.278 E2.80110
G1 X102.697 Y94.499 E2.85130
G1 X102.423 Y94.774 E2.86900
G1 X103.258 Y95.609 E2.92281
G1 X103.039 Y95.939 E2.94086
G1 X102.158 Y95.058 E2.99767
G1 X101.944 Y95.393 E3.01579
G1 X102.821 Y96.270 E3.07230
G1 X102.602 Y96.600 E3.09035
G1 X101.730 Y95.728 E3.14656
G1 X101.524 Y96.071 E3.16479
G1 X102.465 Y97.013 E3.22547
G1 X102.330 Y97.427 E3.24532
G1 X101.366 Y96.463 E3.30745
G1 X101.208 Y96.854 E3.32668
G1 X102.195 Y97.841 E3.39027
G1 X102.061 Y98.256 E3.41015
G1 X101.059 Y97.254 E3.47474
G1 X100.961 Y97.705 E3.49577
G1 X102.015 Y98.759 E3.56369
G1 X101.969 Y99.261 E3.58669
G1 X100.863 Y98.156 E3.65794
G1 X100.778 Y98.620 E3.67945
G1 X101.922 Y99.764 E3.75317
G1 X101.900 Y100.291 E3.77719
G1 X100.744 Y99.135 E3.85164
G1 X100.710 Y99.650 E3.87517
G1 X101.952 Y100.892 E3.95518
G1 X102.004 Y101.494 E3.98269
G1 X100.710 Y100.200 E4.06605
G1 X100.769 Y100.808 E4.09389
G1 X102.076 Y102.114 E4.17806
G1 X102.324 Y102.912 E4.21614
G1 X100.828 Y101.416 E4.31253
G1 X100.887 Y102.024 E4.34037
G1 X102.623 Y103.760 E4.45219
G1 X102.462 Y105.246 F7800.000
G1 X102.812 Y105.596 E4.47476 F540.000
G92 E0
G1 X100.236 Y100.065 F7800.000
G1 X94.599 Y99.693 F7800.000
G1 X95.054 Y99.267 F7800.000
G1 X95.054 Y94.044 F7800.000
G1 X85.688 Y92.577 F7800.000
G1 X94.829 Y92.577 E0.41364 F378.000
G1 X94.829 Y93.819 E0.46984
G1 X87.107 Y93.819 E0.81925 F378.000
G1 X87.107 Y107.423 E1.43482
G1 X85.486 Y107.423 E1.50817
G1 X85.486 Y92.606 E2.17862
G1 X94.603 Y93.007 F7800.000
G1 X94.399 Y92.803 E2.19195 F540.000
G1 X93.841 Y92.803 E2.21778
G1 X94.603 Y93.565 E2.26765
G1 X94.074 Y93.593 E2.29220
G1 X93.283 Y92.803 E2.34393
G1 X92.725 Y92.803 E2.36977
G1 X93.516 Y93.593 E2.42150
G1 X92.958 Y93.593 E2.44734
G1 X92.167 Y92.803 E2.49907
G1 X91.609 Y92.803 E2.52490
G1 X92.400 Y93.593 E2.57664
G1 X91.842 Y93.593 E2.60247
G1 X91.051 Y92.803 E2.65420
G1 X90.493 Y92.803 E2.68004
G1 X91.284 Y93.593 E2.73177
G1 X90.726 Y93.593 E2.75760
G1 X89.935 Y92.803 E2.80934
G1 X89.377 Y92.803 E2.83517
G1 X90.168 Y93.593 E2.88690
G1 X89.610 Y93.593 E2.91274
G1 X88.819 Y92.803 E2.96447
G1 X88.261 Y92.803 E2.99030
G1 X89.052 Y93.593 E3.04204
G1 X88.494 Y93.593 E3.06787
G1 X87.703 Y92.803 E3.11960
G1 X87.145 Y92.803 E3.14544
G1 X87.936 Y93.593 E3.19717
G1 X87.378 Y93.593 E3.22300
G1 X86.587 Y92.803 E3.27474
G1 X86.029 Y92.803 E3.30057
G1 X86.881 Y93.655 E3.35633
G1 X86.881 Y94.213 E3.38217
G1 X85.712 Y93.043 E3.45872
G1 X85.712 Y93.601 E3.48455
G1 X86.881 Y94.771 E3.56110
G1 X86.881 Y95.329 E3.58693
G1 X85.712 Y94.159 E3.66348
G1 X85.712 Y94.717 E3.68932
G1 X86.881 Y95.887 E3.76587
G1 X86.881 Y96.445 E3.79170
G1 X85.712 Y95.275 E3.86825
G1 X85.712 Y95.833 E3.89409
G1 X86.881 Y97.003 E3.97063
G1 X86.881 Y97.561 E3.99647
G1 X85.712 Y96.391 E4.07302
G1 X85.712 Y96.949 E4.09885
G1 X86.881 Y98.119 E4.17540
G1 X86.881 Y98.677 E4.20124
G1 X85.712 Y97.507 E4.27779
G1 X85.712 Y98.065 E4.30362
G1 X86.881 Y99.235 E4.38017
G1 X86.881 Y99.793 E4.40600
G1 X85.712 Y98.623 E4.48255
G1 X85.712 Y99.181 E4.50839
G1 X86.881 Y100.351 E4.58494
G1 X86.881 Y100.909 E4.61077
G1 X85.712 Y99.739 E4.68732
G1 X85.712 Y100.297 E4.71316
G1 X86.881 Y101.467 E4.78970
G1 X86.881 Y102.025 E4.81554
G1 X85.712 Y100.855 E4.89209
G1 X85.712 Y101.413 E4.91792
G1 X86.881 Y102.583 E4.99447
G1 X86.881 Y103.141 E5.02031
G1 X85.712 Y101.971 E5.09686
G1 X85.712 Y102.529 E5.12269
G1 X86.881 Y103.699 E5.19924
G1 X86.881 Y104.257 E5.22507
G1 X85.712 Y103.087 E5.30162
G1 X85.712 Y103.645 E5.32746
G1 X86.881 Y104.815 E5.40401
G1 X86.881 Y105.373 E5.42984
G1 X85.712 Y104.203 E5.50639
G1 X85.712 Y104.761 E5.53222
G1 X86.881 Y105.931 E5.60877
G1 X86.881 Y106.489 E5.63461
G1 X85.712 Y105.319 E5.71116
G1 X85.712 Y105.877 E5.73699
G1 X86.881 Y107.047 E5.81354
G1 X86.474 Y107.197 E5.83365
G1 X85.712 Y106.435 E5.88352
G1 X85.712 Y106.993 E5.90935
G1 X85.916 Y107.197 E5.92268
M106 S255
G92 E0
G1 Z0.600 F7800.000
G1 X113.524 Y104.003 F7800.000
G1 X112.783 Y104.989 E0.36957 F600.000
G1 X112.272 Y105.556 E0.59839
G1 X111.871 Y105.884 E0.75356
G1 X111.499 Y106.138 E0.88842
G1 X110.970 Y106.406 E1.06625
G1 X110.533 Y106.582 E1.20747
G1 X109.985 Y106.740 E1.37827
G1 X109.312 Y106.879 E1.58435
G1 X109.032 Y106.916 E1.66889
G1 X107.838 Y106.991 E2.02749
G1 X106.068 Y106.811 E2.56033
G1 X105.806 Y106.763 E2.64033
G1 X104.486 Y106.264 E3.06305
G1 X104.185 Y106.117 E3.16361
G1 X103.132 Y105.289 E3.56494
G1 X102.938 Y105.114 E3.64318
G1 X102.040 Y103.789 E4.12278
G1 X101.498 Y102.162 E4.63675
G1 X101.461 Y101.941 E4.70386
G1 X101.290 Y100.049 E5.27316
G1 X101.397 Y98.670 E5.68762
G1 X101.473 Y98.181 E5.83569
G1 X101.663 Y97.430 E6.06785
G1 X102.023 Y96.440 E6.38376
G1 X102.147 Y96.194 E6.46615
G1 X102.667 Y95.395 E6.75189
G1 X103.008 Y94.969 E6.91532
G1 X103.378 Y94.598 E7.07240
G1 X104.356 Y93.875 E7.43685
G1 X104.605 Y93.748 E7.52045
G1 X105.318 Y93.450 E7.75211
G1 X105.994 Y93.237 E7.96440
G1 X106.541 Y93.127 E8.13161
G1 X107.943 Y93.001 E8.55355
G1 X108.957 Y93.056 E8.85769
G1 X109.980 Y93.214 E9.16789
G1 X110.350 Y93.296 E9.28138
G1 X111.061 Y93.512 E9.50420
G1 X111.447 Y93.653 E9.62730
G1 X111.876 Y93.842 E9.76760
G1 X112.445 Y94.136 E9.95965
G1 X112.805 Y94.364 E10.08739
G1 X113.417 Y94.823 E10.31656
G1 X113.756 Y95.201 E10.46852
G1 X113.785 Y95.536 E10.56935
G1 X113.785 Y98.297 E11.39668
G1 X113.669 Y98.962 E11.59897
G1 X112.831 Y99.164 E11.85732
G1 X108.263 Y99.164 E13.22610
G92 E0
G1 X108.263 Y100.032 F7800.000
G1 X114.635 Y102.136 F7800.000
G1 X114.049 Y107.899 F7800.000
G1 X105.220 Y108.693 F7800.000
G1 X98.266 Y106.321 F7800.000
G1 X93.925 Y103.247 F7800.000
G1 X89.524 Y107.648 F7800.000
G1 X87.332 Y107.648 F7800.000
G1 X86.296 Y107.648 F7800.000
G1 X86.296 Y94.044 E4.07639 F600.000
G1 X86.377 Y93.468 E4.25074
G1 X87.332 Y93.198 E4.54819
G1 X95.054 Y93.198 E6.86206
G92 E0
G1 Z0.900 F7800.000
G1 X113.524 Y104.003 F7800.000
G1 X112.783 Y104.989 E0.36957 F600.000
G1 X112.272 Y105.556 E0.59839
G1 X111.871 Y105.884 E0.75356
G1 X111.499 Y106.138 E0.88842
G1 X110.970 Y106.406 E1.06625
G1 X110.533 Y106.582 E1.20747
G1 X109.985 Y106.740 E1.37827
G1 X109.312 Y106.879 E1.58435
G1 X109.032 Y106.916 E1.66889
G1 X107.838 Y106.991 E2.02749
G1 X106.068 Y106.811 E2.56033
G1 X105.806 Y106.763 E2.64033
G1 X104.486 Y106.264 E3.06305
G1 X104.185 Y106.117 E3.16361
G1 X103.132 Y105.289 E3.56494
G1 X102.938 Y105.114 E3.64319
G1 X102.040 Y103.789 E4.12278
G1 X101.498 Y102.162 E4.63675
G1 X101.461 Y101.941 E4.70386
G1 X101.290 Y100.049 E5.27316
G1 X101.397 Y98.670 E5.68762
G1 X101.473 Y98.181 E5.83569
G1 X101.663 Y97.430 E6.06785
G1 X102.023 Y96.440 E6.38376
G1 X102.147 Y96.194 E6.46615
G1 X102.667 Y95.395 E6.75189
G1 X103.008 Y94.969 E6.91532
G1 X103.378 Y94.598 E7.07240
G1 X104.356 Y93.875 E7.43685
G1 X104.605 Y93.748 E7.52045
G1 X105.318 Y93.450 E7.75211
G1 X105.994 Y93.237 E7.96440
G1 X106.541 Y93.127 E8.13161
G1 X107.943 Y93.001 E8.55355
G1 X108.957 Y93.056 E8.85769
G1 X109.980 Y93.214 E9.16789
G1 X110.350 Y93.296 E9.28138
G1 X111.061 Y93.512 E9.50420
G1 X111.447 Y93.653 E9.62730
G1 X111.876 Y93.842 E9.76760
G1 X112.445 Y94.136 E9.95965
G1 X112.805 Y94.364 E10.08739
G1 X113.417 Y94.823 E10.31656
G1 X113.756 Y95.201 E10.46852
G1 X113.785 Y95.536 E10.56935
G1 X113.785 Y98.297 E11.39668
G1 X113.669 Y98.962 E11.59897
G1 X112.831 Y99.164 E11.85732
G1 X108.263 Y99.164 E13.22610
G92 E0
G1 X108.263 Y100.032 F7800.000
G1 X114.635 Y102.136 F7800.000
G1 X114.049 Y107.899 F7800.000
G1 X105.220 Y108.693 F7800.000
G1 X98.266 Y106.321 F7800.000
G1 X93.925 Y103.247 F7800.000
G1 X89.524 Y107.648 F7800.000
G1 X87.332 Y107.648 F7800.000
G1 X86.296 Y107.648 F7800.000
G1 X86.296 Y94.044 E4.07639 F600.000
G1 X86.377 Y93.468 E4.25074
G1 X87.332 Y93.198 E4.54819
G1 X95.054 Y93.198 E6.86206
G92 E0
G1 Z1.200 F7800.000
G1 X113.524 Y104.003 F7800.000
G1 X112.783 Y104.989 E0.36957 F600.000
G1 X112.272 Y105.556 E0.59839
G1 X111.871 Y105.884 E0.75356
G1 X111.499 Y106.138 E0.88842
G1 X110.970 Y106.406 E1.06625
G1 X110.533 Y106.582 E1.20747
G1 X109.985 Y106.740 E1.37827
G1 X109.312 Y106.879 E1.58434
G1 X109.032 Y106.916 E1.66889
G1 X107.838 Y106.991 E2.02749
G1 X106.068 Y106.811 E2.56033
G1 X105.806 Y106.763 E2.64033
G1 X104.486 Y106.264 E3.06305
G1 X104.185 Y106.117 E3.16361
G1 X103.132 Y105.289 E3.56494
G1 X102.938 Y105.114 E3.64318
G1 X102.040 Y103.789 E4.12278
G1 X101.498 Y102.162 E4.63675
G1 X101.461 Y101.941 E4.70386
G1 X101.290 Y100.049 E5.27316
G1 X101.397 Y98.670 E5.68762
G1 X101.473 Y98.181 E5.83569
G1 X101.663 Y97.430 E6.06785
G1 X102.023 Y96.440 E6.38376
G1 X102.147 Y96.194 E6.46615
G1 X102.667 Y95.395 E6.75189
G1 X103.008 Y94.969 E6.91532
G1 X103.378 Y94.598 E7.07240
G1 X104.356 Y93.875 E7.43685
G1 X104.605 Y93.748 E7.52045
G1 X105.318 Y93.450 E7.75211
G1 X105.994 Y93.237 E7.96440
G1 X106.541 Y93.127 E8.13161
G1 X107.943 Y93.001 E8.55355
G1 X108.957 Y93.056 E8.85769
G1 X109.980 Y93.214 E9.16789
G1 X110.350 Y93.296 E9.28138
G1 X111.061 Y93.512 E9.50420
G1 X111.447 Y93.653 E9.62730
G1 X111.876 Y93.842 E9.76760
G1 X112.445 Y94.136 E9.95965
G1 X112.805 Y94.364 E10.08739
G1 X113.417 Y94.823 E10.31656
G1 X113.756 Y95.201 E10.46852
G1 X113.785 Y95.536 E10.56935
G1 X113.785 Y98.297 E11.39668
G1 X113.669 Y98.962 E11.59897
G1 X112.831 Y99.164 E11.85732
G1 X108.263 Y99.164 E13.22610
G92 E0
G1 X108.263 Y100.032 F7800.000
G1 X114.635 Y102.136 F7800.000
G1 X114.049 Y107.899 F7800.000
G1 X105.220 Y108.693 F7800.000
G1 X98.266 Y106.321 F7800.000
G1 X93.925 Y103.247 F7800.000
G1 X89.524 Y107.648 F7800.000
G1 X87.332 Y107.648 F7800.000
G1 X86.296 Y107.648 F7800.000
G1 X86.296 Y94.044 E4.07639 F600.000
G1 X86.377 Y93.468 E4.25074
G1 X87.332 Y93.198 E4.54819
G1 X95.054 Y93.198 E6.86206
G92 E0
G1 Z1.500 F7800.000
G1 X113.524 Y104.003 F7800.000
G1 X112.783 Y104.989 E0.36957 F600.000
G1 X112.272 Y105.556 E0.59839
G1 X111.871 Y105.884 E0.75356
G1 X111.499 Y106.138 E0.88842
G1 X110.970 Y106.406 E1.06625
G1 X110.533 Y106.582 E1.20747
G1 X109.985 Y106.740 E1.37827
G1 X109.312 Y106.879 E1.58435
G1 X109.032 Y106.916 E1.66889
G1 X107.838 Y106.991 E2.02749
G1 X106.068 Y106.811 E2.56033
G1 X105.806 Y106.763 E2.64033
G1 X104.486 Y106.264 E3.06305
G1 X104.185 Y106.117 E3.16361
G1 X103.132 Y105.289 E3.56494
G1 X102.938 Y105.114 E3.64319
G1 X102.040 Y103.789 E4.12278
G1 X101.498 Y102.162 E4.63675
