; generated by Slic3r 1.2.9 on 2016-03-11 at 01:27:00

; external perimeters extrusion width = 1.54mm
; perimeters extrusion width = 2.62mm
; infill extrusion width = 6.27mm
; solid infill extrusion width = 2.62mm
; top infill extrusion width = 2.62mm

M107
M104 S30 ; set temperature
G28 ; home all axes
G1 Z5 F5000 ; lift nozzle
M302
M92 E10000
M500
M501
G1 E100
M109 S30 ; wait for temperature to be reached
G21 ; set units to millimeters
G90 ; use absolute coordinates
M82 ; use absolute distances for extrusion
G92 E0
G1 Z0.300 F7800.000
G1 X103.169 Y92.577 F7800.000
G1 X112.512 Y92.577 E0.42276 F378.000
G1 X112.512 Y93.819 E0.47896
G1 X104.790 Y93.819 E0.82838 F378.000
G1 X104.790 Y107.423 E1.44395
G1 X103.169 Y107.423 E1.51730
G1 X103.169 Y92.808 E2.17862
G1 X112.286 Y93.007 F7800.000
G1 X112.082 Y92.803 E2.19195 F540.000
G1 X111.524 Y92.803 E2.21778
G1 X112.286 Y93.565 E2.26765
G1 X111.756 Y93.593 E2.29220
G1 X110.966 Y92.803 E2.34393
G1 X110.408 Y92.803 E2.36977
G1 X111.198 Y93.593 E2.42150
G1 X110.640 Y93.593 E2.44733
G1 X109.850 Y92.803 E2.49907
G1 X109.292 Y92.803 E2.52490
G1 X110.082 Y93.593 E2.57663
G1 X109.524 Y93.593 E2.60247
G1 X108.734 Y92.803 E2.65420
G1 X108.176 Y92.803 E2.68003
G1 X108.966 Y93.593 E2.73177
G1 X108.408 Y93.593 E2.75760
G1 X107.618 Y92.803 E2.80933
G1 X107.060 Y92.803 E2.83517
G1 X107.850 Y93.593 E2.88690
G1 X107.292 Y93.593 E2.91274
G1 X106.502 Y92.803 E2.96447
G1 X105.944 Y92.803 E2.99030
G1 X106.734 Y93.593 E3.04203
G1 X106.176 Y93.593 E3.06787
G1 X105.386 Y92.803 E3.11960
G1 X104.828 Y92.803 E3.14544
G1 X105.618 Y93.593 E3.19717
G1 X105.060 Y93.593 E3.22300
G1 X104.270 Y92.803 E3.27473
G1 X103.712 Y92.803 E3.30057
G1 X104.564 Y93.655 E3.35633
G1 X104.564 Y94.213 E3.38216
G1 X103.394 Y93.043 E3.45871
G1 X103.394 Y93.601 E3.48455
G1 X104.564 Y94.771 E3.56110
G1 X104.564 Y95.329 E3.58693
G1 X103.394 Y94.159 E3.66348
G1 X103.394 Y94.717 E3.68931
G1 X104.564 Y95.887 E3.76586
G1 X104.564 Y96.445 E3.79170
G1 X103.394 Y95.275 E3.86824
G1 X103.394 Y95.833 E3.89408
G1 X104.564 Y97.003 E3.97063
G1 X104.564 Y97.561 E3.99646
G1 X103.394 Y96.391 E4.07301
G1 X103.394 Y96.949 E4.09885
G1 X104.564 Y98.119 E4.17539
G1 X104.564 Y98.677 E4.20123
G1 X103.394 Y97.507 E4.27778
G1 X103.394 Y98.065 E4.30361
G1 X104.564 Y99.235 E4.38016
G1 X104.564 Y99.793 E4.40599
G1 X103.394 Y98.623 E4.48254
G1 X103.394 Y99.181 E4.50838
G1 X104.564 Y100.351 E4.58493
G1 X104.564 Y100.909 E4.61076
G1 X103.394 Y99.739 E4.68731
G1 X103.394 Y100.297 E4.71314
G1 X104.564 Y101.467 E4.78969
G1 X104.564 Y102.025 E4.81553
G1 X103.394 Y100.855 E4.89208
G1 X103.394 Y101.413 E4.91791
G1 X104.564 Y102.583 E4.99446
G1 X104.564 Y103.141 E5.02029
G1 X103.394 Y101.971 E5.09684
G1 X103.394 Y102.529 E5.12268
G1 X104.564 Y103.699 E5.19922
G1 X104.564 Y104.257 E5.22506
G1 X103.394 Y103.087 E5.30161
G1 X103.394 Y103.645 E5.32744
G1 X104.564 Y104.815 E5.40399
G1 X104.564 Y105.373 E5.42983
G1 X103.394 Y104.203 E5.50637
G1 X103.394 Y104.761 E5.53221
G1 X104.564 Y105.931 E5.60876
G1 X104.564 Y106.489 E5.63459
G1 X103.394 Y105.319 E5.71114
G1 X103.394 Y105.877 E5.73697
G1 X104.564 Y107.047 E5.81352
G1 X104.156 Y107.197 E5.83364
G1 X103.394 Y106.435 E5.88350
G1 X103.394 Y106.993 E5.90934
G1 X103.598 Y107.197 E5.92267
G92 E0
G1 X105.015 Y94.044 F7800.000
G1 X112.737 Y96.044 F7800.000
G1 X113.737 Y92.352 F7800.000
G1 X100.943 Y92.352 F7800.000
G1 X100.000 Y94.044 F7800.000
G1 X97.057 Y94.044 F7800.000
G1 X93.448 Y92.577 F7800.000
G1 X96.832 Y92.577 E0.15309 F378.000
G1 X96.832 Y93.819 E0.20929
G1 X89.110 Y93.819 E0.55870 F378.000
G1 X89.110 Y107.423 E1.17427
G1 X87.488 Y107.423 E1.24762
G1 X87.488 Y92.577 E1.91939
G1 X93.217 Y92.577 E2.17862
G1 X96.606 Y93.007 F7800.000
G1 X96.402 Y92.803 E2.19195 F540.000
G1 X95.844 Y92.803 E2.21778
G1 X96.606 Y93.565 E2.26765
G1 X96.076 Y93.593 E2.29220
G1 X95.286 Y92.803 E2.34393
G1 X94.728 Y92.803 E2.36977
G1 X95.518 Y93.593 E2.42150
G1 X94.960 Y93.593 E2.44734
G1 X94.170 Y92.803 E2.49907
G1 X93.612 Y92.803 E2.52490
G1 X94.402 Y93.593 E2.57664
G1 X93.844 Y93.593 E2.60247
G1 X93.054 Y92.803 E2.65420
G1 X92.496 Y92.803 E2.68004
G1 X93.286 Y93.593 E2.73177
G1 X92.728 Y93.593 E2.75760
G1 X91.938 Y92.803 E2.80934
G1 X91.380 Y92.803 E2.83517
G1 X92.170 Y93.593 E2.88690
G1 X91.612 Y93.593 E2.91274
G1 X90.822 Y92.803 E2.96447
G1 X90.264 Y92.803 E2.99030
G1 X91.054 Y93.593 E3.04204
G1 X90.496 Y93.593 E3.06787
G1 X89.706 Y92.803 E3.11960
G1 X89.148 Y92.803 E3.14544
G1 X89.938 Y93.593 E3.19717
G1 X89.380 Y93.593 E3.22301
G1 X88.590 Y92.803 E3.27474
G1 X88.032 Y92.803 E3.30057
G1 X88.884 Y93.655 E3.35633
G1 X88.884 Y94.213 E3.38217
G1 X87.714 Y93.043 E3.45872
G1 X87.714 Y93.601 E3.48455
G1 X88.884 Y94.771 E3.56110
G1 X88.884 Y95.329 E3.58693
G1 X87.714 Y94.159 E3.66348
G1 X87.714 Y94.717 E3.68932
G1 X88.884 Y95.887 E3.76587
G1 X88.884 Y96.445 E3.79170
G1 X87.714 Y95.275 E3.86825
G1 X87.714 Y95.833 E3.89409
G1 X88.884 Y97.003 E3.97063
G1 X88.884 Y97.561 E3.99647
G1 X87.714 Y96.391 E4.07302
G1 X87.714 Y96.949 E4.09885
G1 X88.884 Y98.119 E4.17540
G1 X88.884 Y98.677 E4.20124
G1 X87.714 Y97.507 E4.27779
G1 X87.714 Y98.065 E4.30362
G1 X88.884 Y99.235 E4.38017
G1 X88.884 Y99.793 E4.40600
G1 X87.714 Y98.623 E4.48255
G1 X87.714 Y99.181 E4.50839
G1 X88.884 Y100.351 E4.58494
G1 X88.884 Y100.909 E4.61077
G1 X87.714 Y99.739 E4.68732
G1 X87.714 Y100.297 E4.71316
G1 X88.884 Y101.467 E4.78971
G1 X88.884 Y102.025 E4.81554
G1 X87.714 Y100.855 E4.89209
G1 X87.714 Y101.413 E4.91792
G1 X88.884 Y102.583 E4.99447
G1 X88.884 Y103.141 E5.02031
G1 X87.714 Y101.971 E5.09686
G1 X87.714 Y102.529 E5.12269
G1 X88.884 Y103.699 E5.19924
G1 X88.884 Y104.257 E5.22508
G1 X87.714 Y103.087 E5.30162
G1 X87.714 Y103.645 E5.32746
G1 X88.884 Y104.815 E5.40401
G1 X88.884 Y105.373 E5.42984
G1 X87.714 Y104.203 E5.50639
G1 X87.714 Y104.761 E5.53223
G1 X88.884 Y105.931 E5.60878
G1 X88.884 Y106.489 E5.63461
G1 X87.714 Y105.319 E5.71116
G1 X87.714 Y105.877 E5.73699
G1 X88.884 Y107.047 E5.81354
G1 X88.476 Y107.197 E5.83366
G1 X87.714 Y106.435 E5.88352
G1 X87.714 Y106.993 E5.90936
G1 X87.918 Y107.197 E5.92269
M106 S255
G92 E0
G1 Z0.600 F7800.000
G1 X103.979 Y107.648 F7800.000
G1 X103.979 Y94.044 E4.07639 F600.000
G1 X104.059 Y93.468 E4.25074
G1 X105.015 Y93.198 E4.54819
G1 X112.737 Y93.198 E6.86205
G92 E0
G1 X105.015 Y94.044 F7800.000
G1 X105.015 Y94.044 F7800.000
G1 X109.876 Y98.905 F7800.000
G1 X109.876 Y104.787 F7800.000
G1 X107.015 Y107.648 F7800.000
G1 X105.015 Y108.648 F7800.000
G1 X102.943 Y108.648 F7800.000
G1 X100.943 Y107.648 F7800.000
G1 X96.139 Y102.844 F7800.000
G1 X96.139 Y100.848 F7800.000
G1 X89.335 Y94.044 F7800.000
G1 X88.299 Y107.648 F7800.000
G1 X88.299 Y94.044 E4.07639 F600.000
G1 X88.379 Y93.468 E4.25074
G1 X89.335 Y93.198 E4.54819
G1 X97.057 Y93.198 E6.86206
G92 E0
G1 Z0.900 F7800.000
G1 X103.979 Y107.648 F7800.000
G1 X103.979 Y94.044 E4.07639 F600.000
G1 X104.059 Y93.468 E4.25074
G1 X105.015 Y93.198 E4.54819
G1 X112.737 Y93.198 E6.86205
G92 E0
G1 X105.015 Y94.044 F7800.000
G1 X105.015 Y94.044 F7800.000
G1 X109.876 Y98.905 F7800.000
G1 X109.876 Y104.787 F7800.000
G1 X107.015 Y107.648 F7800.000
G1 X105.015 Y108.648 F7800.000
G1 X102.943 Y108.648 F7800.000
G1 X100.943 Y107.648 F7800.000
G1 X96.139 Y102.844 F7800.000
G1 X96.139 Y100.848 F7800.000
G1 X89.335 Y94.044 F7800.000
G1 X88.299 Y107.648 F7800.000
G1 X88.299 Y94.044 E4.07639 F600.000
G1 X88.379 Y93.468 E4.25074
G1 X89.335 Y93.198 E4.54819
G1 X97.057 Y93.198 E6.86206
G92 E0
G1 Z1.200 F7800.000
G1 X103.979 Y107.648 F7800.000
G1 X103.979 Y94.044 E4.07639 F600.000
G1 X104.059 Y93.468 E4.25074
G1 X105.015 Y93.198 E4.54819
G1 X112.737 Y93.198 E6.86205
G92 E0
G1 X105.015 Y94.044 F7800.000
G1 X105.015 Y94.044 F7800.000
G1 X109.876 Y98.905 F7800.000
G1 X109.876 Y104.787 F7800.000
G1 X107.015 Y107.648 F7800.000
G1 X105.015 Y108.648 F7800.000
G1 X102.943 Y108.648 F7800.000
G1 X100.943 Y107.648 F7800.000
G1 X96.139 Y102.844 F7800.000
G1 X96.139 Y100.848 F7800.000
G1 X89.335 Y94.044 F7800.000
G1 X88.299 Y107.648 F7800.000
G1 X88.299 Y94.044 E4.07639 F600.000
G1 X88.379 Y93.468 E4.25074
G1 X89.335 Y93.198 E4.54819
G1 X97.057 Y93.198 E6.86206
G92 E0
G1 Z1.500 F7800.000
G1 X103.979 Y107.648 F7800.000
G1 X103.979 Y94.044 E4.07639 F600.000
G1 X104.059 Y93.468 E4.25074
G1 X105.015 Y93.198 E4.54819
G1 X112.737 Y93.198 E6.86205
G92 E0
G1 X105.015 Y94.044 F7800.000
G1 X105.015 Y94.044 F7800.000
G1 X109.876 Y98.905 F7800.000
G1 X109.876 Y104.787 F7800.000
G1 X107.015 Y107.648 F7800.000
G1 X105.015 Y108.648 F7800.000
G1 X102.943 Y108.648 F7800.000
G1 X100.943 Y107.648 F7800.000
G1 X96.139 Y102.844 F7800.000
G1 X96.139 Y100.848 F7800.000
G1 X89.335 Y94.044 F7800.000
G1 X88.299 Y107.648 F7800.000
G1 X88.299 Y94.044 E4.07639 F600.000
G1 X88.379 Y93.468 E4.25074
G1 X89.335 Y93.198 E4.54819
G1 X97.057 Y93.198 E6.86206
G92 E0
G1 Z1.800 F7800.000
G1 X103.979 Y107.648 F7800.000
G1 X103.979 Y94.044 E4.07639 F600.000
G1 X104.059 Y93.468 E4.25074
G1 X105.015 Y93.198 E4.54819
G1 X112.737 Y93.198 E6.86205
G92 E0
G1 X105.015 Y94.044 F7800.000
G1 X105.015 Y94.044 F7800.000
G1 X109.876 Y98.905 F7800.000
G1 X109.876 Y104.787 F7800.000
G1 X107.015 Y107.648 F7800.000
G1 X105.015 Y108.648 F7800.000
G1 X102.943 Y108.648 F7800.000
G1 X100.943 Y107.648 F7800.000
G1 X96.139 Y102.844 F7800.000
G1 X96.139 Y100.848 F7800.000
G1 X89.335 Y94.044 F7800.000
G1 X88.299 Y107.648 F7800.000
G1 X88.299 Y94.044 E4.07639 F600.000
G1 X88.379 Y93.468 E4.25074
G1 X89.335 Y93.198 E4.54819
G1 X97.057 Y93.198 E6.86206
G92 E0
G1 Z2.100 F7800.000
G1 X103.979 Y107.648 F7800.000
G1 X103.979 Y94.044 E4.07639 F600.000
G1 X104.059 Y93.468 E4.25074
G1 X105.015 Y93.198 E4.54819
G1 X112.737 Y93.198 E6.86205
G92 E0
G1 X105.015 Y94.044 F7800.000
G1 X105.015 Y94.044 F7800.000
G1 X109.876 Y98.905 F7800.000
G1 X109.876 Y104.787 F7800.000
G1 X107.015 Y107.648 F7800.000
G1 X105.015 Y108.648 F7800.000
G1 X102.943 Y108.648 F7800.000
G1 X100.943 Y107.648 F7800.000
G1 X96.139 Y102.844 F7800.000
G1 X96.139 Y100.848 F7800.000
G1 X89.335 Y94.044 F7800.000
G1 X88.299 Y107.648 F7800.000
G1 X88.299 Y94.044 E4.07639 F600.000
G1 X88.379 Y93.468 E4.25074
G1 X89.335 Y93.198 E4.54819
G1 X97.057 Y93.198 E6.86206
G92 E0
M107
M104 S0 ; turn off temperature
G28 X0  ; home X axis
M84     ; disable motors

; filament used = 94.2mm (0.7cm3)

; avoid_crossing_perimeters = 1
; bed_shape = 0x0,250x0,250x250,0x250
; bed_temperature = 0
; before_layer_gcode = 
; bridge_acceleration = 0
; bridge_fan_speed = 100
; brim_width = 0
; complete_objects = 0
; cooling = 1
; default_acceleration = 0
; disable_fan_first_layers = 1
; duplicate_distance = 6
; end_gcode = M104 S0 ; turn off temperature\nG28 X0  ; home X axis\nM84     ; disable motors\n
; extruder_clearance_height = 20
; extruder_clearance_radius = 20
; extruder_offset = 0x0
; extrusion_axis = E
; extrusion_multiplier = 3
; fan_always_on = 0
; fan_below_layer_time = 60
; filament_colour = #FFFFFF
; filament_diameter = 3.125
; first_layer_acceleration = 0
; first_layer_bed_temperature = 0
; first_layer_extrusion_width = 150%
; first_layer_speed = 90%
; first_layer_temperature = 30
; gcode_arcs = 0
; gcode_comments = 0
; gcode_flavor = reprap
; infill_acceleration = 0
; infill_first = 0
; layer_gcode = 
; max_fan_speed = 100
; max_print_speed = 80
; max_volumetric_speed = 0
; min_fan_speed = 35
; min_print_speed = 10
; min_skirt_length = 0
; notes = 
; nozzle_diameter = 1.54
; only_retract_when_crossing_perimeters = 1
; ooze_prevention = 0
; output_filename_format = [input_filename_base].gcode
; perimeter_acceleration = 0
; post_process = 
; pressure_advance = 0
; resolution = 0
; retract_before_travel = 2
; retract_layer_change = 1
; retract_length = 0
; retract_length_toolchange = 10
; retract_lift = 0
; retract_restart_extra = 0
; retract_restart_extra_toolchange = 0
; retract_speed = 0
; skirt_distance = 6
; skirt_height = 1
; skirts = 0
; slowdown_below_layer_time = 30
; spiral_vase = 0
; standby_temperature_delta = -5
; start_gcode = G28 ; home all axes\nG1 Z5 F5000 ; lift nozzle\nM302\nM92 E10000\nM500\nM501\nG1 E100
; temperature = 30
; threads = 2
; toolchange_gcode = 
; travel_speed = 130
; use_firmware_retraction = 0
; use_relative_e_distances = 0
; use_volumetric_e = 0
; vibration_limit = 0
; wipe = 0
; z_offset = 0
; dont_support_bridges = 1
; extrusion_width = 0
; first_layer_height = 100%
; infill_only_where_needed = 0
; interface_shells = 0
; layer_height = 0.3
; raft_layers = 0
; seam_position = random
; support_material = 0
; support_material_angle = 0
; support_material_contact_distance = 0.2
; support_material_enforce_layers = 0
; support_material_extruder = 1
; support_material_extrusion_width = 0
; support_material_interface_extruder = 1
; support_material_interface_layers = 3
; support_material_interface_spacing = 0
; support_material_interface_speed = 100%
; support_material_pattern = pillars
; support_material_spacing = 2.5
; support_material_speed = 7
; support_material_threshold = 0
; xy_size_compensation = 0
; bottom_solid_layers = 3
; bridge_flow_ratio = 1
; bridge_speed = 10
; external_fill_pattern = rectilinear
; external_perimeter_extrusion_width = 0
; external_perimeter_speed = 70%
; external_perimeters_first = 1
; extra_perimeters = 1
; fill_angle = 45
; fill_density = 60%
; fill_pattern = rectilinear
; gap_fill_speed = 10
; infill_every_layers = 1
; infill_extruder = 1
; infill_extrusion_width = 0
; infill_overlap = 15%
; infill_speed = 10
; overhangs = 1
; perimeter_extruder = 1
; perimeter_extrusion_width = 0
; perimeter_speed = 10
; perimeters = 1
; small_perimeter_speed = 70%
; solid_infill_below_area = 70
; solid_infill_every_layers = 0
; solid_infill_extruder = 1
; solid_infill_extrusion_width = 0
; solid_infill_speed = 10
; thin_walls = 1
; top_infill_extrusion_width = 0
; top_solid_infill_speed = 10
; top_solid_layers = 3
