; generated by Slic3r 1.2.9 on 2016-03-11 at 01:27:01

; external perimeters extrusion width = 1.54mm
; perimeters extrusion width = 2.62mm
; infill extrusion width = 6.27mm
; solid infill extrusion width = 2.62mm
; top infill extrusion width = 2.62mm

M107
M104 S30 ; set temperature
G28 ; home all axes
G1 Z5 F5000 ; lift nozzle
M302
M92 E10000
M500
M501
G1 E100
M109 S30 ; wait for temperature to be reached
G21 ; set units to millimeters
G90 ; use absolute coordinates
M82 ; use absolute distances for extrusion
G92 E0
G1 Z0.300 F7800.000
G1 X103.475 Y106.130 F7800.000
G1 X102.980 Y107.423 E0.06264 F378.000
G1 X100.638 Y107.423 E0.16863
G1 X100.638 Y92.577 E0.84040
G1 X102.031 Y92.577 E0.90343
G1 X102.031 Y102.555 E1.35495
G1 X101.959 Y105.674 E1.49609 F378.000
G1 X102.434 Y105.750 E1.51785
G1 X102.752 Y104.688 E1.56800
G1 X103.357 Y102.851 E1.65555
G1 X107.300 Y92.577 E2.15349
G1 X108.443 Y92.577 E2.20521
G1 X112.333 Y102.853 E2.70238
G1 X112.625 Y103.672 E2.74173
G1 X112.941 Y104.678 E2.78946
G1 X113.229 Y105.690 E2.83708
G1 X113.711 Y105.611 E2.85917
G1 X113.637 Y103.667 E2.94716
G1 X113.627 Y102.557 E2.99742
G1 X113.627 Y92.577 E3.44900
G1 X115.042 Y92.577 E3.51303
G1 X115.042 Y107.423 E4.18480
G1 X112.765 Y107.423 E4.28780
G1 X108.748 Y96.741 E4.80419
G1 X108.299 Y95.324 E4.87145
G1 X108.096 Y94.557 E4.90737
G1 X107.670 Y94.559 E4.92664
G1 X107.265 Y96.083 E4.99799
G1 X106.987 Y96.966 E5.03990
G1 X103.558 Y105.915 E5.47353
G1 X101.982 Y105.921 F7800.000
G1 X102.963 Y106.902 E5.53660 F540.000
G1 X103.115 Y106.506 E5.55588
G1 X102.582 Y105.973 E5.59013
G1 X102.708 Y105.551 E5.61013
G1 X103.267 Y106.110 E5.64602
G1 X103.418 Y105.714 E5.66530
G1 X102.835 Y105.130 E5.70281
G1 X102.961 Y104.709 E5.72281
G1 X103.570 Y105.318 E5.76196
G1 X103.722 Y104.922 E5.78124
G1 X103.096 Y104.296 E5.82145
G1 X103.232 Y103.884 E5.84117
G1 X103.874 Y104.525 E5.88242
G1 X104.025 Y104.129 E5.90170
G1 X103.368 Y103.472 E5.94399
G1 X103.503 Y103.059 E5.96371
G1 X104.177 Y103.733 E6.00705
G1 X104.329 Y103.337 E6.02632
G1 X103.648 Y102.656 E6.07012
G1 X103.800 Y102.260 E6.08940
G1 X104.481 Y102.941 E6.13318
G1 X104.633 Y102.545 E6.15246
G1 X103.952 Y101.864 E6.19623
G1 X104.104 Y101.468 E6.21551
G1 X104.784 Y102.149 E6.25927
G1 X104.936 Y101.753 E6.27855
G1 X104.255 Y101.072 E6.32230
G1 X104.407 Y100.677 E6.34157
G1 X105.088 Y101.357 E6.38531
G1 X105.240 Y100.961 E6.40459
G1 X104.559 Y100.281 E6.44831
G1 X104.711 Y99.885 E6.46759
G1 X105.391 Y100.565 E6.51130
G1 X105.543 Y100.169 E6.53058
G1 X104.863 Y99.489 E6.57428
G1 X105.015 Y99.093 E6.59355
G1 X105.695 Y99.773 E6.63724
G1 X105.847 Y99.377 E6.65652
G1 X105.167 Y98.697 E6.70020
G1 X105.319 Y98.301 E6.71947
G1 X105.998 Y98.981 E6.76313
G1 X106.150 Y98.585 E6.78241
G1 X105.471 Y97.906 E6.82606
G1 X105.623 Y97.510 E6.84534
G1 X106.302 Y98.189 E6.88898
G1 X106.454 Y97.793 E6.90826
G1 X105.775 Y97.114 E6.95188
G1 X105.927 Y96.718 E6.97116
G1 X106.606 Y97.396 E7.01477
G1 X106.757 Y97.000 E7.03405
G1 X106.079 Y96.322 E7.07766
G1 X106.231 Y95.926 E7.09693
G1 X106.891 Y96.587 E7.13938
G1 X107.022 Y96.170 E7.15923
G1 X106.383 Y95.530 E7.20035
G1 X106.535 Y95.135 E7.21962
G1 X107.141 Y95.741 E7.25859
G1 X107.256 Y95.308 E7.27894
G1 X106.687 Y94.739 E7.31554
G1 X106.839 Y94.343 E7.33482
G1 X107.371 Y94.875 E7.36905
G1 X107.486 Y94.443 E7.38940
G1 X106.991 Y93.947 E7.42126
G1 X107.143 Y93.551 E7.44053
G1 X107.924 Y94.332 E7.49074
G1 X108.714 Y94.026 F7800.000
G1 X107.490 Y92.803 E7.56937 F540.000
G1 X107.295 Y93.155 E7.58769
G1 X109.047 Y94.908 E7.70035
G1 X108.428 Y94.836 E7.72868
G1 X109.381 Y95.789 E7.78994
G1 X108.657 Y95.613 F7800.000
G1 X109.715 Y96.671 E7.85792 F540.000
G1 X109.228 Y97.280 F7800.000
G1 X110.382 Y98.434 E7.93210 F540.000
G1 X109.889 Y99.036 F7800.000
G1 X111.050 Y100.197 E8.00673 F540.000
G1 X110.549 Y100.792 F7800.000
G1 X111.717 Y101.960 E8.08182 F540.000
G1 X111.210 Y102.549 F7800.000
G1 X112.361 Y103.700 E8.15583 F540.000
G1 X111.540 Y103.427 F7800.000
G1 X112.621 Y104.508 E8.22532 F540.000
G1 X111.870 Y104.305 E8.26067
G1 X112.853 Y105.287 E8.32383
G1 X112.200 Y105.183 E8.35387
G1 X113.071 Y106.053 E8.40982
G1 X113.438 Y105.872 E8.42842
G1 X114.763 Y107.197 E8.51357
G1 X114.816 Y106.702 E8.53619
G1 X113.908 Y105.795 E8.59453
G1 X113.927 Y105.266 E8.61858
G1 X114.816 Y106.154 E8.67570
G1 X114.816 Y105.607 E8.70061
G1 X113.905 Y104.696 E8.75911
G1 X113.884 Y104.127 E8.78501
G1 X114.816 Y105.059 E8.84491
G1 X114.816 Y104.511 E8.86981
G1 X113.863 Y103.558 E8.93105
G1 X113.858 Y103.005 E8.95619
G1 X114.816 Y103.963 E9.01777
G1 X114.816 Y103.415 E9.04267
G1 X113.852 Y102.452 E9.10458
G1 X113.852 Y101.904 E9.12948
G1 X114.816 Y102.867 E9.19139
G1 X114.816 Y102.320 E9.21630
G1 X113.852 Y101.356 E9.27821
G1 X113.852 Y100.809 E9.30311
G1 X114.816 Y101.772 E9.36502
G1 X114.816 Y101.224 E9.38992
G1 X113.852 Y100.261 E9.45183
G1 X113.852 Y99.713 E9.47673
G1 X114.816 Y100.676 E9.53864
G1 X114.816 Y100.128 E9.56354
G1 X113.852 Y99.165 E9.62545
G1 X113.852 Y98.617 E9.65035
G1 X114.816 Y99.580 E9.71226
G1 X114.816 Y99.033 E9.73716
G1 X113.852 Y98.070 E9.79907
G1 X113.852 Y97.522 E9.82397
G1 X114.816 Y98.485 E9.88588
G1 X114.816 Y97.937 E9.91078
G1 X113.852 Y96.974 E9.97269
G1 X113.852 Y96.426 E9.99760
G1 X114.816 Y97.389 E10.05950
G1 X114.816 Y96.841 E10.08441
G1 X113.852 Y95.878 E10.14632
G1 X113.852 Y95.330 E10.17122
G1 X114.816 Y96.293 E10.23313
G1 X114.816 Y95.746 E10.25803
G1 X113.852 Y94.783 E10.31994
G1 X113.852 Y94.235 E10.34484
G1 X114.816 Y95.198 E10.40675
G1 X114.816 Y94.650 E10.43165
G1 X113.852 Y93.687 E10.49356
G1 X113.852 Y93.139 E10.51846
G1 X114.816 Y94.102 E10.58037
G1 X114.816 Y93.554 E10.60527
G1 X114.064 Y92.803 E10.65358
G1 X114.612 Y92.803 E10.67848
G1 X114.816 Y93.007 E10.69157
G92 E0
G1 X108.071 Y93.782 F7800.000
G1 X107.870 Y93.644 F7800.000
G1 X107.870 Y93.406 F7800.000
G1 X107.908 Y93.352 F7800.000
G1 X108.380 Y93.145 F7800.000
G1 X108.038 Y92.803 E0.02197 F540.000
G1 X108.912 Y96.416 F7800.000
G1 X110.049 Y97.553 E0.09505 F540.000
G1 X109.559 Y98.158 F7800.000
G1 X110.716 Y99.316 E0.16946 F540.000
G1 X110.219 Y99.914 F7800.000
G1 X111.384 Y101.079 E0.24432 F540.000
G1 X110.879 Y101.670 F7800.000
G1 X112.051 Y102.842 E0.31963 F540.000
G1 X112.968 Y105.950 F7800.000
G1 X114.215 Y107.197 E0.39977 F540.000
G1 X113.667 Y107.197 E0.42467
G1 X112.531 Y106.061 E0.49771
G1 X112.861 Y106.939 F7800.000
G1 X113.119 Y107.197 E0.51431 F540.000
G92 E0
G1 X102.487 Y106.544 F7800.000
G1 X102.487 Y106.544 F7800.000
G1 X101.735 Y105.674 F7800.000
G1 X100.863 Y104.802 E0.05603 F540.000
G1 X100.863 Y105.350 E0.08093
G1 X102.710 Y107.197 E0.19966
G1 X102.163 Y107.197 E0.22456
G1 X100.863 Y105.898 E0.30808
G1 X100.863 Y106.446 E0.33298
G1 X101.615 Y107.197 E0.38128
G1 X101.067 Y107.197 E0.40618
G1 X100.863 Y106.993 E0.41927
G1 X101.747 Y105.138 F7800.000
G1 X100.863 Y104.254 E0.47608 F540.000
G1 X100.863 Y103.707 E0.50098
G1 X101.760 Y104.603 E0.55858
G1 X101.772 Y104.067 E0.58293
G1 X100.863 Y103.159 E0.64132
G1 X100.863 Y102.611 E0.66622
G1 X101.784 Y103.531 E0.72540
G1 X101.796 Y102.996 E0.74975
G1 X100.863 Y102.063 E0.80971
G1 X100.863 Y101.515 E0.83461
G1 X101.805 Y102.456 E0.89511
G1 X101.805 Y101.909 E0.92001
G1 X100.863 Y100.967 E0.98051
G1 X100.863 Y100.420 E1.00541
G1 X101.805 Y101.361 E1.06590
G1 X101.805 Y100.813 E1.09080
G1 X100.863 Y99.872 E1.15130
G1 X100.863 Y99.324 E1.17620
G1 X101.805 Y100.265 E1.23670
G1 X101.805 Y99.717 E1.26160
G1 X100.863 Y98.776 E1.32209
G1 X100.863 Y98.228 E1.34700
G1 X101.805 Y99.169 E1.40749
G1 X101.805 Y98.622 E1.43239
G1 X100.863 Y97.680 E1.49289
G1 X100.863 Y97.133 E1.51779
G1 X101.805 Y98.074 E1.57829
G1 X101.805 Y97.526 E1.60319
G1 X100.863 Y96.585 E1.66368
G1 X100.863 Y96.037 E1.68858
G1 X101.805 Y96.978 E1.74908
G1 X101.805 Y96.430 E1.77398
G1 X100.863 Y95.489 E1.83448
G1 X100.863 Y94.941 E1.85938
G1 X101.805 Y95.882 E1.91987
G1 X101.805 Y95.335 E1.94477
G1 X100.863 Y94.394 E2.00527
G1 X100.863 Y93.846 E2.03017
G1 X101.805 Y94.787 E2.09067
G1 X101.805 Y94.239 E2.11557
G1 X100.863 Y93.298 E2.17606
G1 X100.916 Y92.803 E2.19869
G1 X101.805 Y93.691 E2.25578
G1 X101.805 Y93.143 E2.28069
G1 X101.464 Y92.803 E2.30257
G92 E0
G1 X100.412 Y92.352 F7800.000
G1 X97.470 Y93.295 F7800.000
G1 X94.527 Y99.930 F7800.000
G1 X93.609 Y100.848 F7800.000
G1 X86.805 Y94.044 F7800.000
G1 X84.958 Y100.275 F7800.000
G1 X84.958 Y92.577 E0.34832 F378.000
G1 X94.302 Y92.577 E0.77109
G1 X94.302 Y93.819 E0.82728
G1 X86.580 Y93.819 E1.17670 F378.000
G1 X86.580 Y107.423 E1.79227
G1 X84.958 Y107.423 E1.86562
G1 X84.958 Y100.506 E2.17862
G1 X85.388 Y107.197 F7800.000
G1 X85.184 Y106.993 E2.19195 F540.000
G1 X85.184 Y106.435 E2.21778
G1 X85.946 Y107.197 E2.26765
G1 X86.354 Y107.047 E2.28776
G1 X85.184 Y105.877 E2.36431
G1 X85.184 Y105.319 E2.39014
G1 X86.354 Y106.489 E2.46669
G1 X86.354 Y105.931 E2.49253
G1 X85.184 Y104.761 E2.56908
G1 X85.184 Y104.203 E2.59491
G1 X86.354 Y105.373 E2.67146
G1 X86.354 Y104.815 E2.69730
G1 X85.184 Y103.645 E2.77384
G1 X85.184 Y103.087 E2.79968
G1 X86.354 Y104.257 E2.87623
G1 X86.354 Y103.699 E2.90206
G1 X85.184 Y102.529 E2.97861
G1 X85.184 Y101.971 E3.00445
G1 X86.354 Y103.141 E3.08100
G1 X86.354 Y102.583 E3.10683
G1 X85.184 Y101.413 E3.18338
G1 X85.184 Y100.855 E3.20921
G1 X86.354 Y102.025 E3.28576
G1 X86.354 Y101.467 E3.31160
G1 X85.184 Y100.297 E3.38815
G1 X85.184 Y99.739 E3.41398
G1 X86.354 Y100.909 E3.49053
G1 X86.354 Y100.351 E3.51637
G1 X85.184 Y99.181 E3.59291
G1 X85.184 Y98.623 E3.61875
G1 X86.354 Y99.793 E3.69530
G1 X86.354 Y99.235 E3.72113
G1 X85.184 Y98.065 E3.79768
G1 X85.184 Y97.507 E3.82352
G1 X86.354 Y98.677 E3.90007
G1 X86.354 Y98.119 E3.92590
G1 X85.184 Y96.949 E4.00245
G1 X85.184 Y96.391 E4.02828
G1 X86.354 Y97.561 E4.10483
G1 X86.354 Y97.003 E4.13067
G1 X85.184 Y95.833 E4.20722
G1 X85.184 Y95.275 E4.23305
G1 X86.354 Y96.445 E4.30960
G1 X86.354 Y95.887 E4.33544
G1 X85.184 Y94.717 E4.41198
G1 X85.184 Y94.159 E4.43782
G1 X86.354 Y95.329 E4.51437
G1 X86.354 Y94.771 E4.54020
G1 X85.184 Y93.601 E4.61675
G1 X85.184 Y93.043 E4.64259
G1 X86.354 Y94.213 E4.71914
G1 X86.354 Y93.655 E4.74497
G1 X85.502 Y92.803 E4.80073
G1 X86.060 Y92.803 E4.82657
G1 X86.850 Y93.593 E4.87830
G1 X87.408 Y93.593 E4.90413
G1 X86.618 Y92.803 E4.95586
G1 X87.176 Y92.803 E4.98170
G1 X87.966 Y93.593 E5.03343
G1 X88.524 Y93.593 E5.05927
G1 X87.734 Y92.803 E5.11100
G1 X88.292 Y92.803 E5.13683
G1 X89.082 Y93.593 E5.18856
G1 X89.640 Y93.593 E5.21440
G1 X88.850 Y92.803 E5.26613
G1 X89.408 Y92.803 E5.29197
G1 X90.198 Y93.593 E5.34370
G1 X90.756 Y93.593 E5.36953
G1 X89.966 Y92.803 E5.42126
G1 X90.524 Y92.803 E5.44710
G1 X91.314 Y93.593 E5.49883
G1 X91.872 Y93.593 E5.52467
G1 X91.082 Y92.803 E5.57640
G1 X91.640 Y92.803 E5.60223
G1 X92.430 Y93.593 E5.65397
G1 X92.988 Y93.593 E5.67980
G1 X92.198 Y92.803 E5.73153
G1 X92.756 Y92.803 E5.75737
G1 X93.546 Y93.593 E5.80910
G1 X94.076 Y93.565 E5.83365
G1 X93.314 Y92.803 E5.88352
G1 X93.872 Y92.803 E5.90935
G1 X94.076 Y93.007 E5.92268
M106 S255
G92 E0
G1 Z0.600 F7800.000
G1 X114.334 Y92.352 F7800.000
G1 X114.334 Y102.554 E3.05685 F600.000
G1 X114.372 Y105.387 E3.90604
G1 X114.074 Y106.455 E4.23827
G1 X113.662 Y106.527 E4.36357
G1 X113.375 Y106.542 E4.44947
G1 X112.663 Y105.643 E4.79314
G1 X112.061 Y103.861 E5.35679
G1 X111.768 Y103.060 E5.61219
G1 X109.310 Y96.547 E7.69831
G1 X108.647 Y94.592 E8.31687
G1 X107.918 Y93.677 E8.66734
G1 X107.870 Y93.644 E8.68488
G1 X107.106 Y94.587 E9.04854
G1 X106.382 Y96.755 E9.73346
G1 X103.962 Y103.066 E11.75884
G1 X103.029 Y105.723 E12.60259
G1 X102.393 Y106.569 E12.91989
G1 X102.016 Y106.559 E13.03286
G1 X101.580 Y106.480 E13.16539
G1 X101.301 Y105.463 E13.48158
G1 X101.334 Y102.547 E14.35514
G1 X101.334 Y92.352 E17.41018
G92 E0
G1 X98.412 Y92.352 F7800.000
G1 X93.609 Y100.848 F7800.000
G1 X88.805 Y107.648 F7800.000
G1 X86.805 Y107.648 F7800.000
G1 X85.769 Y107.648 F7800.000
G1 X85.769 Y94.044 E4.07639 F600.000
G1 X85.849 Y93.468 E4.25074
G1 X86.805 Y93.198 E4.54819
G1 X94.527 Y93.198 E6.86206
G92 E0
G1 Z0.900 F7800.000
G1 X114.334 Y92.352 F7800.000
G1 X114.334 Y102.554 E3.05685 F600.000
G1 X114.372 Y105.387 E3.90604
G1 X114.074 Y106.455 E4.23827
G1 X113.662 Y106.527 E4.36357
G1 X113.375 Y106.542 E4.44947
G1 X112.663 Y105.643 E4.79314
G1 X112.061 Y103.861 E5.35679
G1 X111.768 Y103.060 E5.61219
G1 X109.310 Y96.547 E7.69831
G1 X108.647 Y94.592 E8.31687
G1 X107.918 Y93.677 E8.66733
G1 X107.870 Y93.644 E8.68488
G1 X107.106 Y94.587 E9.04854
G1 X106.382 Y96.755 E9.73346
G1 X103.962 Y103.066 E11.75884
G1 X103.029 Y105.723 E12.60259
G1 X102.393 Y106.569 E12.91989
G1 X102.016 Y106.559 E13.03285
G1 X101.580 Y106.480 E13.16539
G1 X101.301 Y105.463 E13.48158
G1 X101.334 Y102.547 E14.35514
G1 X101.334 Y92.352 E17.41017
G92 E0
G1 X98.412 Y92.352 F7800.000
G1 X93.609 Y100.848 F7800.000
G1 X88.805 Y107.648 F7800.000
G1 X86.805 Y107.648 F7800.000
G1 X85.769 Y107.648 F7800.000
G1 X85.769 Y94.044 E4.07639 F600.000
G1 X85.849 Y93.468 E4.25074
G1 X86.805 Y93.198 E4.54819
G1 X94.527 Y93.198 E6.86206
G92 E0
G1 Z1.200 F7800.000
G1 X114.334 Y92.352 F7800.000
G1 X114.334 Y102.554 E3.05685 F600.000
G1 X114.372 Y105.387 E3.90604
G1 X114.074 Y106.455 E4.23827
G1 X113.662 Y106.527 E4.36358
G1 X113.375 Y106.542 E4.44947
G1 X112.663 Y105.643 E4.79314
G1 X112.061 Y103.861 E5.35679
G1 X111.768 Y103.060 E5.61220
G1 X109.310 Y96.547 E7.69831
G1 X108.647 Y94.592 E8.31687
G1 X107.918 Y93.677 E8.66733
G1 X107.870 Y93.644 E8.68488
G1 X107.106 Y94.587 E9.04854
G1 X106.382 Y96.755 E9.73347
G1 X103.962 Y103.066 E11.75885
G1 X103.029 Y105.723 E12.60259
G1 X102.393 Y106.569 E12.91989
G1 X102.016 Y106.559 E13.03286
G1 X101.580 Y106.480 E13.16539
G1 X101.301 Y105.463 E13.48159
G1 X101.334 Y102.547 E14.35515
G1 X101.334 Y92.352 E17.41018
G92 E0
G1 X98.412 Y92.352 F7800.000
G1 X93.609 Y100.848 F7800.000
G1 X88.805 Y107.648 F7800.000
G1 X86.805 Y107.648 F7800.000
G1 X85.769 Y107.648 F7800.000
G1 X85.769 Y94.044 E4.07639 F600.000
G1 X85.849 Y93.468 E4.25074
G1 X86.805 Y93.198 E4.54819
G1 X94.527 Y93.198 E6.86206
G92 E0
G1 Z1.500 F7800.000
G1 X114.334 Y92.352 F7800.000
G1 X114.334 Y102.554 E3.05685 F600.000
G1 X114.372 Y105.387 E3.90604
G1 X114.074 Y106.455 E4.23827
G1 X113.662 Y106.527 E4.36357
G1 X113.375 Y106.542 E4.44947
G1 X112.663 Y105.643 E4.79314
G1 X112.061 Y103.861 E5.35679
G1 X111.768 Y103.060 E5.61219
G1 X109.310 Y96.547 E7.69831
G1 X108.647 Y94.592 E8.31687
G1 X107.918 Y93.677 E8.66734
G1 X107.870 Y93.644 E8.68488
G1 X107.106 Y94.587 E9.04854
G1 X106.382 Y96.755 E9.73346
G1 X103.962 Y103.066 E11.75884
G1 X103.029 Y105.723 E12.60259
G1 X102.393 Y106.569 E12.91989
G1 X102.016 Y106.559 E13.03286
G1 X101.580 Y106.480 E13.16539
G1 X101.301 Y105.463 E13.48158
G1 X101.334 Y102.547 E14.35515
G1 X101.334 Y92.352 E17.41018
G92 E0
G1 X98.412 Y92.352 F7800.000
G1 X93.609 Y100.848 F7800.000
G1 X88.805 Y107.648 F7800.000
G1 X86.805 Y107.648 F7800.000
G1 X85.769 Y107.648 F7800.000
G1 X85.769 Y94.044 E4.07639 F600.000
G1 X85.849 Y93.468 E4.25074
G1 X86.805 Y93.198 E4.54819
G1 X94.527 Y93.198 E6.86206
G92 E0
G1 Z1.800 F7800.000
G1 X114.334 Y92.352 F7800.000
G1 X114.334 Y102.554 E3.05685 F600.000
G1 X114.372 Y105.387 E3.90604
G1 X114.074 Y106.455 E4.23827
G1 X113.662 Y106.527 E4.36357
G1 X113.375 Y106.542 E4.44947
G1 X112.663 Y105.643 E4.79314
G1 X112.061 Y103.861 E5.35679
G1 X111.768 Y103.060 E5.61220
G1 X109.310 Y96.547 E7.69831
G1 X108.647 Y94.592 E8.31687
G1 X107.918 Y93.677 E8.66734
G1 X107.870 Y93.644 E8.68488
G1 X107.106 Y94.587 E9.04854
G1 X106.382 Y96.755 E9.73346
G1 X103.962 Y103.066 E11.75884
G1 X103.029 Y105.723 E12.60259
G1 X102.393 Y106.569 E12.91989
G1 X102.016 Y106.559 E13.03286
G1 X101.580 Y106.480 E13.16539
G1 X101.301 Y105.463 E13.48159
G1 X101.334 Y102.547 E14.35515
G1 X101.334 Y92.352 E17.41018
G92 E0
G1 X98.412 Y92.352 F7800.000
G1 X93.609 Y100.848 F7800.000
G1 X88.805 Y107.648 F7800.000
G1 X86.805 Y107.648 F7800.000
G1 X85.769 Y107.648 F7800.000
G1 X85.769 Y94.044 E4.07639 F600.000
G1 X85.849 Y93.468 E4.25074
G1 X86.805 Y93.198 E4.54819
G1 X94.527 Y93.198 E6.86206
G92 E0
G1 Z2.100 F7800.000
