; generated by Slic3r 1.2.9 on 2016-03-11 at 01:27:04

; external perimeters extrusion width = 1.54mm
; perimeters extrusion width = 2.62mm
; infill extrusion width = 6.27mm
; solid infill extrusion width = 2.62mm
; top infill extrusion width = 2.62mm

M107
M104 S30 ; set temperature
G28 ; home all axes
G1 Z5 F5000 ; lift nozzle
M302
M92 E10000
M500
M501
G1 E100
M109 S30 ; wait for temperature to be reached
G21 ; set units to millimeters
G90 ; use absolute coordinates
M82 ; use absolute distances for extrusion
G92 E0
G1 Z0.300 F7800.000
G1 X110.787 Y107.022 F7800.000
G1 X109.896 Y107.292 E0.04209 F378.000
G1 X108.348 Y107.423 E0.11240
G1 X102.165 Y107.423 E0.39220
G1 X102.165 Y92.577 E1.06397
G1 X103.786 Y92.577 E1.13732
G1 X103.786 Y98.556 E1.40786
G1 X108.479 Y98.556 E1.62024 F378.000
G1 X109.946 Y98.695 E1.68691
G1 X111.171 Y99.103 E1.74532
G1 X112.172 Y99.777 E1.79995
G1 X112.914 Y100.677 E1.85272
G1 X113.360 Y101.766 E1.90595
G1 X113.510 Y103.055 E1.96469
G1 X113.360 Y104.347 E2.02354
G1 X112.917 Y105.415 E2.07585
G1 X112.181 Y106.273 E2.12699
G1 X111.169 Y106.907 E2.18104
G1 X111.008 Y106.955 E2.18866
G1 X110.176 Y105.872 F7800.000
G1 X108.127 Y106.214 E2.28264 F378.000
G1 X103.786 Y106.214 E2.47909
G1 X103.786 Y99.743 E2.77190
G1 X108.214 Y99.743 E2.97230 F378.000
G1 X110.218 Y100.098 E3.06440
G1 X111.473 Y101.210 E3.14027
G1 X111.886 Y103.035 E3.22491
G1 X111.462 Y104.800 E3.30708
G1 X110.353 Y105.724 E3.37239
G1 X112.681 Y103.040 F7800.000
G1 X112.681 Y103.040 F7800.000
G1 X111.796 Y101.523 F7800.000
G1 X113.265 Y102.991 E3.46735 F540.000
G1 X113.238 Y103.515 E3.49134
G1 X111.957 Y102.234 E3.57416
G1 X112.118 Y102.946 E3.60752
G1 X113.181 Y104.009 E3.67625
G1 X113.091 Y104.471 E3.69774
G1 X112.014 Y103.394 E3.76737
G1 X111.908 Y103.838 E3.78826
G1 X112.930 Y104.860 E3.85434
G1 X112.768 Y105.250 E3.87361
G1 X111.801 Y104.283 E3.93613
G1 X111.695 Y104.727 E3.95702
G1 X112.534 Y105.566 E4.01128
G1 X112.279 Y105.863 E4.02914
G1 X111.465 Y105.048 E4.08178
G1 X111.165 Y105.299 E4.09967
G1 X112.008 Y106.142 E4.15418
G1 X111.674 Y106.360 E4.17238
G1 X110.864 Y105.549 E4.22478
G1 X110.564 Y105.800 E4.24266
G1 X111.336 Y106.572 E4.29259
G1 X110.966 Y106.753 E4.31141
G1 X110.263 Y106.050 E4.35686
G1 X109.811 Y106.150 E4.37800
G1 X110.543 Y106.881 E4.42529
G1 X110.120 Y107.009 E4.44549
G1 X109.339 Y106.228 E4.49598
G1 X108.867 Y106.307 E4.51787
G1 X109.652 Y107.093 E4.56864
G1 X109.144 Y107.136 E4.59195
G1 X108.395 Y106.386 E4.64042
G1 X107.898 Y106.440 E4.66327
G1 X108.636 Y107.178 E4.71102
G1 X108.104 Y107.197 E4.73537
G1 X107.347 Y106.440 E4.78432
G1 X106.796 Y106.440 E4.80951
G1 X107.553 Y107.197 E4.85846
G1 X107.002 Y107.197 E4.88365
G1 X106.245 Y106.440 E4.93260
G1 X105.694 Y106.440 E4.95779
G1 X106.451 Y107.197 E5.00674
G1 X105.900 Y107.197 E5.03193
G1 X105.143 Y106.440 E5.08087
G1 X104.592 Y106.440 E5.10606
G1 X105.349 Y107.197 E5.15501
G1 X104.798 Y107.197 E5.18020
G1 X104.041 Y106.440 E5.22915
G1 X102.390 Y106.993 F7800.000
G1 X102.594 Y107.197 E5.24231 F540.000
G1 X103.145 Y107.197 E5.26750
G1 X102.390 Y106.442 E5.31629
G1 X102.390 Y105.891 E5.34148
G1 X103.696 Y107.197 E5.42588
G1 X104.247 Y107.197 E5.45107
G1 X102.390 Y105.341 E5.57110
G1 X102.390 Y104.790 E5.59629
G1 X103.560 Y105.959 E5.67188
G1 X103.560 Y105.408 E5.69707
G1 X102.390 Y104.239 E5.77266
G1 X102.390 Y103.688 E5.79784
G1 X103.560 Y104.857 E5.87343
G1 X103.560 Y104.306 E5.89862
G1 X102.390 Y103.137 E5.97421
G1 X102.390 Y102.586 E5.99939
G1 X103.560 Y103.755 E6.07498
G1 X103.560 Y103.204 E6.10017
G1 X102.390 Y102.035 E6.17576
G1 X102.390 Y101.484 E6.20094
G1 X103.560 Y102.653 E6.27653
G1 X103.560 Y102.102 E6.30172
G1 X102.390 Y100.933 E6.37731
G1 X102.390 Y100.382 E6.40249
G1 X103.560 Y101.551 E6.47808
G1 X103.560 Y101.000 E6.50327
G1 X102.390 Y99.831 E6.57886
G1 X102.390 Y99.280 E6.60404
G1 X103.560 Y100.449 E6.67963
G1 X103.560 Y99.898 E6.70482
G1 X102.390 Y98.729 E6.78041
G1 X102.390 Y98.178 E6.80560
G1 X103.730 Y99.517 E6.89219
G1 X104.281 Y99.517 E6.91738
G1 X103.546 Y98.782 E6.96490
G1 X103.560 Y98.245 E6.98947
G1 X102.390 Y97.076 E7.06505
G1 X102.390 Y97.627 E7.09024
G1 X103.560 Y98.796 E7.16583
G1 X104.097 Y98.782 E7.19039
G1 X104.832 Y99.517 E7.23792
G1 X105.383 Y99.517 E7.26311
G1 X104.648 Y98.782 E7.31063
G1 X105.199 Y98.782 E7.33582
G1 X105.934 Y99.517 E7.38335
G1 X106.485 Y99.517 E7.40854
G1 X105.750 Y98.782 E7.45606
G1 X106.301 Y98.782 E7.48125
G1 X107.036 Y99.517 E7.52878
G1 X107.587 Y99.517 E7.55397
G1 X106.852 Y98.782 E7.60149
G1 X107.403 Y98.782 E7.62668
G1 X108.138 Y99.517 E7.67421
G1 X108.767 Y99.596 E7.70322
G1 X107.954 Y98.782 E7.75583
G1 X108.517 Y98.795 E7.78161
G1 X109.437 Y99.714 E7.84107
G1 X110.107 Y99.833 E7.87216
G1 X109.126 Y98.852 E7.93557
G1 X109.734 Y98.910 E7.96351
G1 X113.192 Y102.368 E8.18709
G1 X113.030 Y101.654 E8.22055
G1 X110.537 Y99.161 E8.38171
G1 X111.793 Y99.867 F7800.000
G1 X112.179 Y100.252 E8.40662 F540.000
G92 E0
G1 X112.238 Y101.076 F7800.000
G1 X112.238 Y101.076 F7800.000
G1 X103.560 Y97.694 F7800.000
G1 X102.390 Y96.525 E0.07559 F540.000
G1 X102.390 Y95.974 E0.10078
G1 X103.560 Y97.143 E0.17636
G1 X103.560 Y96.592 E0.20155
G1 X102.390 Y95.423 E0.27714
G1 X102.390 Y94.872 E0.30233
G1 X103.560 Y96.041 E0.37791
G1 X103.560 Y95.490 E0.40310
G1 X102.390 Y94.321 E0.47869
G1 X102.390 Y93.770 E0.50388
G1 X103.560 Y94.939 E0.57946
G1 X103.560 Y94.388 E0.60465
G1 X102.390 Y93.219 E0.68024
G1 X102.526 Y92.803 E0.70023
G1 X103.560 Y93.837 E0.76708
G1 X103.560 Y93.286 E0.79227
G1 X103.077 Y92.803 E0.82350
G92 E0
G1 X101.939 Y92.352 F7800.000
G1 X99.939 Y92.352 F7800.000
G1 X98.057 Y92.352 F7800.000
G1 X96.057 Y92.352 F7800.000
G1 X87.659 Y92.577 F7800.000
G1 X95.832 Y92.577 E0.36981 F378.000
G1 X95.832 Y93.819 E0.42601
G1 X88.110 Y93.819 E0.77542 F378.000
G1 X88.110 Y107.423 E1.39100
G1 X86.488 Y107.423 E1.46435
G1 X86.488 Y92.577 E2.13612
G1 X87.428 Y92.577 E2.17862
G1 X95.606 Y93.007 F7800.000
G1 X95.402 Y92.803 E2.19195 F540.000
G1 X94.844 Y92.803 E2.21778
G1 X95.606 Y93.565 E2.26765
G1 X95.076 Y93.593 E2.29220
G1 X94.286 Y92.803 E2.34393
G1 X93.728 Y92.803 E2.36977
G1 X94.518 Y93.593 E2.42150
G1 X93.960 Y93.593 E2.44734
G1 X93.170 Y92.803 E2.49907
G1 X92.612 Y92.803 E2.52490
G1 X93.402 Y93.593 E2.57664
G1 X92.844 Y93.593 E2.60247
G1 X92.054 Y92.803 E2.65420
G1 X91.496 Y92.803 E2.68004
G1 X92.286 Y93.593 E2.73177
G1 X91.728 Y93.593 E2.75760
G1 X90.938 Y92.803 E2.80934
G1 X90.380 Y92.803 E2.83517
G1 X91.170 Y93.593 E2.88690
G1 X90.612 Y93.593 E2.91274
G1 X89.822 Y92.803 E2.96447
G1 X89.264 Y92.803 E2.99030
G1 X90.054 Y93.593 E3.04204
G1 X89.496 Y93.593 E3.06787
G1 X88.706 Y92.803 E3.11960
G1 X88.148 Y92.803 E3.14544
G1 X88.938 Y93.593 E3.19717
G1 X88.380 Y93.593 E3.22300
G1 X87.590 Y92.803 E3.27474
G1 X87.032 Y92.803 E3.30057
G1 X87.884 Y93.655 E3.35633
G1 X87.884 Y94.213 E3.38217
G1 X86.714 Y93.043 E3.45871
G1 X86.714 Y93.601 E3.48455
G1 X87.884 Y94.771 E3.56110
G1 X87.884 Y95.329 E3.58693
G1 X86.714 Y94.159 E3.66348
G1 X86.714 Y94.717 E3.68932
G1 X87.884 Y95.887 E3.76587
G1 X87.884 Y96.445 E3.79170
G1 X86.714 Y95.275 E3.86825
G1 X86.714 Y95.833 E3.89408
G1 X87.884 Y97.003 E3.97063
G1 X87.884 Y97.561 E3.99647
G1 X86.714 Y96.391 E4.07302
G1 X86.714 Y96.949 E4.09885
G1 X87.884 Y98.119 E4.17540
G1 X87.884 Y98.677 E4.20124
G1 X86.714 Y97.507 E4.27778
G1 X86.714 Y98.065 E4.30362
G1 X87.884 Y99.235 E4.38017
G1 X87.884 Y99.793 E4.40600
G1 X86.714 Y98.623 E4.48255
G1 X86.714 Y99.181 E4.50839
G1 X87.884 Y100.351 E4.58494
G1 X87.884 Y100.909 E4.61077
G1 X86.714 Y99.739 E4.68732
G1 X86.714 Y100.297 E4.71315
G1 X87.884 Y101.467 E4.78970
G1 X87.884 Y102.025 E4.81554
G1 X86.714 Y100.855 E4.89209
G1 X86.714 Y101.413 E4.91792
G1 X87.884 Y102.583 E4.99447
G1 X87.884 Y103.141 E5.02031
G1 X86.714 Y101.971 E5.09685
G1 X86.714 Y102.529 E5.12269
G1 X87.884 Y103.699 E5.19924
G1 X87.884 Y104.257 E5.22507
G1 X86.714 Y103.087 E5.30162
G1 X86.714 Y103.645 E5.32746
G1 X87.884 Y104.815 E5.40401
G1 X87.884 Y105.373 E5.42984
G1 X86.714 Y104.203 E5.50639
G1 X86.714 Y104.761 E5.53222
G1 X87.884 Y105.931 E5.60877
G1 X87.884 Y106.489 E5.63461
G1 X86.714 Y105.319 E5.71116
G1 X86.714 Y105.877 E5.73699
G1 X87.884 Y107.047 E5.81354
G1 X87.476 Y107.197 E5.83365
G1 X86.714 Y106.435 E5.88352
G1 X86.714 Y106.993 E5.90936
G1 X86.918 Y107.197 E5.92268
M106 S255
G92 E0
G1 Z0.600 F7800.000
G1 X103.826 Y102.637 F7800.000
G1 X102.975 Y98.331 E1.31513 F600.000
G1 X102.975 Y92.352 E3.10672
G1 X103.137 Y99.149 F7800.000
G1 X108.338 Y99.156 E4.66537 F600.000
G1 X109.808 Y99.350 E5.10941
G1 X110.266 Y99.466 E5.25112
G1 X110.705 Y99.645 E5.39308
G1 X110.860 Y99.734 E5.44673
G1 X111.653 Y100.349 E5.74739
G1 X111.907 Y100.612 E5.85684
G1 X112.240 Y101.080 E6.02917
G1 X112.524 Y101.981 E6.31226
G1 X112.692 Y103.055 E6.63799
G1 X112.514 Y104.127 E6.96347
G1 X112.231 Y104.993 E7.23646
G1 X111.894 Y105.435 E7.40300
G1 X111.659 Y105.666 E7.50172
G1 X110.866 Y106.241 E7.79522
G1 X110.656 Y106.354 E7.86654
G1 X110.222 Y106.519 E8.00592
G1 X109.769 Y106.625 E8.14537
G1 X108.322 Y106.807 E8.58221
G1 X108.109 Y106.818 E8.64628
G1 X104.011 Y106.818 E9.87423
G1 X103.048 Y106.539 E10.17449
G1 X102.975 Y105.989 E10.34085
G1 X102.975 Y99.968 E12.14502
G1 X103.137 Y99.149 E12.39502
G92 E0
G1 X101.939 Y107.648 F7800.000
G1 X95.137 Y102.846 F7800.000
G1 X90.335 Y107.648 F7800.000
G1 X88.335 Y107.648 F7800.000
G1 X87.299 Y107.648 F7800.000
G1 X87.299 Y94.044 E4.07639 F600.000
G1 X87.379 Y93.468 E4.25074
G1 X88.335 Y93.198 E4.54819
G1 X96.057 Y93.198 E6.86206
G92 E0
G1 Z0.900 F7800.000
G1 X103.826 Y102.637 F7800.000
G1 X102.975 Y98.331 E1.31513 F600.000
G1 X102.975 Y92.352 E3.10672
G1 X103.137 Y99.149 F7800.000
G1 X108.338 Y99.156 E4.66537 F600.000
G1 X109.808 Y99.350 E5.10941
G1 X110.266 Y99.466 E5.25112
G1 X110.705 Y99.645 E5.39308
G1 X110.860 Y99.734 E5.44673
G1 X111.653 Y100.349 E5.74739
G1 X111.907 Y100.612 E5.85684
G1 X112.240 Y101.080 E6.02917
G1 X112.524 Y101.981 E6.31226
G1 X112.692 Y103.055 E6.63799
G1 X112.514 Y104.127 E6.96347
G1 X112.231 Y104.993 E7.23646
G1 X111.894 Y105.435 E7.40300
G1 X111.659 Y105.666 E7.50172
G1 X110.866 Y106.241 E7.79522
G1 X110.656 Y106.354 E7.86654
G1 X110.222 Y106.519 E8.00592
G1 X109.769 Y106.625 E8.14537
G1 X108.322 Y106.807 E8.58221
G1 X108.109 Y106.818 E8.64628
G1 X104.011 Y106.818 E9.87423
G1 X103.048 Y106.539 E10.17449
G1 X102.975 Y105.989 E10.34085
G1 X102.975 Y99.968 E12.14502
G1 X103.137 Y99.149 E12.39502
G92 E0
G1 X101.939 Y107.648 F7800.000
G1 X95.137 Y102.846 F7800.000
G1 X90.335 Y107.648 F7800.000
G1 X88.335 Y107.648 F7800.000
G1 X87.299 Y107.648 F7800.000
G1 X87.299 Y94.044 E4.07639 F600.000
G1 X87.379 Y93.468 E4.25074
G1 X88.335 Y93.198 E4.54819
G1 X96.057 Y93.198 E6.86206
G92 E0
G1 Z1.200 F7800.000
G1 X103.826 Y102.637 F7800.000
G1 X102.975 Y98.331 E1.31513 F600.000
G1 X102.975 Y92.352 E3.10672
G1 X103.137 Y99.149 F7800.000
G1 X108.338 Y99.156 E4.66537 F600.000
G1 X109.808 Y99.350 E5.10941
G1 X110.266 Y99.466 E5.25112
G1 X110.705 Y99.645 E5.39308
G1 X110.860 Y99.734 E5.44673
G1 X111.653 Y100.349 E5.74739
G1 X111.907 Y100.612 E5.85684
G1 X112.240 Y101.080 E6.02917
G1 X112.524 Y101.981 E6.31226
G1 X112.692 Y103.055 E6.63799
G1 X112.514 Y104.127 E6.96347
G1 X112.231 Y104.993 E7.23646
G1 X111.894 Y105.435 E7.40300
G1 X111.659 Y105.666 E7.50172
G1 X110.866 Y106.241 E7.79522
G1 X110.656 Y106.354 E7.86654
G1 X110.222 Y106.519 E8.00592
G1 X109.769 Y106.625 E8.14537
G1 X108.322 Y106.807 E8.58221
G1 X108.109 Y106.818 E8.64628
G1 X104.011 Y106.818 E9.87423
G1 X103.048 Y106.539 E10.17449
G1 X102.975 Y105.989 E10.34085
G1 X102.975 Y99.968 E12.14502
G1 X103.137 Y99.149 E12.39502
G92 E0
G1 X101.939 Y107.648 F7800.000
G1 X95.137 Y102.846 F7800.000
G1 X90.335 Y107.648 F7800.000
G1 X88.335 Y107.648 F7800.000
G1 X87.299 Y107.648 F7800.000
G1 X87.299 Y94.044 E4.07639 F600.000
G1 X87.379 Y93.468 E4.25074
G1 X88.335 Y93.198 E4.54819
G1 X96.057 Y93.198 E6.86206
G92 E0
G1 Z1.500 F7800.000
G1 X103.826 Y102.637 F7800.000
G1 X102.975 Y98.331 E1.31513 F600.000
G1 X102.975 Y92.352 E3.10672
G1 X103.137 Y99.149 F7800.000
G1 X108.338 Y99.156 E4.66536 F600.000
G1 X109.808 Y99.350 E5.10941
G1 X110.266 Y99.466 E5.25112
G1 X110.705 Y99.645 E5.39308
G1 X110.860 Y99.734 E5.44673
G1 X111.653 Y100.349 E5.74739
G1 X111.907 Y100.612 E5.85684
G1 X112.240 Y101.080 E6.02917
G1 X112.524 Y101.981 E6.31226
G1 X112.692 Y103.055 E6.63799
G1 X112.514 Y104.127 E6.96347
G1 X112.231 Y104.993 E7.23646
G1 X111.894 Y105.435 E7.40300
G1 X111.659 Y105.666 E7.50172
G1 X110.866 Y106.241 E7.79522
G1 X110.656 Y106.354 E7.86654
G1 X110.222 Y106.519 E8.00592
G1 X109.769 Y106.625 E8.14537
G1 X108.322 Y106.807 E8.58221
G1 X108.109 Y106.818 E8.64628
G1 X104.011 Y106.818 E9.87423
G1 X103.048 Y106.539 E10.17449
G1 X102.975 Y105.989 E10.34085
G1 X102.975 Y99.968 E12.14502
G1 X103.137 Y99.149 E12.39502
G92 E0
G1 X101.939 Y107.648 F7800.000
G1 X95.137 Y102.846 F7800.000
G1 X90.335 Y107.648 F7800.000
G1 X88.335 Y107.648 F7800.000
G1 X87.299 Y107.648 F7800.000
G1 X87.299 Y94.044 E4.07639 F600.000
G1 X87.379 Y93.468 E4.25074
G1 X88.335 Y93.198 E4.54819
G1 X96.057 Y93.198 E6.86206
G92 E0
G1 Z1.800 F7800.000
G1 X103.826 Y102.637 F7800.000
G1 X102.975 Y98.331 E1.31513 F600.000
G1 X102.975 Y92.352 E3.10672
G1 X103.137 Y99.149 F7800.000
G1 X108.338 Y99.156 E4.66537 F600.000
G1 X109.808 Y99.350 E5.10941
G1 X110.266 Y99.466 E5.25112
G1 X110.705 Y99.645 E5.39308
G1 X110.860 Y99.734 E5.44673
G1 X111.653 Y100.349 E5.74739
G1 X111.907 Y100.612 E5.85684
G1 X112.240 Y101.080 E6.02917
G1 X112.524 Y101.981 E6.31226
G1 X112.692 Y103.055 E6.63799
G1 X112.514 Y104.127 E6.96347
G1 X112.231 Y104.993 E7.23646
G1 X111.894 Y105.435 E7.40300
G1 X111.659 Y105.666 E7.50172
G1 X110.866 Y106.241 E7.79522
G1 X110.656 Y106.354 E7.86654
G1 X110.222 Y106.519 E8.00592
G1 X109.769 Y106.625 E8.14537
G1 X108.322 Y106.807 E8.58221
G1 X108.109 Y106.818 E8.64628
G1 X104.011 Y106.818 E9.87423
G1 X103.048 Y106.539 E10.17449
G1 X102.975 Y105.989 E10.34085
G1 X102.975 Y99.968 E12.14502
G1 X103.137 Y99.149 E12.39502
G92 E0
G1 X101.939 Y107.648 F7800.000
G1 X95.137 Y102.846 F7800.000
G1 X90.335 Y107.648 F7800.000
G1 X88.335 Y107.648 F7800.000
G1 X87.299 Y107.648 F7800.000
G1 X87.299 Y94.044 E4.07639 F600.000
G1 X87.379 Y93.468 E4.25074
G1 X88.335 Y93.198 E4.54819
G1 X96.057 Y93.198 E6.86206
G92 E0
G1 Z2.100 F7800.000
G1 X103.826 Y102.637 F7800.000
G1 X102.975 Y98.331 E1.31513 F600.000
G1 X102.975 Y92.352 E3.10672
G92 E0
G1 X103.137 Y99.149 F7800.000
G1 X108.338 Y99.156 E1.55865 F600.000
G1 X109.808 Y99.350 E2.00269
G1 X110.266 Y99.466 E2.14441
G1 X110.705 Y99.645 E2.28636
G1 X110.860 Y99.734 E2.34002
G1 X111.653 Y100.349 E2.64067
G1 X111.907 Y100.612 E2.75012
G1 X112.240 Y101.080 E2.92245
G1 X112.524 Y101.981 E3.20554
G1 X112.692 Y103.055 E3.53128
G1 X112.514 Y104.127 E3.85675
G1 X112.231 Y104.993 E4.12974
G1 X111.894 Y105.435 E4.29629
G1 X111.659 Y105.666 E4.39500
G1 X110.866 Y106.241 E4.68850
G1 X110.656 Y106.354 E4.75983
G1 X110.222 Y106.519 E4.89920
G1 X109.769 Y106.625 E5.03865
G1 X108.322 Y106.807 E5.47549
G1 X108.109 Y106.818 E5.53957
G1 X104.011 Y106.818 E6.76751
G1 X103.048 Y106.539 E7.06777
G1 X102.975 Y105.989 E7.23414
G1 X102.975 Y99.968 E9.03831
G1 X103.137 Y99.149 E9.28831
G92 E0
G1 X101.939 Y107.648 F7800.000
G1 X95.137 Y102.846 F7800.000
G1 X90.335 Y107.648 F7800.000
G1 X88.335 Y107.648 F7800.000
G1 X87.299 Y107.648 F7800.000
G1 X87.299 Y94.044 E4.07639 F600.000
G1 X87.379 Y93.468 E4.25074
G1 X88.335 Y93.198 E4.54819
G1 X96.057 Y93.198 E6.86206
G92 E0
M107
M104 S0 ; turn off temperature
G28 X0  ; home X axis
M84     ; disable motors

; filament used = 130.7mm (1.0cm3)

; avoid_crossing_perimeters = 1
; bed_shape = 0x0,250x0,250x250,0x250
; bed_temperature = 0
; before_layer_gcode = 
; bridge_acceleration = 0
; bridge_fan_speed = 100
; brim_width = 0
; complete_objects = 0
; cooling = 1
; default_acceleration = 0
; disable_fan_first_layers = 1
; duplicate_distance = 6
; end_gcode = M104 S0 ; turn off temperature\nG28 X0  ; home X axis\nM84     ; disable motors\n
; extruder_clearance_height = 20
