; generated by Slic3r 1.2.9 on 2016-03-11 at 01:27:04

; external perimeters extrusion width = 1.54mm
; perimeters extrusion width = 2.62mm
; infill extrusion width = 6.27mm
; solid infill extrusion width = 2.62mm
; top infill extrusion width = 2.62mm

M107
M104 S30 ; set temperature
G28 ; home all axes
G1 Z5 F5000 ; lift nozzle
M302
M92 E10000
M500
M501
G1 E100
M109 S30 ; wait for temperature to be reached
G21 ; set units to millimeters
G90 ; use absolute coordinates
M82 ; use absolute distances for extrusion
G92 E0
G1 Z0.300 F7800.000
G1 X112.140 Y95.819 F7800.000
G1 X113.232 Y96.886 E0.06911 F378.000
G1 X114.107 Y98.354 E0.14641
G1 X114.635 Y100.076 E0.22794
G1 X114.812 Y102.063 E0.31817
G1 X114.713 Y103.562 E0.38617
G1 X114.419 Y104.919 E0.44897
G1 X113.931 Y106.130 E0.50809
G1 X113.260 Y107.179 E0.56439
G1 X112.419 Y108.044 E0.61900
G1 X111.403 Y108.730 E0.67447
G1 X110.231 Y109.229 E0.73213
G1 X108.919 Y109.530 E0.79304
G1 X107.469 Y109.630 E0.85878
G1 X105.306 Y109.406 E0.95722
G1 X103.501 Y108.738 E1.04425
G1 X102.043 Y107.631 E1.12712
G1 X100.966 Y106.131 E1.21069
G1 X100.317 Y104.276 E1.29960
G1 X100.098 Y102.055 E1.40060
G1 X100.187 Y100.611 E1.46606
G1 X100.454 Y99.290 E1.52705
G1 X100.896 Y98.094 E1.58472
G1 X101.503 Y97.048 E1.63948
G1 X102.266 Y96.169 E1.69212
G1 X103.187 Y95.456 E1.74483
G1 X104.253 Y94.918 E1.79886
G1 X105.451 Y94.566 E1.85535
G1 X106.934 Y94.383 E1.92299
G1 X107.468 Y92.960 E1.99174
G1 X108.025 Y91.961 E2.04349
G1 X108.651 Y91.243 E2.08660
G1 X109.372 Y90.760 E2.12587
G1 X110.218 Y90.468 E2.16637
G1 X111.204 Y90.369 E2.21119
G1 X111.757 Y90.393 E2.23624
G1 X112.430 Y90.473 E2.26691 F378.000
G1 X112.904 Y90.567 E2.28875
G1 X112.904 Y91.566 E2.33394
G1 X112.333 Y91.490 E2.35997
G1 X111.875 Y91.470 E2.38075
G1 X111.139 Y91.541 E2.41421
G1 X110.478 Y91.762 E2.44571
G1 X109.906 Y92.132 E2.47654
G1 X109.421 Y92.661 E2.50904
G1 X109.011 Y93.357 E2.54557
G1 X108.583 Y94.442 E2.59835
G1 X110.595 Y94.939 E2.69213
G1 X111.958 Y95.680 E2.76235
G1 X111.048 Y96.766 F7800.000
G1 X111.679 Y97.295 E2.79963 F378.000
G1 X112.500 Y98.588 E2.86895
G1 X112.988 Y100.178 E2.94420
G1 X113.149 Y102.059 E3.02965
G1 X112.987 Y103.869 E3.11186
G1 X112.494 Y105.414 E3.18523
G1 X111.667 Y106.688 E3.25398
G1 X110.532 Y107.636 E3.32090
G1 X109.127 Y108.203 E3.38944
G1 X107.467 Y108.390 E3.46505
G1 X105.794 Y108.206 E3.54121
G1 X104.380 Y107.647 E3.60999
G1 X103.239 Y106.711 E3.67677
G1 X102.408 Y105.443 E3.74537
G1 X101.914 Y103.890 E3.81912
G1 X101.751 Y102.059 E3.90232
G1 X101.916 Y100.230 E3.98539
G1 X102.415 Y98.659 E4.06001
G1 X103.253 Y97.350 E4.13034
G1 X104.395 Y96.369 E4.19849
G1 X105.797 Y95.781 E4.26728
G1 X107.299 Y95.604 E4.33570
G1 X107.444 Y95.587 E4.34230 F378.000
G1 X109.128 Y95.774 E4.41897
G1 X110.544 Y96.343 E4.48802
G1 X110.871 Y96.617 E4.50732
G1 X110.761 Y96.147 F7800.000
G1 X109.550 Y94.936 E4.58524 F540.000
G1 X110.278 Y95.116 E4.61935
G1 X113.986 Y98.824 E4.85789
G1 X114.228 Y99.614 F7800.000
G1 X112.196 Y97.583 E4.98857 F540.000
G1 X113.366 Y97.656 F7800.000
G1 X111.400 Y95.690 E5.11502 F540.000
G1 X109.845 Y95.779 F7800.000
G1 X108.822 Y94.756 E5.18084 F540.000
G1 X108.251 Y94.734 E5.20683
G1 X107.355 Y93.838 E5.26446
G1 X108.685 Y92.382 F7800.000
G1 X108.685 Y92.382 F7800.000
G1 X112.678 Y90.938 F7800.000
G1 X112.468 Y90.729 E5.27791 F540.000
G1 X112.458 Y91.267 E5.30239
G1 X111.831 Y90.640 E5.34274
G1 X111.244 Y90.601 E5.36948
G1 X111.892 Y91.248 E5.41113
G1 X111.392 Y91.297 E5.43395
G1 X110.731 Y90.636 E5.47646
G1 X110.233 Y90.686 E5.49923
G1 X110.940 Y91.392 E5.54466
G1 X110.529 Y91.530 E5.56436
G1 X109.820 Y90.821 E5.60992
G1 X109.416 Y90.965 E5.62945
G1 X110.176 Y91.725 E5.67836
G1 X109.843 Y91.941 E5.69639
G1 X109.087 Y91.185 E5.74500
G1 X108.763 Y91.408 E5.76293
G1 X109.569 Y92.215 E5.81480
G1 X109.307 Y92.501 E5.83245
G1 X108.507 Y91.701 E5.88390
G1 X108.252 Y91.993 E5.90156
G1 X109.092 Y92.834 E5.95561
G1 X108.889 Y93.179 E5.97382
G1 X108.042 Y92.332 E6.02826
G1 X107.846 Y92.684 E6.04659
G1 X108.716 Y93.554 E6.10255
G1 X108.561 Y93.947 E6.12177
G1 X107.654 Y93.040 E6.18013
G1 X107.504 Y93.439 E6.19950
G1 X108.406 Y94.340 E6.25750
G1 X108.094 Y94.576 E6.27530
G1 X109.045 Y95.528 E6.33651
G1 X108.428 Y95.459 E6.36474
G1 X107.205 Y94.236 E6.44341
G1 X107.012 Y94.591 E6.46179
G1 X107.812 Y95.391 E6.51320
G1 X107.262 Y95.389 E6.53818
G1 X106.524 Y94.651 E6.58565
G1 X106.037 Y94.712 E6.60801
G1 X106.772 Y95.447 E6.65531
G1 X106.282 Y95.505 E6.67777
G1 X105.549 Y94.772 E6.72491
G1 X105.110 Y94.881 E6.74549
G1 X105.793 Y95.565 E6.78945
G1 X105.407 Y95.727 E6.80849
G1 X104.686 Y95.006 E6.85486
G1 X104.266 Y95.133 E6.87485
G1 X105.021 Y95.889 E6.92342
G1 X104.635 Y96.051 E6.94247
G1 X103.901 Y95.317 E6.98963
G1 X103.537 Y95.501 E7.00819
G1 X104.264 Y96.228 E7.05494
G1 X103.969 Y96.481 E7.07262
G1 X103.188 Y95.700 E7.12287
G1 X102.879 Y95.939 E7.14064
G1 X103.674 Y96.735 E7.19180
G1 X103.379 Y96.988 E7.20948
G1 X102.570 Y96.178 E7.26154
G1 X102.290 Y96.447 E7.27917
G1 X103.088 Y97.245 E7.33050
G1 X102.874 Y97.579 E7.34855
G1 X102.030 Y96.735 E7.40288
G1 X101.775 Y97.028 E7.42055
G1 X102.660 Y97.914 E7.47751
G1 X102.446 Y98.248 E7.49556
G1 X101.552 Y97.354 E7.55307
G1 X101.351 Y97.700 E7.57131
G1 X102.232 Y98.582 E7.62801
G1 X102.094 Y98.991 E7.64768
G1 X101.150 Y98.047 E7.70841
G1 X100.987 Y98.433 E7.72743
G1 X101.962 Y99.407 E7.79014
G1 X101.830 Y99.824 E7.80999
G1 X100.839 Y98.833 E7.87373
G1 X100.691 Y99.233 E7.89313
G1 X101.697 Y100.240 E7.95789
G1 X101.650 Y100.740 E7.98076
G1 X100.590 Y99.681 E8.04889
G1 X100.498 Y100.137 E8.07006
G1 X101.604 Y101.243 E8.14120
G1 X101.559 Y101.746 E8.16416
G1 X100.410 Y100.596 E8.23810
G1 X100.378 Y101.112 E8.26163
G1 X101.535 Y102.270 E8.33606
G1 X101.589 Y102.871 E8.36354
G1 X100.346 Y101.629 E8.44346
G1 X100.346 Y102.177 E8.46838
G1 X101.642 Y103.473 E8.55177
G1 X101.710 Y104.089 E8.57995
G1 X100.405 Y102.785 E8.66384
G1 X100.465 Y103.393 E8.69162
G1 X101.966 Y104.893 E8.78812
G1 X102.259 Y105.734 F7800.000
G1 X100.525 Y104.001 E8.89964 F540.000
G1 X100.771 Y104.795 E8.93747
G1 X104.988 Y109.011 E9.20866
G1 X105.739 Y109.214 E9.24405
G1 X104.500 Y107.976 E9.32371
G1 X104.118 Y108.690 F7800.000
G1 X101.067 Y105.639 E9.51995 F540.000
G1 X102.111 Y107.231 F7800.000
G1 X102.466 Y107.586 E9.54276 F540.000
G1 X105.407 Y108.335 F7800.000
G1 X106.351 Y109.278 E9.60343 F540.000
G1 X106.962 Y109.341 E9.63140
G1 X106.097 Y108.476 E9.68705
G1 X106.713 Y108.544 E9.71524
G1 X107.571 Y109.402 E9.77042
G1 X108.084 Y109.367 E9.79379
G1 X107.329 Y108.612 E9.84233
G1 X107.833 Y108.568 E9.86534
G1 X108.596 Y109.331 E9.91443
G1 X109.089 Y109.276 E9.93698
G1 X108.326 Y108.512 E9.98607
G1 X108.818 Y108.457 E10.00862
G1 X109.535 Y109.173 E10.05471
G1 X109.981 Y109.071 E10.07552
G1 X109.272 Y108.362 E10.12114
G1 X109.662 Y108.204 E10.14029
G1 X110.398 Y108.940 E10.18762
G1 X110.783 Y108.777 E10.20662
G1 X110.053 Y108.047 E10.25357
G1 X110.443 Y107.889 E10.27272
G1 X111.167 Y108.613 E10.31929
G1 X111.520 Y108.417 E10.33763
G1 X110.781 Y107.679 E10.38513
G1 X111.080 Y107.429 E10.40283
G1 X111.847 Y108.196 E10.45217
G1 X112.174 Y107.975 E10.47013
G1 X111.378 Y107.180 E10.52130
G1 X111.677 Y106.930 E10.53900
G1 X112.455 Y107.708 E10.58903
G1 X112.729 Y107.434 E10.60666
G1 X111.932 Y106.637 E10.65791
G1 X112.148 Y106.305 E10.67594
G1 X113.003 Y107.160 E10.73094
G1 X113.240 Y106.849 E10.74873
G1 X112.364 Y105.972 E10.80510
G1 X112.580 Y105.640 E10.82312
G1 X113.454 Y106.514 E10.87936
G1 X113.668 Y106.180 E10.89741
G1 X112.756 Y105.268 E10.95606
G1 X112.888 Y104.853 E10.97590
G1 X113.844 Y105.808 E11.03734
G1 X114.001 Y105.417 E11.05650
G1 X113.021 Y104.437 E11.11954
G1 X113.153 Y104.021 E11.13939
G1 X114.158 Y105.026 E11.20404
G1 X114.274 Y104.594 E11.22440
G1 X113.235 Y103.555 E11.29124
G1 X113.280 Y103.052 E11.31421
G1 X114.372 Y104.143 E11.38444
G1 X114.470 Y103.693 E11.40540
G1 X113.325 Y102.549 E11.47901
G1 X113.370 Y102.046 E11.50197
G1 X114.516 Y103.192 E11.57569
G1 X114.550 Y102.677 E11.59913
G1 X113.332 Y101.459 E11.67749
G1 X113.281 Y100.860 E11.70486
G1 X114.584 Y102.163 E11.78869
G1 X114.533 Y101.564 E11.81604
G1 X113.229 Y100.260 E11.89989
G1 X113.058 Y99.541 E11.93354
G1 X114.479 Y100.962 E12.02496
G1 X114.425 Y100.360 E12.05244
G1 X112.815 Y98.750 E12.15602
G92 E0
G1 X102.111 Y96.005 F7800.000
G1 X98.531 Y94.368 F7800.000
G1 X98.275 Y95.149 F7800.000
G1 X98.030 Y96.060 F7800.000
G1 X94.756 Y96.060 F7800.000
G1 X94.395 Y95.835 F7800.000
G1 X86.809 Y95.835 E0.34328 F378.000
G1 X86.809 Y109.439 E0.95886
G1 X85.187 Y109.439 E1.03220
G1 X85.187 Y94.593 E1.70398
G1 X94.531 Y94.593 E2.12674
G1 X94.531 Y95.739 E2.17862
G1 X94.305 Y95.023 F7800.000
G1 X94.101 Y94.819 E2.19195 F540.000
G1 X93.543 Y94.819 E2.21778
G1 X94.305 Y95.581 E2.26765
G1 X93.775 Y95.609 E2.29220
G1 X92.985 Y94.819 E2.34393
G1 X92.427 Y94.819 E2.36977
G1 X93.217 Y95.609 E2.42150
G1 X92.659 Y95.609 E2.44734
G1 X91.869 Y94.819 E2.49907
G1 X91.311 Y94.819 E2.52490
G1 X92.101 Y95.609 E2.57664
G1 X91.543 Y95.609 E2.60247
G1 X90.753 Y94.819 E2.65420
G1 X90.195 Y94.819 E2.68004
G1 X90.985 Y95.609 E2.73177
G1 X90.427 Y95.609 E2.75760
G1 X89.637 Y94.819 E2.80934
G1 X89.079 Y94.819 E2.83517
G1 X89.869 Y95.609 E2.88690
G1 X89.311 Y95.609 E2.91274
G1 X88.521 Y94.819 E2.96447
G1 X87.963 Y94.819 E2.99030
G1 X88.753 Y95.609 E3.04204
G1 X88.195 Y95.609 E3.06787
G1 X87.405 Y94.819 E3.11960
G1 X86.847 Y94.819 E3.14544
G1 X87.637 Y95.609 E3.19717
G1 X87.079 Y95.609 E3.22300
G1 X86.289 Y94.819 E3.27474
G1 X85.731 Y94.819 E3.30057
G1 X86.583 Y95.671 E3.35633
G1 X86.583 Y96.229 E3.38217
G1 X85.413 Y95.059 E3.45872
G1 X85.413 Y95.617 E3.48455
G1 X86.583 Y96.787 E3.56110
G1 X86.583 Y97.345 E3.58693
G1 X85.413 Y96.175 E3.66348
G1 X85.413 Y96.733 E3.68932
G1 X86.583 Y97.903 E3.76587
G1 X86.583 Y98.461 E3.79170
G1 X85.413 Y97.291 E3.86825
G1 X85.413 Y97.849 E3.89409
G1 X86.583 Y99.019 E3.97063
G1 X86.583 Y99.577 E3.99647
G1 X85.413 Y98.407 E4.07302
G1 X85.413 Y98.965 E4.09885
G1 X86.583 Y100.135 E4.17540
G1 X86.583 Y100.693 E4.20124
G1 X85.413 Y99.523 E4.27779
G1 X85.413 Y100.081 E4.30362
G1 X86.583 Y101.251 E4.38017
G1 X86.583 Y101.809 E4.40600
G1 X85.413 Y100.639 E4.48255
G1 X85.413 Y101.197 E4.50839
G1 X86.583 Y102.367 E4.58494
G1 X86.583 Y102.925 E4.61077
G1 X85.413 Y101.755 E4.68732
G1 X85.413 Y102.313 E4.71316
G1 X86.583 Y103.483 E4.78970
G1 X86.583 Y104.041 E4.81554
G1 X85.413 Y102.871 E4.89209
G1 X85.413 Y103.429 E4.91792
G1 X86.583 Y104.599 E4.99447
G1 X86.583 Y105.157 E5.02031
G1 X85.413 Y103.987 E5.09686
G1 X85.413 Y104.545 E5.12269
G1 X86.583 Y105.715 E5.19924
G1 X86.583 Y106.273 E5.22507
G1 X85.413 Y105.103 E5.30162
G1 X85.413 Y105.661 E5.32746
G1 X86.583 Y106.831 E5.40401
G1 X86.583 Y107.389 E5.42984
G1 X85.413 Y106.219 E5.50639
G1 X85.413 Y106.777 E5.53223
G1 X86.583 Y107.947 E5.60878
G1 X86.583 Y108.505 E5.63461
G1 X85.413 Y107.335 E5.71116
G1 X85.413 Y107.893 E5.73699
G1 X86.583 Y109.063 E5.81354
G1 X86.175 Y109.213 E5.83366
G1 X85.413 Y108.451 E5.88352
G1 X85.413 Y109.009 E5.90936
G1 X85.617 Y109.213 E5.92269
M106 S255
G92 E0
G1 Z0.600 F7800.000
G1 X106.720 Y94.182 F7800.000
G1 X108.684 Y95.103 E0.65005 F600.000
G1 X109.375 Y95.241 E0.86105
G1 X110.354 Y95.558 E1.16951
G1 X110.747 Y95.742 E1.29935
G1 X110.982 Y95.877 E1.38056
G1 X111.620 Y96.312 E1.61211
G1 X112.096 Y96.743 E1.80458
G1 X112.290 Y96.948 E1.88904
G1 X112.627 Y97.363 E2.04931
G1 X113.118 Y98.160 E2.32964
G1 X113.368 Y98.681 E2.50305
G1 X113.748 Y99.920 E2.89116
G1 X113.821 Y100.236 E2.98831
G1 X113.979 Y102.072 E3.54074
G1 X113.874 Y103.444 E3.95299
G1 X113.755 Y104.140 E4.16438
G1 X113.613 Y104.671 E4.32910
G1 X113.215 Y105.761 E4.67708
G1 X112.629 Y106.678 E5.00312
G1 X112.316 Y107.070 E5.15318
G1 X111.929 Y107.459 E5.31762
G1 X111.065 Y108.109 E5.64160
G1 X110.752 Y108.275 E5.74797
G1 X110.020 Y108.578 E5.98535
G1 X109.391 Y108.776 E6.18268
G1 X108.824 Y108.888 E6.35614
G1 X107.480 Y109.008 E6.76037
G1 X105.756 Y108.827 E7.27988
G1 X105.454 Y108.769 E7.37203
G1 X104.169 Y108.277 E7.78428
G1 X103.843 Y108.115 E7.89327
G1 X102.804 Y107.296 E8.28979
G1 X102.590 Y107.098 E8.37708
G1 X101.680 Y105.760 E8.86223
G1 X101.122 Y104.098 E9.38730
G1 X100.926 Y102.040 E10.00691
G1 X101.025 Y100.721 E10.40330
G1 X101.148 Y99.961 E10.63391
G1 X101.262 Y99.519 E10.77063
G1 X101.632 Y98.441 E11.11218
G1 X101.757 Y98.202 E11.19289
G1 X102.171 Y97.525 E11.43077
G1 X102.590 Y96.965 E11.64045
G1 X102.779 Y96.747 E11.72669
G1 X103.585 Y96.086 E12.03908
G1 X103.916 Y95.865 E12.15843
G1 X104.164 Y95.726 E12.24362
G1 X104.510 Y95.567 E12.35759
G1 X105.580 Y95.188 E12.69776
G1 X106.987 Y95.005 E13.12285
G1 X107.337 Y94.900 E13.23237
G1 X107.805 Y94.691 E13.38608
G1 X107.812 Y94.566 E13.42366
G1 X107.948 Y93.914 E13.62304
G1 X108.187 Y93.293 E13.82264
G1 X108.356 Y92.950 E13.93707
G1 X108.664 Y92.411 E14.12318
G1 X108.879 Y92.132 E14.22869
G1 X109.159 Y91.820 E14.35431
G1 X109.540 Y91.513 E14.50104
G1 X109.695 Y91.410 E14.55679
G1 X110.298 Y91.132 E14.75570
G1 X111.108 Y90.962 E15.00354
G1 X111.910 Y90.945 E15.24390
G1 X112.353 Y90.978 E15.37717
G1 X113.129 Y91.099 E15.61233
G92 E0
G1 X107.263 Y92.865 F7800.000
G1 X107.263 Y92.865 F7800.000
G1 X104.531 Y91.342 F7800.000
G1 X104.517 Y91.325 F7800.000
G1 X104.505 Y91.310 F7800.000
G1 X103.225 Y91.494 F7800.000
G1 X102.608 Y91.612 F7800.000
G1 X101.371 Y91.906 F7800.000
G1 X100.631 Y92.121 F7800.000
G1 X99.423 Y92.534 F7800.000
G1 X98.988 Y92.695 F7800.000
G1 X98.877 Y93.195 F7800.000
G1 X98.531 Y94.368 F7800.000
G1 X98.496 Y94.463 F7800.000
G1 X98.275 Y95.149 F7800.000
G1 X98.030 Y96.060 F7800.000
G1 X97.930 Y96.395 F7800.000
G1 X97.761 Y96.914 F7800.000
G1 X97.225 Y98.114 F7800.000
G1 X96.962 Y98.568 F7800.000
G1 X96.077 Y99.798 F7800.000
G1 X95.629 Y100.315 F7800.000
G1 X94.756 Y101.219 F7800.000
G1 X94.232 Y101.712 F7800.000
G1 X93.460 Y102.487 F7800.000
G1 X87.034 Y96.060 F7800.000
G1 X85.998 Y109.664 F7800.000
G1 X85.998 Y96.060 E4.07639 F600.000
G1 X86.078 Y95.484 E4.25074
G1 X87.034 Y95.214 E4.54819
G1 X94.756 Y95.214 E6.86205
G92 E0
G1 Z0.900 F7800.000
G1 X106.720 Y94.182 F7800.000
G1 X108.684 Y95.103 E0.65005 F600.000
G1 X109.375 Y95.241 E0.86105
G1 X110.354 Y95.558 E1.16951
G1 X110.747 Y95.742 E1.29935
G1 X110.982 Y95.877 E1.38056
G1 X111.620 Y96.312 E1.61211
G1 X112.096 Y96.743 E1.80458
G1 X112.290 Y96.948 E1.88904
G1 X112.627 Y97.363 E2.04931
G1 X113.118 Y98.160 E2.32964
G1 X113.368 Y98.681 E2.50305
G1 X113.748 Y99.920 E2.89116
G1 X113.821 Y100.236 E2.98831
G1 X113.979 Y102.072 E3.54074
G1 X113.874 Y103.444 E3.95299
G1 X113.755 Y104.140 E4.16438
G1 X113.613 Y104.671 E4.32910
G1 X113.215 Y105.761 E4.67708
G1 X112.629 Y106.678 E5.00312
G1 X112.316 Y107.070 E5.15319
G1 X111.929 Y107.459 E5.31762
G1 X111.065 Y108.109 E5.64160
G1 X110.752 Y108.275 E5.74797
G1 X110.020 Y108.578 E5.98535
G1 X109.392 Y108.776 E6.18268
G1 X108.824 Y108.888 E6.35614
G1 X107.480 Y109.008 E6.76037
G1 X105.756 Y108.827 E7.27988
G1 X105.454 Y108.769 E7.37203
G1 X104.169 Y108.277 E7.78428
G1 X103.843 Y108.115 E7.89327
G1 X102.804 Y107.296 E8.28979
G1 X102.590 Y107.098 E8.37708
G1 X101.680 Y105.760 E8.86223
G1 X101.122 Y104.098 E9.38730
G1 X100.926 Y102.040 E10.00691
G1 X101.025 Y100.721 E10.40330
G1 X101.148 Y99.961 E10.63391
G1 X101.262 Y99.519 E10.77063
G1 X101.632 Y98.441 E11.11218
G1 X101.757 Y98.202 E11.19289
G1 X102.171 Y97.525 E11.43077
G1 X102.590 Y96.965 E11.64045
G1 X102.779 Y96.747 E11.72669
G1 X103.585 Y96.086 E12.03909
G1 X103.916 Y95.865 E12.15843
G1 X104.164 Y95.726 E12.24362
G1 X104.510 Y95.567 E12.35759
G1 X105.580 Y95.188 E12.69776
G1 X106.876 Y95.022 E13.08934
G1 X107.337 Y94.900 E13.23214
G1 X107.805 Y94.691 E13.38585
G1 X107.812 Y94.566 E13.42343
G1 X107.948 Y93.914 E13.62281
G1 X108.187 Y93.293 E13.82241
G1 X108.356 Y92.950 E13.93684
G1 X108.664 Y92.411 E14.12295
G1 X108.879 Y92.132 E14.22847
G1 X109.159 Y91.820 E14.35408
G1 X109.540 Y91.513 E14.50081
G1 X109.695 Y91.410 E14.55656
G1 X110.298 Y91.132 E14.75547
G1 X111.108 Y90.962 E15.00332
G1 X111.910 Y90.941 E15.24373
