; generated by Slic3r 1.2.9 on 2016-03-11 at 01:27:09

; external perimeters extrusion width = 1.54mm
; perimeters extrusion width = 2.62mm
; infill extrusion width = 6.27mm
; solid infill extrusion width = 2.62mm
; top infill extrusion width = 2.62mm

M107
M104 S30 ; set temperature
G28 ; home all axes
G1 Z5 F5000 ; lift nozzle
M302
M92 E10000
M500
M501
G1 E100
M109 S30 ; wait for temperature to be reached
G21 ; set units to millimeters
G90 ; use absolute coordinates
M82 ; use absolute distances for extrusion
G92 E0
G1 Z0.300 F7800.000
G1 X103.317 Y103.794 F7800.000
G1 X103.317 Y107.519 E0.16855 F378.000
G1 X101.696 Y107.519 E0.24189
G1 X101.696 Y98.030 E0.67125
G1 X101.780 Y96.914 E0.72191
G1 X102.027 Y95.920 E0.76826
G1 X102.437 Y95.037 E0.81231
G1 X102.994 Y94.275 E0.85503
G1 X103.685 Y93.644 E0.89738
G1 X104.513 Y93.142 E0.94120
G1 X105.465 Y92.776 E0.98734
G1 X106.525 Y92.555 E1.03634
G1 X107.695 Y92.481 E1.08936
G1 X108.787 Y92.551 E1.13886
G1 X108.911 Y92.558 E1.14448 F378.000
G1 X110.008 Y92.788 E1.19522
G1 X110.989 Y93.168 E1.24281
G1 X111.840 Y93.690 E1.28797
G1 X112.549 Y94.345 E1.33164
G1 X113.120 Y95.134 E1.37572
G1 X113.539 Y96.047 E1.42119
G1 X113.792 Y97.074 E1.46904
G1 X113.878 Y98.225 E1.52129
G1 X113.878 Y107.519 E1.94182
G1 X112.267 Y107.519 E2.01472
G1 X112.267 Y98.326 E2.43069
G1 X112.136 Y96.965 E2.49255
G1 X111.733 Y95.815 E2.54771
G1 X111.055 Y94.896 E2.59939
G1 X110.134 Y94.234 E2.65073
G1 X109.007 Y93.840 E2.70474
G1 X107.683 Y93.711 E2.76493
G1 X106.398 Y93.836 E2.82333
G1 X105.316 Y94.218 E2.87528
G1 X104.444 Y94.861 E2.92430
G1 X103.813 Y95.753 E2.97372
G1 X103.439 Y96.867 E3.02692
G1 X103.317 Y98.186 E3.08684
G1 X103.317 Y103.563 E3.33016
G1 X101.922 Y107.089 F7800.000
G1 X102.126 Y107.293 E3.34319 F540.000
G1 X102.671 Y107.293 E3.36787
G1 X101.922 Y106.544 E3.41581
G1 X101.922 Y105.999 E3.44049
G1 X103.091 Y107.168 E3.51531
G1 X103.091 Y106.622 E3.53999
G1 X101.922 Y105.453 E3.61481
G1 X101.922 Y104.908 E3.63949
G1 X103.091 Y106.077 E3.71431
G1 X103.091 Y105.532 E3.73899
G1 X101.922 Y104.362 E3.81381
G1 X101.922 Y103.817 E3.83849
G1 X103.091 Y104.986 E3.91331
G1 X103.091 Y104.441 E3.93799
G1 X101.922 Y103.272 E4.01281
G1 X101.922 Y102.726 E4.03749
G1 X103.091 Y103.895 E4.11231
G1 X103.091 Y103.350 E4.13699
G1 X101.922 Y102.181 E4.21181
G1 X101.922 Y101.635 E4.23649
G1 X103.091 Y102.805 E4.31131
G1 X103.091 Y102.259 E4.33599
G1 X101.922 Y101.090 E4.41081
G1 X101.922 Y100.545 E4.43549
G1 X103.091 Y101.714 E4.51031
G1 X103.091 Y101.168 E4.53499
G1 X101.922 Y99.999 E4.60981
G1 X101.922 Y99.454 E4.63450
G1 X103.091 Y100.623 E4.70932
G1 X103.091 Y100.078 E4.73400
G1 X101.922 Y98.908 E4.80882
G1 X101.922 Y98.363 E4.83350
G1 X103.091 Y99.532 E4.90832
G1 X103.091 Y98.987 E4.93300
G1 X101.932 Y97.828 E5.00718
G1 X101.970 Y97.320 E5.03021
G1 X103.091 Y98.441 E5.10196
G1 X103.121 Y97.926 E5.12532
G1 X102.017 Y96.822 E5.19597
G1 X102.126 Y96.385 E5.21634
G1 X103.167 Y97.427 E5.28298
G1 X103.213 Y96.927 E5.30567
G1 X102.235 Y95.949 E5.36832
G1 X102.406 Y95.575 E5.38692
G1 X103.343 Y96.511 E5.44684
G1 X103.480 Y96.103 E5.46634
G1 X102.579 Y95.203 E5.52396
G1 X102.796 Y94.874 E5.54178
G1 X103.617 Y95.695 E5.59431
G1 X103.843 Y95.375 E5.61201
G1 X103.026 Y94.559 E5.66426
G1 X103.292 Y94.279 E5.68172
G1 X104.069 Y95.056 E5.73145
G1 X104.295 Y94.737 E5.74915
G1 X103.569 Y94.011 E5.79563
G1 X103.866 Y93.763 E5.81316
G1 X104.606 Y94.502 E5.86047
G1 X104.919 Y94.270 E5.87811
G1 X104.206 Y93.557 E5.92377
G1 X104.545 Y93.351 E5.94174
G1 X105.233 Y94.038 E5.98573
G1 X105.631 Y93.891 E6.00494
G1 X104.936 Y93.196 E6.04941
G1 X105.330 Y93.045 E6.06851
G1 X106.034 Y93.749 E6.11358
G1 X106.443 Y93.612 E6.13309
G1 X105.761 Y92.930 E6.17675
G1 X106.212 Y92.836 E6.19762
G1 X106.940 Y93.564 E6.24420
G1 X107.437 Y93.515 E6.26679
G1 X106.688 Y92.767 E6.31472
G1 X107.201 Y92.734 E6.33798
G1 X107.970 Y93.504 E6.38723
G1 X108.575 Y93.563 E6.41471
G1 X107.728 Y92.715 E6.46894
G1 X108.310 Y92.752 E6.49534
G1 X109.189 Y93.631 E6.55159
G1 X110.026 Y93.923 F7800.000
G1 X108.911 Y92.808 E6.62295 F540.000
G1 X109.601 Y92.953 E6.65483
G1 X113.477 Y96.828 E6.90286
G1 X113.248 Y96.054 E6.93937
G1 X110.423 Y93.229 E7.12019
G1 X111.868 Y94.129 F7800.000
G1 X112.473 Y94.734 E7.15891 F540.000
G1 X112.054 Y95.951 F7800.000
G1 X113.590 Y97.487 E7.25724 F540.000
G1 X113.634 Y98.076 E7.28397
G1 X112.347 Y96.790 E7.36633
G1 X112.413 Y97.401 E7.39415
G1 X113.652 Y98.640 E7.47344
G1 X113.652 Y99.185 E7.49812
G1 X112.471 Y98.004 E7.57369
G1 X112.493 Y98.571 E7.59937
G1 X113.652 Y99.731 E7.67355
G1 X113.652 Y100.276 E7.69823
G1 X112.493 Y99.117 E7.77241
G1 X112.493 Y99.662 E7.79710
G1 X113.652 Y100.821 E7.87127
G1 X113.652 Y101.367 E7.89596
G1 X112.493 Y100.208 E7.97014
G1 X112.493 Y100.753 E7.99482
G1 X113.652 Y101.912 E8.06900
G1 X113.652 Y102.458 E8.09368
G1 X112.493 Y101.298 E8.16786
G1 X112.493 Y101.844 E8.19254
G1 X113.652 Y103.003 E8.26672
G1 X113.652 Y103.548 E8.29140
G1 X112.493 Y102.389 E8.36558
G1 X112.493 Y102.935 E8.39026
G1 X113.652 Y104.094 E8.46444
G1 X113.652 Y104.639 E8.48912
G1 X112.493 Y103.480 E8.56330
G1 X112.493 Y104.025 E8.58798
G1 X113.652 Y105.185 E8.66216
G1 X113.652 Y105.730 E8.68684
G1 X112.493 Y104.571 E8.76102
G1 X112.493 Y105.116 E8.78570
G1 X113.652 Y106.275 E8.85988
G1 X113.652 Y106.821 E8.88456
G1 X112.493 Y105.662 E8.95874
G1 X112.493 Y106.207 E8.98342
G1 X113.579 Y107.293 E9.05292
G1 X113.034 Y107.293 E9.07760
G1 X112.493 Y106.752 E9.11220
G92 E0
G1 X112.042 Y98.337 F7800.000
G1 X103.542 Y108.744 F7800.000
G1 X101.471 Y108.744 F7800.000
G1 X94.720 Y102.993 F7800.000
G1 X94.720 Y100.891 F7800.000
G1 X87.968 Y94.140 F7800.000
G1 X86.122 Y96.481 F7800.000
G1 X86.122 Y92.673 E0.17230 F378.000
G1 X95.465 Y92.673 E0.59506
G1 X95.465 Y93.915 E0.65126
G1 X87.743 Y93.915 E1.00068 F378.000
G1 X87.743 Y107.519 E1.61625
G1 X86.122 Y107.519 E1.68960
G1 X86.122 Y96.712 E2.17862
G1 X86.897 Y93.448 F7800.000
G1 X86.897 Y93.448 F7800.000
G1 X86.932 Y93.483 F7800.000
G1 X86.968 Y93.448 F7800.000
G1 X95.239 Y93.103 F7800.000
G1 X95.035 Y92.899 E2.19195 F540.000
G1 X94.477 Y92.899 E2.21778
G1 X95.239 Y93.661 E2.26765
G1 X94.710 Y93.689 E2.29220
G1 X93.919 Y92.899 E2.34393
G1 X93.361 Y92.899 E2.36977
G1 X94.152 Y93.689 E2.42150
G1 X93.594 Y93.689 E2.44734
G1 X92.803 Y92.899 E2.49907
G1 X92.245 Y92.899 E2.52490
G1 X93.036 Y93.689 E2.57664
G1 X92.478 Y93.689 E2.60247
G1 X91.687 Y92.899 E2.65420
G1 X91.129 Y92.899 E2.68004
G1 X91.920 Y93.689 E2.73177
G1 X91.362 Y93.689 E2.75760
G1 X90.571 Y92.899 E2.80934
G1 X90.013 Y92.899 E2.83517
G1 X90.804 Y93.689 E2.88690
G1 X90.246 Y93.689 E2.91274
G1 X89.455 Y92.899 E2.96447
G1 X88.897 Y92.899 E2.99030
G1 X89.688 Y93.689 E3.04204
G1 X89.130 Y93.689 E3.06787
G1 X88.339 Y92.899 E3.11960
G1 X87.781 Y92.899 E3.14544
G1 X88.572 Y93.689 E3.19717
G1 X88.014 Y93.689 E3.22301
G1 X87.223 Y92.899 E3.27474
G1 X86.665 Y92.899 E3.30057
G1 X87.517 Y93.751 E3.35633
G1 X87.517 Y94.309 E3.38217
G1 X86.348 Y93.139 E3.45872
G1 X86.348 Y93.697 E3.48455
G1 X87.517 Y94.867 E3.56110
G1 X87.517 Y95.425 E3.58693
G1 X86.348 Y94.255 E3.66348
G1 X86.348 Y94.813 E3.68932
G1 X87.517 Y95.983 E3.76587
G1 X87.517 Y96.541 E3.79170
G1 X86.348 Y95.371 E3.86825
G1 X86.348 Y95.929 E3.89409
G1 X87.517 Y97.099 E3.97063
G1 X87.517 Y97.657 E3.99647
G1 X86.348 Y96.487 E4.07302
G1 X86.348 Y97.045 E4.09885
G1 X87.517 Y98.215 E4.17540
G1 X87.517 Y98.773 E4.20124
G1 X86.348 Y97.603 E4.27779
G1 X86.348 Y98.161 E4.30362
G1 X87.517 Y99.331 E4.38017
G1 X87.517 Y99.889 E4.40600
G1 X86.348 Y98.719 E4.48255
G1 X86.348 Y99.277 E4.50839
G1 X87.517 Y100.447 E4.58494
G1 X87.517 Y101.005 E4.61077
G1 X86.348 Y99.835 E4.68732
G1 X86.348 Y100.393 E4.71316
G1 X87.517 Y101.563 E4.78970
G1 X87.517 Y102.121 E4.81554
G1 X86.348 Y100.951 E4.89209
G1 X86.348 Y101.509 E4.91792
G1 X87.517 Y102.679 E4.99447
G1 X87.517 Y103.237 E5.02031
G1 X86.348 Y102.067 E5.09686
G1 X86.348 Y102.625 E5.12269
G1 X87.517 Y103.795 E5.19924
G1 X87.517 Y104.353 E5.22507
G1 X86.348 Y103.183 E5.30162
G1 X86.348 Y103.741 E5.32746
G1 X87.517 Y104.911 E5.40401
G1 X87.517 Y105.469 E5.42984
G1 X86.348 Y104.299 E5.50639
G1 X86.348 Y104.857 E5.53223
G1 X87.517 Y106.027 E5.60877
G1 X87.517 Y106.585 E5.63461
G1 X86.348 Y105.415 E5.71116
G1 X86.348 Y105.973 E5.73699
G1 X87.517 Y107.143 E5.81354
G1 X87.110 Y107.293 E5.83365
G1 X86.348 Y106.531 E5.88352
G1 X86.348 Y107.089 E5.90936
G1 X86.552 Y107.293 E5.92269
M106 S255
G92 E0
G1 Z0.600 F7800.000
G1 X113.073 Y107.744 F7800.000
G1 X113.071 Y98.255 E2.84325 F600.000
G1 X112.981 Y97.203 E3.15974
G1 X112.877 Y96.677 E3.32028
G1 X112.769 Y96.316 E3.43319
G1 X112.449 Y95.526 E3.68880
G1 X111.974 Y94.854 E3.93514
G1 X111.654 Y94.497 E4.07880
G1 X111.443 Y94.296 E4.16631
G1 X110.683 Y93.785 E4.44066
G1 X110.318 Y93.607 E4.56242
G1 X109.820 Y93.424 E4.72147
G1 X109.237 Y93.262 E4.90264
G1 X108.827 Y93.187 E5.02756
G1 X107.695 Y93.097 E5.36783
G1 X106.610 Y93.182 E5.69391
G1 X106.167 Y93.262 E5.82880
G1 X105.651 Y93.406 E5.98949
G1 X105.132 Y93.597 E6.15493
G1 X104.812 Y93.750 E6.26143
G1 X104.052 Y94.270 E6.53725
G1 X103.838 Y94.476 E6.62624
G1 X103.564 Y94.786 E6.75028
G1 X103.108 Y95.433 E6.98749
G1 X102.802 Y96.193 E7.23307
G1 X102.687 Y96.587 E7.35605
G1 X102.595 Y97.045 E7.49583
G1 X102.509 Y98.101 E7.81328
G1 X102.507 Y107.744 E10.70287
G92 E0
G1 X99.471 Y107.744 F7800.000
G1 X89.968 Y107.744 F7800.000
G1 X87.968 Y107.744 F7800.000
G1 X86.932 Y107.744 F7800.000
G1 X86.932 Y94.140 E4.07639 F600.000
G1 X87.013 Y93.564 E4.25074
G1 X87.968 Y93.294 E4.54819
G1 X95.690 Y93.294 E6.86206
G92 E0
G1 Z0.900 F7800.000
G1 X113.073 Y107.744 F7800.000
G1 X113.071 Y98.255 E2.84325 F600.000
G1 X112.981 Y97.203 E3.15974
G1 X112.877 Y96.677 E3.32028
G1 X112.769 Y96.316 E3.43319
G1 X112.449 Y95.526 E3.68880
G1 X111.974 Y94.854 E3.93514
G1 X111.654 Y94.497 E4.07880
G1 X111.443 Y94.296 E4.16631
G1 X110.683 Y93.785 E4.44066
G1 X110.318 Y93.607 E4.56242
G1 X109.820 Y93.424 E4.72147
G1 X109.237 Y93.262 E4.90264
G1 X108.826 Y93.187 E5.02801
G1 X107.695 Y93.097 E5.36783
G1 X106.610 Y93.182 E5.69391
G1 X106.167 Y93.262 E5.82880
G1 X105.651 Y93.406 E5.98949
G1 X105.132 Y93.597 E6.15492
G1 X104.812 Y93.750 E6.26143
G1 X104.052 Y94.270 E6.53725
G1 X103.838 Y94.476 E6.62624
G1 X103.564 Y94.786 E6.75028
G1 X103.108 Y95.433 E6.98748
G1 X102.802 Y96.193 E7.23306
G1 X102.687 Y96.587 E7.35605
G1 X102.595 Y97.045 E7.49583
G1 X102.509 Y98.101 E7.81328
G1 X102.507 Y107.744 E10.70287
G92 E0
G1 X99.471 Y107.744 F7800.000
G1 X89.968 Y107.744 F7800.000
G1 X87.968 Y107.744 F7800.000
G1 X86.932 Y107.744 F7800.000
G1 X86.932 Y94.140 E4.07639 F600.000
G1 X87.013 Y93.564 E4.25074
G1 X87.968 Y93.294 E4.54819
G1 X95.690 Y93.294 E6.86206
G92 E0
G1 Z1.200 F7800.000
G1 X113.073 Y107.744 F7800.000
G1 X113.071 Y98.255 E2.84325 F600.000
G1 X112.981 Y97.203 E3.15974
G1 X112.877 Y96.677 E3.32028
G1 X112.769 Y96.316 E3.43319
G1 X112.449 Y95.526 E3.68880
G1 X111.974 Y94.854 E3.93514
G1 X111.654 Y94.497 E4.07880
G1 X111.443 Y94.296 E4.16631
G1 X110.683 Y93.785 E4.44066
G1 X110.318 Y93.607 E4.56242
G1 X109.820 Y93.424 E4.72147
G1 X109.237 Y93.262 E4.90264
G1 X108.826 Y93.187 E5.02801
G1 X107.695 Y93.097 E5.36783
G1 X106.610 Y93.182 E5.69391
G1 X106.167 Y93.262 E5.82880
G1 X105.651 Y93.406 E5.98949
G1 X105.132 Y93.597 E6.15492
G1 X104.812 Y93.750 E6.26143
G1 X104.052 Y94.270 E6.53725
G1 X103.838 Y94.476 E6.62624
G1 X103.564 Y94.786 E6.75028
G1 X103.108 Y95.433 E6.98748
G1 X102.802 Y96.193 E7.23306
G1 X102.687 Y96.587 E7.35605
G1 X102.595 Y97.045 E7.49583
G1 X102.509 Y98.101 E7.81328
G1 X102.507 Y107.744 E10.70287
G92 E0
G1 X99.471 Y107.744 F7800.000
G1 X89.968 Y107.744 F7800.000
G1 X87.968 Y107.744 F7800.000
G1 X86.932 Y107.744 F7800.000
G1 X86.932 Y94.140 E4.07639 F600.000
G1 X87.013 Y93.564 E4.25074
G1 X87.968 Y93.294 E4.54819
G1 X95.690 Y93.294 E6.86206
G92 E0
G1 Z1.500 F7800.000
G1 X113.073 Y107.744 F7800.000
G1 X113.071 Y98.255 E2.84325 F600.000
G1 X112.981 Y97.203 E3.15974
G1 X112.877 Y96.677 E3.32028
G1 X112.769 Y96.316 E3.43319
G1 X112.449 Y95.526 E3.68880
G1 X111.974 Y94.854 E3.93514
G1 X111.654 Y94.497 E4.07880
G1 X111.443 Y94.296 E4.16631
G1 X110.683 Y93.785 E4.44066
G1 X110.318 Y93.607 E4.56242
G1 X109.820 Y93.424 E4.72147
G1 X109.237 Y93.262 E4.90264
G1 X108.826 Y93.187 E5.02801
G1 X107.695 Y93.097 E5.36783
G1 X106.610 Y93.182 E5.69391
G1 X106.167 Y93.262 E5.82880
G1 X105.651 Y93.406 E5.98949
G1 X105.132 Y93.597 E6.15492
G1 X104.812 Y93.750 E6.26143
G1 X104.052 Y94.270 E6.53725
G1 X103.838 Y94.476 E6.62624
G1 X103.564 Y94.786 E6.75028
G1 X103.108 Y95.433 E6.98748
G1 X102.802 Y96.193 E7.23306
G1 X102.687 Y96.587 E7.35605
G1 X102.595 Y97.045 E7.49583
G1 X102.509 Y98.101 E7.81328
G1 X102.507 Y107.744 E10.70287
G92 E0
G1 X99.471 Y107.744 F7800.000
G1 X89.968 Y107.744 F7800.000
G1 X87.968 Y107.744 F7800.000
G1 X86.932 Y107.744 F7800.000
G1 X86.932 Y94.140 E4.07639 F600.000
G1 X87.013 Y93.564 E4.25074
G1 X87.968 Y93.294 E4.54819
G1 X95.690 Y93.294 E6.86206
G92 E0
G1 Z1.800 F7800.000
G1 X113.073 Y107.744 F7800.000
G1 X113.071 Y98.255 E2.84325 F600.000
G1 X112.981 Y97.203 E3.15974
G1 X112.877 Y96.677 E3.32028
G1 X112.769 Y96.316 E3.43319
G1 X112.449 Y95.526 E3.68880
G1 X111.974 Y94.854 E3.93514
G1 X111.654 Y94.497 E4.07880
G1 X111.443 Y94.296 E4.16631
G1 X110.683 Y93.785 E4.44066
G1 X110.318 Y93.607 E4.56242
G1 X109.820 Y93.424 E4.72147
G1 X109.237 Y93.262 E4.90264
G1 X108.826 Y93.187 E5.02801
G1 X107.695 Y93.097 E5.36783
G1 X106.610 Y93.182 E5.69391
G1 X106.167 Y93.262 E5.82880
G1 X105.651 Y93.406 E5.98949
G1 X105.132 Y93.597 E6.15493
G1 X104.812 Y93.750 E6.26143
G1 X104.052 Y94.270 E6.53725
G1 X103.838 Y94.476 E6.62624
G1 X103.564 Y94.786 E6.75028
G1 X103.108 Y95.433 E6.98748
G1 X102.802 Y96.193 E7.23306
G1 X102.687 Y96.587 E7.35605
G1 X102.595 Y97.045 E7.49583
G1 X102.509 Y98.101 E7.81328
G1 X102.507 Y107.744 E10.70287
G92 E0
G1 X99.471 Y107.744 F7800.000
G1 X89.968 Y107.744 F7800.000
G1 X87.968 Y107.744 F7800.000
G1 X86.932 Y107.744 F7800.000
G1 X86.932 Y94.140 E4.07639 F600.000
G1 X87.013 Y93.564 E4.25074
G1 X87.968 Y93.294 E4.54819
G1 X95.690 Y93.294 E6.86206
G92 E0
G1 Z2.100 F7800.000
G1 X113.073 Y107.744 F7800.000
G1 X113.071 Y98.255 E2.84325 F600.000
G1 X112.981 Y97.203 E3.15974
G1 X112.877 Y96.677 E3.32028
G1 X112.769 Y96.316 E3.43319
G1 X112.449 Y95.526 E3.68880
G1 X111.974 Y94.854 E3.93514
G1 X111.654 Y94.497 E4.07880
G1 X111.443 Y94.296 E4.16631
G1 X110.683 Y93.785 E4.44066
G1 X110.318 Y93.607 E4.56242
G1 X109.820 Y93.424 E4.72147
G1 X109.237 Y93.262 E4.90264
G1 X108.826 Y93.187 E5.02801
G1 X107.725 Y93.099 E5.35889
G1 X106.609 Y93.182 E5.69426
G1 X106.167 Y93.262 E5.82874
G1 X105.651 Y93.406 E5.98942
G1 X105.132 Y93.597 E6.15486
G1 X104.812 Y93.750 E6.26136
G1 X104.052 Y94.270 E6.53719
G1 X103.838 Y94.476 E6.62618
G1 X103.564 Y94.786 E6.75022
G1 X103.108 Y95.433 E6.98742
G1 X102.802 Y96.193 E7.23300
G1 X102.687 Y96.587 E7.35598
G1 X102.595 Y97.045 E7.49577
G1 X102.509 Y98.101 E7.81321
G1 X102.507 Y107.744 E10.70280
G92 E0
G1 X99.471 Y107.744 F7800.000
G1 X89.968 Y107.744 F7800.000
G1 X87.968 Y107.744 F7800.000
G1 X86.932 Y107.744 F7800.000
G1 X86.932 Y94.140 E4.07639 F600.000
G1 X87.013 Y93.564 E4.25074
G1 X87.968 Y93.294 E4.54819
G1 X95.690 Y93.294 E6.86206
G92 E0
M107
M104 S0 ; turn off temperature
G28 X0  ; home X axis
M84     ; disable motors

; filament used = 120.4mm (0.9cm3)

; avoid_crossing_perimeters = 1
; bed_shape = 0x0,250x0,250x250,0x250
; bed_temperature = 0
; before_layer_gcode = 
; bridge_acceleration = 0
; bridge_fan_speed = 100
; brim_width = 0
; complete_objects = 0
; cooling = 1
; default_acceleration = 0
; disable_fan_first_layers = 1
; duplicate_distance = 6
; end_gcode = M104 S0 ; turn off temperature\nG28 X0  ; home X axis\nM84     ; disable motors\n
; extruder_clearance_height = 20
; extruder_clearance_radius = 20
; extruder_offset = 0x0
; extrusion_axis = E
; extrusion_multiplier = 3
; fan_always_on = 0
; fan_below_layer_time = 60
; filament_colour = #FFFFFF
; filament_diameter = 3.125
; first_layer_acceleration = 0
