; generated by Slic3r 1.2.9 on 2016-03-11 at 01:27:09

; external perimeters extrusion width = 1.54mm
; perimeters extrusion width = 2.62mm
; infill extrusion width = 6.27mm
; solid infill extrusion width = 2.62mm
; top infill extrusion width = 2.62mm

M107
M104 S30 ; set temperature
G28 ; home all axes
G1 Z5 F5000 ; lift nozzle
M302
M92 E10000
M500
M501
G1 E100
M109 S30 ; wait for temperature to be reached
G21 ; set units to millimeters
G90 ; use absolute coordinates
M82 ; use absolute distances for extrusion
G92 E0
G1 Z0.300 F7800.000
G1 X110.603 Y105.889 F7800.000
G1 X107.062 Y96.800 E0.44137 F378.000
G1 X106.140 Y94.056 E0.57238
G1 X105.745 Y94.056 E0.59026
G1 X104.822 Y96.800 E0.72128
G1 X100.662 Y107.423 E1.23750
G1 X98.971 Y107.423 E1.31402
G1 X105.010 Y92.577 E2.03924
G1 X106.854 Y92.577 E2.12269
G1 X112.551 Y106.586 E2.80699
G1 X112.892 Y107.423 E2.84789 F378.000
G1 X111.200 Y107.423 E2.92445
G1 X110.687 Y106.104 E2.98848
G1 X110.903 Y105.939 F7800.000
G1 X112.160 Y107.197 E3.06933 F540.000
G1 X112.385 Y106.874 E3.08722
G1 X110.553 Y105.042 E3.20499
G1 X110.203 Y104.145 F7800.000
G1 X112.009 Y105.951 E3.32109 F540.000
G1 X111.634 Y105.027 F7800.000
G1 X109.854 Y103.247 E3.43552 F540.000
G1 X109.504 Y102.350 F7800.000
G1 X111.258 Y104.104 E3.54829 F540.000
G1 X110.883 Y103.180 F7800.000
G1 X109.155 Y101.452 E3.65940 F540.000
G1 X108.805 Y100.555 F7800.000
G1 X110.507 Y102.257 E3.76883 F540.000
G1 X110.132 Y101.334 F7800.000
G1 X108.455 Y99.657 E3.87660 F540.000
G1 X109.381 Y99.487 F7800.000
G1 X107.756 Y97.862 E3.98103 F540.000
G1 X108.629 Y97.640 F7800.000
G1 X107.101 Y96.111 E4.07929 F540.000
G1 X107.878 Y95.793 F7800.000
G1 X106.547 Y94.461 E4.16490 F540.000
G1 X107.127 Y93.946 F7800.000
G1 X105.984 Y92.803 E4.23840 F540.000
G1 X106.532 Y92.803 E4.26331
G1 X106.752 Y93.023 E4.27745
G1 X105.915 Y93.830 F7800.000
G1 X105.064 Y92.978 E4.33218 F540.000
G1 X105.436 Y92.803 E4.35089
G1 X107.503 Y94.870 E4.48375
G1 X106.824 Y95.286 F7800.000
G1 X108.254 Y96.717 E4.57569 F540.000
G1 X107.406 Y96.965 F7800.000
G1 X109.005 Y98.563 E4.67845 F540.000
G1 X108.106 Y98.760 F7800.000
G1 X109.756 Y100.410 E4.78455 F540.000
G1 X111.252 Y106.837 F7800.000
G1 X111.612 Y107.197 E4.80771 F540.000
G92 E0
G1 X100.400 Y105.966 F7800.000
G1 X100.400 Y105.966 F7800.000
G1 X100.130 Y106.643 F7800.000
G1 X100.123 Y106.648 F7800.000
G1 X99.560 Y107.197 F7800.000
G1 X99.361 Y106.998 E0.01279 F540.000
G1 X99.519 Y106.609 E0.03190
G1 X100.108 Y107.197 E0.06972
G1 X100.568 Y107.110 E0.09102
G1 X99.678 Y106.219 E0.14826
G1 X99.836 Y105.830 E0.16737
G1 X100.722 Y106.716 E0.22433
G1 X100.876 Y106.322 E0.24355
G1 X99.994 Y105.440 E0.30023
G1 X100.153 Y105.051 E0.31934
G1 X101.030 Y105.929 E0.37576
G1 X101.185 Y105.535 E0.39498
G1 X100.311 Y104.662 E0.45112
G1 X100.470 Y104.272 E0.47023
G1 X101.339 Y105.141 E0.52610
G1 X101.493 Y104.747 E0.54532
G1 X100.628 Y103.883 E0.60091
G1 X100.787 Y103.493 E0.62002
G1 X101.647 Y104.354 E0.67535
G1 X101.801 Y103.960 E0.69457
G1 X100.945 Y103.104 E0.74962
G1 X101.103 Y102.714 E0.76873
G1 X101.955 Y103.566 E0.82351
G1 X102.110 Y103.173 E0.84272
G1 X101.262 Y102.325 E0.89723
G1 X101.420 Y101.935 E0.91634
G1 X102.264 Y102.779 E0.97057
G1 X102.418 Y102.385 E0.98979
G1 X101.579 Y101.546 E1.04375
G1 X101.737 Y101.157 E1.06286
G1 X102.572 Y101.992 E1.11655
G1 X102.726 Y101.598 E1.13577
G1 X101.895 Y100.767 E1.18918
G1 X102.054 Y100.378 E1.20829
G1 X102.880 Y101.204 E1.26143
G1 X103.035 Y100.811 E1.28065
G1 X102.212 Y99.988 E1.33352
G1 X102.371 Y99.599 E1.35263
G1 X103.189 Y100.417 E1.40522
G1 X103.343 Y100.023 E1.42444
G1 X102.529 Y99.209 E1.47676
G1 X102.687 Y98.820 E1.49587
G1 X103.497 Y99.630 E1.54792
G1 X103.651 Y99.236 E1.56714
G1 X102.846 Y98.431 E1.61892
G1 X103.004 Y98.041 E1.63803
G1 X103.805 Y98.842 E1.68953
G1 X103.960 Y98.449 E1.70875
G1 X103.163 Y97.652 E1.75998
G1 X103.321 Y97.262 E1.77909
G1 X104.114 Y98.055 E1.83005
G1 X104.268 Y97.661 E1.84927
G1 X103.480 Y96.873 E1.89995
G1 X103.638 Y96.483 E1.91907
G1 X104.422 Y97.268 E1.96948
G1 X104.576 Y96.874 E1.98870
G1 X103.796 Y96.094 E2.03884
G1 X103.955 Y95.704 E2.05795
G1 X104.718 Y96.468 E2.10702
G1 X104.856 Y96.058 E2.12669
G1 X104.113 Y95.315 E2.17444
G1 X104.272 Y94.926 E2.19355
G1 X104.994 Y95.648 E2.23999
G1 X105.132 Y95.238 E2.25965
G1 X104.430 Y94.536 E2.30477
G1 X104.588 Y94.147 E2.32388
G1 X105.270 Y94.828 E2.36768
G1 X105.408 Y94.418 E2.38734
G1 X104.747 Y93.757 E2.42981
G1 X104.905 Y93.368 E2.44892
G1 X105.545 Y94.008 E2.49008
G92 E0
G1 X104.858 Y92.352 F7800.000
G1 X103.513 Y91.805 F7800.000
G1 X98.567 Y92.352 F7800.000
G1 X96.567 Y92.352 F7800.000
G1 X95.984 Y93.819 F7800.000
G1 X88.620 Y93.819 E0.33323 F378.000
G1 X88.620 Y107.423 E0.94880
G1 X86.999 Y107.423 E1.02215
G1 X86.999 Y92.577 E1.69392
G1 X96.342 Y92.577 E2.11669
G1 X96.342 Y93.819 E2.17288
G1 X96.215 Y93.819 E2.17862 F378.000
G1 X96.116 Y93.007 F7800.000
G1 X95.912 Y92.803 E2.19195 F540.000
G1 X95.354 Y92.803 E2.21778
G1 X96.116 Y93.565 E2.26765
G1 X95.586 Y93.593 E2.29220
G1 X94.796 Y92.803 E2.34393
G1 X94.238 Y92.803 E2.36977
G1 X95.028 Y93.593 E2.42150
G1 X94.470 Y93.593 E2.44734
G1 X93.680 Y92.803 E2.49907
G1 X93.122 Y92.803 E2.52490
G1 X93.912 Y93.593 E2.57664
G1 X93.354 Y93.593 E2.60247
G1 X92.564 Y92.803 E2.65420
G1 X92.006 Y92.803 E2.68004
G1 X92.796 Y93.593 E2.73177
G1 X92.238 Y93.593 E2.75760
G1 X91.448 Y92.803 E2.80934
G1 X90.890 Y92.803 E2.83517
G1 X91.680 Y93.593 E2.88690
G1 X91.122 Y93.593 E2.91274
G1 X90.332 Y92.803 E2.96447
G1 X89.774 Y92.803 E2.99030
G1 X90.564 Y93.593 E3.04204
G1 X90.006 Y93.593 E3.06787
G1 X89.216 Y92.803 E3.11960
G1 X88.658 Y92.803 E3.14544
G1 X89.448 Y93.593 E3.19717
G1 X88.890 Y93.593 E3.22300
G1 X88.100 Y92.803 E3.27474
G1 X87.542 Y92.803 E3.30057
G1 X88.394 Y93.655 E3.35633
G1 X88.394 Y94.213 E3.38217
G1 X87.225 Y93.043 E3.45872
G1 X87.225 Y93.601 E3.48455
G1 X88.394 Y94.771 E3.56110
G1 X88.394 Y95.329 E3.58693
G1 X87.225 Y94.159 E3.66348
G1 X87.225 Y94.717 E3.68932
G1 X88.394 Y95.887 E3.76587
G1 X88.394 Y96.445 E3.79170
G1 X87.225 Y95.275 E3.86825
G1 X87.225 Y95.833 E3.89409
G1 X88.394 Y97.003 E3.97063
G1 X88.394 Y97.561 E3.99647
G1 X87.225 Y96.391 E4.07302
G1 X87.225 Y96.949 E4.09885
G1 X88.394 Y98.119 E4.17540
G1 X88.394 Y98.677 E4.20124
G1 X87.225 Y97.507 E4.27779
G1 X87.225 Y98.065 E4.30362
G1 X88.394 Y99.235 E4.38017
G1 X88.394 Y99.793 E4.40600
G1 X87.225 Y98.623 E4.48255
G1 X87.225 Y99.181 E4.50839
G1 X88.394 Y100.351 E4.58494
G1 X88.394 Y100.909 E4.61077
G1 X87.225 Y99.739 E4.68732
G1 X87.225 Y100.297 E4.71316
G1 X88.394 Y101.467 E4.78970
G1 X88.394 Y102.025 E4.81554
G1 X87.225 Y100.855 E4.89209
G1 X87.225 Y101.413 E4.91792
G1 X88.394 Y102.583 E4.99447
G1 X88.394 Y103.141 E5.02031
G1 X87.225 Y101.971 E5.09686
G1 X87.225 Y102.529 E5.12269
G1 X88.394 Y103.699 E5.19924
G1 X88.394 Y104.257 E5.22507
G1 X87.225 Y103.087 E5.30162
G1 X87.225 Y103.645 E5.32746
G1 X88.394 Y104.815 E5.40401
G1 X88.394 Y105.373 E5.42984
G1 X87.225 Y104.203 E5.50639
G1 X87.225 Y104.761 E5.53223
G1 X88.394 Y105.931 E5.60877
G1 X88.394 Y106.489 E5.63461
G1 X87.225 Y105.319 E5.71116
G1 X87.225 Y105.877 E5.73699
G1 X88.394 Y107.047 E5.81354
G1 X87.986 Y107.197 E5.83365
G1 X87.225 Y106.435 E5.88352
G1 X87.225 Y106.993 E5.90936
G1 X87.428 Y107.197 E5.92268
M106 S255
G92 E0
G1 Z0.600 F7800.000
G1 X112.133 Y107.648 F7800.000
G1 X107.720 Y96.562 E3.57549 F600.000
G1 X106.774 Y94.013 E4.39000
G1 X106.334 Y93.349 E4.62869
G1 X105.907 Y93.316 E4.75724
G1 X105.532 Y93.353 E4.87012
G1 X105.101 Y94.010 E5.10552
G1 X104.156 Y96.558 E5.91986
G1 X99.729 Y107.648 E9.49798
G92 E0
G1 X98.636 Y107.648 F7800.000
G1 X94.212 Y104.281 F7800.000
G1 X90.845 Y107.648 F7800.000
G1 X88.845 Y107.648 F7800.000
G1 X87.809 Y107.648 F7800.000
G1 X87.809 Y94.044 E4.07639 F600.000
G1 X87.889 Y93.468 E4.25074
G1 X88.845 Y93.198 E4.54819
G1 X96.567 Y93.198 E6.86206
G92 E0
G1 Z0.900 F7800.000
G1 X112.133 Y107.648 F7800.000
G1 X107.720 Y96.562 E3.57549 F600.000
G1 X106.774 Y94.013 E4.39000
G1 X106.334 Y93.349 E4.62869
G1 X105.907 Y93.316 E4.75724
G1 X105.532 Y93.353 E4.87012
G1 X105.101 Y94.010 E5.10552
G1 X104.156 Y96.558 E5.91985
G1 X99.729 Y107.648 E9.49798
G92 E0
G1 X98.636 Y107.648 F7800.000
G1 X94.212 Y104.281 F7800.000
G1 X90.845 Y107.648 F7800.000
G1 X88.845 Y107.648 F7800.000
G1 X87.809 Y107.648 F7800.000
G1 X87.809 Y94.044 E4.07639 F600.000
G1 X87.889 Y93.468 E4.25074
G1 X88.845 Y93.198 E4.54819
G1 X96.567 Y93.198 E6.86206
G92 E0
G1 Z1.200 F7800.000
G1 X112.133 Y107.648 F7800.000
G1 X107.720 Y96.562 E3.57549 F600.000
G1 X106.774 Y94.013 E4.39000
G1 X106.334 Y93.349 E4.62869
G1 X105.907 Y93.316 E4.75724
G1 X105.532 Y93.353 E4.87012
G1 X105.101 Y94.010 E5.10552
G1 X104.156 Y96.558 E5.91986
G1 X99.729 Y107.648 E9.49798
G92 E0
G1 X98.636 Y107.648 F7800.000
G1 X94.212 Y104.281 F7800.000
G1 X90.845 Y107.648 F7800.000
G1 X88.845 Y107.648 F7800.000
G1 X87.809 Y107.648 F7800.000
G1 X87.809 Y94.044 E4.07639 F600.000
G1 X87.889 Y93.468 E4.25074
G1 X88.845 Y93.198 E4.54819
G1 X96.567 Y93.198 E6.86206
G92 E0
G1 Z1.500 F7800.000
G1 X112.133 Y107.648 F7800.000
G1 X107.720 Y96.562 E3.57549 F600.000
G1 X106.774 Y94.013 E4.39000
G1 X106.334 Y93.349 E4.62869
G1 X105.907 Y93.316 E4.75724
G1 X105.532 Y93.353 E4.87012
G1 X105.101 Y94.010 E5.10552
G1 X104.156 Y96.558 E5.91986
G1 X99.729 Y107.648 E9.49798
G92 E0
G1 X98.636 Y107.648 F7800.000
G1 X94.212 Y104.281 F7800.000
G1 X90.845 Y107.648 F7800.000
G1 X88.845 Y107.648 F7800.000
G1 X87.809 Y107.648 F7800.000
G1 X87.809 Y94.044 E4.07639 F600.000
G1 X87.889 Y93.468 E4.25074
G1 X88.845 Y93.198 E4.54819
G1 X96.567 Y93.198 E6.86206
G92 E0
G1 Z1.800 F7800.000
G1 X112.133 Y107.648 F7800.000
G1 X107.720 Y96.562 E3.57549 F600.000
G1 X106.774 Y94.013 E4.39000
G1 X106.334 Y93.349 E4.62869
G1 X105.907 Y93.316 E4.75724
G1 X105.532 Y93.353 E4.87012
G1 X105.101 Y94.010 E5.10552
G1 X104.156 Y96.558 E5.91986
G1 X99.729 Y107.648 E9.49798
G92 E0
G1 X98.636 Y107.648 F7800.000
G1 X94.212 Y104.281 F7800.000
G1 X90.845 Y107.648 F7800.000
G1 X88.845 Y107.648 F7800.000
G1 X87.809 Y107.648 F7800.000
G1 X87.809 Y94.044 E4.07639 F600.000
G1 X87.889 Y93.468 E4.25074
G1 X88.845 Y93.198 E4.54819
G1 X96.567 Y93.198 E6.86206
G92 E0
G1 Z2.100 F7800.000
G1 X112.133 Y107.648 F7800.000
G1 X107.720 Y96.562 E3.57549 F600.000
G1 X106.774 Y94.013 E4.39000
G1 X106.334 Y93.349 E4.62869
G1 X105.907 Y93.316 E4.75724
G1 X105.532 Y93.353 E4.87012
G1 X105.101 Y94.010 E5.10552
G1 X104.156 Y96.558 E5.91985
G1 X99.729 Y107.648 E9.49798
G92 E0
G1 X98.636 Y107.648 F7800.000
G1 X94.212 Y104.281 F7800.000
G1 X90.845 Y107.648 F7800.000
G1 X88.845 Y107.648 F7800.000
G1 X87.809 Y107.648 F7800.000
G1 X87.809 Y94.044 E4.07639 F600.000
G1 X87.889 Y93.468 E4.25074
G1 X88.845 Y93.198 E4.54819
G1 X96.567 Y93.198 E6.86206
G92 E0
M107
M104 S0 ; turn off temperature
G28 X0  ; home X axis
M84     ; disable motors

; filament used = 111.4mm (0.9cm3)

; avoid_crossing_perimeters = 1
; bed_shape = 0x0,250x0,250x250,0x250
; bed_temperature = 0
; before_layer_gcode = 
; bridge_acceleration = 0
; bridge_fan_speed = 100
; brim_width = 0
; complete_objects = 0
; cooling = 1
; default_acceleration = 0
; disable_fan_first_layers = 1
; duplicate_distance = 6
; end_gcode = M104 S0 ; turn off temperature\nG28 X0  ; home X axis\nM84     ; disable motors\n
; extruder_clearance_height = 20
; extruder_clearance_radius = 20
; extruder_offset = 0x0
; extrusion_axis = E
; extrusion_multiplier = 3
; fan_always_on = 0
; fan_below_layer_time = 60
; filament_colour = #FFFFFF
; filament_diameter = 3.125
; first_layer_acceleration = 0
; first_layer_bed_temperature = 0
; first_layer_extrusion_width = 150%
; first_layer_speed = 90%
; first_layer_temperature = 30
; gcode_arcs = 0
; gcode_comments = 0
; gcode_flavor = reprap
; infill_acceleration = 0
; infill_first = 0
; layer_gcode = 
; max_fan_speed = 100
; max_print_speed = 80
; max_volumetric_speed = 0
; min_fan_speed = 35
; min_print_speed = 10
; min_skirt_length = 0
; notes = 
; nozzle_diameter = 1.54
; only_retract_when_crossing_perimeters = 1
; ooze_prevention = 0
; output_filename_format = [input_filename_base].gcode
; perimeter_acceleration = 0
; post_process = 
; pressure_advance = 0
; resolution = 0
; retract_before_travel = 2
; retract_layer_change = 1
; retract_length = 0
; retract_length_toolchange = 10
; retract_lift = 0
; retract_restart_extra = 0
; retract_restart_extra_toolchange = 0
; retract_speed = 0
; skirt_distance = 6
; skirt_height = 1
; skirts = 0
; slowdown_below_layer_time = 30
; spiral_vase = 0
; standby_temperature_delta = -5
; start_gcode = G28 ; home all axes\nG1 Z5 F5000 ; lift nozzle\nM302\nM92 E10000\nM500\nM501\nG1 E100
; temperature = 30
; threads = 2
; toolchange_gcode = 
; travel_speed = 130
; use_firmware_retraction = 0
; use_relative_e_distances = 0
; use_volumetric_e = 0
; vibration_limit = 0
; wipe = 0
; z_offset = 0
; dont_support_bridges = 1
; extrusion_width = 0
; first_layer_height = 100%
; infill_only_where_needed = 0
; interface_shells = 0
; layer_height = 0.3
; raft_layers = 0
; seam_position = random
; support_material = 0
; support_material_angle = 0
; support_material_contact_distance = 0.2
; support_material_enforce_layers = 0
; support_material_extruder = 1
; support_material_extrusion_width = 0
; support_material_interface_extruder = 1
; support_material_interface_layers = 3
; support_material_interface_spacing = 0
; support_material_interface_speed = 100%
; support_material_pattern = pillars
; support_material_spacing = 2.5
; support_material_speed = 7
; support_material_threshold = 0
; xy_size_compensation = 0
; bottom_solid_layers = 3
; bridge_flow_ratio = 1
; bridge_speed = 10
; external_fill_pattern = rectilinear
; external_perimeter_extrusion_width = 0
; external_perimeter_speed = 70%
; external_perimeters_first = 1
; extra_perimeters = 1
; fill_angle = 45
; fill_density = 60%
; fill_pattern = rectilinear
; gap_fill_speed = 10
; infill_every_layers = 1
; infill_extruder = 1
; infill_extrusion_width = 0
; infill_overlap = 15%
; infill_speed = 10
; overhangs = 1
; perimeter_extruder = 1
; perimeter_extrusion_width = 0
; perimeter_speed = 10
; perimeters = 1
; small_perimeter_speed = 70%
; solid_infill_below_area = 70
; solid_infill_every_layers = 0
; solid_infill_extruder = 1
; solid_infill_extrusion_width = 0
; solid_infill_speed = 10
; thin_walls = 1
; top_infill_extrusion_width = 0
; top_solid_infill_speed = 10
; top_solid_layers = 3
