; generated by Slic3r 1.2.9 on 2016-03-11 at 01:27:11

; external perimeters extrusion width = 1.54mm
; perimeters extrusion width = 2.62mm
; infill extrusion width = 6.27mm
; solid infill extrusion width = 2.62mm
; top infill extrusion width = 2.62mm

M107
M104 S30 ; set temperature
G28 ; home all axes
G1 Z5 F5000 ; lift nozzle
M302
M92 E10000
M500
M501
G1 E100
M109 S30 ; wait for temperature to be reached
G21 ; set units to millimeters
G90 ; use absolute coordinates
M82 ; use absolute distances for extrusion
G92 E0
G1 Z0.300 F7800.000
G1 X103.200 Y104.617 F7800.000
G1 X106.347 Y100.299 E0.24178 F378.000
G1 X100.710 Y92.577 E0.67438
G1 X102.438 Y92.577 E0.75256
G1 X106.692 Y98.666 E1.08866
G1 X107.228 Y99.435 E1.13107 F378.000
G1 X111.919 Y92.577 E1.50703
G1 X113.654 Y92.577 E1.58554
G1 X108.151 Y100.376 E2.01745
G1 X113.206 Y107.423 E2.40987
G1 X111.475 Y107.423 E2.48821
G1 X107.240 Y101.251 E2.82690
G1 X102.883 Y107.423 E3.16875
G1 X101.154 Y107.423 E3.24699
G1 X103.063 Y104.803 E3.39367
G1 X101.900 Y107.197 F7800.000
G1 X101.702 Y106.999 E3.40650 F540.000
G1 X101.935 Y106.680 E3.42463
G1 X102.453 Y107.197 E3.45818
G1 X102.888 Y107.080 E3.47884
G1 X102.168 Y106.360 E3.52551
G1 X102.401 Y106.041 E3.54363
G1 X103.117 Y106.756 E3.59002
G1 X103.345 Y106.432 E3.60819
G1 X102.634 Y105.721 E3.65430
G1 X102.867 Y105.401 E3.67243
G1 X103.574 Y106.108 E3.71825
G1 X103.803 Y105.784 E3.73643
G1 X103.100 Y105.082 E3.78198
G1 X103.333 Y104.762 E3.80010
G1 X104.031 Y105.461 E3.84537
G1 X104.260 Y105.137 E3.86355
G1 X103.566 Y104.443 E3.90854
G1 X103.799 Y104.123 E3.92666
G1 X104.488 Y104.813 E3.97138
G1 X104.717 Y104.489 E3.98955
G1 X104.032 Y103.804 E4.03398
G1 X104.265 Y103.484 E4.05211
G1 X104.946 Y104.165 E4.09627
G1 X105.174 Y103.841 E4.11444
G1 X104.498 Y103.165 E4.15831
G1 X104.730 Y102.845 E4.17644
G1 X105.403 Y103.518 E4.22004
G1 X105.632 Y103.194 E4.23821
G1 X104.963 Y102.525 E4.28153
G1 X105.196 Y102.206 E4.29966
G1 X105.860 Y102.870 E4.34270
G1 X106.089 Y102.546 E4.36087
G1 X105.429 Y101.886 E4.40363
G1 X105.662 Y101.567 E4.42176
G1 X106.317 Y102.222 E4.46424
G1 X106.546 Y101.898 E4.48241
G1 X105.895 Y101.247 E4.52462
G1 X106.128 Y100.928 E4.54274
G1 X106.775 Y101.574 E4.58467
G1 X107.003 Y101.251 E4.60284
G1 X106.361 Y100.608 E4.64449
G1 X106.594 Y100.289 E4.66261
G1 X110.624 Y104.318 E4.92385
G1 X110.072 Y104.872 F7800.000
G1 X112.397 Y107.197 E5.07461 F540.000
G1 X111.845 Y107.197 E5.09993
G1 X111.280 Y106.632 E5.13656
G1 X112.025 Y106.273 F7800.000
G1 X108.864 Y103.111 E5.34152 F540.000
G1 X109.222 Y102.364 F7800.000
G1 X105.488 Y98.630 E5.58359 F540.000
G1 X105.674 Y97.711 F7800.000
G1 X102.501 Y94.538 E5.78929 F540.000
G1 X103.114 Y94.046 F7800.000
G1 X101.871 Y92.803 E5.86986 F540.000
G1 X101.318 Y92.803 E5.89519
G1 X104.394 Y95.878 E6.09457
G1 X103.994 Y96.584 F7800.000
G1 X107.861 Y100.451 E6.34526 F540.000
G1 X108.090 Y100.127 E6.36344
G1 X107.437 Y99.474 E6.40578
G1 X107.661 Y99.146 E6.42400
G1 X108.318 Y99.803 E6.46662
G1 X108.547 Y99.479 E6.48479
G1 X107.885 Y98.818 E6.52768
G1 X108.110 Y98.490 E6.54590
G1 X108.776 Y99.155 E6.58905
G1 X109.004 Y98.831 E6.60722
G1 X108.334 Y98.162 E6.65064
G1 X108.559 Y97.834 E6.66886
G1 X109.233 Y98.508 E6.71256
G1 X109.461 Y98.184 E6.73073
G1 X108.783 Y97.506 E6.77469
G1 X109.008 Y97.177 E6.79291
G1 X109.690 Y97.860 E6.83714
G1 X109.918 Y97.536 E6.85531
G1 X109.232 Y96.849 E6.89981
G1 X109.456 Y96.521 E6.91803
G1 X110.147 Y97.212 E6.96280
G1 X110.375 Y96.888 E6.98097
G1 X109.681 Y96.193 E7.02601
G1 X109.905 Y95.865 E7.04423
G1 X110.604 Y96.564 E7.08954
G1 X110.833 Y96.240 E7.10771
G1 X110.130 Y95.537 E7.15328
G1 X110.354 Y95.209 E7.17150
G1 X111.061 Y95.916 E7.21735
G1 X111.290 Y95.592 E7.23552
G1 X110.578 Y94.881 E7.28163
G1 X110.803 Y94.553 E7.29986
G1 X111.518 Y95.268 E7.34624
G1 X111.747 Y94.944 E7.36441
G1 X111.027 Y94.225 E7.41106
G1 X111.252 Y93.897 E7.42928
G1 X111.975 Y94.621 E7.47620
G1 X112.204 Y94.297 E7.49438
G1 X111.476 Y93.569 E7.54157
G1 X111.700 Y93.241 E7.55979
G1 X112.432 Y93.973 E7.60725
G1 X112.661 Y93.649 E7.62542
G1 X111.925 Y92.913 E7.67315
G1 X112.368 Y92.803 E7.69406
G1 X112.890 Y93.325 E7.72790
G1 X112.920 Y92.803 E7.75186
G1 X113.118 Y93.001 E7.76469
G92 E0
G1 X107.227 Y99.039 F7800.000
G1 X102.556 Y91.352 F7800.000
G1 X100.267 Y91.352 F7800.000
G1 X98.229 Y93.840 F7800.000
G1 X98.295 Y94.044 F7800.000
G1 X95.705 Y94.044 F7800.000
G1 X86.136 Y92.577 F7800.000
G1 X95.480 Y92.577 E0.42276 F378.000
G1 X95.480 Y93.819 E0.47896
G1 X87.758 Y93.819 E0.82838 F378.000
G1 X87.758 Y107.423 E1.44395
G1 X86.136 Y107.423 E1.51730
G1 X86.136 Y92.808 E2.17862
G1 X95.254 Y93.007 F7800.000
G1 X95.050 Y92.803 E2.19195 F540.000
G1 X94.492 Y92.803 E2.21778
G1 X95.254 Y93.565 E2.26765
G1 X94.724 Y93.593 E2.29220
G1 X93.934 Y92.803 E2.34393
G1 X93.376 Y92.803 E2.36977
G1 X94.166 Y93.593 E2.42150
G1 X93.608 Y93.593 E2.44734
G1 X92.818 Y92.803 E2.49907
G1 X92.260 Y92.803 E2.52490
G1 X93.050 Y93.593 E2.57663
G1 X92.492 Y93.593 E2.60247
G1 X91.702 Y92.803 E2.65420
G1 X91.144 Y92.803 E2.68004
G1 X91.934 Y93.593 E2.73177
G1 X91.376 Y93.593 E2.75760
G1 X90.586 Y92.803 E2.80934
G1 X90.028 Y92.803 E2.83517
G1 X90.818 Y93.593 E2.88690
G1 X90.260 Y93.593 E2.91274
G1 X89.470 Y92.803 E2.96447
G1 X88.912 Y92.803 E2.99030
G1 X89.702 Y93.593 E3.04204
G1 X89.144 Y93.593 E3.06787
G1 X88.354 Y92.803 E3.11960
G1 X87.796 Y92.803 E3.14544
G1 X88.586 Y93.593 E3.19717
G1 X88.028 Y93.593 E3.22300
G1 X87.238 Y92.803 E3.27474
G1 X86.680 Y92.803 E3.30057
G1 X87.532 Y93.655 E3.35633
G1 X87.532 Y94.213 E3.38217
G1 X86.362 Y93.043 E3.45871
G1 X86.362 Y93.601 E3.48455
G1 X87.532 Y94.771 E3.56110
G1 X87.532 Y95.329 E3.58693
G1 X86.362 Y94.159 E3.66348
G1 X86.362 Y94.717 E3.68932
G1 X87.532 Y95.887 E3.76587
G1 X87.532 Y96.445 E3.79170
G1 X86.362 Y95.275 E3.86825
G1 X86.362 Y95.833 E3.89408
G1 X87.532 Y97.003 E3.97063
G1 X87.532 Y97.561 E3.99647
G1 X86.362 Y96.391 E4.07302
G1 X86.362 Y96.949 E4.09885
G1 X87.532 Y98.119 E4.17540
G1 X87.532 Y98.677 E4.20124
G1 X86.362 Y97.507 E4.27779
G1 X86.362 Y98.065 E4.30362
G1 X87.532 Y99.235 E4.38017
G1 X87.532 Y99.793 E4.40600
G1 X86.362 Y98.623 E4.48255
G1 X86.362 Y99.181 E4.50839
G1 X87.532 Y100.351 E4.58494
G1 X87.532 Y100.909 E4.61077
G1 X86.362 Y99.739 E4.68732
G1 X86.362 Y100.297 E4.71316
G1 X87.532 Y101.467 E4.78970
G1 X87.532 Y102.025 E4.81554
G1 X86.362 Y100.855 E4.89209
G1 X86.362 Y101.413 E4.91792
G1 X87.532 Y102.583 E4.99447
G1 X87.532 Y103.141 E5.02031
G1 X86.362 Y101.971 E5.09686
G1 X86.362 Y102.529 E5.12269
G1 X87.532 Y103.699 E5.19924
G1 X87.532 Y104.257 E5.22507
G1 X86.362 Y103.087 E5.30162
G1 X86.362 Y103.645 E5.32746
G1 X87.532 Y104.815 E5.40401
G1 X87.532 Y105.373 E5.42984
G1 X86.362 Y104.203 E5.50639
G1 X86.362 Y104.761 E5.53223
G1 X87.532 Y105.931 E5.60877
G1 X87.532 Y106.489 E5.63461
G1 X86.362 Y105.319 E5.71116
G1 X86.362 Y105.877 E5.73699
G1 X87.532 Y107.047 E5.81354
G1 X87.124 Y107.197 E5.83366
G1 X86.362 Y106.435 E5.88352
G1 X86.362 Y106.993 E5.90936
G1 X86.566 Y107.197 E5.92269
M106 S255
G92 E0
G1 Z0.600 F7800.000
G1 X112.939 Y92.352 F7800.000
G1 X107.949 Y99.533 E2.62027 F600.000
G1 X107.675 Y99.844 E2.74445
G1 X107.252 Y100.224 E2.91494
G1 X107.244 Y100.459 E2.98522
G1 X107.707 Y100.892 E3.17516
G1 X107.941 Y101.162 E3.28236
G1 X112.492 Y107.648 E5.65652
G1 X109.869 Y102.630 F7800.000
G1 X106.773 Y99.785 E6.91633 F600.000
G1 X106.539 Y99.520 E7.02241
G1 X101.420 Y92.352 E9.66156
G92 E0
G1 X101.862 Y107.648 F7800.000
G1 X106.528 Y101.144 E2.39857 F600.000
G1 X106.808 Y100.838 E2.52286
G1 X109.928 Y98.128 E3.76123
G92 E0
G1 X100.711 Y107.648 F7800.000
G1 X95.454 Y102.176 F7800.000
G1 X89.983 Y107.648 F7800.000
G1 X87.983 Y107.648 F7800.000
G1 X86.947 Y107.648 F7800.000
G1 X86.947 Y94.044 E4.07639 F600.000
G1 X87.027 Y93.468 E4.25074
G1 X87.983 Y93.198 E4.54819
G1 X95.705 Y93.198 E6.86206
G92 E0
G1 Z0.900 F7800.000
G1 X112.939 Y92.352 F7800.000
G1 X107.949 Y99.533 E2.62027 F600.000
G1 X107.675 Y99.844 E2.74445
G1 X107.252 Y100.224 E2.91494
G1 X107.244 Y100.459 E2.98522
G1 X107.707 Y100.892 E3.17516
G1 X107.941 Y101.162 E3.28236
G1 X112.492 Y107.648 E5.65652
G1 X109.869 Y102.630 F7800.000
G1 X106.773 Y99.785 E6.91634 F600.000
G1 X106.539 Y99.520 E7.02241
G1 X101.420 Y92.352 E9.66156
G92 E0
G1 X101.862 Y107.648 F7800.000
G1 X106.528 Y101.144 E2.39857 F600.000
G1 X106.808 Y100.838 E2.52286
G1 X109.928 Y98.128 E3.76123
G92 E0
G1 X100.711 Y107.648 F7800.000
G1 X95.454 Y102.176 F7800.000
G1 X89.983 Y107.648 F7800.000
G1 X87.983 Y107.648 F7800.000
G1 X86.947 Y107.648 F7800.000
G1 X86.947 Y94.044 E4.07639 F600.000
G1 X87.027 Y93.468 E4.25074
G1 X87.983 Y93.198 E4.54819
G1 X95.705 Y93.198 E6.86206
G92 E0
G1 Z1.200 F7800.000
G1 X112.939 Y92.352 F7800.000
G1 X107.949 Y99.533 E2.62027 F600.000
G1 X107.675 Y99.844 E2.74445
G1 X107.252 Y100.224 E2.91494
G1 X107.244 Y100.459 E2.98522
G1 X107.707 Y100.892 E3.17516
G1 X107.941 Y101.162 E3.28236
G1 X112.492 Y107.648 E5.65652
G1 X109.869 Y102.630 F7800.000
G1 X106.773 Y99.785 E6.91634 F600.000
G1 X106.539 Y99.520 E7.02241
G1 X101.420 Y92.352 E9.66156
G92 E0
G1 X101.862 Y107.648 F7800.000
G1 X106.528 Y101.144 E2.39857 F600.000
G1 X106.808 Y100.838 E2.52286
G1 X109.928 Y98.128 E3.76123
G92 E0
G1 X100.711 Y107.648 F7800.000
G1 X95.454 Y102.176 F7800.000
G1 X89.983 Y107.648 F7800.000
G1 X87.983 Y107.648 F7800.000
G1 X86.947 Y107.648 F7800.000
G1 X86.947 Y94.044 E4.07639 F600.000
G1 X87.027 Y93.468 E4.25074
G1 X87.983 Y93.198 E4.54819
G1 X95.705 Y93.198 E6.86206
G92 E0
G1 Z1.500 F7800.000
G1 X112.939 Y92.352 F7800.000
G1 X107.949 Y99.533 E2.62027 F600.000
G1 X107.675 Y99.844 E2.74446
G1 X107.252 Y100.224 E2.91494
G1 X107.244 Y100.459 E2.98522
G1 X107.707 Y100.892 E3.17516
G1 X107.941 Y101.162 E3.28236
G1 X112.492 Y107.648 E5.65652
G1 X109.869 Y102.630 F7800.000
G1 X106.773 Y99.785 E6.91634 F600.000
G1 X106.539 Y99.520 E7.02241
G1 X101.420 Y92.352 E9.66156
G92 E0
G1 X101.862 Y107.648 F7800.000
G1 X106.528 Y101.144 E2.39857 F600.000
G1 X106.808 Y100.838 E2.52286
G1 X109.928 Y98.128 E3.76123
G92 E0
G1 X100.711 Y107.648 F7800.000
G1 X95.454 Y102.176 F7800.000
G1 X89.983 Y107.648 F7800.000
G1 X87.983 Y107.648 F7800.000
G1 X86.947 Y107.648 F7800.000
G1 X86.947 Y94.044 E4.07639 F600.000
G1 X87.027 Y93.468 E4.25074
G1 X87.983 Y93.198 E4.54819
G1 X95.705 Y93.198 E6.86206
G92 E0
G1 Z1.800 F7800.000
G1 X112.939 Y92.352 F7800.000
G1 X107.949 Y99.533 E2.62027 F600.000
G1 X107.675 Y99.844 E2.74445
G1 X107.252 Y100.224 E2.91494
G1 X107.244 Y100.459 E2.98522
G1 X107.707 Y100.892 E3.17516
G1 X107.941 Y101.162 E3.28236
G1 X112.492 Y107.648 E5.65652
G1 X109.869 Y102.630 F7800.000
G1 X106.773 Y99.785 E6.91634 F600.000
G1 X106.539 Y99.520 E7.02241
G1 X101.420 Y92.352 E9.66156
G92 E0
G1 X101.862 Y107.648 F7800.000
G1 X106.528 Y101.144 E2.39857 F600.000
G1 X106.808 Y100.838 E2.52286
G1 X109.928 Y98.128 E3.76123
G92 E0
G1 X100.711 Y107.648 F7800.000
G1 X95.454 Y102.176 F7800.000
G1 X89.983 Y107.648 F7800.000
G1 X87.983 Y107.648 F7800.000
G1 X86.947 Y107.648 F7800.000
G1 X86.947 Y94.044 E4.07639 F600.000
G1 X87.027 Y93.468 E4.25074
G1 X87.983 Y93.198 E4.54819
G1 X95.705 Y93.198 E6.86206
G92 E0
G1 Z2.100 F7800.000
G1 X112.939 Y92.352 F7800.000
G1 X107.949 Y99.533 E2.62027 F600.000
G1 X107.675 Y99.844 E2.74445
G1 X107.252 Y100.224 E2.91494
G1 X107.244 Y100.459 E2.98522
G1 X107.707 Y100.892 E3.17516
G1 X107.941 Y101.162 E3.28236
G1 X112.492 Y107.648 E5.65652
G92 E0
G1 X109.869 Y102.630 F7800.000
G1 X106.773 Y99.785 E1.25982 F600.000
G1 X106.539 Y99.520 E1.36589
G1 X101.420 Y92.352 E4.00505
G92 E0
G1 X101.862 Y107.648 F7800.000
G1 X106.528 Y101.144 E2.39857 F600.000
G1 X106.808 Y100.838 E2.52286
G1 X109.928 Y98.128 E3.76123
G92 E0
G1 X100.711 Y107.648 F7800.000
G1 X95.454 Y102.176 F7800.000
G1 X89.983 Y107.648 F7800.000
G1 X87.983 Y107.648 F7800.000
G1 X86.947 Y107.648 F7800.000
G1 X86.947 Y94.044 E4.07639 F600.000
G1 X87.027 Y93.468 E4.25074
G1 X87.983 Y93.198 E4.54819
G1 X95.705 Y93.198 E6.86206
G92 E0
M107
M104 S0 ; turn off temperature
G28 X0  ; home X axis
M84     ; disable motors

; filament used = 135.4mm (1.0cm3)

; avoid_crossing_perimeters = 1
; bed_shape = 0x0,250x0,250x250,0x250
; bed_temperature = 0
; before_layer_gcode = 
; bridge_acceleration = 0
; bridge_fan_speed = 100
; brim_width = 0
; complete_objects = 0
; cooling = 1
; default_acceleration = 0
; disable_fan_first_layers = 1
; duplicate_distance = 6
; end_gcode = M104 S0 ; turn off temperature\nG28 X0  ; home X axis\nM84     ; disable motors\n
; extruder_clearance_height = 20
; extruder_clearance_radius = 20
; extruder_offset = 0x0
; extrusion_axis = E
; extrusion_multiplier = 3
; fan_always_on = 0
; fan_below_layer_time = 60
; filament_colour = #FFFFFF
; filament_diameter = 3.125
; first_layer_acceleration = 0
; first_layer_bed_temperature = 0
; first_layer_extrusion_width = 150%
; first_layer_speed = 90%
; first_layer_temperature = 30
; gcode_arcs = 0
; gcode_comments = 0
; gcode_flavor = reprap
; infill_acceleration = 0
; infill_first = 0
; layer_gcode = 
; max_fan_speed = 100
; max_print_speed = 80
; max_volumetric_speed = 0
; min_fan_speed = 35
; min_print_speed = 10
; min_skirt_length = 0
; notes = 
; nozzle_diameter = 1.54
; only_retract_when_crossing_perimeters = 1
; ooze_prevention = 0
; output_filename_format = [input_filename_base].gcode
; perimeter_acceleration = 0
; post_process = 
; pressure_advance = 0
; resolution = 0
; retract_before_travel = 2
; retract_layer_change = 1
; retract_length = 0
; retract_length_toolchange = 10
; retract_lift = 0
; retract_restart_extra = 0
; retract_restart_extra_toolchange = 0
; retract_speed = 0
; skirt_distance = 6
; skirt_height = 1
; skirts = 0
; slowdown_below_layer_time = 30
; spiral_vase = 0
; standby_temperature_delta = -5
; start_gcode = G28 ; home all axes\nG1 Z5 F5000 ; lift nozzle\nM302\nM92 E10000\nM500\nM501\nG1 E100
; temperature = 30
; threads = 2
; toolchange_gcode = 
; travel_speed = 130
; use_firmware_retraction = 0
; use_relative_e_distances = 0
; use_volumetric_e = 0
; vibration_limit = 0
; wipe = 0
; z_offset = 0
; dont_support_bridges = 1
; extrusion_width = 0
; first_layer_height = 100%
; infill_only_where_needed = 0
; interface_shells = 0
; layer_height = 0.3
; raft_layers = 0
; seam_position = random
; support_material = 0
; support_material_angle = 0
; support_material_contact_distance = 0.2
; support_material_enforce_layers = 0
; support_material_extruder = 1
; support_material_extrusion_width = 0
; support_material_interface_extruder = 1
; support_material_interface_layers = 3
; support_material_interface_spacing = 0
; support_material_interface_speed = 100%
; support_material_pattern = pillars
; support_material_spacing = 2.5
; support_material_speed = 7
; support_material_threshold = 0
; xy_size_compensation = 0
; bottom_solid_layers = 3
; bridge_flow_ratio = 1
; bridge_speed = 10
; external_fill_pattern = rectilinear
; external_perimeter_extrusion_width = 0
; external_perimeter_speed = 70%
; external_perimeters_first = 1
; extra_perimeters = 1
; fill_angle = 45
; fill_density = 60%
; fill_pattern = rectilinear
; gap_fill_speed = 10
; infill_every_layers = 1
; infill_extruder = 1
; infill_extrusion_width = 0
; infill_overlap = 15%
; infill_speed = 10
; overhangs = 1
; perimeter_extruder = 1
; perimeter_extrusion_width = 0
; perimeter_speed = 10
; perimeters = 1
; small_perimeter_speed = 70%
; solid_infill_below_area = 70
; solid_infill_every_layers = 0
; solid_infill_extruder = 1
; solid_infill_extrusion_width = 0
; solid_infill_speed = 10
; thin_walls = 1
; top_infill_extrusion_width = 0
; top_solid_infill_speed = 10
; top_solid_layers = 3
