; generated by Slic3r 1.2.9 on 2016-03-11 at 01:27:12

; external perimeters extrusion width = 1.54mm
; perimeters extrusion width = 2.62mm
; infill extrusion width = 6.27mm
; solid infill extrusion width = 2.62mm
; top infill extrusion width = 2.62mm

M107
M104 S30 ; set temperature
G28 ; home all axes
G1 Z5 F5000 ; lift nozzle
M302
M92 E10000
M500
M501
G1 E100
M109 S30 ; wait for temperature to be reached
G21 ; set units to millimeters
G90 ; use absolute coordinates
M82 ; use absolute distances for extrusion
G92 E0
G1 Z0.300 F7800.000
G1 X105.312 Y94.901 F7800.000
G1 X105.312 Y92.577 E0.10514 F378.000
G1 X106.923 Y92.577 E0.17804
G1 X106.923 Y98.759 E0.45778
G1 X112.614 Y107.423 E0.92682 F378.000
G1 X110.877 Y107.423 E1.00543
G1 X106.140 Y99.942 E1.40609
G1 X101.375 Y107.423 E1.80742
G1 X99.638 Y107.423 E1.88603
G1 X105.312 Y98.759 E2.35467
G1 X105.312 Y95.132 E2.51881
G1 X106.697 Y93.007 F7800.000
G1 X106.494 Y92.803 E2.53207 F540.000
G1 X105.939 Y92.803 E2.55765
G1 X106.697 Y93.562 E2.60708
G1 X106.697 Y94.117 E2.63266
G1 X105.538 Y92.958 E2.70817
G1 X105.538 Y93.513 E2.73374
G1 X106.697 Y94.672 E2.80925
G1 X106.697 Y95.227 E2.83483
G1 X105.538 Y94.068 E2.91034
G1 X105.538 Y94.623 E2.93592
G1 X106.697 Y95.782 E3.01143
G1 X106.697 Y96.338 E3.03700
G1 X105.538 Y95.179 E3.11251
G1 X105.538 Y95.734 E3.13809
G1 X106.697 Y96.893 E3.21360
G1 X106.697 Y97.448 E3.23917
G1 X105.538 Y96.289 E3.31469
G1 X105.538 Y96.844 E3.34026
G1 X106.697 Y98.003 E3.41577
G1 X106.697 Y98.558 E3.44135
G1 X105.538 Y97.399 E3.51686
G1 X105.538 Y97.955 E3.54243
G1 X107.043 Y99.459 E3.64045
G1 X106.575 Y100.102 F7800.000
G1 X109.169 Y102.695 E3.80941 F540.000
G1 X108.493 Y103.129 F7800.000
G1 X111.294 Y105.931 E3.99195 F540.000
G1 X110.410 Y106.157 F7800.000
G1 X111.450 Y107.197 E4.05968 F540.000
G1 X112.005 Y107.197 E4.08526
G1 X109.451 Y104.643 E4.25162
G1 X110.232 Y104.313 F7800.000
G1 X107.534 Y101.616 E4.42737 F540.000
G1 X108.106 Y101.077 F7800.000
G1 X105.538 Y98.510 E4.59463 F540.000
G1 X105.421 Y98.948 E4.61552
G1 X106.106 Y99.633 E4.66014
G1 X105.890 Y99.972 E4.67866
G1 X105.202 Y99.283 E4.72352
G1 X104.982 Y99.619 E4.74199
G1 X105.674 Y100.311 E4.78709
G1 X105.458 Y100.650 E4.80562
G1 X104.762 Y99.954 E4.85095
G1 X104.542 Y100.290 E4.86943
G1 X105.242 Y100.989 E4.91501
G1 X105.026 Y101.329 E4.93353
G1 X104.323 Y100.625 E4.97935
G1 X104.103 Y100.961 E4.99782
G1 X104.810 Y101.668 E5.04388
G1 X104.594 Y102.007 E5.06240
G1 X103.883 Y101.296 E5.10871
G1 X103.664 Y101.632 E5.12718
G1 X104.378 Y102.346 E5.17372
G1 X104.162 Y102.685 E5.19224
G1 X103.444 Y101.967 E5.23902
G1 X103.224 Y102.303 E5.25750
G1 X103.946 Y103.024 E5.30452
G1 X103.730 Y103.363 E5.32304
G1 X103.004 Y102.638 E5.37030
G1 X102.785 Y102.973 E5.38878
G1 X103.514 Y103.703 E5.43628
G1 X103.298 Y104.042 E5.45480
G1 X102.565 Y103.309 E5.50254
G1 X102.345 Y103.644 E5.52102
G1 X103.082 Y104.381 E5.56900
G1 X102.866 Y104.720 E5.58752
G1 X102.125 Y103.980 E5.63575
G1 X101.906 Y104.315 E5.65422
G1 X102.650 Y105.059 E5.70268
G1 X102.434 Y105.398 E5.72121
G1 X101.686 Y104.651 E5.76991
G1 X101.466 Y104.986 E5.78838
G1 X102.218 Y105.738 E5.83733
G1 X102.002 Y106.077 E5.85585
G1 X101.247 Y105.322 E5.90504
G1 X101.027 Y105.657 E5.92351
G1 X101.786 Y106.416 E5.97293
G1 X101.569 Y106.755 E5.99146
G1 X100.807 Y105.993 E6.04112
G1 X100.587 Y106.328 E6.05960
G1 X101.353 Y107.094 E6.10950
G1 X100.901 Y107.197 E6.13087
G1 X100.368 Y106.664 E6.16562
G1 X100.148 Y106.999 E6.18410
G1 X100.346 Y107.197 E6.19700
G92 E0
G1 X99.221 Y107.648 F7800.000
G1 X95.521 Y105.224 F7800.000
G1 X91.040 Y107.648 F7800.000
G1 X89.040 Y107.648 F7800.000
G1 X88.815 Y104.002 F7800.000
G1 X88.815 Y107.423 E0.15479 F378.000
G1 X87.194 Y107.423 E0.22814
G1 X87.194 Y92.577 E0.89991
G1 X96.537 Y92.577 E1.32267
G1 X96.537 Y93.819 E1.37887
G1 X88.815 Y93.819 E1.72829 F378.000
G1 X88.815 Y103.771 E2.17862
G1 X87.623 Y107.197 F7800.000
G1 X87.420 Y106.993 E2.19195 F540.000
G1 X87.420 Y106.435 E2.21778
G1 X88.181 Y107.197 E2.26765
G1 X88.589 Y107.047 E2.28776
G1 X87.420 Y105.877 E2.36431
G1 X87.420 Y105.319 E2.39014
G1 X88.589 Y106.489 E2.46669
G1 X88.589 Y105.931 E2.49253
G1 X87.420 Y104.761 E2.56908
G1 X87.420 Y104.203 E2.59491
G1 X88.589 Y105.373 E2.67146
G1 X88.589 Y104.815 E2.69730
G1 X87.420 Y103.645 E2.77384
G1 X87.420 Y103.087 E2.79968
G1 X88.589 Y104.257 E2.87623
G1 X88.589 Y103.699 E2.90206
G1 X87.420 Y102.529 E2.97861
G1 X87.420 Y101.971 E3.00445
G1 X88.589 Y103.141 E3.08100
G1 X88.589 Y102.583 E3.10683
G1 X87.420 Y101.413 E3.18338
G1 X87.420 Y100.855 E3.20921
G1 X88.589 Y102.025 E3.28576
G1 X88.589 Y101.467 E3.31160
G1 X87.420 Y100.297 E3.38815
G1 X87.420 Y99.739 E3.41398
G1 X88.589 Y100.909 E3.49053
G1 X88.589 Y100.351 E3.51637
G1 X87.420 Y99.181 E3.59291
G1 X87.420 Y98.623 E3.61875
G1 X88.589 Y99.793 E3.69530
G1 X88.589 Y99.235 E3.72113
G1 X87.420 Y98.065 E3.79768
G1 X87.420 Y97.507 E3.82352
G1 X88.589 Y98.677 E3.90007
G1 X88.589 Y98.119 E3.92590
G1 X87.420 Y96.949 E4.00245
G1 X87.420 Y96.391 E4.02828
G1 X88.589 Y97.561 E4.10483
G1 X88.589 Y97.003 E4.13067
G1 X87.420 Y95.833 E4.20722
G1 X87.420 Y95.275 E4.23305
G1 X88.589 Y96.445 E4.30960
G1 X88.589 Y95.887 E4.33544
G1 X87.420 Y94.717 E4.41198
G1 X87.420 Y94.159 E4.43782
G1 X88.589 Y95.329 E4.51437
G1 X88.589 Y94.771 E4.54020
G1 X87.420 Y93.601 E4.61675
G1 X87.420 Y93.043 E4.64259
G1 X88.589 Y94.213 E4.71914
G1 X88.589 Y93.655 E4.74497
G1 X87.737 Y92.803 E4.80073
G1 X88.295 Y92.803 E4.82657
G1 X89.085 Y93.593 E4.87830
G1 X89.643 Y93.593 E4.90413
G1 X88.853 Y92.803 E4.95586
G1 X89.411 Y92.803 E4.98170
G1 X90.201 Y93.593 E5.03343
G1 X90.759 Y93.593 E5.05927
G1 X89.969 Y92.803 E5.11100
G1 X90.527 Y92.803 E5.13683
G1 X91.317 Y93.593 E5.18856
G1 X91.875 Y93.593 E5.21440
G1 X91.085 Y92.803 E5.26613
G1 X91.643 Y92.803 E5.29197
G1 X92.433 Y93.593 E5.34370
G1 X92.991 Y93.593 E5.36953
G1 X92.201 Y92.803 E5.42127
G1 X92.759 Y92.803 E5.44710
G1 X93.549 Y93.593 E5.49883
G1 X94.107 Y93.593 E5.52467
G1 X93.317 Y92.803 E5.57640
G1 X93.875 Y92.803 E5.60223
G1 X94.665 Y93.593 E5.65397
G1 X95.223 Y93.593 E5.67980
G1 X94.433 Y92.803 E5.73153
G1 X94.991 Y92.803 E5.75737
G1 X95.781 Y93.593 E5.80910
G1 X96.311 Y93.565 E5.83365
G1 X95.549 Y92.803 E5.88352
G1 X96.107 Y92.803 E5.90935
G1 X96.311 Y93.007 E5.92268
M106 S255
G92 E0
G1 Z0.600 F7800.000
G1 X106.118 Y92.352 F7800.000
G1 X106.118 Y99.209 E2.05473 F600.000
G1 X106.245 Y99.286 E2.09907
G1 X106.883 Y99.891 E2.36271
G1 X111.886 Y107.648 E5.12860
G1 X106.087 Y98.582 F7800.000
G1 X106.087 Y98.582 F7800.000
G1 X100.365 Y107.648 F7800.000
G1 X105.382 Y99.880 E7.89969 F600.000
G1 X105.995 Y99.287 E8.15525
G1 X107.148 Y98.560 E8.56368
G92 E0
G1 X99.221 Y107.648 F7800.000
G1 X99.221 Y107.648 F7800.000
G1 X95.521 Y105.224 F7800.000
G1 X94.799 Y103.889 F7800.000
G1 X91.040 Y107.648 F7800.000
G1 X89.040 Y107.648 F7800.000
G1 X88.004 Y107.648 F7800.000
G1 X88.004 Y94.044 E4.07639 F600.000
G1 X88.084 Y93.468 E4.25074
G1 X89.040 Y93.198 E4.54819
G1 X96.762 Y93.198 E6.86206
G92 E0
G1 Z0.900 F7800.000
G1 X106.118 Y92.352 F7800.000
G1 X106.118 Y99.209 E2.05473 F600.000
G1 X106.245 Y99.286 E2.09907
G1 X106.883 Y99.891 E2.36271
G1 X111.886 Y107.648 E5.12860
G1 X106.087 Y98.582 F7800.000
G1 X106.087 Y98.582 F7800.000
G1 X100.365 Y107.648 F7800.000
G1 X105.382 Y99.880 E7.89969 F600.000
G1 X105.995 Y99.287 E8.15525
G1 X107.148 Y98.560 E8.56368
G92 E0
G1 X99.221 Y107.648 F7800.000
G1 X99.221 Y107.648 F7800.000
G1 X95.521 Y105.224 F7800.000
G1 X94.799 Y103.889 F7800.000
G1 X91.040 Y107.648 F7800.000
G1 X89.040 Y107.648 F7800.000
G1 X88.004 Y107.648 F7800.000
G1 X88.004 Y94.044 E4.07639 F600.000
G1 X88.084 Y93.468 E4.25074
G1 X89.040 Y93.198 E4.54819
G1 X96.762 Y93.198 E6.86206
G92 E0
G1 Z1.200 F7800.000
G1 X106.118 Y92.352 F7800.000
G1 X106.118 Y99.209 E2.05473 F600.000
G1 X106.245 Y99.286 E2.09907
G1 X106.883 Y99.891 E2.36271
G1 X111.886 Y107.648 E5.12860
G1 X106.087 Y98.582 F7800.000
G1 X106.087 Y98.582 F7800.000
G1 X100.365 Y107.648 F7800.000
G1 X105.382 Y99.880 E7.89969 F600.000
G1 X105.995 Y99.287 E8.15525
G1 X107.148 Y98.560 E8.56368
G92 E0
G1 X99.221 Y107.648 F7800.000
G1 X99.221 Y107.648 F7800.000
G1 X95.521 Y105.224 F7800.000
G1 X94.799 Y103.889 F7800.000
G1 X91.040 Y107.648 F7800.000
G1 X89.040 Y107.648 F7800.000
G1 X88.004 Y107.648 F7800.000
G1 X88.004 Y94.044 E4.07639 F600.000
G1 X88.084 Y93.468 E4.25074
G1 X89.040 Y93.198 E4.54819
G1 X96.762 Y93.198 E6.86206
G92 E0
G1 Z1.500 F7800.000
G1 X106.118 Y92.352 F7800.000
G1 X106.118 Y99.209 E2.05473 F600.000
G1 X106.245 Y99.286 E2.09907
G1 X106.883 Y99.891 E2.36271
G1 X111.886 Y107.648 E5.12860
G1 X106.087 Y98.582 F7800.000
G1 X106.087 Y98.582 F7800.000
G1 X100.365 Y107.648 F7800.000
G1 X105.382 Y99.880 E7.89969 F600.000
G1 X105.995 Y99.287 E8.15525
G1 X107.148 Y98.560 E8.56368
G92 E0
G1 X99.221 Y107.648 F7800.000
G1 X99.221 Y107.648 F7800.000
G1 X95.521 Y105.224 F7800.000
G1 X94.799 Y103.889 F7800.000
G1 X91.040 Y107.648 F7800.000
G1 X89.040 Y107.648 F7800.000
G1 X88.004 Y107.648 F7800.000
G1 X88.004 Y94.044 E4.07639 F600.000
G1 X88.084 Y93.468 E4.25074
G1 X89.040 Y93.198 E4.54819
G1 X96.762 Y93.198 E6.86206
G92 E0
G1 Z1.800 F7800.000
G1 X106.118 Y92.352 F7800.000
G1 X106.118 Y99.209 E2.05473 F600.000
G1 X106.245 Y99.286 E2.09907
G1 X106.883 Y99.891 E2.36271
G1 X111.886 Y107.648 E5.12860
G1 X106.087 Y98.582 F7800.000
G1 X106.087 Y98.582 F7800.000
G1 X100.365 Y107.648 F7800.000
G1 X105.382 Y99.880 E7.89969 F600.000
G1 X105.995 Y99.287 E8.15525
G1 X107.148 Y98.560 E8.56368
G92 E0
G1 X99.221 Y107.648 F7800.000
G1 X99.221 Y107.648 F7800.000
G1 X95.521 Y105.224 F7800.000
G1 X94.799 Y103.889 F7800.000
G1 X91.040 Y107.648 F7800.000
G1 X89.040 Y107.648 F7800.000
G1 X88.004 Y107.648 F7800.000
G1 X88.004 Y94.044 E4.07639 F600.000
G1 X88.084 Y93.468 E4.25074
G1 X89.040 Y93.198 E4.54819
G1 X96.762 Y93.198 E6.86206
G92 E0
G1 Z2.100 F7800.000
G1 X106.118 Y92.352 F7800.000
G1 X106.118 Y99.209 E2.05473 F600.000
G1 X106.245 Y99.286 E2.09907
G1 X106.883 Y99.891 E2.36271
G1 X111.886 Y107.648 E5.12860
G92 E0
G1 X106.087 Y98.582 F7800.000
G1 X106.087 Y98.582 F7800.000
G1 X100.365 Y107.648 F7800.000
G1 X105.382 Y99.880 E2.77109 F600.000
G1 X105.995 Y99.287 E3.02666
G1 X107.148 Y98.560 E3.43509
G92 E0
G1 X99.221 Y107.648 F7800.000
G1 X99.221 Y107.648 F7800.000
G1 X95.521 Y105.224 F7800.000
G1 X94.799 Y103.889 F7800.000
G1 X91.040 Y107.648 F7800.000
G1 X89.040 Y107.648 F7800.000
G1 X88.004 Y107.648 F7800.000
G1 X88.004 Y94.044 E4.07639 F600.000
G1 X88.084 Y93.468 E4.25074
G1 X89.040 Y93.198 E4.54819
G1 X96.762 Y93.198 E6.86206
G92 E0
M107
M104 S0 ; turn off temperature
G28 X0  ; home X axis
M84     ; disable motors

; filament used = 104.7mm (0.8cm3)

; avoid_crossing_perimeters = 1
; bed_shape = 0x0,250x0,250x250,0x250
; bed_temperature = 0
; before_layer_gcode = 
; bridge_acceleration = 0
; bridge_fan_speed = 100
; brim_width = 0
; complete_objects = 0
; cooling = 1
; default_acceleration = 0
; disable_fan_first_layers = 1
; duplicate_distance = 6
; end_gcode = M104 S0 ; turn off temperature\nG28 X0  ; home X axis\nM84     ; disable motors\n
; extruder_clearance_height = 20
; extruder_clearance_radius = 20
; extruder_offset = 0x0
; extrusion_axis = E
; extrusion_multiplier = 3
; fan_always_on = 0
; fan_below_layer_time = 60
; filament_colour = #FFFFFF
; filament_diameter = 3.125
; first_layer_acceleration = 0
; first_layer_bed_temperature = 0
; first_layer_extrusion_width = 150%
; first_layer_speed = 90%
; first_layer_temperature = 30
; gcode_arcs = 0
; gcode_comments = 0
; gcode_flavor = reprap
; infill_acceleration = 0
; infill_first = 0
; layer_gcode = 
; max_fan_speed = 100
; max_print_speed = 80
; max_volumetric_speed = 0
; min_fan_speed = 35
; min_print_speed = 10
; min_skirt_length = 0
; notes = 
; nozzle_diameter = 1.54
; only_retract_when_crossing_perimeters = 1
; ooze_prevention = 0
; output_filename_format = [input_filename_base].gcode
; perimeter_acceleration = 0
; post_process = 
; pressure_advance = 0
; resolution = 0
; retract_before_travel = 2
; retract_layer_change = 1
; retract_length = 0
; retract_length_toolchange = 10
; retract_lift = 0
; retract_restart_extra = 0
; retract_restart_extra_toolchange = 0
; retract_speed = 0
; skirt_distance = 6
; skirt_height = 1
; skirts = 0
; slowdown_below_layer_time = 30
; spiral_vase = 0
; standby_temperature_delta = -5
; start_gcode = G28 ; home all axes\nG1 Z5 F5000 ; lift nozzle\nM302\nM92 E10000\nM500\nM501\nG1 E100
; temperature = 30
; threads = 2
; toolchange_gcode = 
; travel_speed = 130
; use_firmware_retraction = 0
; use_relative_e_distances = 0
; use_volumetric_e = 0
; vibration_limit = 0
; wipe = 0
; z_offset = 0
; dont_support_bridges = 1
; extrusion_width = 0
; first_layer_height = 100%
; infill_only_where_needed = 0
; interface_shells = 0
; layer_height = 0.3
; raft_layers = 0
; seam_position = random
; support_material = 0
; support_material_angle = 0
; support_material_contact_distance = 0.2
; support_material_enforce_layers = 0
; support_material_extruder = 1
; support_material_extrusion_width = 0
; support_material_interface_extruder = 1
; support_material_interface_layers = 3
; support_material_interface_spacing = 0
; support_material_interface_speed = 100%
; support_material_pattern = pillars
; support_material_spacing = 2.5
; support_material_speed = 7
; support_material_threshold = 0
; xy_size_compensation = 0
; bottom_solid_layers = 3
; bridge_flow_ratio = 1
; bridge_speed = 10
; external_fill_pattern = rectilinear
; external_perimeter_extrusion_width = 0
; external_perimeter_speed = 70%
; external_perimeters_first = 1
; extra_perimeters = 1
; fill_angle = 45
; fill_density = 60%
; fill_pattern = rectilinear
; gap_fill_speed = 10
; infill_every_layers = 1
; infill_extruder = 1
; infill_extrusion_width = 0
; infill_overlap = 15%
; infill_speed = 10
; overhangs = 1
; perimeter_extruder = 1
; perimeter_extrusion_width = 0
; perimeter_speed = 10
; perimeters = 1
; small_perimeter_speed = 70%
; solid_infill_below_area = 70
; solid_infill_every_layers = 0
; solid_infill_extruder = 1
; solid_infill_extrusion_width = 0
; solid_infill_speed = 10
; thin_walls = 1
; top_infill_extrusion_width = 0
; top_solid_infill_speed = 10
; top_solid_layers = 3
