; generated by Slic3r 1.2.9 on 2016-03-11 at 01:27:14

; external perimeters extrusion width = 1.54mm
; perimeters extrusion width = 2.62mm
; infill extrusion width = 6.27mm
; solid infill extrusion width = 2.62mm
; top infill extrusion width = 2.62mm

M107
M104 S30 ; set temperature
G28 ; home all axes
G1 Z5 F5000 ; lift nozzle
M302
M92 E10000
M500
M501
G1 E100
M109 S30 ; wait for temperature to be reached
G21 ; set units to millimeters
G90 ; use absolute coordinates
M82 ; use absolute distances for extrusion
G92 E0
G1 Z0.300 F7800.000
G1 X106.822 Y99.910 F7800.000
G1 X103.839 Y92.577 E0.35821 F378.000
G1 X105.498 Y92.577 E0.43329
G1 X107.063 Y96.563 E0.62707
G1 X107.250 Y97.041 E0.65028 F378.000
G1 X114.500 Y97.041 E0.97835
G1 X116.241 Y92.577 E1.19516
G1 X117.870 Y92.577 E1.26886
G1 X111.927 Y107.423 E1.99245
G1 X109.878 Y107.423 E2.08519
G1 X106.909 Y100.124 E2.44174
G1 X108.244 Y99.608 F7800.000
G1 X107.702 Y98.207 E2.50969 F378.000
G1 X114.059 Y98.207 E2.79733 F378.000
G1 X111.783 Y104.086 E3.08259
G1 X111.074 Y106.198 E3.18340
G1 X110.675 Y106.197 E3.20146
G1 X110.356 Y105.195 E3.24903
G1 X109.767 Y103.544 E3.32835
G1 X108.327 Y99.823 E3.50890
G1 X108.215 Y100.255 F7800.000
G1 X106.582 Y98.622 E3.61442 F540.000
G1 X107.520 Y98.459 F7800.000
G1 X105.826 Y96.765 E3.72386 F540.000
G1 X106.818 Y96.655 F7800.000
G1 X105.071 Y94.909 E3.83674 F540.000
G1 X104.693 Y93.980 F7800.000
G1 X106.462 Y95.749 E3.95103 F540.000
G1 X106.106 Y94.842 F7800.000
G1 X104.316 Y93.052 E4.06673 F540.000
G1 X104.618 Y92.803 E4.08460
G1 X105.751 Y93.936 E4.15782
G1 X105.395 Y93.029 F7800.000
G1 X105.168 Y92.803 E4.17246 F540.000
G1 X105.449 Y95.837 F7800.000
G1 X107.593 Y97.981 E4.31101 F540.000
G1 X108.143 Y97.981 E4.33617
G1 X107.429 Y97.267 E4.38232
G1 X107.980 Y97.267 E4.40749
G1 X108.694 Y97.981 E4.45363
G1 X109.245 Y97.981 E4.47880
G1 X108.531 Y97.267 E4.52494
G1 X109.082 Y97.267 E4.55011
G1 X109.796 Y97.981 E4.59626
G1 X110.346 Y97.981 E4.62142
G1 X109.632 Y97.267 E4.66757
G1 X110.183 Y97.267 E4.69273
G1 X110.897 Y97.981 E4.73888
G1 X111.448 Y97.981 E4.76404
G1 X110.734 Y97.267 E4.81019
G1 X111.284 Y97.267 E4.83536
G1 X111.999 Y97.981 E4.88150
G1 X112.549 Y97.981 E4.90667
G1 X111.835 Y97.267 E4.95281
G1 X112.386 Y97.267 E4.97798
G1 X113.100 Y97.981 E5.02413
G1 X113.651 Y97.981 E5.04929
G1 X112.937 Y97.267 E5.09544
G92 E0
G1 X107.867 Y99.357 F7800.000
G1 X106.204 Y97.694 E0.10748 F540.000
G1 X106.959 Y99.550 F7800.000
G1 X108.562 Y101.153 E0.21105 F540.000
G1 X107.714 Y101.407 F7800.000
G1 X109.257 Y102.949 E0.31071 F540.000
G1 X108.470 Y103.264 F7800.000
G1 X109.904 Y104.698 E0.40342 F540.000
G1 X109.225 Y105.120 F7800.000
G1 X110.457 Y106.352 E0.48304 F540.000
G1 X109.980 Y106.977 F7800.000
G1 X110.200 Y107.197 E0.49725 F540.000
G1 X109.603 Y106.049 F7800.000
G1 X110.751 Y107.197 E0.57146 F540.000
G1 X111.302 Y107.197 E0.59662
G1 X110.527 Y106.423 E0.64665
G1 X111.080 Y106.424 E0.67187
G1 X111.810 Y107.155 E0.71906
G1 X111.973 Y106.767 E0.73827
G1 X111.318 Y106.112 E0.78059
G1 X111.457 Y105.700 E0.80047
G1 X112.130 Y106.374 E0.84401
G1 X112.288 Y105.980 E0.86337
G1 X111.595 Y105.288 E0.90814
G1 X111.733 Y104.875 E0.92801
G1 X112.445 Y105.587 E0.97400
G1 X112.603 Y105.194 E0.99336
G1 X111.872 Y104.463 E1.04058
G1 X112.013 Y104.053 E1.06039
G1 X112.760 Y104.801 E1.10870
G1 X112.918 Y104.407 E1.12806
G1 X112.166 Y103.656 E1.17661
G1 X112.320 Y103.259 E1.19606
G1 X113.075 Y104.014 E1.24485
G1 X113.232 Y103.621 E1.26421
G1 X112.474 Y102.862 E1.31324
G1 X112.627 Y102.465 E1.33270
G1 X113.390 Y103.227 E1.38197
G1 X113.547 Y102.834 E1.40133
G1 X112.781 Y102.068 E1.45085
G1 X112.935 Y101.671 E1.47030
G1 X113.705 Y102.441 E1.52006
G1 X113.862 Y102.048 E1.53942
G1 X113.088 Y101.274 E1.58942
G1 X113.242 Y100.877 E1.60888
G1 X114.020 Y101.654 E1.65912
G1 X114.177 Y101.261 E1.67848
G1 X113.396 Y100.480 E1.72897
G1 X113.549 Y100.083 E1.74842
G1 X114.334 Y100.868 E1.79915
G1 X114.492 Y100.474 E1.81851
G1 X113.703 Y99.686 E1.86948
G1 X113.857 Y99.289 E1.88894
G1 X114.649 Y100.081 E1.94015
G1 X114.807 Y99.688 E1.95951
G1 X114.010 Y98.892 E2.01097
G1 X114.164 Y98.495 E2.03042
G1 X114.964 Y99.295 E2.08212
G1 X115.122 Y98.901 E2.10148
G1 X113.487 Y97.267 E2.20709
G1 X114.038 Y97.267 E2.23225
G1 X115.279 Y98.508 E2.31245
G1 X115.436 Y98.115 E2.33181
G1 X114.589 Y97.267 E2.38659
G1 X114.772 Y96.900 E2.40535
G1 X115.594 Y97.721 E2.45845
G1 X115.751 Y97.328 E2.47781
G1 X114.927 Y96.503 E2.53110
G1 X115.081 Y96.107 E2.55053
G1 X115.909 Y96.935 E2.60401
G1 X116.066 Y96.542 E2.62337
G1 X115.236 Y95.711 E2.67704
G1 X115.390 Y95.315 E2.69647
G1 X116.224 Y96.148 E2.75032
G1 X116.381 Y95.755 E2.76968
G1 X115.545 Y94.919 E2.82372
G1 X115.699 Y94.522 E2.84316
G1 X116.538 Y95.362 E2.89739
G1 X116.696 Y94.968 E2.91675
G1 X115.854 Y94.126 E2.97116
G1 X116.008 Y93.730 E2.99060
G1 X116.853 Y94.575 E3.04520
G1 X117.011 Y94.182 E3.06456
G1 X116.163 Y93.334 E3.11936
G1 X116.317 Y92.938 E3.13879
G1 X117.168 Y93.789 E3.19377
G1 X117.326 Y93.395 E3.21313
G1 X116.733 Y92.803 E3.25140
G1 X117.284 Y92.803 E3.27657
G1 X117.483 Y93.002 E3.28943
G92 E0
G1 X108.909 Y102.051 F7800.000
G1 X107.337 Y100.479 E0.10162 F540.000
G1 X108.092 Y102.335 F7800.000
G1 X109.599 Y103.842 E0.19898 F540.000
G1 X108.847 Y104.192 F7800.000
G1 X110.200 Y105.545 E0.28638 F540.000
G92 E0
G1 X107.404 Y96.816 F7800.000
G1 X107.015 Y91.817 F7800.000
G1 X92.786 Y92.352 F7800.000
G1 X88.530 Y91.352 F7800.000
G1 X85.945 Y92.657 F7800.000
G1 X84.110 Y102.558 F7800.000
G1 X83.641 Y102.558 F7800.000
G1 X82.022 Y101.902 F7800.000
G1 X82.022 Y92.577 E0.42195 F378.000
G1 X83.415 Y92.577 E0.48498
G1 X83.415 Y102.555 E0.93650
G1 X83.344 Y105.674 E1.07764 F378.000
G1 X83.819 Y105.750 E1.09940
G1 X84.137 Y104.688 E1.14955
G1 X84.742 Y102.851 E1.23710
G1 X88.685 Y92.577 E1.73504
G1 X89.828 Y92.577 E1.78676
G1 X93.718 Y102.853 E2.28393
G1 X94.010 Y103.672 E2.32327
G1 X94.326 Y104.678 E2.37100
G1 X94.614 Y105.690 E2.41863
G1 X95.096 Y105.611 E2.44072
G1 X95.022 Y103.667 E2.52871
G1 X95.011 Y102.557 E2.57897
G1 X95.011 Y92.577 E3.03055
G1 X96.426 Y92.577 E3.09458
G1 X96.426 Y107.423 E3.76635
G1 X94.150 Y107.423 E3.86934
G1 X90.133 Y96.741 E4.38573
G1 X89.684 Y95.324 E4.45300
G1 X89.481 Y94.557 E4.48892
G1 X89.055 Y94.559 E4.50819
G1 X88.650 Y96.083 E4.57954
G1 X88.372 Y96.966 E4.62144
G1 X84.365 Y107.423 E5.12817
G1 X82.022 Y107.423 E5.23416
G1 X82.022 Y102.133 E5.47353
G1 X83.132 Y105.138 F7800.000
G1 X82.248 Y104.254 E5.53034 F540.000
G1 X82.248 Y103.707 E5.55524
G1 X83.145 Y104.603 E5.61284
G1 X83.157 Y104.067 E5.63720
G1 X82.248 Y103.159 E5.69558
G1 X82.248 Y102.611 E5.72048
G1 X83.169 Y103.531 E5.77966
G1 X83.181 Y102.996 E5.80401
G1 X82.248 Y102.063 E5.86397
G1 X82.248 Y101.515 E5.88888
G1 X83.190 Y102.456 E5.94937
G1 X83.190 Y101.909 E5.97427
G1 X82.248 Y100.967 E6.03477
G1 X82.248 Y100.420 E6.05967
G1 X83.190 Y101.361 E6.12016
G1 X83.190 Y100.813 E6.14507
G1 X82.248 Y99.872 E6.20556
G1 X82.248 Y99.324 E6.23046
G1 X83.190 Y100.265 E6.29096
G1 X83.190 Y99.717 E6.31586
G1 X82.248 Y98.776 E6.37636
G1 X82.248 Y98.228 E6.40126
G1 X83.190 Y99.169 E6.46175
G1 X83.190 Y98.622 E6.48665
G1 X82.248 Y97.680 E6.54715
G1 X82.248 Y97.133 E6.57205
G1 X83.190 Y98.074 E6.63255
G1 X83.190 Y97.526 E6.65745
G1 X82.248 Y96.585 E6.71794
G1 X82.248 Y96.037 E6.74284
G1 X83.190 Y96.978 E6.80334
G1 X83.190 Y96.430 E6.82824
G1 X82.248 Y95.489 E6.88874
G1 X82.248 Y94.941 E6.91364
G1 X83.190 Y95.882 E6.97413
G1 X83.190 Y95.335 E6.99903
G1 X82.248 Y94.394 E7.05953
G1 X82.248 Y93.846 E7.08443
G1 X83.190 Y94.787 E7.14493
G1 X83.190 Y94.239 E7.16983
G1 X82.248 Y93.298 E7.23032
G1 X82.301 Y92.803 E7.25295
G1 X83.190 Y93.691 E7.31004
G1 X83.190 Y93.143 E7.33495
G1 X82.849 Y92.803 E7.35683
G92 E0
G1 X89.052 Y93.784 F7800.000
G1 X89.255 Y93.644 F7800.000
G1 X89.255 Y93.406 F7800.000
G1 X89.218 Y93.352 F7800.000
G1 X89.423 Y92.803 F7800.000
G1 X89.765 Y93.145 E0.02197 F540.000
G1 X90.099 Y94.026 F7800.000
G1 X88.875 Y92.803 E0.10060 F540.000
G1 X88.680 Y93.155 E0.11892
G1 X90.432 Y94.908 E0.23158
G1 X89.813 Y94.836 E0.25991
G1 X90.766 Y95.789 E0.32117
G1 X90.042 Y95.614 F7800.000
G1 X91.100 Y96.671 E0.38915 F540.000
G1 X90.613 Y97.280 F7800.000
G1 X91.767 Y98.434 E0.46332 F540.000
G1 X91.274 Y99.036 F7800.000
G1 X92.435 Y100.197 E0.53794 F540.000
G1 X91.934 Y100.792 F7800.000
G1 X93.102 Y101.960 E0.61302 F540.000
G1 X92.595 Y102.549 F7800.000
G1 X93.746 Y103.700 E0.68703 F540.000
G1 X92.925 Y103.427 F7800.000
G1 X94.006 Y104.508 E0.75651 F540.000
G1 X93.255 Y104.305 E0.79186
G1 X94.238 Y105.287 E0.85502
G1 X93.585 Y105.183 E0.88505
G1 X94.456 Y106.053 E0.94100
G1 X94.823 Y105.872 E0.95960
G1 X96.148 Y107.197 E1.04475
G1 X96.201 Y106.702 E1.06738
G1 X95.293 Y105.795 E1.12572
G1 X95.312 Y105.266 E1.14977
G1 X96.201 Y106.154 E1.20689
G1 X96.201 Y105.607 E1.23179
G1 X95.290 Y104.696 E1.29030
G1 X95.269 Y104.127 E1.31619
G1 X96.201 Y105.059 E1.37608
G1 X96.201 Y104.511 E1.40098
G1 X95.248 Y103.558 E1.46222
G1 X95.243 Y103.005 E1.48736
G1 X96.201 Y103.963 E1.54894
G1 X96.201 Y103.415 E1.57384
G1 X95.237 Y102.452 E1.63575
G1 X95.237 Y101.904 E1.66066
G1 X96.201 Y102.867 E1.72257
G1 X96.201 Y102.320 E1.74747
G1 X95.237 Y101.356 E1.80938
G1 X95.237 Y100.809 E1.83428
G1 X96.201 Y101.772 E1.89619
G1 X96.201 Y101.224 E1.92109
G1 X95.237 Y100.261 E1.98300
G1 X95.237 Y99.713 E2.00790
G1 X96.201 Y100.676 E2.06981
G1 X96.201 Y100.128 E2.09471
G1 X95.237 Y99.165 E2.15662
G1 X95.237 Y98.617 E2.18152
G1 X96.201 Y99.580 E2.24343
G1 X96.201 Y99.033 E2.26833
G1 X95.237 Y98.070 E2.33024
G1 X95.237 Y97.522 E2.35515
G1 X96.201 Y98.485 E2.41706
G1 X96.201 Y97.937 E2.44196
G1 X95.237 Y96.974 E2.50387
G1 X95.237 Y96.426 E2.52877
G1 X96.201 Y97.389 E2.59068
G1 X96.201 Y96.841 E2.61558
G1 X95.237 Y95.878 E2.67749
G1 X95.237 Y95.330 E2.70239
G1 X96.201 Y96.293 E2.76430
G1 X96.201 Y95.746 E2.78920
G1 X95.237 Y94.783 E2.85111
G1 X95.237 Y94.235 E2.87601
G1 X96.201 Y95.198 E2.93792
G1 X96.201 Y94.650 E2.96282
G1 X95.237 Y93.687 E3.02473
G1 X95.237 Y93.139 E3.04963
G1 X96.201 Y94.102 E3.11154
G1 X96.201 Y93.554 E3.13645
G1 X95.449 Y92.803 E3.18475
G1 X95.997 Y92.803 E3.20965
G1 X96.201 Y93.007 E3.22274
G92 E0
G1 X89.456 Y93.782 F7800.000
G1 X89.456 Y93.782 F7800.000
G1 X91.434 Y97.553 F7800.000
G1 X90.297 Y96.416 E0.07308 F540.000
G1 X90.944 Y98.158 F7800.000
G1 X92.101 Y99.316 E0.14747 F540.000
G1 X91.604 Y99.914 F7800.000
G1 X92.769 Y101.079 E0.22233 F540.000
G1 X92.265 Y101.671 F7800.000
G1 X93.436 Y102.842 E0.29763 F540.000
G1 X94.353 Y105.950 F7800.000
G1 X95.600 Y107.197 E0.37777 F540.000
G1 X95.052 Y107.197 E0.40267
G1 X93.916 Y106.061 E0.47572
G1 X94.246 Y106.939 F7800.000
G1 X94.504 Y107.197 E0.49231 F540.000
G92 E0
G1 X83.872 Y106.544 F7800.000
G1 X83.872 Y106.544 F7800.000
G1 X83.367 Y105.921 F7800.000
G1 X84.348 Y106.902 E0.06307 F540.000
G1 X84.500 Y106.506 E0.08235
G1 X83.967 Y105.973 E0.11660
G1 X84.093 Y105.551 E0.13660
G1 X84.652 Y106.110 E0.17249
G1 X84.803 Y105.714 E0.19177
G1 X84.220 Y105.130 E0.22928
G1 X84.346 Y104.709 E0.24928
G1 X84.955 Y105.318 E0.28843
G1 X85.107 Y104.922 E0.30771
G1 X84.481 Y104.296 E0.34792
G1 X84.617 Y103.884 E0.36764
G1 X85.259 Y104.525 E0.40889
G1 X85.410 Y104.129 E0.42817
G1 X84.753 Y103.472 E0.47046
G1 X84.888 Y103.059 E0.49018
G1 X85.562 Y103.733 E0.53352
G1 X85.714 Y103.337 E0.55279
G1 X85.033 Y102.656 E0.59659
G1 X85.185 Y102.260 E0.61587
G1 X85.866 Y102.941 E0.65965
G1 X86.018 Y102.545 E0.67893
G1 X85.337 Y101.864 E0.72270
G1 X85.489 Y101.468 E0.74198
G1 X86.169 Y102.149 E0.78574
G1 X86.321 Y101.753 E0.80502
G1 X85.640 Y101.072 E0.84877
G1 X85.792 Y100.677 E0.86804
G1 X86.473 Y101.357 E0.91178
G1 X86.625 Y100.961 E0.93106
G1 X85.944 Y100.281 E0.97478
G1 X86.096 Y99.885 E0.99406
G1 X86.776 Y100.565 E1.03777
G1 X86.928 Y100.169 E1.05705
G1 X86.248 Y99.489 E1.10075
G1 X86.400 Y99.093 E1.12002
G1 X87.080 Y99.773 E1.16371
G1 X87.232 Y99.377 E1.18299
G1 X86.552 Y98.697 E1.22667
G1 X86.704 Y98.301 E1.24594
G1 X87.383 Y98.981 E1.28960
G1 X87.535 Y98.585 E1.30888
G1 X86.856 Y97.906 E1.35253
G1 X87.008 Y97.510 E1.37181
G1 X87.687 Y98.189 E1.41545
G1 X87.839 Y97.793 E1.43473
G1 X87.160 Y97.114 E1.47835
G1 X87.312 Y96.718 E1.49763
G1 X87.991 Y97.396 E1.54124
G1 X88.142 Y97.000 E1.56052
G1 X87.464 Y96.322 E1.60413
G1 X87.616 Y95.926 E1.62340
G1 X88.276 Y96.587 E1.66585
G1 X88.408 Y96.170 E1.68570
G1 X87.768 Y95.530 E1.72682
G1 X87.920 Y95.135 E1.74610
G1 X88.526 Y95.741 E1.78507
G1 X88.641 Y95.308 E1.80542
G1 X88.072 Y94.739 E1.84202
G1 X88.224 Y94.343 E1.86130
G1 X88.756 Y94.875 E1.89553
G1 X88.871 Y94.443 E1.91588
G1 X88.376 Y93.947 E1.94774
G1 X88.528 Y93.551 E1.96701
G1 X89.309 Y94.332 E2.01722
G92 E0
G1 X89.052 Y93.784 F7800.000
G1 X89.052 Y93.784 F7800.000
G1 X83.120 Y105.674 F7800.000
G1 X82.248 Y104.802 E0.05603 F540.000
G1 X82.248 Y105.350 E0.08093
G1 X84.095 Y107.197 E0.19966
G1 X83.548 Y107.197 E0.22456
G1 X82.248 Y105.898 E0.30808
G1 X82.248 Y106.446 E0.33298
G1 X83.000 Y107.197 E0.38128
G1 X82.452 Y107.197 E0.40618
G1 X82.248 Y106.993 E0.41927
M106 S255
G92 E0
G1 Z0.600 F7800.000
G1 X108.882 Y100.633 F7800.000
G1 X106.505 Y97.168 E1.25895 F600.000
G1 X104.581 Y92.352 E2.81316
G92 E0
G1 X115.266 Y94.457 F7800.000
G1 X114.613 Y98.774 E1.30808 F600.000
G1 X112.429 Y104.320 E3.09412
G1 X111.722 Y106.245 E3.70867
G1 X111.453 Y106.723 E3.87298
G1 X110.910 Y106.810 E4.03790
G1 X110.340 Y106.736 E4.21012
G1 X110.046 Y106.225 E4.38674
G1 X109.130 Y103.781 E5.16881
G1 X107.144 Y98.775 E6.78264
G1 X107.007 Y97.900 E7.04815
G1 X107.403 Y97.746 E7.17565
G1 X108.031 Y97.624 E7.36704
G1 X113.731 Y97.624 E9.07502
G1 X114.347 Y97.741 E9.26296
G1 X114.746 Y97.894 E9.39107
G1 X115.241 Y97.165 E9.65510
G1 X117.143 Y92.352 E11.20580
G92 E0
G1 X105.652 Y91.352 F7800.000
G1 X103.504 Y91.352 F7800.000
G1 X100.262 Y93.962 F7800.000
G1 X98.652 Y92.352 F7800.000
G1 X96.652 Y92.352 F7800.000
G1 X95.719 Y92.352 F7800.000
G1 X95.719 Y102.553 E3.05684 F600.000
G1 X95.757 Y105.387 E3.90606
G1 X95.459 Y106.455 E4.23827
G1 X95.047 Y106.527 E4.36358
G1 X94.760 Y106.542 E4.44947
G1 X94.048 Y105.643 E4.79314
G1 X93.446 Y103.861 E5.35679
G1 X93.153 Y103.060 E5.61219
G1 X90.695 Y96.547 E7.69830
G1 X90.032 Y94.592 E8.31687
G1 X89.303 Y93.677 E8.66734
G1 X89.255 Y93.644 E8.68488
G1 X88.491 Y94.587 E9.04855
G1 X87.767 Y96.755 E9.73345
G1 X85.347 Y103.066 E11.75884
G1 X84.414 Y105.723 E12.60259
G1 X83.778 Y106.569 E12.91989
G1 X83.401 Y106.559 E13.03285
G1 X82.965 Y106.480 E13.16539
G1 X82.686 Y105.463 E13.48158
G1 X82.719 Y102.547 E14.35514
G1 X82.719 Y92.352 E17.41018
G92 E0
G1 Z0.900 F7800.000
G1 X108.882 Y100.633 F7800.000
G1 X106.505 Y97.168 E1.25895 F600.000
G1 X104.581 Y92.352 E2.81316
G92 E0
G1 X115.266 Y94.457 F7800.000
G1 X114.613 Y98.774 E1.30808 F600.000
G1 X112.429 Y104.320 E3.09412
G1 X111.722 Y106.245 E3.70867
G1 X111.453 Y106.723 E3.87298
G1 X110.910 Y106.810 E4.03790
G1 X110.340 Y106.736 E4.21012
G1 X110.046 Y106.225 E4.38673
G1 X109.130 Y103.781 E5.16881
G1 X107.144 Y98.775 E6.78264
G1 X107.007 Y97.900 E7.04815
G1 X107.403 Y97.746 E7.17566
G1 X108.031 Y97.624 E7.36704
G1 X113.731 Y97.624 E9.07502
G1 X114.347 Y97.741 E9.26296
G1 X114.746 Y97.894 E9.39107
G1 X115.241 Y97.165 E9.65510
G1 X117.143 Y92.352 E11.20580
G92 E0
G1 X105.652 Y91.352 F7800.000
G1 X103.504 Y91.352 F7800.000
G1 X100.262 Y93.962 F7800.000
G1 X98.652 Y92.352 F7800.000
G1 X96.652 Y92.352 F7800.000
G1 X95.719 Y92.352 F7800.000
G1 X95.719 Y102.553 E3.05683 F600.000
G1 X95.757 Y105.387 E3.90606
G1 X95.459 Y106.455 E4.23827
G1 X95.047 Y106.527 E4.36358
G1 X94.760 Y106.542 E4.44947
G1 X94.048 Y105.643 E4.79314
G1 X93.446 Y103.861 E5.35679
G1 X93.153 Y103.060 E5.61219
G1 X90.695 Y96.547 E7.69830
G1 X90.032 Y94.592 E8.31687
G1 X89.303 Y93.677 E8.66734
G1 X89.255 Y93.644 E8.68488
G1 X88.491 Y94.587 E9.04855
G1 X87.767 Y96.755 E9.73345
G1 X85.347 Y103.066 E11.75884
G1 X84.414 Y105.723 E12.60259
G1 X83.778 Y106.569 E12.91989
G1 X83.401 Y106.559 E13.03285
G1 X82.965 Y106.480 E13.16539
G1 X82.686 Y105.463 E13.48158
G1 X82.719 Y102.547 E14.35515
G1 X82.719 Y92.352 E17.41018
