; generated by Slic3r 1.2.9 on 2016-03-11 at 01:27:19

; external perimeters extrusion width = 1.54mm
; perimeters extrusion width = 2.62mm
; infill extrusion width = 6.27mm
; solid infill extrusion width = 2.62mm
; top infill extrusion width = 2.62mm

M107
M104 S30 ; set temperature
G28 ; home all axes
G1 Z5 F5000 ; lift nozzle
M302
M92 E10000
M500
M501
G1 E100
M109 S30 ; wait for temperature to be reached
G21 ; set units to millimeters
G90 ; use absolute coordinates
M82 ; use absolute distances for extrusion
G92 E0
G1 Z0.300 F7800.000
G1 X115.477 Y106.181 F7800.000
G1 X116.947 Y106.181 E0.06648 F378.000
G1 X116.947 Y107.423 E0.12268
G1 X106.540 Y107.423 E0.59359
G1 X106.540 Y92.577 E1.26536
G1 X108.161 Y92.577 E1.33871
G1 X108.161 Y98.800 E1.62029
G1 X116.685 Y98.800 E2.00604 F378.000
G1 X116.685 Y100.063 E2.06319
G1 X108.161 Y100.063 E2.44893
G1 X108.161 Y106.181 E2.72577
G1 X115.246 Y106.181 E3.04639
G1 X116.545 Y106.407 F7800.000
G1 X116.721 Y106.583 E3.05765 F540.000
G1 X116.721 Y107.128 E3.08234
G1 X115.999 Y106.407 E3.12853
G1 X115.454 Y106.407 E3.15322
G1 X116.244 Y107.197 E3.20380
G1 X115.698 Y107.197 E3.22850
G1 X114.908 Y106.407 E3.27908
G1 X114.362 Y106.407 E3.30377
G1 X115.153 Y107.197 E3.35435
G1 X114.607 Y107.197 E3.37905
G1 X113.817 Y106.407 E3.42963
G1 X113.271 Y106.407 E3.45432
G1 X114.061 Y107.197 E3.50490
G1 X113.516 Y107.197 E3.52960
G1 X112.726 Y106.407 E3.58018
G1 X112.180 Y106.407 E3.60487
G1 X112.970 Y107.197 E3.65545
G1 X112.425 Y107.197 E3.68015
G1 X111.635 Y106.407 E3.73073
G1 X111.089 Y106.407 E3.75542
G1 X111.879 Y107.197 E3.80600
G1 X111.334 Y107.197 E3.83070
G1 X110.544 Y106.407 E3.88128
G1 X109.998 Y106.407 E3.90597
G1 X110.788 Y107.197 E3.95655
G1 X110.242 Y107.197 E3.98125
G1 X109.452 Y106.407 E4.03183
G1 X108.907 Y106.407 E4.05652
G1 X109.697 Y107.197 E4.10710
G1 X109.151 Y107.197 E4.13180
G1 X108.361 Y106.407 E4.18238
G1 X106.766 Y106.993 F7800.000
G1 X106.969 Y107.197 E4.19541 F540.000
G1 X107.515 Y107.197 E4.22010
G1 X106.766 Y106.448 E4.26806
G1 X106.766 Y105.902 E4.29276
G1 X108.060 Y107.197 E4.37564
G1 X108.606 Y107.197 E4.40034
G1 X106.766 Y105.357 E4.51814
G1 X106.766 Y104.811 E4.54284
G1 X107.935 Y105.980 E4.61768
G1 X107.935 Y105.435 E4.64238
G1 X106.766 Y104.266 E4.71722
G1 X106.766 Y103.720 E4.74191
G1 X107.935 Y104.889 E4.81676
G1 X107.935 Y104.344 E4.84145
G1 X106.766 Y103.175 E4.91629
G1 X106.766 Y102.629 E4.94099
G1 X107.935 Y103.798 E5.01583
G1 X107.935 Y103.253 E5.04053
G1 X106.766 Y102.083 E5.11537
G1 X106.766 Y101.538 E5.14006
G1 X107.935 Y102.707 E5.21491
G1 X107.935 Y102.161 E5.23960
G1 X106.766 Y100.992 E5.31444
G1 X106.766 Y100.447 E5.33914
G1 X107.935 Y101.616 E5.41398
G1 X107.935 Y101.070 E5.43868
G1 X106.766 Y99.901 E5.51352
G1 X106.766 Y99.356 E5.53821
G1 X107.935 Y100.525 E5.61306
G1 X107.935 Y99.979 E5.63775
G1 X106.766 Y98.810 E5.71259
G1 X107.935 Y93.432 F7800.000
G1 X107.305 Y92.803 E5.75289 F540.000
G1 X106.783 Y92.826 E5.77657
G1 X107.935 Y93.978 E5.85032
G1 X107.935 Y94.524 E5.87502
G1 X106.766 Y93.354 E5.94986
G1 X106.766 Y93.900 E5.97456
G1 X107.935 Y95.069 E6.04940
G1 X107.935 Y95.615 E6.07409
G1 X106.766 Y94.446 E6.14893
G1 X106.766 Y94.991 E6.17363
G1 X107.935 Y96.160 E6.24847
G1 X107.935 Y96.706 E6.27317
G1 X106.766 Y95.537 E6.34801
G1 X106.766 Y96.082 E6.37271
G1 X107.935 Y97.251 E6.44755
G1 X107.935 Y97.797 E6.47224
G1 X106.766 Y96.628 E6.54708
G1 X106.766 Y97.173 E6.57178
G1 X107.935 Y98.342 E6.64662
G1 X107.935 Y98.888 E6.67132
G1 X106.766 Y97.719 E6.74616
G1 X106.766 Y98.265 E6.77085
G1 X108.338 Y99.837 E6.87152
G1 X108.884 Y99.837 E6.89622
G1 X108.073 Y99.026 E6.94814
G1 X108.618 Y99.026 E6.97284
G1 X109.429 Y99.837 E7.02476
G1 X109.975 Y99.837 E7.04946
G1 X109.164 Y99.026 E7.10138
G1 X109.709 Y99.026 E7.12608
G1 X110.520 Y99.837 E7.17800
G1 X111.066 Y99.837 E7.20270
G1 X110.255 Y99.026 E7.25462
G1 X110.800 Y99.026 E7.27932
G1 X111.611 Y99.837 E7.33124
G1 X112.157 Y99.837 E7.35594
G1 X111.346 Y99.026 E7.40786
G1 X111.891 Y99.026 E7.43255
G1 X112.703 Y99.837 E7.48448
G1 X113.248 Y99.837 E7.50917
G1 X112.437 Y99.026 E7.56110
G1 X112.983 Y99.026 E7.58579
G1 X113.794 Y99.837 E7.63772
G1 X114.339 Y99.837 E7.66241
G1 X113.528 Y99.026 E7.71434
G1 X114.074 Y99.026 E7.73903
G1 X114.885 Y99.837 E7.79096
G1 X115.430 Y99.837 E7.81565
G1 X114.619 Y99.026 E7.86757
G1 X115.165 Y99.026 E7.89227
G1 X115.976 Y99.837 E7.94419
G1 X116.460 Y99.775 E7.96627
G1 X115.710 Y99.026 E8.01422
G1 X116.256 Y99.026 E8.03892
G1 X116.460 Y99.230 E8.05195
G92 E0
G1 X108.386 Y98.575 F7800.000
G1 X108.386 Y91.352 F7800.000
G1 X95.817 Y91.352 F7800.000
G1 X95.364 Y102.558 F7800.000
G1 X95.375 Y102.618 F7800.000
G1 X94.961 Y102.775 F7800.000
G1 X91.097 Y93.205 F7800.000
G1 X94.749 Y102.853 E0.46676 F378.000
G1 X95.041 Y103.672 E0.50611
G1 X95.357 Y104.678 E0.55384
G1 X95.645 Y105.690 E0.60146
G1 X96.127 Y105.611 E0.62355
G1 X96.053 Y103.667 E0.71155
G1 X96.042 Y102.557 E0.76180
G1 X96.042 Y92.577 E1.21338
G1 X97.457 Y92.577 E1.27741
G1 X97.457 Y107.423 E1.94918
G1 X95.181 Y107.423 E2.05218
G1 X91.164 Y96.741 E2.56857
G1 X90.715 Y95.324 E2.63583
G1 X90.512 Y94.557 E2.67175
G1 X90.086 Y94.559 E2.69103
G1 X89.681 Y96.083 E2.76237
G1 X89.403 Y96.966 E2.80428
G1 X85.396 Y107.423 E3.31101
G1 X83.053 Y107.423 E3.41699
G1 X83.053 Y92.577 E4.08876
G1 X84.446 Y92.577 E4.15180
G1 X84.446 Y102.555 E4.60331
G1 X84.375 Y105.674 E4.74446 F378.000
G1 X84.850 Y105.750 E4.76621
G1 X85.168 Y104.688 E4.81637
G1 X85.773 Y102.851 E4.90392
G1 X89.716 Y92.577 E5.40186
G1 X90.859 Y92.577 E5.45357
G1 X91.015 Y92.989 E5.47353
G1 X90.796 Y93.145 F7800.000
G1 X90.454 Y92.803 E5.49550 F540.000
G1 X91.130 Y94.026 F7800.000
G1 X89.906 Y92.803 E5.57413 F540.000
G1 X89.711 Y93.155 E5.59244
G1 X91.463 Y94.908 E5.70511
G1 X90.844 Y94.836 E5.73344
G1 X91.797 Y95.789 E5.79470
G1 X91.073 Y95.614 F7800.000
G1 X92.131 Y96.671 E5.86268 F540.000
G1 X91.644 Y97.280 F7800.000
G1 X92.798 Y98.434 E5.93685 F540.000
G1 X92.305 Y99.036 F7800.000
G1 X93.466 Y100.197 E6.01147 F540.000
G1 X92.965 Y100.792 F7800.000
G1 X94.133 Y101.960 E6.08655 F540.000
G1 X93.626 Y102.549 F7800.000
G1 X94.777 Y103.700 E6.16056 F540.000
G1 X93.956 Y103.427 F7800.000
G1 X95.037 Y104.508 E6.23004 F540.000
G1 X94.286 Y104.305 E6.26539
G1 X95.269 Y105.287 E6.32855
G1 X94.616 Y105.183 E6.35858
G1 X95.487 Y106.053 E6.41453
G1 X95.854 Y105.872 E6.43313
G1 X97.179 Y107.197 E6.51828
G1 X97.232 Y106.702 E6.54091
G1 X96.324 Y105.795 E6.59924
G1 X96.343 Y105.266 E6.62330
G1 X97.232 Y106.154 E6.68042
G1 X97.232 Y105.607 E6.70532
G1 X96.321 Y104.696 E6.76383
G1 X96.300 Y104.127 E6.78972
G1 X97.232 Y105.059 E6.84961
G1 X97.232 Y104.511 E6.87451
G1 X96.279 Y103.558 E6.93575
G1 X96.274 Y103.005 E6.96089
G1 X97.232 Y103.963 E7.02247
G1 X97.232 Y103.415 E7.04737
G1 X96.268 Y102.452 E7.10928
G1 X96.268 Y101.904 E7.13419
G1 X97.232 Y102.867 E7.19610
G1 X97.232 Y102.320 E7.22100
G1 X96.268 Y101.356 E7.28291
G1 X96.268 Y100.809 E7.30781
G1 X97.232 Y101.772 E7.36972
G1 X97.232 Y101.224 E7.39462
G1 X96.268 Y100.261 E7.45653
G1 X96.268 Y99.713 E7.48143
G1 X97.232 Y100.676 E7.54334
G1 X97.232 Y100.128 E7.56824
G1 X96.268 Y99.165 E7.63015
G1 X96.268 Y98.617 E7.65505
G1 X97.232 Y99.580 E7.71696
G1 X97.232 Y99.033 E7.74186
G1 X96.268 Y98.070 E7.80377
G1 X96.268 Y97.522 E7.82867
G1 X97.232 Y98.485 E7.89058
G1 X97.232 Y97.937 E7.91549
G1 X96.268 Y96.974 E7.97740
G1 X96.268 Y96.426 E8.00230
G1 X97.232 Y97.389 E8.06421
G1 X97.232 Y96.841 E8.08911
G1 X96.268 Y95.878 E8.15102
G1 X96.268 Y95.330 E8.17592
G1 X97.232 Y96.293 E8.23783
G1 X97.232 Y95.746 E8.26273
G1 X96.268 Y94.783 E8.32464
G1 X96.268 Y94.235 E8.34954
G1 X97.232 Y95.198 E8.41145
G1 X97.232 Y94.650 E8.43635
G1 X96.268 Y93.687 E8.49826
G1 X96.268 Y93.139 E8.52316
G1 X97.232 Y94.102 E8.58507
G1 X97.232 Y93.554 E8.60997
G1 X96.480 Y92.803 E8.65828
G1 X97.028 Y92.803 E8.68318
G1 X97.232 Y93.007 E8.69627
G92 E0
G1 X90.487 Y93.782 F7800.000
G1 X90.487 Y93.782 F7800.000
G1 X92.465 Y97.553 F7800.000
G1 X91.328 Y96.416 E0.07308 F540.000
G1 X91.975 Y98.158 F7800.000
G1 X93.132 Y99.316 E0.14747 F540.000
G1 X92.635 Y99.914 F7800.000
G1 X93.800 Y101.079 E0.22233 F540.000
G1 X93.296 Y101.671 F7800.000
G1 X94.467 Y102.842 E0.29763 F540.000
G1 X95.384 Y105.950 F7800.000
G1 X96.631 Y107.197 E0.37777 F540.000
G1 X96.083 Y107.197 E0.40267
G1 X94.947 Y106.061 E0.47572
G1 X95.277 Y106.939 F7800.000
G1 X95.535 Y107.197 E0.49231 F540.000
G92 E0
G1 X84.903 Y106.544 F7800.000
G1 X84.903 Y106.544 F7800.000
G1 X84.398 Y105.921 F7800.000
G1 X85.379 Y106.902 E0.06307 F540.000
G1 X85.531 Y106.506 E0.08235
G1 X84.998 Y105.973 E0.11660
G1 X85.124 Y105.551 E0.13660
G1 X85.683 Y106.110 E0.17249
G1 X85.834 Y105.714 E0.19177
G1 X85.251 Y105.130 E0.22928
G1 X85.377 Y104.709 E0.24928
G1 X85.986 Y105.318 E0.28843
G1 X86.138 Y104.922 E0.30771
G1 X85.512 Y104.296 E0.34792
G1 X85.648 Y103.884 E0.36764
G1 X86.290 Y104.525 E0.40889
G1 X86.441 Y104.129 E0.42817
G1 X85.784 Y103.472 E0.47046
G1 X85.919 Y103.059 E0.49018
G1 X86.593 Y103.733 E0.53352
G1 X86.745 Y103.337 E0.55279
G1 X86.064 Y102.656 E0.59659
G1 X86.216 Y102.260 E0.61587
G1 X86.897 Y102.941 E0.65965
G1 X87.049 Y102.545 E0.67893
G1 X86.368 Y101.864 E0.72270
G1 X86.520 Y101.468 E0.74198
G1 X87.200 Y102.149 E0.78574
G1 X87.352 Y101.753 E0.80502
G1 X86.671 Y101.072 E0.84877
G1 X86.823 Y100.677 E0.86804
G1 X87.504 Y101.357 E0.91178
G1 X87.656 Y100.961 E0.93106
G1 X86.975 Y100.281 E0.97478
G1 X87.127 Y99.885 E0.99406
G1 X87.807 Y100.565 E1.03777
G1 X87.959 Y100.169 E1.05705
G1 X87.279 Y99.489 E1.10075
G1 X87.431 Y99.093 E1.12002
G1 X88.111 Y99.773 E1.16371
G1 X88.263 Y99.377 E1.18299
G1 X87.583 Y98.697 E1.22667
G1 X87.735 Y98.301 E1.24594
G1 X88.414 Y98.981 E1.28960
G1 X88.566 Y98.585 E1.30888
G1 X87.887 Y97.906 E1.35253
G1 X88.039 Y97.510 E1.37181
G1 X88.718 Y98.189 E1.41545
G1 X88.870 Y97.793 E1.43473
G1 X88.191 Y97.114 E1.47835
G1 X88.343 Y96.718 E1.49763
G1 X89.022 Y97.396 E1.54124
G1 X89.173 Y97.000 E1.56052
G1 X88.495 Y96.322 E1.60413
G1 X88.647 Y95.926 E1.62340
G1 X89.307 Y96.587 E1.66585
G1 X89.439 Y96.170 E1.68570
G1 X88.799 Y95.530 E1.72682
G1 X88.951 Y95.135 E1.74609
G1 X89.557 Y95.741 E1.78507
G1 X89.672 Y95.308 E1.80542
G1 X89.103 Y94.739 E1.84202
G1 X89.255 Y94.343 E1.86130
G1 X89.787 Y94.875 E1.89553
G1 X89.902 Y94.443 E1.91588
G1 X89.407 Y93.947 E1.94774
G1 X89.559 Y93.551 E1.96701
G1 X90.340 Y94.332 E2.01722
G92 E0
G1 X90.083 Y93.784 F7800.000
G1 X90.083 Y93.784 F7800.000
G1 X83.880 Y92.803 F7800.000
G1 X84.221 Y93.143 E0.02188 F540.000
G1 X84.221 Y93.691 E0.04678
G1 X83.332 Y92.803 E0.10388
G1 X83.279 Y93.298 E0.12650
G1 X84.221 Y94.239 E0.18700
G1 X84.221 Y94.787 E0.21190
G1 X83.279 Y93.846 E0.27239
G1 X83.279 Y94.394 E0.29730
G1 X84.221 Y95.335 E0.35779
G1 X84.221 Y95.882 E0.38269
G1 X83.279 Y94.941 E0.44319
G1 X83.279 Y95.489 E0.46809
G1 X84.221 Y96.430 E0.52858
G1 X84.221 Y96.978 E0.55349
G1 X83.279 Y96.037 E0.61398
G1 X83.279 Y96.585 E0.63888
G1 X84.221 Y97.526 E0.69938
G1 X84.221 Y98.074 E0.72428
G1 X83.279 Y97.133 E0.78477
G1 X83.279 Y97.680 E0.80968
G1 X84.221 Y98.622 E0.87017
G1 X84.221 Y99.169 E0.89507
G1 X83.279 Y98.228 E0.95557
G1 X83.279 Y98.776 E0.98047
G1 X84.221 Y99.717 E1.04097
G1 X84.221 Y100.265 E1.06587
G1 X83.279 Y99.324 E1.12636
G1 X83.279 Y99.872 E1.15126
G1 X84.221 Y100.813 E1.21176
G1 X84.221 Y101.361 E1.23666
G1 X83.279 Y100.420 E1.29716
G1 X83.279 Y100.967 E1.32206
G1 X84.221 Y101.909 E1.38255
G1 X84.221 Y102.456 E1.40745
G1 X83.279 Y101.515 E1.46795
G1 X83.279 Y102.063 E1.49285
G1 X84.212 Y102.996 E1.55281
G1 X84.200 Y103.531 E1.57716
G1 X83.279 Y102.611 E1.63634
G1 X83.279 Y103.159 E1.66124
G1 X84.188 Y104.067 E1.71963
G1 X84.176 Y104.603 E1.74398
G1 X83.279 Y103.707 E1.80158
G1 X83.279 Y104.254 E1.82648
G1 X84.163 Y105.138 E1.88329
G1 X84.151 Y105.674 F7800.000
G1 X83.279 Y104.802 E1.93932 F540.000
G1 X83.279 Y105.350 E1.96422
G1 X85.126 Y107.197 E2.08295
G1 X84.579 Y107.197 E2.10786
G1 X83.279 Y105.898 E2.19137
G1 X83.279 Y106.446 E2.21627
G1 X84.031 Y107.197 E2.26458
G1 X83.483 Y107.197 E2.28948
G1 X83.279 Y106.993 E2.30256
M106 S255
G92 E0
G1 Z0.600 F7800.000
G1 X108.247 Y102.912 F7800.000
G1 X107.350 Y98.575 E1.32720 F600.000
G1 X107.350 Y92.352 E3.19190
G1 X107.386 Y93.352 F7800.000
G1 X107.350 Y93.388 F7800.000
G1 X107.350 Y106.612 F7800.000
G1 X107.386 Y106.648 F7800.000
G1 X117.172 Y106.802 F7800.000
G1 X108.386 Y106.802 E5.82456 F600.000
G1 X107.430 Y106.532 E6.12201
G1 X107.350 Y105.956 E6.29636
G1 X107.350 Y100.288 E7.99476
G1 X107.527 Y99.431 E8.25683
G1 X116.910 Y99.431 E11.06850
G92 E0
G1 X108.386 Y98.575 F7800.000
G1 X108.386 Y98.575 F7800.000
G1 X112.497 Y94.463 F7800.000
G1 X110.386 Y92.352 F7800.000
G1 X108.386 Y91.352 F7800.000
G1 X106.315 Y91.352 F7800.000
G1 X104.315 Y92.352 F7800.000
G1 X101.999 Y94.668 F7800.000
G1 X99.683 Y92.352 F7800.000
G1 X97.683 Y92.352 F7800.000
G1 X96.750 Y92.352 F7800.000
G1 X96.750 Y102.553 E3.05684 F600.000
G1 X96.788 Y105.387 E3.90606
G1 X96.490 Y106.455 E4.23827
G1 X96.078 Y106.527 E4.36358
G1 X95.791 Y106.542 E4.44947
G1 X95.079 Y105.643 E4.79314
G1 X94.477 Y103.861 E5.35679
G1 X94.184 Y103.060 E5.61219
G1 X91.726 Y96.547 E7.69830
G1 X91.063 Y94.592 E8.31687
G1 X90.334 Y93.677 E8.66734
G1 X90.286 Y93.644 E8.68488
G1 X89.522 Y94.587 E9.04855
G1 X88.798 Y96.755 E9.73345
G1 X86.378 Y103.066 E11.75884
G1 X85.445 Y105.723 E12.60259
G1 X84.809 Y106.569 E12.91989
G1 X84.432 Y106.559 E13.03285
G1 X83.996 Y106.480 E13.16539
G1 X83.717 Y105.463 E13.48158
G1 X83.750 Y102.547 E14.35514
G1 X83.750 Y92.352 E17.41018
G92 E0
G1 Z0.900 F7800.000
G1 X108.247 Y102.912 F7800.000
G1 X107.350 Y98.575 E1.32720 F600.000
G1 X107.350 Y92.352 E3.19190
G1 X107.386 Y93.352 F7800.000
G1 X107.350 Y93.388 F7800.000
G1 X107.350 Y106.612 F7800.000
G1 X107.386 Y106.648 F7800.000
G1 X117.172 Y106.802 F7800.000
G1 X108.386 Y106.802 E5.82456 F600.000
G1 X107.430 Y106.532 E6.12201
G1 X107.350 Y105.956 E6.29636
G1 X107.350 Y100.288 E7.99476
G1 X107.527 Y99.431 E8.25683
G1 X116.910 Y99.431 E11.06850
G92 E0
G1 X108.386 Y98.575 F7800.000
G1 X108.386 Y98.575 F7800.000
G1 X112.497 Y94.463 F7800.000
G1 X110.386 Y92.352 F7800.000
G1 X108.386 Y91.352 F7800.000
G1 X106.315 Y91.352 F7800.000
G1 X104.315 Y92.352 F7800.000
G1 X101.999 Y94.668 F7800.000
G1 X99.683 Y92.352 F7800.000
G1 X97.683 Y92.352 F7800.000
G1 X96.750 Y92.352 F7800.000
G1 X96.750 Y102.553 E3.05683 F600.000
G1 X96.788 Y105.387 E3.90606
G1 X96.490 Y106.455 E4.23827
G1 X96.078 Y106.527 E4.36358
G1 X95.791 Y106.542 E4.44947
G1 X95.079 Y105.643 E4.79314
G1 X94.477 Y103.861 E5.35679
G1 X94.184 Y103.060 E5.61219
G1 X91.726 Y96.547 E7.69830
G1 X91.063 Y94.592 E8.31687
G1 X90.334 Y93.677 E8.66734
G1 X90.286 Y93.644 E8.68488
G1 X89.522 Y94.587 E9.04855
G1 X88.798 Y96.755 E9.73345
G1 X86.378 Y103.066 E11.75884
G1 X85.445 Y105.723 E12.60259
G1 X84.809 Y106.569 E12.91989
G1 X84.432 Y106.559 E13.03285
G1 X83.996 Y106.480 E13.16539
G1 X83.717 Y105.463 E13.48158
G1 X83.750 Y102.547 E14.35515
G1 X83.750 Y92.352 E17.41018
G92 E0
G1 Z1.200 F7800.000
G1 X108.247 Y102.912 F7800.000
G1 X107.350 Y98.575 E1.32720 F600.000
G1 X107.350 Y92.352 E3.19190
G1 X107.386 Y93.352 F7800.000
G1 X107.350 Y93.388 F7800.000
G1 X107.350 Y106.612 F7800.000
G1 X107.386 Y106.648 F7800.000
G1 X117.172 Y106.802 F7800.000
G1 X108.386 Y106.802 E5.82456 F600.000
G1 X107.430 Y106.532 E6.12201
G1 X107.350 Y105.956 E6.29636
G1 X107.350 Y100.288 E7.99476
G1 X107.527 Y99.431 E8.25683
G1 X116.910 Y99.431 E11.06850
G92 E0
G1 X108.386 Y98.575 F7800.000
G1 X108.386 Y98.575 F7800.000
G1 X112.497 Y94.463 F7800.000
G1 X110.386 Y92.352 F7800.000
G1 X108.386 Y91.352 F7800.000
G1 X106.315 Y91.352 F7800.000
G1 X104.315 Y92.352 F7800.000
G1 X101.999 Y94.668 F7800.000
G1 X99.683 Y92.352 F7800.000
G1 X97.683 Y92.352 F7800.000
G1 X96.750 Y92.352 F7800.000
G1 X96.750 Y102.553 E3.05683 F600.000
G1 X96.788 Y105.387 E3.90606
G1 X96.490 Y106.455 E4.23827
G1 X96.078 Y106.527 E4.36357
G1 X95.791 Y106.542 E4.44947
G1 X95.079 Y105.643 E4.79314
G1 X94.477 Y103.861 E5.35679
G1 X94.184 Y103.060 E5.61219
G1 X91.726 Y96.547 E7.69830
