; generated by Slic3r 1.2.9 on 2016-03-11 at 01:27:25

; external perimeters extrusion width = 1.54mm
; perimeters extrusion width = 2.62mm
; infill extrusion width = 6.27mm
; solid infill extrusion width = 2.62mm
; top infill extrusion width = 2.62mm

M107
M104 S30 ; set temperature
G28 ; home all axes
G1 Z5 F5000 ; lift nozzle
M302
M92 E10000
M500
M501
G1 E100
M109 S30 ; wait for temperature to be reached
G21 ; set units to millimeters
G90 ; use absolute coordinates
M82 ; use absolute distances for extrusion
G92 E0
G1 Z0.300 F7800.000
G1 X108.693 Y101.799 F7800.000
G1 X108.693 Y107.423 E0.25446 F378.000
G1 X107.072 Y107.423 E0.32781
G1 X107.072 Y92.577 E0.99958
G1 X116.415 Y92.577 E1.42235
G1 X116.415 Y93.819 E1.47855
G1 X108.693 Y93.819 E1.82796 F378.000
G1 X108.693 Y101.568 E2.17862
G1 X107.501 Y107.197 F7800.000
G1 X107.298 Y106.993 E2.19195 F540.000
G1 X107.298 Y106.435 E2.21778
G1 X108.059 Y107.197 E2.26765
G1 X108.467 Y107.047 E2.28776
G1 X107.298 Y105.877 E2.36431
G1 X107.298 Y105.319 E2.39014
G1 X108.467 Y106.489 E2.46669
G1 X108.467 Y105.931 E2.49253
G1 X107.298 Y104.761 E2.56907
G1 X107.298 Y104.203 E2.59491
G1 X108.467 Y105.373 E2.67146
G1 X108.467 Y104.815 E2.69729
G1 X107.298 Y103.645 E2.77384
G1 X107.298 Y103.087 E2.79968
G1 X108.467 Y104.257 E2.87622
G1 X108.467 Y103.699 E2.90206
G1 X107.298 Y102.529 E2.97861
G1 X107.298 Y101.971 E3.00444
G1 X108.467 Y103.141 E3.08099
G1 X108.467 Y102.583 E3.10683
G1 X107.298 Y101.413 E3.18337
G1 X107.298 Y100.855 E3.20921
G1 X108.467 Y102.025 E3.28576
G1 X108.467 Y101.467 E3.31159
G1 X107.298 Y100.297 E3.38814
G1 X107.298 Y99.739 E3.41398
G1 X108.467 Y100.909 E3.49052
G1 X108.467 Y100.351 E3.51636
G1 X107.298 Y99.181 E3.59291
G1 X107.298 Y98.623 E3.61874
G1 X108.467 Y99.793 E3.69529
G1 X108.467 Y99.235 E3.72112
G1 X107.298 Y98.065 E3.79767
G1 X107.298 Y97.507 E3.82351
G1 X108.467 Y98.677 E3.90006
G1 X108.467 Y98.119 E3.92589
G1 X107.298 Y96.949 E4.00244
G1 X107.298 Y96.391 E4.02827
G1 X108.467 Y97.561 E4.10482
G1 X108.467 Y97.003 E4.13066
G1 X107.298 Y95.833 E4.20721
G1 X107.298 Y95.275 E4.23304
G1 X108.467 Y96.445 E4.30959
G1 X108.467 Y95.887 E4.33542
G1 X107.298 Y94.717 E4.41197
G1 X107.298 Y94.159 E4.43781
G1 X108.467 Y95.329 E4.51436
G1 X108.467 Y94.771 E4.54019
G1 X107.298 Y93.601 E4.61674
G1 X107.298 Y93.043 E4.64257
G1 X108.467 Y94.213 E4.71912
G1 X108.467 Y93.655 E4.74496
G1 X107.615 Y92.803 E4.80072
G1 X108.173 Y92.803 E4.82655
G1 X108.963 Y93.593 E4.87828
G1 X109.521 Y93.593 E4.90412
G1 X108.731 Y92.803 E4.95585
G1 X109.289 Y92.803 E4.98169
G1 X110.079 Y93.593 E5.03342
G1 X110.637 Y93.593 E5.05925
G1 X109.847 Y92.803 E5.11098
G1 X110.405 Y92.803 E5.13682
G1 X111.195 Y93.593 E5.18855
G1 X111.753 Y93.593 E5.21439
G1 X110.963 Y92.803 E5.26612
G1 X111.521 Y92.803 E5.29195
G1 X112.311 Y93.593 E5.34368
G1 X112.869 Y93.593 E5.36952
G1 X112.079 Y92.803 E5.42125
G1 X112.637 Y92.803 E5.44709
G1 X113.427 Y93.593 E5.49882
G1 X113.985 Y93.593 E5.52465
G1 X113.195 Y92.803 E5.57639
G1 X113.753 Y92.803 E5.60222
G1 X114.543 Y93.593 E5.65395
G1 X115.101 Y93.593 E5.67979
G1 X114.311 Y92.803 E5.73152
G1 X114.869 Y92.803 E5.75735
G1 X115.659 Y93.593 E5.80909
G1 X116.189 Y93.565 E5.83364
G1 X115.427 Y92.803 E5.88350
G1 X115.985 Y92.803 E5.90934
G1 X116.189 Y93.007 E5.92267
G92 E0
G1 X106.847 Y92.352 F7800.000
G1 X94.349 Y92.352 F7800.000
G1 X90.093 Y91.352 F7800.000
G1 X87.508 Y92.657 F7800.000
G1 X87.203 Y92.352 F7800.000
G1 X85.203 Y92.352 F7800.000
G1 X83.585 Y99.519 F7800.000
G1 X83.585 Y92.577 E0.31412 F378.000
G1 X84.978 Y92.577 E0.37716
G1 X84.978 Y102.555 E0.82867
G1 X84.907 Y105.674 E0.96982 F378.000
G1 X85.382 Y105.750 E0.99157
G1 X85.700 Y104.688 E1.04173
G1 X86.304 Y102.851 E1.12928
G1 X90.248 Y92.577 E1.62722
G1 X91.391 Y92.577 E1.67893
G1 X95.281 Y102.853 E2.17610
G1 X95.573 Y103.672 E2.21545
G1 X95.889 Y104.678 E2.26318
G1 X96.177 Y105.690 E2.31081
G1 X96.659 Y105.611 E2.33290
G1 X96.585 Y103.667 E2.42089
G1 X96.574 Y102.557 E2.47114
G1 X96.574 Y92.577 E2.92273
G1 X97.989 Y92.577 E2.98675
G1 X97.989 Y107.423 E3.65852
G1 X95.713 Y107.423 E3.76152
G1 X91.696 Y96.741 E4.27791
G1 X91.247 Y95.324 E4.34517
G1 X91.044 Y94.557 E4.38110
G1 X90.618 Y94.559 E4.40037
G1 X90.213 Y96.083 E4.47172
G1 X89.935 Y96.966 E4.51362
G1 X85.928 Y107.423 E5.02035
G1 X83.585 Y107.423 E5.12634
G1 X83.585 Y99.750 E5.47353
G1 X84.695 Y105.138 F7800.000
G1 X83.811 Y104.254 E5.53034 F540.000
G1 X83.811 Y103.707 E5.55524
G1 X84.707 Y104.603 E5.61284
G1 X84.720 Y104.067 E5.63719
G1 X83.811 Y103.159 E5.69558
G1 X83.811 Y102.611 E5.72048
G1 X84.732 Y103.531 E5.77966
G1 X84.744 Y102.996 E5.80401
G1 X83.811 Y102.063 E5.86397
G1 X83.811 Y101.515 E5.88887
G1 X84.752 Y102.456 E5.94937
G1 X84.752 Y101.909 E5.97427
G1 X83.811 Y100.967 E6.03477
G1 X83.811 Y100.420 E6.05967
G1 X84.752 Y101.361 E6.12016
G1 X84.752 Y100.813 E6.14506
G1 X83.811 Y99.872 E6.20556
G1 X83.811 Y99.324 E6.23046
G1 X84.752 Y100.265 E6.29096
G1 X84.752 Y99.717 E6.31586
G1 X83.811 Y98.776 E6.37635
G1 X83.811 Y98.228 E6.40126
G1 X84.752 Y99.169 E6.46175
G1 X84.752 Y98.622 E6.48665
G1 X83.811 Y97.680 E6.54715
G1 X83.811 Y97.133 E6.57205
G1 X84.752 Y98.074 E6.63254
G1 X84.752 Y97.526 E6.65745
G1 X83.811 Y96.585 E6.71794
G1 X83.811 Y96.037 E6.74284
G1 X84.752 Y96.978 E6.80334
G1 X84.752 Y96.430 E6.82824
G1 X83.811 Y95.489 E6.88874
G1 X83.811 Y94.941 E6.91364
G1 X84.752 Y95.882 E6.97413
G1 X84.752 Y95.335 E6.99903
G1 X83.811 Y94.394 E7.05953
G1 X83.811 Y93.846 E7.08443
G1 X84.752 Y94.787 E7.14493
G1 X84.752 Y94.239 E7.16983
G1 X83.811 Y93.298 E7.23032
G1 X83.864 Y92.803 E7.25295
G1 X84.752 Y93.691 E7.31004
G1 X84.752 Y93.143 E7.33494
G1 X84.412 Y92.803 E7.35682
G92 E0
G1 X90.615 Y93.784 F7800.000
G1 X90.818 Y93.644 F7800.000
G1 X90.818 Y93.406 F7800.000
G1 X90.781 Y93.352 F7800.000
G1 X90.986 Y92.803 F7800.000
G1 X91.328 Y93.145 E0.02197 F540.000
G1 X91.661 Y94.026 F7800.000
G1 X90.438 Y92.803 E0.10060 F540.000
G1 X90.243 Y93.155 E0.11892
G1 X91.995 Y94.908 E0.23158
G1 X91.376 Y94.836 E0.25991
G1 X92.329 Y95.789 E0.32117
G1 X91.605 Y95.614 F7800.000
G1 X92.663 Y96.671 E0.38915 F540.000
G1 X92.176 Y97.280 F7800.000
G1 X93.330 Y98.434 E0.46332 F540.000
G1 X92.837 Y99.036 F7800.000
G1 X93.998 Y100.197 E0.53794 F540.000
G1 X93.497 Y100.792 F7800.000
G1 X94.665 Y101.960 E0.61302 F540.000
G1 X94.158 Y102.549 F7800.000
G1 X95.309 Y103.700 E0.68703 F540.000
G1 X94.488 Y103.427 F7800.000
G1 X95.569 Y104.508 E0.75651 F540.000
G1 X94.818 Y104.305 E0.79186
G1 X95.801 Y105.287 E0.85502
G1 X95.148 Y105.183 E0.88505
G1 X96.019 Y106.053 E0.94100
G1 X96.386 Y105.872 E0.95960
G1 X97.711 Y107.197 E1.04475
G1 X97.763 Y106.702 E1.06738
G1 X96.856 Y105.795 E1.12571
G1 X96.875 Y105.266 E1.14977
G1 X97.763 Y106.154 E1.20689
G1 X97.763 Y105.607 E1.23179
G1 X96.853 Y104.696 E1.29030
G1 X96.832 Y104.127 E1.31619
G1 X97.763 Y105.059 E1.37608
G1 X97.763 Y104.511 E1.40098
G1 X96.811 Y103.558 E1.46222
G1 X96.806 Y103.005 E1.48736
G1 X97.763 Y103.963 E1.54894
G1 X97.763 Y103.415 E1.57384
G1 X96.800 Y102.452 E1.63575
G1 X96.800 Y101.904 E1.66065
G1 X97.763 Y102.867 E1.72256
G1 X97.763 Y102.320 E1.74747
G1 X96.800 Y101.356 E1.80938
G1 X96.800 Y100.809 E1.83428
G1 X97.763 Y101.772 E1.89619
G1 X97.763 Y101.224 E1.92109
G1 X96.800 Y100.261 E1.98300
G1 X96.800 Y99.713 E2.00790
G1 X97.763 Y100.676 E2.06981
G1 X97.763 Y100.128 E2.09471
G1 X96.800 Y99.165 E2.15662
G1 X96.800 Y98.617 E2.18152
G1 X97.763 Y99.580 E2.24343
G1 X97.763 Y99.033 E2.26833
G1 X96.800 Y98.070 E2.33024
G1 X96.800 Y97.522 E2.35514
G1 X97.763 Y98.485 E2.41705
G1 X97.763 Y97.937 E2.44195
G1 X96.800 Y96.974 E2.50386
G1 X96.800 Y96.426 E2.52877
G1 X97.763 Y97.389 E2.59068
G1 X97.763 Y96.841 E2.61558
G1 X96.800 Y95.878 E2.67749
G1 X96.800 Y95.330 E2.70239
G1 X97.763 Y96.294 E2.76430
G1 X97.763 Y95.746 E2.78920
G1 X96.800 Y94.783 E2.85111
G1 X96.800 Y94.235 E2.87601
G1 X97.763 Y95.198 E2.93792
G1 X97.763 Y94.650 E2.96282
G1 X96.800 Y93.687 E3.02473
G1 X96.800 Y93.139 E3.04963
G1 X97.763 Y94.102 E3.11154
G1 X97.763 Y93.554 E3.13644
G1 X97.012 Y92.803 E3.18475
G1 X97.560 Y92.803 E3.20965
G1 X97.763 Y93.007 E3.22274
G92 E0
G1 X91.019 Y93.782 F7800.000
G1 X91.019 Y93.782 F7800.000
G1 X92.996 Y97.553 F7800.000
G1 X91.860 Y96.416 E0.07308 F540.000
G1 X92.507 Y98.158 F7800.000
G1 X93.664 Y99.316 E0.14747 F540.000
G1 X93.167 Y99.914 F7800.000
G1 X94.331 Y101.079 E0.22233 F540.000
G1 X93.828 Y101.671 F7800.000
G1 X94.999 Y102.842 E0.29763 F540.000
G1 X95.916 Y105.950 F7800.000
G1 X97.163 Y107.197 E0.37777 F540.000
G1 X96.615 Y107.197 E0.40267
G1 X95.479 Y106.061 E0.47572
G1 X95.809 Y106.939 F7800.000
G1 X96.067 Y107.197 E0.49231 F540.000
G92 E0
G1 X85.435 Y106.544 F7800.000
G1 X85.435 Y106.544 F7800.000
G1 X84.930 Y105.921 F7800.000
G1 X85.911 Y106.902 E0.06307 F540.000
G1 X86.063 Y106.506 E0.08235
G1 X85.530 Y105.973 E0.11660
G1 X85.656 Y105.551 E0.13660
G1 X86.215 Y106.110 E0.17249
G1 X86.366 Y105.714 E0.19177
G1 X85.783 Y105.130 E0.22928
G1 X85.909 Y104.709 E0.24928
G1 X86.518 Y105.318 E0.28843
G1 X86.670 Y104.922 E0.30771
G1 X86.044 Y104.296 E0.34792
G1 X86.180 Y103.884 E0.36764
G1 X86.822 Y104.525 E0.40889
G1 X86.973 Y104.129 E0.42817
G1 X86.316 Y103.472 E0.47046
G1 X86.451 Y103.059 E0.49018
G1 X87.125 Y103.733 E0.53352
G1 X87.277 Y103.337 E0.55279
G1 X86.596 Y102.656 E0.59659
G1 X86.748 Y102.260 E0.61587
G1 X87.429 Y102.941 E0.65965
G1 X87.580 Y102.545 E0.67893
G1 X86.900 Y101.864 E0.72270
G1 X87.051 Y101.468 E0.74198
G1 X87.732 Y102.149 E0.78574
G1 X87.884 Y101.753 E0.80502
G1 X87.203 Y101.072 E0.84877
G1 X87.355 Y100.677 E0.86804
G1 X88.036 Y101.357 E0.91178
G1 X88.188 Y100.961 E0.93106
G1 X87.507 Y100.281 E0.97478
G1 X87.659 Y99.885 E0.99406
G1 X88.339 Y100.565 E1.03777
G1 X88.491 Y100.169 E1.05705
G1 X87.811 Y99.489 E1.10075
G1 X87.963 Y99.093 E1.12002
G1 X88.643 Y99.773 E1.16371
G1 X88.795 Y99.377 E1.18299
G1 X88.115 Y98.697 E1.22667
G1 X88.267 Y98.301 E1.24594
G1 X88.946 Y98.981 E1.28960
G1 X89.098 Y98.585 E1.30888
G1 X88.419 Y97.906 E1.35253
G1 X88.571 Y97.510 E1.37181
G1 X89.250 Y98.189 E1.41545
G1 X89.402 Y97.793 E1.43473
G1 X88.723 Y97.114 E1.47835
G1 X88.875 Y96.718 E1.49763
G1 X89.553 Y97.396 E1.54124
G1 X89.705 Y97.000 E1.56052
G1 X89.027 Y96.322 E1.60413
G1 X89.179 Y95.926 E1.62340
G1 X89.839 Y96.587 E1.66585
G1 X89.970 Y96.170 E1.68570
G1 X89.331 Y95.530 E1.72682
G1 X89.483 Y95.135 E1.74610
G1 X90.089 Y95.741 E1.78507
G1 X90.204 Y95.308 E1.80542
G1 X89.635 Y94.739 E1.84202
G1 X89.787 Y94.343 E1.86130
G1 X90.319 Y94.875 E1.89553
G1 X90.434 Y94.443 E1.91588
G1 X89.939 Y93.947 E1.94774
G1 X90.091 Y93.551 E1.96701
G1 X90.872 Y94.332 E2.01722
G92 E0
G1 X90.615 Y93.784 F7800.000
G1 X90.615 Y93.784 F7800.000
G1 X84.683 Y105.674 F7800.000
G1 X83.811 Y104.802 E0.05603 F540.000
G1 X83.811 Y105.350 E0.08093
G1 X85.658 Y107.197 E0.19966
G1 X85.111 Y107.197 E0.22456
G1 X83.811 Y105.898 E0.30808
G1 X83.811 Y106.446 E0.33298
G1 X84.563 Y107.197 E0.38128
G1 X84.015 Y107.197 E0.40618
G1 X83.811 Y106.993 E0.41927
M106 S255
G92 E0
G1 Z0.600 F7800.000
G1 X107.882 Y107.648 F7800.000
G1 X107.882 Y94.044 E4.07639 F600.000
G1 X107.962 Y93.468 E4.25074
G1 X108.918 Y93.198 E4.54819
G1 X116.640 Y93.198 E6.86205
G92 E0
G1 X106.847 Y92.352 F7800.000
G1 X106.847 Y92.352 F7800.000
G1 X104.847 Y92.352 F7800.000
G1 X102.530 Y94.668 F7800.000
G1 X100.214 Y92.352 F7800.000
G1 X98.214 Y92.352 F7800.000
G1 X97.282 Y92.352 F7800.000
G1 X97.282 Y102.553 E3.05684 F600.000
G1 X97.320 Y105.387 E3.90606
G1 X97.021 Y106.455 E4.23827
G1 X96.610 Y106.527 E4.36358
G1 X96.323 Y106.542 E4.44947
G1 X95.611 Y105.643 E4.79314
G1 X95.009 Y103.861 E5.35679
G1 X94.716 Y103.060 E5.61219
G1 X92.258 Y96.547 E7.69830
G1 X91.594 Y94.592 E8.31687
G1 X90.866 Y93.677 E8.66734
G1 X90.818 Y93.644 E8.68488
G1 X90.054 Y94.587 E9.04855
G1 X89.330 Y96.755 E9.73345
G1 X86.910 Y103.066 E11.75884
G1 X85.977 Y105.723 E12.60259
G1 X85.341 Y106.569 E12.91989
G1 X84.964 Y106.559 E13.03285
G1 X84.528 Y106.480 E13.16539
G1 X84.249 Y105.463 E13.48158
G1 X84.282 Y102.547 E14.35514
G1 X84.282 Y92.352 E17.41018
G92 E0
G1 Z0.900 F7800.000
G1 X107.882 Y107.648 F7800.000
G1 X107.882 Y94.044 E4.07639 F600.000
G1 X107.962 Y93.468 E4.25074
G1 X108.918 Y93.198 E4.54819
G1 X116.640 Y93.198 E6.86205
G92 E0
G1 X106.847 Y92.352 F7800.000
G1 X106.847 Y92.352 F7800.000
G1 X104.847 Y92.352 F7800.000
G1 X102.530 Y94.668 F7800.000
G1 X100.214 Y92.352 F7800.000
G1 X98.214 Y92.352 F7800.000
G1 X97.282 Y92.352 F7800.000
G1 X97.282 Y102.553 E3.05683 F600.000
G1 X97.320 Y105.387 E3.90606
G1 X97.021 Y106.455 E4.23827
G1 X96.610 Y106.527 E4.36358
G1 X96.323 Y106.542 E4.44947
G1 X95.611 Y105.643 E4.79314
G1 X95.009 Y103.861 E5.35679
G1 X94.716 Y103.060 E5.61219
G1 X92.258 Y96.547 E7.69830
G1 X91.594 Y94.592 E8.31687
G1 X90.866 Y93.677 E8.66734
G1 X90.818 Y93.644 E8.68488
G1 X90.054 Y94.587 E9.04855
G1 X89.330 Y96.755 E9.73345
G1 X86.910 Y103.066 E11.75884
G1 X85.977 Y105.723 E12.60259
G1 X85.341 Y106.569 E12.91989
G1 X84.964 Y106.559 E13.03285
G1 X84.528 Y106.480 E13.16539
G1 X84.249 Y105.463 E13.48158
G1 X84.282 Y102.547 E14.35515
G1 X84.282 Y92.352 E17.41018
G92 E0
G1 Z1.200 F7800.000
G1 X107.882 Y107.648 F7800.000
G1 X107.882 Y94.044 E4.07639 F600.000
G1 X107.962 Y93.468 E4.25074
G1 X108.918 Y93.198 E4.54819
G1 X116.640 Y93.198 E6.86205
G92 E0
G1 X106.847 Y92.352 F7800.000
G1 X106.847 Y92.352 F7800.000
G1 X104.847 Y92.352 F7800.000
G1 X102.530 Y94.668 F7800.000
G1 X100.214 Y92.352 F7800.000
G1 X98.214 Y92.352 F7800.000
G1 X97.282 Y92.352 F7800.000
G1 X97.282 Y102.553 E3.05683 F600.000
G1 X97.320 Y105.387 E3.90606
G1 X97.021 Y106.455 E4.23827
G1 X96.610 Y106.527 E4.36357
G1 X96.323 Y106.542 E4.44947
G1 X95.611 Y105.643 E4.79314
G1 X95.009 Y103.861 E5.35679
G1 X94.716 Y103.060 E5.61219
G1 X92.258 Y96.547 E7.69830
G1 X91.594 Y94.592 E8.31687
G1 X90.866 Y93.677 E8.66733
G1 X90.818 Y93.644 E8.68488
G1 X90.054 Y94.587 E9.04855
G1 X89.330 Y96.755 E9.73345
G1 X86.910 Y103.066 E11.75884
G1 X85.977 Y105.723 E12.60259
G1 X85.341 Y106.569 E12.91989
G1 X84.964 Y106.559 E13.03285
G1 X84.528 Y106.480 E13.16539
G1 X84.249 Y105.463 E13.48158
G1 X84.282 Y102.547 E14.35514
G1 X84.282 Y92.352 E17.41017
G92 E0
G1 Z1.500 F7800.000
G1 X107.882 Y107.648 F7800.000
G1 X107.882 Y94.044 E4.07639 F600.000
G1 X107.962 Y93.468 E4.25074
G1 X108.918 Y93.198 E4.54819
G1 X116.640 Y93.198 E6.86205
G92 E0
G1 X106.847 Y92.352 F7800.000
G1 X106.847 Y92.352 F7800.000
G1 X104.847 Y92.352 F7800.000
G1 X102.530 Y94.668 F7800.000
G1 X100.214 Y92.352 F7800.000
G1 X98.214 Y92.352 F7800.000
G1 X97.282 Y92.352 F7800.000
G1 X97.282 Y102.553 E3.05683 F600.000
G1 X97.320 Y105.387 E3.90606
G1 X97.021 Y106.455 E4.23827
G1 X96.610 Y106.527 E4.36357
G1 X96.323 Y106.542 E4.44947
G1 X95.611 Y105.643 E4.79314
G1 X95.009 Y103.861 E5.35679
G1 X94.716 Y103.060 E5.61219
G1 X92.258 Y96.547 E7.69830
G1 X91.594 Y94.592 E8.31687
G1 X90.866 Y93.677 E8.66733
G1 X90.818 Y93.644 E8.68488
G1 X90.054 Y94.587 E9.04855
G1 X89.330 Y96.755 E9.73345
G1 X86.910 Y103.066 E11.75884
G1 X85.977 Y105.723 E12.60259
G1 X85.341 Y106.569 E12.91989
G1 X84.964 Y106.559 E13.03285
G1 X84.528 Y106.480 E13.16539
G1 X84.249 Y105.463 E13.48158
G1 X84.282 Y102.547 E14.35514
G1 X84.282 Y92.352 E17.41018
G92 E0
G1 Z1.800 F7800.000
G1 X107.882 Y107.648 F7800.000
G1 X107.882 Y94.044 E4.07639 F600.000
G1 X107.962 Y93.468 E4.25074
G1 X108.918 Y93.198 E4.54819
G1 X116.640 Y93.198 E6.86205
G92 E0
G1 X106.847 Y92.352 F7800.000
G1 X106.847 Y92.352 F7800.000
G1 X104.847 Y92.352 F7800.000
G1 X102.530 Y94.668 F7800.000
G1 X100.214 Y92.352 F7800.000
G1 X98.214 Y92.352 F7800.000
G1 X97.282 Y92.352 F7800.000
G1 X97.282 Y102.553 E3.05684 F600.000
G1 X97.320 Y105.387 E3.90606
G1 X97.021 Y106.455 E4.23827
G1 X96.610 Y106.527 E4.36357
G1 X96.323 Y106.542 E4.44947
G1 X95.611 Y105.643 E4.79314
G1 X95.009 Y103.861 E5.35679
G1 X94.716 Y103.060 E5.61219
G1 X92.258 Y96.547 E7.69830
G1 X91.594 Y94.592 E8.31687
G1 X90.866 Y93.677 E8.66733
G1 X90.818 Y93.644 E8.68488
G1 X90.054 Y94.587 E9.04855
G1 X89.330 Y96.755 E9.73345
G1 X86.910 Y103.066 E11.75884
G1 X85.977 Y105.723 E12.60259
