; generated by Slic3r 1.2.9 on 2016-03-11 at 01:27:27

; external perimeters extrusion width = 1.54mm
; perimeters extrusion width = 2.62mm
; infill extrusion width = 6.27mm
; solid infill extrusion width = 2.62mm
; top infill extrusion width = 2.62mm

M107
M104 S30 ; set temperature
G28 ; home all axes
G1 Z5 F5000 ; lift nozzle
M302
M92 E10000
M500
M501
G1 E100
M109 S30 ; wait for temperature to be reached
G21 ; set units to millimeters
G90 ; use absolute coordinates
M82 ; use absolute distances for extrusion
G92 E0
G1 Z0.300 F7800.000
G1 X116.317 Y102.867 F7800.000
G1 X116.317 Y97.618 E0.23749 F378.000
G1 X116.331 Y96.856 E0.27198
G1 X116.447 Y94.524 E0.37763
G1 X116.043 Y94.395 E0.39683
G1 X107.815 Y107.423 E1.09406
G1 X105.757 Y107.423 E1.18718
G1 X105.757 Y92.577 E1.85895
G1 X107.150 Y92.577 E1.92198
G1 X107.150 Y102.512 E2.37151
G1 X107.096 Y104.320 E2.45337 F378.000
G1 X107.041 Y105.392 E2.50193
G1 X107.446 Y105.520 E2.52115
G1 X115.587 Y92.577 E3.21302
G1 X117.732 Y92.577 E3.31006
G1 X117.732 Y107.423 E3.98183
G1 X116.317 Y107.423 E4.04585
G1 X116.317 Y103.098 E4.24158
G1 X116.723 Y107.197 F7800.000
G1 X116.543 Y107.017 E4.25331 F540.000
G1 X116.543 Y106.462 E4.27882
G1 X117.278 Y107.197 E4.32664
G1 X117.506 Y106.871 E4.34497
G1 X116.543 Y105.908 E4.40763
G1 X116.543 Y105.353 E4.43315
G1 X117.506 Y106.316 E4.49582
G1 X117.506 Y105.762 E4.52133
G1 X116.543 Y104.799 E4.58400
G1 X116.543 Y104.244 E4.60952
G1 X117.506 Y105.207 E4.67218
G1 X117.506 Y104.652 E4.69770
G1 X116.543 Y103.689 E4.76036
G1 X116.543 Y103.135 E4.78588
G1 X117.506 Y104.098 E4.84855
G1 X117.506 Y103.543 E4.87406
G1 X116.543 Y102.580 E4.93673
G1 X116.543 Y102.026 E4.96225
G1 X117.506 Y102.989 E5.02491
G1 X117.506 Y102.434 E5.05043
G1 X116.543 Y101.471 E5.11309
G1 X116.543 Y100.917 E5.13861
G1 X117.506 Y101.880 E5.20128
G1 X117.506 Y101.325 E5.22679
G1 X116.543 Y100.362 E5.28946
G1 X116.543 Y99.807 E5.31498
G1 X117.506 Y100.770 E5.37764
G1 X117.506 Y100.216 E5.40316
G1 X116.543 Y99.253 E5.46582
G1 X116.543 Y98.698 E5.49134
G1 X117.506 Y99.661 E5.55401
G1 X117.506 Y99.107 E5.57952
G1 X116.543 Y98.144 E5.64219
G1 X116.543 Y97.589 E5.66771
G1 X117.506 Y98.552 E5.73037
G1 X117.506 Y97.998 E5.75589
G1 X116.552 Y97.044 E5.81795
G1 X116.571 Y96.508 E5.84263
G1 X117.506 Y97.443 E5.90348
G1 X117.506 Y96.888 E5.92900
G1 X116.597 Y95.979 E5.98815
G1 X116.623 Y95.451 E6.01250
G1 X117.506 Y96.334 E6.06996
G1 X117.506 Y95.779 E6.09547
G1 X116.649 Y94.923 E6.15123
G1 X117.506 Y93.007 F7800.000
G1 X117.302 Y92.803 E6.16448 F540.000
G1 X116.748 Y92.803 E6.18999
G1 X117.506 Y93.561 E6.23933
G1 X117.506 Y94.116 E6.26485
G1 X116.193 Y92.803 E6.35027
G1 X115.661 Y92.826 E6.37477
G1 X117.506 Y94.670 E6.49481
G1 X117.506 Y95.225 E6.52033
G1 X115.447 Y93.166 E6.65431
G1 X115.233 Y93.506 E6.67281
G1 X115.932 Y94.205 E6.71828
G1 X115.717 Y94.545 E6.73678
G1 X115.019 Y93.847 E6.78221
G1 X114.805 Y94.187 E6.80071
G1 X115.502 Y94.885 E6.84611
G1 X115.288 Y95.225 E6.86461
G1 X114.591 Y94.528 E6.90998
G1 X114.377 Y94.868 E6.92848
G1 X115.073 Y95.565 E6.97381
G1 X114.859 Y95.905 E6.99231
G1 X114.162 Y95.209 E7.03761
G1 X113.948 Y95.549 E7.05612
G1 X114.644 Y96.245 E7.10138
G1 X114.429 Y96.584 E7.11988
G1 X113.734 Y95.889 E7.16511
G1 X113.520 Y96.230 E7.18361
G1 X114.215 Y96.924 E7.22881
G1 X114.000 Y97.264 E7.24731
G1 X113.306 Y96.570 E7.29247
G1 X113.092 Y96.911 E7.31097
G1 X113.785 Y97.604 E7.35610
G1 X113.571 Y97.944 E7.37460
G1 X112.878 Y97.251 E7.41970
G1 X112.663 Y97.592 E7.43820
G1 X113.356 Y98.284 E7.48326
G1 X113.141 Y98.624 E7.50176
G1 X112.449 Y97.932 E7.54679
G1 X112.235 Y98.272 E7.56529
G1 X112.927 Y98.964 E7.61029
G1 X112.712 Y99.304 E7.62878
G1 X112.021 Y98.613 E7.67374
G1 X111.807 Y98.953 E7.69225
G1 X112.497 Y99.644 E7.73717
G1 X112.283 Y99.984 E7.75567
G1 X111.593 Y99.294 E7.80056
G1 X111.379 Y99.634 E7.81907
G1 X112.068 Y100.323 E7.86393
G1 X111.853 Y100.663 E7.88243
G1 X111.165 Y99.975 E7.92725
G1 X110.950 Y100.315 E7.94575
G1 X111.639 Y101.003 E7.99054
G1 X111.424 Y101.343 E8.00904
G1 X110.736 Y100.655 E8.05380
G1 X110.522 Y100.996 E8.07230
G1 X111.209 Y101.683 E8.11703
G1 X110.995 Y102.023 E8.13552
G1 X110.308 Y101.336 E8.18021
G1 X110.094 Y101.677 E8.19872
G1 X110.780 Y102.363 E8.24337
G1 X110.565 Y102.703 E8.26187
G1 X109.880 Y102.017 E8.30649
G1 X109.666 Y102.358 E8.32500
G1 X110.351 Y103.043 E8.36958
G1 X110.136 Y103.383 E8.38808
G1 X109.451 Y102.698 E8.43264
G1 X109.237 Y103.038 E8.45114
G1 X109.921 Y103.723 E8.49566
G1 X109.707 Y104.062 E8.51416
G1 X109.023 Y103.379 E8.55864
G1 X108.809 Y103.719 E8.57715
G1 X109.492 Y104.402 E8.62160
G1 X109.277 Y104.742 E8.64010
G1 X108.595 Y104.060 E8.68452
G1 X108.381 Y104.400 E8.70302
G1 X109.063 Y105.082 E8.74741
G1 X108.848 Y105.422 E8.76590
G1 X108.167 Y104.741 E8.81025
G1 X107.952 Y105.081 E8.82876
G1 X108.634 Y105.762 E8.87308
G1 X108.419 Y106.102 E8.89157
G1 X107.738 Y105.421 E8.93586
G1 X107.524 Y105.762 E8.95436
G1 X108.204 Y106.442 E8.99861
G1 X107.990 Y106.782 E9.01711
G1 X105.983 Y104.775 E9.14768
G1 X105.983 Y105.330 E9.17320
G1 X107.775 Y107.122 E9.28980
G1 X107.296 Y107.197 E9.31211
G1 X105.983 Y105.884 E9.39754
G1 X105.983 Y106.439 E9.42305
G1 X106.741 Y107.197 E9.47239
G1 X106.187 Y107.197 E9.49791
G1 X105.983 Y106.993 E9.51115
G1 X106.835 Y105.073 F7800.000
G1 X105.983 Y104.221 E9.56662 F540.000
G1 X105.983 Y103.666 E9.59213
G1 X106.862 Y104.545 E9.64936
G1 X106.882 Y104.010 E9.67400
G1 X105.983 Y103.112 E9.73248
G1 X105.983 Y102.557 E9.75800
G1 X106.898 Y103.472 E9.81753
G1 X106.914 Y102.933 E9.84232
G1 X105.983 Y102.002 E9.90288
G1 X105.983 Y101.448 E9.92840
G1 X106.924 Y102.389 E9.98963
G1 X106.924 Y101.834 E10.01515
G1 X105.983 Y100.893 E10.07638
G1 X105.983 Y100.339 E10.10190
G1 X106.924 Y101.280 E10.16314
G1 X106.924 Y100.725 E10.18865
G1 X105.983 Y99.784 E10.24989
G1 X105.983 Y99.230 E10.27540
G1 X106.924 Y100.171 E10.33664
G1 X106.924 Y99.616 E10.36215
G1 X105.983 Y98.675 E10.42339
G1 X105.983 Y98.120 E10.44891
G1 X106.924 Y99.061 E10.51014
G1 X106.924 Y98.507 E10.53566
G1 X105.983 Y97.566 E10.59689
G1 X105.983 Y97.011 E10.62241
G1 X106.924 Y97.952 E10.68364
G1 X106.924 Y97.398 E10.70916
G1 X105.983 Y96.457 E10.77039
G1 X105.983 Y95.902 E10.79591
G1 X106.924 Y96.843 E10.85714
G1 X106.924 Y96.289 E10.88266
G1 X105.983 Y95.348 E10.94389
G1 X105.983 Y94.793 E10.96941
G1 X106.924 Y95.734 E11.03064
G1 X106.924 Y95.180 E11.05616
G1 X105.983 Y94.239 E11.11740
G1 X105.983 Y93.684 E11.14291
G1 X106.924 Y94.625 E11.20415
G1 X106.924 Y94.070 E11.22966
G1 X105.983 Y93.129 E11.29090
G1 X106.211 Y92.803 E11.30922
G1 X106.924 Y93.516 E11.35561
G92 E0
G1 X105.532 Y92.352 F7800.000
G1 X103.532 Y92.352 F7800.000
G1 X98.897 Y92.352 F7800.000
G1 X96.897 Y92.352 F7800.000
G1 X95.257 Y93.821 F7800.000
G1 X95.257 Y92.577 E0.05629 F378.000
G1 X96.672 Y92.577 E0.12032
G1 X96.672 Y107.423 E0.79209
G1 X94.396 Y107.423 E0.89509
G1 X90.378 Y96.741 E1.41148
G1 X89.929 Y95.324 E1.47874
G1 X89.727 Y94.557 E1.51466
G1 X89.301 Y94.559 E1.53394
G1 X88.896 Y96.083 E1.60529
G1 X88.617 Y96.966 E1.64719
G1 X84.610 Y107.423 E2.15392
G1 X82.268 Y107.423 E2.25990
G1 X82.268 Y92.577 E2.93167
G1 X83.661 Y92.577 E2.99471
G1 X83.661 Y102.555 E3.44622
G1 X83.590 Y105.674 E3.58737 F378.000
G1 X84.064 Y105.750 E3.60912
G1 X84.383 Y104.688 E3.65928
G1 X84.987 Y102.851 E3.74683
G1 X88.931 Y92.577 E4.24477
G1 X90.074 Y92.577 E4.29649
G1 X93.964 Y102.853 E4.79365
G1 X94.256 Y103.672 E4.83300
G1 X94.571 Y104.678 E4.88073
G1 X94.860 Y105.690 E4.92836
G1 X95.341 Y105.611 E4.95045
G1 X95.268 Y103.667 E5.03844
G1 X95.257 Y102.557 E5.08869
G1 X95.257 Y94.052 E5.47353
G1 X96.446 Y93.007 F7800.000
G1 X96.242 Y92.803 E5.48662 F540.000
G1 X95.695 Y92.803 E5.51152
G1 X96.446 Y93.554 E5.55982
G1 X96.446 Y94.102 E5.58472
G1 X95.483 Y93.139 E5.64663
G1 X95.483 Y93.687 E5.67154
G1 X96.446 Y94.650 E5.73345
G1 X96.446 Y95.198 E5.75835
G1 X95.483 Y94.235 E5.82026
G1 X95.483 Y94.783 E5.84516
G1 X96.446 Y95.746 E5.90707
G1 X96.446 Y96.294 E5.93197
G1 X95.483 Y95.330 E5.99388
G1 X95.483 Y95.878 E6.01878
G1 X96.446 Y96.841 E6.08069
G1 X96.446 Y97.389 E6.10559
G1 X95.483 Y96.426 E6.16750
G1 X95.483 Y96.974 E6.19240
G1 X96.446 Y97.937 E6.25431
G1 X96.446 Y98.485 E6.27921
G1 X95.483 Y97.522 E6.34112
G1 X95.483 Y98.070 E6.36602
G1 X96.446 Y99.033 E6.42793
G1 X96.446 Y99.580 E6.45284
G1 X95.483 Y98.617 E6.51475
G1 X95.483 Y99.165 E6.53965
G1 X96.446 Y100.128 E6.60156
G1 X96.446 Y100.676 E6.62646
G1 X95.483 Y99.713 E6.68837
G1 X95.483 Y100.261 E6.71327
G1 X96.446 Y101.224 E6.77518
G1 X96.446 Y101.772 E6.80008
G1 X95.483 Y100.809 E6.86199
G1 X95.483 Y101.356 E6.88689
G1 X96.446 Y102.320 E6.94880
G1 X96.446 Y102.867 E6.97370
G1 X95.483 Y101.904 E7.03561
G1 X95.483 Y102.452 E7.06051
G1 X96.446 Y103.415 E7.12242
G1 X96.446 Y103.963 E7.14733
G1 X95.488 Y103.005 E7.20890
G1 X95.493 Y103.558 E7.23405
G1 X96.446 Y104.511 E7.29528
G1 X96.446 Y105.059 E7.32019
G1 X95.514 Y104.127 E7.38007
G1 X95.536 Y104.696 E7.40597
G1 X96.446 Y105.607 E7.46448
G1 X96.446 Y106.154 E7.48938
G1 X95.557 Y105.266 E7.54650
G1 X95.538 Y105.795 E7.57055
G1 X96.446 Y106.702 E7.62889
G1 X96.393 Y107.197 E7.65152
G1 X95.069 Y105.872 E7.73666
G1 X94.701 Y106.053 E7.75526
G1 X93.831 Y105.183 E7.81122
G1 X94.483 Y105.287 E7.84125
G1 X93.501 Y104.305 E7.90441
G1 X94.251 Y104.508 E7.93976
G1 X93.171 Y103.427 E8.00924
G1 X93.682 Y102.842 F7800.000
G1 X92.510 Y101.671 E8.08455 F540.000
G1 X93.014 Y101.079 F7800.000
G1 X91.850 Y99.914 E8.15940 F540.000
G1 X92.347 Y99.316 F7800.000
G1 X91.189 Y98.158 E8.23379 F540.000
G1 X91.679 Y97.553 F7800.000
G1 X90.542 Y96.416 E8.30687 F540.000
G1 X91.012 Y95.789 F7800.000
G1 X90.059 Y94.836 E8.36813 F540.000
G1 X90.678 Y94.908 E8.39646
G1 X88.925 Y93.155 E8.50913
G1 X89.121 Y92.803 E8.52744
G1 X90.344 Y94.026 E8.60608
G1 X89.554 Y94.332 F7800.000
G1 X88.773 Y93.551 E8.65628 F540.000
G1 X88.621 Y93.947 E8.67555
G1 X89.117 Y94.443 E8.70741
G1 X89.002 Y94.875 E8.72777
G1 X88.469 Y94.343 E8.76200
G1 X88.317 Y94.739 E8.78127
G1 X88.887 Y95.308 E8.81787
G1 X88.772 Y95.741 E8.83823
G1 X88.165 Y95.135 E8.87720
G1 X88.013 Y95.530 E8.89647
G1 X88.653 Y96.170 E8.93759
G1 X88.522 Y96.587 E8.95744
G1 X87.861 Y95.926 E8.99989
G1 X87.709 Y96.322 E9.01917
G1 X88.388 Y97.000 E9.06277
G1 X88.236 Y97.396 E9.08205
G1 X87.558 Y96.718 E9.12566
G1 X87.406 Y97.114 E9.14494
G1 X88.084 Y97.793 E9.18857
G1 X87.932 Y98.189 E9.20785
G1 X87.254 Y97.510 E9.25148
G1 X87.102 Y97.906 E9.27076
G1 X87.781 Y98.585 E9.31441
G1 X87.629 Y98.981 E9.33369
G1 X86.950 Y98.301 E9.37735
G1 X86.798 Y98.697 E9.39663
G1 X87.477 Y99.377 E9.44030
G1 X87.325 Y99.773 E9.45958
G1 X86.646 Y99.093 E9.50327
G1 X86.494 Y99.489 E9.52254
G1 X87.174 Y100.169 E9.56625
G1 X87.022 Y100.565 E9.58552
G1 X86.342 Y99.885 E9.62924
G1 X86.190 Y100.281 E9.64851
G1 X86.870 Y100.961 E9.69224
G1 X86.718 Y101.357 E9.71151
G1 X86.038 Y100.677 E9.75525
G1 X85.886 Y101.072 E9.77453
G1 X86.567 Y101.753 E9.81827
G1 X86.415 Y102.149 E9.83755
G1 X85.734 Y101.468 E9.88132
G1 X85.582 Y101.864 E9.90059
G1 X86.263 Y102.545 E9.94436
G1 X86.111 Y102.941 E9.96364
G1 X85.430 Y102.260 E10.00743
G1 X85.278 Y102.656 E10.02670
G1 X85.959 Y103.337 E10.07050
G1 X85.808 Y103.733 E10.08978
G1 X85.134 Y103.059 E10.13311
G1 X84.998 Y103.472 E10.15284
G1 X85.656 Y104.129 E10.19512
G1 X85.504 Y104.525 E10.21440
G1 X84.863 Y103.884 E10.25565
G1 X84.727 Y104.296 E10.27538
G1 X85.352 Y104.922 E10.31558
G1 X85.201 Y105.318 E10.33486
G1 X84.592 Y104.709 E10.37401
G1 X84.465 Y105.130 E10.39401
G1 X85.049 Y105.714 E10.43153
G1 X84.897 Y106.110 E10.45081
G1 X84.339 Y105.551 E10.48669
G1 X84.213 Y105.973 E10.50669
G1 X84.745 Y106.506 E10.54094
G1 X84.594 Y106.902 E10.56022
G1 X83.612 Y105.921 E10.62329
G1 X83.366 Y105.674 F7800.000
G1 X82.494 Y104.802 E10.67932 F540.000
G1 X82.494 Y105.350 E10.70422
G1 X84.341 Y107.197 E10.82295
G1 X83.793 Y107.197 E10.84785
G1 X82.494 Y105.898 E10.93137
G1 X82.494 Y106.446 E10.95627
G1 X83.245 Y107.197 E11.00457
G1 X82.698 Y107.197 E11.02947
G1 X82.494 Y106.993 E11.04256
G1 X83.378 Y105.138 F7800.000
G1 X82.494 Y104.254 E11.09937 F540.000
G1 X82.494 Y103.707 E11.12427
G1 X83.390 Y104.603 E11.18188
G1 X83.402 Y104.067 E11.20623
G1 X82.494 Y103.159 E11.26461
G1 X82.494 Y102.611 E11.28952
G1 X83.415 Y103.531 E11.34869
G1 X83.427 Y102.996 E11.37304
G1 X82.494 Y102.063 E11.43300
G1 X82.494 Y101.515 E11.45791
G1 X83.435 Y102.456 E11.51840
G1 X83.435 Y101.909 E11.54330
G1 X82.494 Y100.967 E11.60380
G1 X82.494 Y100.420 E11.62870
G1 X83.435 Y101.361 E11.68920
G1 X83.435 Y100.813 E11.71410
G1 X82.494 Y99.872 E11.77459
G1 X82.494 Y99.324 E11.79949
G1 X83.435 Y100.265 E11.85999
G1 X83.435 Y99.717 E11.88489
G1 X82.494 Y98.776 E11.94539
G1 X82.494 Y98.228 E11.97029
G1 X83.435 Y99.169 E12.03078
G1 X83.435 Y98.622 E12.05568
G1 X82.494 Y97.680 E12.11618
G1 X82.494 Y97.133 E12.14108
G1 X83.435 Y98.074 E12.20158
G1 X83.435 Y97.526 E12.22648
G1 X82.494 Y96.585 E12.28697
G1 X82.494 Y96.037 E12.31187
G1 X83.435 Y96.978 E12.37237
G1 X83.435 Y96.430 E12.39727
G1 X82.494 Y95.489 E12.45777
G1 X82.494 Y94.941 E12.48267
G1 X83.435 Y95.882 E12.54316
G1 X83.435 Y95.335 E12.56806
G1 X82.494 Y94.394 E12.62856
G1 X82.494 Y93.846 E12.65346
G1 X83.435 Y94.787 E12.71396
G1 X83.435 Y94.239 E12.73886
G1 X82.494 Y93.298 E12.79935
G1 X82.547 Y92.803 E12.82198
G1 X83.435 Y93.691 E12.87907
G1 X83.435 Y93.143 E12.90398
G1 X83.095 Y92.803 E12.92586
G92 E0
G1 X89.298 Y93.784 F7800.000
G1 X89.500 Y93.644 F7800.000
G1 X89.501 Y93.406 F7800.000
G1 X89.463 Y93.352 F7800.000
G1 X89.669 Y92.803 F7800.000
G1 X90.010 Y93.145 E0.02197 F540.000
G1 X90.288 Y95.614 F7800.000
G1 X91.345 Y96.671 E0.08994 F540.000
G1 X90.859 Y97.280 F7800.000
G1 X92.013 Y98.434 E0.16411 F540.000
G1 X91.519 Y99.036 F7800.000
G1 X92.680 Y100.197 E0.23874 F540.000
G1 X92.180 Y100.792 F7800.000
G1 X93.348 Y101.960 E0.31381 F540.000
G1 X92.840 Y102.549 F7800.000
G1 X93.992 Y103.700 E0.38782 F540.000
G1 X94.599 Y105.950 F7800.000
G1 X95.845 Y107.197 E0.46797 F540.000
G1 X95.297 Y107.197 E0.49287
G1 X94.161 Y106.061 E0.56591
G1 X94.491 Y106.939 F7800.000
G1 X94.750 Y107.197 E0.58251 F540.000
M106 S255
G92 E0
G1 Z0.600 F7800.000
G1 X106.454 Y92.352 F7800.000
G1 X106.454 Y102.501 E3.04120 F600.000
G1 X106.404 Y105.185 E3.84543
G1 X106.790 Y106.390 E4.22467
G1 X106.979 Y106.422 E4.28196
G1 X107.278 Y106.449 E4.37219
G1 X108.101 Y105.726 E4.70040
G1 X115.378 Y94.181 E8.78972
G1 X116.101 Y93.507 E9.08591
G1 X116.500 Y93.535 E9.20578
G1 X116.732 Y93.577 E9.27642
G1 X117.085 Y94.729 E9.63743
G1 X117.025 Y97.625 E10.50541
G1 X117.025 Y107.648 E13.50884
G92 E0
G1 X107.939 Y108.648 F7800.000
G1 X105.532 Y108.648 F7800.000
G1 X101.215 Y94.670 F7800.000
G1 X98.897 Y92.352 F7800.000
G1 X96.897 Y92.352 F7800.000
G1 X95.964 Y92.352 F7800.000
G1 X95.964 Y102.553 E3.05684 F600.000
G1 X96.003 Y105.387 E3.90606
G1 X95.704 Y106.455 E4.23827
G1 X95.292 Y106.527 E4.36358
G1 X95.006 Y106.542 E4.44947
G1 X94.294 Y105.643 E4.79314
G1 X93.691 Y103.861 E5.35679
G1 X93.398 Y103.060 E5.61219
G1 X90.941 Y96.547 E7.69830
G1 X90.277 Y94.592 E8.31687
G1 X89.548 Y93.677 E8.66734
G1 X89.500 Y93.644 E8.68488
G1 X88.736 Y94.587 E9.04855
G1 X88.013 Y96.755 E9.73345
G1 X85.592 Y103.066 E11.75884
G1 X84.660 Y105.723 E12.60259
G1 X84.023 Y106.569 E12.91989
G1 X83.646 Y106.559 E13.03285
G1 X83.211 Y106.480 E13.16539
G1 X82.931 Y105.463 E13.48158
G1 X82.964 Y102.547 E14.35514
G1 X82.964 Y92.352 E17.41018
G92 E0
G1 Z0.900 F7800.000
G1 X106.454 Y92.352 F7800.000
G1 X106.454 Y102.501 E3.04120 F600.000
G1 X106.404 Y105.185 E3.84543
G1 X106.790 Y106.390 E4.22467
G1 X106.979 Y106.422 E4.28196
G1 X107.278 Y106.449 E4.37219
G1 X108.101 Y105.726 E4.70040
G1 X115.378 Y94.181 E8.78971
G1 X116.101 Y93.507 E9.08591
G1 X116.500 Y93.535 E9.20578
G1 X116.732 Y93.577 E9.27642
G1 X117.085 Y94.729 E9.63743
G1 X117.025 Y97.625 E10.50541
G1 X117.025 Y107.648 E13.50884
G92 E0
G1 X107.939 Y108.648 F7800.000
G1 X105.532 Y108.648 F7800.000
G1 X101.215 Y94.670 F7800.000
G1 X98.897 Y92.352 F7800.000
G1 X96.897 Y92.352 F7800.000
G1 X95.964 Y92.352 F7800.000
