; generated by Slic3r 1.2.9 on 2016-03-11 at 01:27:28

; external perimeters extrusion width = 1.54mm
; perimeters extrusion width = 2.62mm
; infill extrusion width = 6.27mm
; solid infill extrusion width = 2.62mm
; top infill extrusion width = 2.62mm

M107
M104 S30 ; set temperature
G28 ; home all axes
G1 Z5 F5000 ; lift nozzle
M302
M92 E10000
M500
M501
G1 E100
M109 S30 ; wait for temperature to be reached
G21 ; set units to millimeters
G90 ; use absolute coordinates
M82 ; use absolute distances for extrusion
G92 E0
G1 Z0.300 F7800.000
G1 X118.377 Y97.483 F7800.000
G1 X118.615 Y98.570 E0.05032 F378.000
G1 X118.715 Y100.065 E0.11815
G1 X118.616 Y101.563 E0.18608
G1 X118.322 Y102.916 E0.24872
G1 X117.834 Y104.124 E0.30769
G1 X117.164 Y105.169 E0.36387
G1 X116.322 Y106.032 E0.41840
G1 X115.307 Y106.716 E0.47381
G1 X114.134 Y107.214 E0.53145
G1 X112.822 Y107.514 E0.59236
G1 X111.372 Y107.614 E0.65811
G1 X109.208 Y107.390 E0.75655
G1 X107.404 Y106.725 E0.84356
G1 X105.945 Y105.621 E0.92634
G1 X104.869 Y104.124 E1.00976
G1 X104.220 Y102.275 E1.09843
G1 X104.001 Y100.061 E1.19910
G1 X104.099 Y98.562 E1.26709
G1 X104.392 Y97.196 E1.33032
G1 X104.877 Y95.965 E1.39019
G1 X105.545 Y94.896 E1.44722
G1 X106.383 Y94.011 E1.50235
G1 X107.395 Y93.308 E1.55811
G1 X108.567 Y92.797 E1.61596
G1 X109.884 Y92.489 E1.67716
G1 X111.347 Y92.386 E1.74356
G1 X112.706 Y92.483 E1.80519
G1 X112.799 Y92.490 E1.80942 F378.000
G1 X114.110 Y92.802 E1.87040
G1 X115.283 Y93.319 E1.92839
G1 X116.300 Y94.028 E1.98451
G1 X117.146 Y94.915 E2.03996
G1 X117.822 Y95.983 E2.09717
G1 X118.328 Y97.258 E2.15920
G1 X116.753 Y97.742 F7800.000
G1 X116.891 Y98.190 E2.18040 F378.000
G1 X117.052 Y100.065 E2.26557
G1 X116.890 Y101.868 E2.34748
G1 X116.397 Y103.408 E2.42064
G1 X115.570 Y104.678 E2.48924
G1 X114.435 Y105.623 E2.55605
G1 X113.030 Y106.188 E2.62456
G1 X111.370 Y106.374 E2.70016
G1 X109.697 Y106.191 E2.77631
G1 X108.284 Y105.634 E2.84504
G1 X107.142 Y104.701 E2.91173
G1 X106.311 Y103.438 E2.98017
G1 X105.817 Y101.890 E3.05369
G1 X105.654 Y100.065 E3.13661
G1 X105.818 Y98.242 E3.21941
G1 X106.318 Y96.676 E3.29381
G1 X107.156 Y95.372 E3.36397
G1 X108.299 Y94.394 E3.43202
G1 X109.701 Y93.808 E3.50077
G1 X111.202 Y93.632 E3.56918
G1 X111.347 Y93.615 E3.57577 F378.000
G1 X113.031 Y93.801 E3.65243
G1 X114.447 Y94.368 E3.72144
G1 X115.582 Y95.317 E3.78837
G1 X116.403 Y96.605 E3.85753
G1 X116.685 Y97.522 E3.90091
G1 X117.743 Y96.489 F7800.000
G1 X114.534 Y93.279 E4.10917 F540.000
G1 X114.093 Y93.944 F7800.000
G1 X112.922 Y92.773 E4.18515 F540.000
G1 X113.647 Y92.946 F7800.000
G1 X115.880 Y95.179 E4.33007 F540.000
G1 X115.738 Y95.037 F7800.000
G1 X118.110 Y97.408 E4.48393 F540.000
G1 X118.265 Y98.116 E4.51719
G1 X116.631 Y96.482 E4.62323
G1 X116.877 Y97.281 E4.66159
G1 X118.399 Y98.803 E4.76036
G1 X118.438 Y99.396 E4.78761
G1 X117.115 Y98.073 E4.87346
G1 X117.167 Y98.678 E4.90132
G1 X118.478 Y99.988 E4.98636
G1 X118.463 Y100.527 E5.01109
G1 X117.219 Y99.283 E5.09182
G1 X117.271 Y99.888 E5.11968
G1 X118.429 Y101.046 E5.19483
G1 X118.395 Y101.565 E5.21869
G1 X117.241 Y100.411 E5.29357
G1 X117.195 Y100.918 E5.31694
G1 X118.301 Y102.023 E5.38869
G1 X118.202 Y102.478 E5.41001
G1 X117.150 Y101.425 E5.47831
G1 X117.089 Y101.918 E5.50108
G1 X118.100 Y102.928 E5.56667
G1 X117.941 Y103.322 E5.58616
G1 X116.955 Y102.337 E5.65012
G1 X116.821 Y102.756 E5.67030
G1 X117.782 Y103.716 E5.73263
G1 X117.616 Y104.103 E5.75196
G1 X116.687 Y103.175 E5.81222
G1 X116.526 Y103.567 E5.83167
G1 X117.400 Y104.440 E5.88835
G1 X117.184 Y104.777 E5.90672
G1 X116.308 Y103.902 E5.96355
G1 X116.090 Y104.236 E5.98189
G1 X116.954 Y105.100 E6.03795
G1 X116.677 Y105.377 E6.05589
G1 X115.872 Y104.571 E6.10817
G1 X115.628 Y104.880 E6.12624
G1 X116.401 Y105.653 E6.17640
G1 X116.124 Y105.930 E6.19435
G1 X115.326 Y105.132 E6.24615
G1 X115.024 Y105.383 E6.26417
G1 X115.795 Y106.153 E6.31417
G1 X115.464 Y106.376 E6.33245
G1 X114.722 Y105.634 E6.38060
G1 X114.392 Y105.857 E6.39887
G1 X115.115 Y106.580 E6.44577
G1 X114.727 Y106.745 E6.46513
G1 X113.998 Y106.016 E6.51242
G1 X113.604 Y106.174 E6.53193
G1 X114.339 Y106.909 E6.57962
G1 X113.923 Y107.047 E6.59970
G1 X113.209 Y106.333 E6.64603
G1 X112.760 Y106.437 E6.66718
G1 X113.473 Y107.150 E6.71344
G1 X113.023 Y107.253 E6.73462
G1 X112.263 Y106.493 E6.78394
G1 X111.766 Y106.549 E6.80690
G1 X112.530 Y107.313 E6.85650
G1 X112.013 Y107.349 E6.88029
G1 X111.264 Y106.600 E6.92892
G1 X110.642 Y106.531 E6.95760
G1 X111.496 Y107.385 E7.01297
G1 X110.886 Y107.328 E7.04108
G1 X110.021 Y106.463 E7.09719
G1 X109.334 Y106.329 E7.12932
G1 X110.269 Y107.264 E7.19000
G1 X109.652 Y107.200 E7.21846
G1 X108.421 Y105.969 E7.29833
G1 X108.022 Y106.676 F7800.000
G1 X104.964 Y103.618 E7.49677 F540.000
G1 X104.665 Y102.766 F7800.000
G1 X108.899 Y107.000 E7.77148 F540.000
G1 X106.367 Y105.574 F7800.000
G1 X106.013 Y105.220 E7.79446 F540.000
G1 X106.126 Y103.673 F7800.000
G1 X104.426 Y101.973 E7.90478 F540.000
G1 X104.365 Y101.360 E7.93307
G1 X105.856 Y102.851 E8.02985
G1 X105.597 Y102.039 E8.06898
G1 X104.304 Y100.746 E8.15285
G1 X104.244 Y100.133 E8.18114
G1 X105.541 Y101.430 E8.26533
G1 X105.487 Y100.823 E8.29331
G1 X104.253 Y99.589 E8.37336
G1 X104.287 Y99.070 E8.39723
G1 X105.433 Y100.215 E8.47157
G1 X105.467 Y99.697 E8.49541
G1 X104.321 Y98.551 E8.56978
G1 X104.415 Y98.092 E8.59128
G1 X105.513 Y99.190 E8.66252
G1 X105.559 Y98.683 E8.68589
G1 X104.513 Y97.636 E8.75378
G1 X104.613 Y97.184 E8.77505
G1 X105.620 Y98.191 E8.84038
G1 X105.753 Y97.771 E8.86058
G1 X104.770 Y96.787 E8.92443
G1 X104.926 Y96.391 E8.94399
G1 X105.887 Y97.352 E9.00636
G1 X106.021 Y96.933 E9.02656
G1 X105.086 Y95.998 E9.08719
G1 X105.299 Y95.658 E9.10561
G1 X106.177 Y96.535 E9.16256
G1 X106.393 Y96.199 E9.18093
G1 X105.511 Y95.317 E9.23813
G1 X105.728 Y94.981 E9.25648
G1 X106.609 Y95.862 E9.31365
G1 X106.826 Y95.525 E9.33201
G1 X105.998 Y94.698 E9.38574
G1 X106.274 Y94.421 E9.40368
G1 X107.057 Y95.203 E9.45445
G1 X107.355 Y94.948 E9.47245
G1 X106.551 Y94.145 E9.52461
G1 X106.869 Y93.910 E9.54275
G1 X107.653 Y94.693 E9.59360
G1 X107.951 Y94.438 E9.61160
G1 X107.195 Y93.683 E9.66061
G1 X107.532 Y93.467 E9.67897
G1 X108.258 Y94.193 E9.72610
G1 X108.648 Y94.030 E9.74550
G1 X107.917 Y93.299 E9.79295
G1 X108.302 Y93.131 E9.81223
G1 X109.038 Y93.867 E9.86000
G1 X109.428 Y93.704 E9.87940
G1 X108.704 Y92.980 E9.92639
G1 X109.153 Y92.875 E9.94750
G1 X109.849 Y93.572 E9.99273
G1 X110.344 Y93.514 E10.01559
G1 X109.601 Y92.770 E10.06384
G1 X110.080 Y92.696 E10.08608
G1 X110.839 Y93.456 E10.13538
G1 X111.334 Y93.398 E10.15824
G1 X110.596 Y92.660 E10.20613
G1 X111.113 Y92.623 E10.22989
G1 X111.932 Y93.443 E10.28307
G1 X112.554 Y93.512 E10.31179
G1 X111.685 Y92.642 E10.36819
G1 X112.281 Y92.685 E10.39560
G1 X113.176 Y93.581 E10.45370
G1 X115.924 Y94.116 F7800.000
G1 X116.764 Y94.956 E10.50821 F540.000
G92 E0
G1 X104.176 Y97.130 F7800.000
G1 X100.373 Y94.619 F7800.000
G1 X94.048 Y91.256 F7800.000
G1 X87.792 Y91.256 F7800.000
G1 X85.237 Y92.495 F7800.000
G1 X85.094 Y92.352 F7800.000
G1 X82.902 Y92.352 F7800.000
G1 X82.677 Y95.679 F7800.000
G1 X82.677 Y102.555 E0.31117 F378.000
G1 X82.606 Y105.674 E0.45232 F378.000
G1 X83.081 Y105.750 E0.47407
G1 X83.399 Y104.688 E0.52423
G1 X84.003 Y102.850 E0.61178
G1 X87.947 Y92.577 E1.10972
G1 X89.090 Y92.577 E1.16144
G1 X92.980 Y102.853 E1.65860
G1 X93.272 Y103.672 E1.69795
G1 X93.588 Y104.678 E1.74568
G1 X93.876 Y105.690 E1.79331
G1 X94.358 Y105.611 E1.81540
G1 X94.284 Y103.667 E1.90339
G1 X94.273 Y102.557 E1.95364
G1 X94.273 Y92.577 E2.40523
G1 X95.688 Y92.577 E2.46925
G1 X95.688 Y107.423 E3.14103
G1 X93.412 Y107.423 E3.24402
G1 X89.395 Y96.741 E3.76041
G1 X88.946 Y95.324 E3.82768
G1 X88.743 Y94.557 E3.86360
G1 X88.317 Y94.559 E3.88287
G1 X87.912 Y96.083 E3.95422
G1 X87.634 Y96.966 E3.99612
G1 X83.627 Y107.423 E4.50285
G1 X81.284 Y107.423 E4.60884
G1 X81.284 Y92.577 E5.28061
G1 X82.677 Y92.577 E5.34364
G1 X82.677 Y95.448 E5.47353
G1 X82.111 Y92.803 F7800.000
G1 X82.451 Y93.143 E5.49541 F540.000
G1 X82.451 Y93.691 E5.52031
G1 X81.563 Y92.803 E5.57741
G1 X81.510 Y93.298 E5.60003
G1 X82.451 Y94.239 E5.66053
G1 X82.451 Y94.787 E5.68543
G1 X81.510 Y93.846 E5.74592
G1 X81.510 Y94.394 E5.77082
G1 X82.451 Y95.335 E5.83132
G1 X82.451 Y95.882 E5.85622
G1 X81.510 Y94.941 E5.91672
G1 X81.510 Y95.489 E5.94162
G1 X82.451 Y96.430 E6.00211
G1 X82.451 Y96.978 E6.02702
G1 X81.510 Y96.037 E6.08751
G1 X81.510 Y96.585 E6.11241
G1 X82.451 Y97.526 E6.17291
G1 X82.451 Y98.074 E6.19781
G1 X81.510 Y97.133 E6.25831
G1 X81.510 Y97.680 E6.28321
G1 X82.451 Y98.622 E6.34370
G1 X82.451 Y99.169 E6.36860
G1 X81.510 Y98.228 E6.42910
G1 X81.510 Y98.776 E6.45400
G1 X82.451 Y99.717 E6.51450
G1 X82.451 Y100.265 E6.53940
G1 X81.510 Y99.324 E6.59989
G1 X81.510 Y99.872 E6.62479
G1 X82.451 Y100.813 E6.68529
G1 X82.451 Y101.361 E6.71019
G1 X81.510 Y100.420 E6.77069
G1 X81.510 Y100.967 E6.79559
G1 X82.451 Y101.908 E6.85608
G1 X82.451 Y102.456 E6.88098
G1 X81.510 Y101.515 E6.94148
G1 X81.510 Y102.063 E6.96638
G1 X82.443 Y102.996 E7.02634
G1 X82.431 Y103.531 E7.05069
G1 X81.510 Y102.611 E7.10987
G1 X81.510 Y103.159 E7.13477
G1 X82.419 Y104.067 E7.19316
G1 X82.406 Y104.603 E7.21751
G1 X81.510 Y103.707 E7.27511
G1 X81.510 Y104.254 E7.30001
G1 X82.394 Y105.138 E7.35682
G1 X82.382 Y105.674 F7800.000
G1 X81.510 Y104.802 E7.41285 F540.000
G1 X81.510 Y105.350 E7.43775
G1 X83.357 Y107.197 E7.55648
G1 X82.810 Y107.197 E7.58139
G1 X81.510 Y105.898 E7.66490
G1 X81.510 Y106.446 E7.68980
G1 X82.262 Y107.197 E7.73810
G1 X81.714 Y107.197 E7.76301
G1 X81.510 Y106.993 E7.77609
G1 X82.629 Y105.921 F7800.000
G1 X83.610 Y106.902 E7.83916 F540.000
G1 X83.762 Y106.506 E7.85844
G1 X83.229 Y105.973 E7.89269
G1 X83.355 Y105.551 E7.91269
G1 X83.914 Y106.110 E7.94858
G1 X84.065 Y105.714 E7.96786
G1 X83.482 Y105.130 E8.00537
G1 X83.608 Y104.709 E8.02537
G1 X84.217 Y105.318 E8.06452
G1 X84.369 Y104.922 E8.08380
G1 X83.743 Y104.296 E8.12401
G1 X83.879 Y103.884 E8.14373
G1 X84.521 Y104.525 E8.18498
G1 X84.672 Y104.129 E8.20426
G1 X84.015 Y103.472 E8.24655
G1 X84.150 Y103.059 E8.26628
G1 X84.824 Y103.733 E8.30961
G1 X84.976 Y103.337 E8.32889
G1 X84.295 Y102.656 E8.37268
G1 X84.447 Y102.260 E8.39196
G1 X85.128 Y102.941 E8.43574
G1 X85.279 Y102.545 E8.45502
G1 X84.599 Y101.864 E8.49880
G1 X84.750 Y101.468 E8.51807
G1 X85.431 Y102.149 E8.56183
G1 X85.583 Y101.753 E8.58111
G1 X84.902 Y101.072 E8.62486
G1 X85.054 Y100.677 E8.64413
G1 X85.735 Y101.357 E8.68787
G1 X85.887 Y100.961 E8.70715
G1 X85.206 Y100.281 E8.75087
G1 X85.358 Y99.885 E8.77015
G1 X86.038 Y100.565 E8.81386
G1 X86.190 Y100.169 E8.83314
G1 X85.510 Y99.489 E8.87684
G1 X85.662 Y99.093 E8.89611
G1 X86.342 Y99.773 E8.93980
G1 X86.494 Y99.377 E8.95908
G1 X85.814 Y98.697 E9.00276
G1 X85.966 Y98.301 E9.02203
G1 X86.645 Y98.981 E9.06570
G1 X86.797 Y98.585 E9.08498
G1 X86.118 Y97.906 E9.12863
G1 X86.270 Y97.510 E9.14790
G1 X86.949 Y98.189 E9.19154
G1 X87.101 Y97.793 E9.21082
G1 X86.422 Y97.114 E9.25445
G1 X86.574 Y96.718 E9.27372
G1 X87.252 Y97.396 E9.31734
G1 X87.404 Y97.000 E9.33661
G1 X86.726 Y96.322 E9.38022
G1 X86.878 Y95.926 E9.39949
G1 X87.538 Y96.587 E9.44194
G1 X87.669 Y96.170 E9.46180
G1 X87.030 Y95.530 E9.50291
G1 X87.182 Y95.135 E9.52219
G1 X87.788 Y95.741 E9.56116
G1 X87.903 Y95.308 E9.58152
G1 X87.334 Y94.739 E9.61812
G1 X87.486 Y94.343 E9.63739
G1 X88.018 Y94.875 E9.67162
G1 X88.133 Y94.443 E9.69197
G1 X87.638 Y93.947 E9.72383
G1 X87.790 Y93.551 E9.74311
G1 X88.571 Y94.332 E9.79331
G1 X89.360 Y94.026 F7800.000
G1 X88.137 Y92.803 E9.87195 F540.000
G1 X87.942 Y93.155 E9.89026
G1 X89.694 Y94.908 E10.00292
G1 X89.075 Y94.836 E10.03126
G1 X90.028 Y95.789 E10.09252
G1 X89.304 Y95.614 F7800.000
G1 X90.362 Y96.671 E10.16049 F540.000
G1 X89.875 Y97.280 F7800.000
G1 X91.029 Y98.434 E10.23466 F540.000
G1 X90.536 Y99.036 F7800.000
G1 X91.697 Y100.197 E10.30929 F540.000
G1 X91.196 Y100.792 F7800.000
G1 X92.364 Y101.960 E10.38436 F540.000
G1 X91.857 Y102.549 F7800.000
G1 X93.008 Y103.700 E10.45837 F540.000
G1 X92.187 Y103.427 F7800.000
G1 X93.268 Y104.508 E10.52786 F540.000
G1 X92.517 Y104.305 E10.56320
G1 X93.500 Y105.287 E10.62637
G1 X92.847 Y105.183 E10.65640
G1 X93.718 Y106.053 E10.71235
G1 X94.085 Y105.872 E10.73095
G1 X95.410 Y107.197 E10.81610
G1 X95.462 Y106.702 E10.83872
G1 X94.555 Y105.795 E10.89706
G1 X94.574 Y105.266 E10.92111
G1 X95.462 Y106.154 E10.97823
G1 X95.462 Y105.606 E11.00313
G1 X94.552 Y104.696 E11.06164
G1 X94.531 Y104.127 E11.08754
G1 X95.462 Y105.059 E11.14743
G1 X95.462 Y104.511 E11.17233
G1 X94.510 Y103.558 E11.23356
G1 X94.505 Y103.005 E11.25871
G1 X95.462 Y103.963 E11.32029
G1 X95.462 Y103.415 E11.34519
G1 X94.499 Y102.452 E11.40710
G1 X94.499 Y101.904 E11.43200
G1 X95.462 Y102.867 E11.49391
G1 X95.462 Y102.320 E11.51881
G1 X94.499 Y101.356 E11.58072
G1 X94.499 Y100.809 E11.60562
G1 X95.462 Y101.772 E11.66753
G1 X95.462 Y101.224 E11.69243
G1 X94.499 Y100.261 E11.75434
G1 X94.499 Y99.713 E11.77924
G1 X95.462 Y100.676 E11.84115
G1 X95.462 Y100.128 E11.86605
G1 X94.499 Y99.165 E11.92796
G1 X94.499 Y98.617 E11.95286
G1 X95.462 Y99.580 E12.01477
G1 X95.462 Y99.033 E12.03968
G1 X94.499 Y98.070 E12.10159
G1 X94.499 Y97.522 E12.12649
G1 X95.462 Y98.485 E12.18840
G1 X95.462 Y97.937 E12.21330
G1 X94.499 Y96.974 E12.27521
G1 X94.499 Y96.426 E12.30011
G1 X95.462 Y97.389 E12.36202
G1 X95.462 Y96.841 E12.38692
G1 X94.499 Y95.878 E12.44883
G1 X94.499 Y95.330 E12.47373
G1 X95.462 Y96.293 E12.53564
G1 X95.462 Y95.746 E12.56054
G1 X94.499 Y94.783 E12.62245
G1 X94.499 Y94.235 E12.64735
G1 X95.462 Y95.198 E12.70926
G1 X95.462 Y94.650 E12.73416
G1 X94.499 Y93.687 E12.79607
G1 X94.499 Y93.139 E12.82098
G1 X95.462 Y94.102 E12.88289
G1 X95.462 Y93.554 E12.90779
G1 X94.711 Y92.803 E12.95609
G1 X95.259 Y92.803 E12.98099
G1 X95.462 Y93.007 E12.99408
G92 E0
G1 X88.718 Y93.782 F7800.000
G1 X88.517 Y93.644 F7800.000
G1 X88.517 Y93.406 F7800.000
G1 X88.555 Y93.352 F7800.000
G1 X89.027 Y93.145 F7800.000
G1 X88.685 Y92.803 E0.02197 F540.000
G1 X89.559 Y96.416 F7800.000
G1 X90.695 Y97.553 E0.09504 F540.000
G1 X90.206 Y98.158 F7800.000
G1 X91.363 Y99.316 E0.16944 F540.000
G1 X90.866 Y99.914 F7800.000
G1 X92.030 Y101.079 E0.24429 F540.000
G1 X91.527 Y101.671 F7800.000
G1 X92.698 Y102.842 E0.31960 F540.000
G1 X93.615 Y105.950 F7800.000
G1 X94.862 Y107.197 E0.39974 F540.000
G1 X94.314 Y107.197 E0.42464
G1 X93.178 Y106.061 E0.49768
G1 X93.508 Y106.939 F7800.000
G1 X93.766 Y107.197 E0.51428 F540.000
M106 S255
G92 E0
G1 Z0.600 F7800.000
G1 X104.829 Y100.047 F7800.000
G1 X104.934 Y98.678 E0.41152 F600.000
G1 X105.054 Y97.973 E0.62588
G1 X105.196 Y97.439 E0.79152
G1 X105.597 Y96.327 E1.14549
G1 X106.185 Y95.391 E1.47685
G1 X106.501 Y94.989 E1.62986
G1 X106.692 Y94.779 E1.71524
G1 X106.885 Y94.596 E1.79481
G1 X107.743 Y93.933 E2.11990
G1 X108.070 Y93.754 E2.23137
G1 X108.783 Y93.449 E2.46386
G1 X109.429 Y93.240 E2.66726
G1 X109.980 Y93.127 E2.83583
G1 X111.347 Y93.002 E3.24710
G1 X112.702 Y93.123 E3.65470
G1 X113.288 Y93.240 E3.83386
G1 X113.898 Y93.433 E4.02547
G1 X114.655 Y93.752 E4.27154
G1 X114.951 Y93.910 E4.37209
G1 X115.827 Y94.580 E4.70266
G1 X116.009 Y94.750 E4.77749
G1 X116.203 Y94.962 E4.86333
G1 X116.538 Y95.390 E5.02623
G1 X117.130 Y96.339 E5.36128
G1 X117.527 Y97.454 E5.71596
G1 X117.697 Y98.145 E5.92928
G1 X117.779 Y98.688 E6.09399
G1 X117.882 Y100.065 E6.50779
G1 X117.777 Y101.445 E6.92233
G1 X117.658 Y102.140 E7.13365
G1 X117.516 Y102.667 E7.29724
G1 X117.118 Y103.754 E7.64415
G1 X116.533 Y104.668 E7.96932
G1 X116.219 Y105.061 E8.12004
G1 X116.021 Y105.273 E8.20698
G1 X115.834 Y105.446 E8.28339
G1 X114.969 Y106.094 E8.60708
G1 X114.653 Y106.261 E8.71416
G1 X113.923 Y106.563 E8.95086
G1 X113.294 Y106.761 E9.14865
G1 X112.727 Y106.873 E9.32169
G1 X111.383 Y106.992 E9.72602
G1 X109.659 Y106.812 E10.24543
G1 X109.435 Y106.773 E10.31350
G1 X108.073 Y106.264 E10.74921
G1 X107.745 Y106.101 E10.85885
G1 X106.709 Y105.287 E11.25389
G1 X106.493 Y105.088 E11.34192
G1 X105.582 Y103.753 E11.82619
G1 X105.046 Y102.162 E12.32904
G1 X105.004 Y101.938 E12.39748
G1 X104.829 Y100.047 E12.96634
G92 E0
