; generated by Slic3r 1.2.9 on 2016-03-11 at 01:27:29

; external perimeters extrusion width = 1.54mm
; perimeters extrusion width = 2.62mm
; infill extrusion width = 6.27mm
; solid infill extrusion width = 2.62mm
; top infill extrusion width = 2.62mm

M107
M104 S30 ; set temperature
G28 ; home all axes
G1 Z5 F5000 ; lift nozzle
M302
M92 E10000
M500
M501
G1 E100
M109 S30 ; wait for temperature to be reached
G21 ; set units to millimeters
G90 ; use absolute coordinates
M82 ; use absolute distances for extrusion
G92 E0
G1 Z0.300 F7800.000
G1 X106.068 Y104.481 F7800.000
G1 X106.068 Y92.577 E0.53865 F378.000
G1 X107.689 Y92.577 E0.61200
G1 X107.689 Y98.556 E0.88255
G1 X112.382 Y98.556 E1.09492 F378.000
G1 X113.849 Y98.695 E1.16158
G1 X115.074 Y99.103 E1.22000
G1 X116.075 Y99.777 E1.27463
G1 X116.817 Y100.677 E1.32740
G1 X117.263 Y101.766 E1.38063
G1 X117.413 Y103.055 E1.43937
G1 X117.263 Y104.347 E1.49822
G1 X116.820 Y105.415 E1.55053
G1 X116.084 Y106.273 E1.60167
G1 X115.072 Y106.907 E1.65572
G1 X113.799 Y107.292 E1.71589
G1 X112.251 Y107.423 E1.78620
G1 X106.068 Y107.423 E2.06599
G1 X106.068 Y104.712 E2.18866
G1 X107.689 Y104.712 F7800.000
G1 X107.689 Y99.743 E2.41351 F378.000
G1 X112.117 Y99.743 E2.61390 F378.000
G1 X114.121 Y100.098 E2.70601
G1 X115.377 Y101.210 E2.78188
G1 X115.789 Y103.035 E2.86652
G1 X115.365 Y104.800 E2.94868
G1 X114.079 Y105.872 E3.02446
G1 X112.030 Y106.214 E3.11843
G1 X107.689 Y106.214 E3.31488
G1 X107.689 Y104.943 E3.37239
G1 X108.495 Y106.440 F7800.000
G1 X109.252 Y107.197 E3.42134 F540.000
G1 X109.803 Y107.197 E3.44653
G1 X109.046 Y106.440 E3.49548
G1 X109.597 Y106.440 E3.52067
G1 X110.354 Y107.197 E3.56961
G1 X110.905 Y107.197 E3.59480
G1 X110.148 Y106.440 E3.64375
G1 X110.699 Y106.440 E3.66894
G1 X111.456 Y107.197 E3.71789
G1 X112.007 Y107.197 E3.74308
G1 X111.250 Y106.440 E3.79203
G1 X111.801 Y106.440 E3.81721
G1 X112.539 Y107.178 E3.86496
G1 X113.047 Y107.136 E3.88827
G1 X112.298 Y106.386 E3.93674
G1 X112.770 Y106.307 E3.95862
G1 X113.555 Y107.093 E4.00940
G1 X114.023 Y107.009 E4.03112
G1 X113.242 Y106.228 E4.08161
G1 X113.714 Y106.150 E4.10349
G1 X114.446 Y106.881 E4.15079
G1 X114.869 Y106.753 E4.17099
G1 X114.166 Y106.050 E4.21644
G1 X114.466 Y105.800 E4.23432
G1 X115.239 Y106.572 E4.28425
G1 X115.577 Y106.360 E4.30252
G1 X114.767 Y105.549 E4.35492
G1 X115.068 Y105.299 E4.37281
G1 X115.911 Y106.142 E4.42732
G1 X116.182 Y105.863 E4.44513
G1 X115.368 Y105.048 E4.49778
G1 X115.598 Y104.727 E4.51583
G1 X116.437 Y105.566 E4.57009
G1 X116.671 Y105.250 E4.58809
G1 X115.704 Y104.283 E4.65061
G1 X115.811 Y103.838 E4.67150
G1 X116.833 Y104.860 E4.73758
G1 X116.994 Y104.471 E4.75685
G1 X115.917 Y103.394 E4.82648
G1 X116.021 Y102.946 E4.84748
G1 X117.084 Y104.009 E4.91621
G1 X117.141 Y103.516 E4.93894
G1 X115.860 Y102.235 E5.02176
G1 X115.699 Y101.523 E5.05511
G1 X117.168 Y102.992 E5.15007
G1 X116.082 Y100.252 F7800.000
G1 X115.696 Y99.867 E5.17498 F540.000
G1 X114.440 Y99.161 F7800.000
G1 X116.933 Y101.654 E5.33615 F540.000
G1 X117.095 Y102.368 E5.36961
G1 X113.637 Y98.910 E5.59319
G1 X113.029 Y98.852 E5.62114
G1 X114.009 Y99.833 E5.68455
G1 X113.340 Y99.714 E5.71563
G1 X112.420 Y98.795 E5.77509
G1 X111.857 Y98.782 E5.80087
G1 X112.670 Y99.596 E5.85348
G1 X112.041 Y99.517 E5.88249
G1 X111.306 Y98.782 E5.93002
G1 X110.755 Y98.782 E5.95521
G1 X111.490 Y99.517 E6.00273
G1 X110.939 Y99.517 E6.02792
G1 X110.204 Y98.782 E6.07545
G1 X109.653 Y98.782 E6.10064
G1 X110.388 Y99.517 E6.14816
G1 X109.837 Y99.517 E6.17335
G1 X109.102 Y98.782 E6.22088
G1 X108.551 Y98.782 E6.24607
G1 X109.286 Y99.517 E6.29359
G1 X108.735 Y99.517 E6.31878
G1 X108.000 Y98.782 E6.36631
G1 X107.463 Y98.796 E6.39087
G1 X106.294 Y97.627 E6.46645
G1 X106.294 Y98.178 E6.49164
G1 X107.633 Y99.517 E6.57823
G1 X107.463 Y99.898 F7800.000
G1 X106.294 Y98.729 E6.65382 F540.000
G1 X106.294 Y99.280 E6.67900
G1 X107.463 Y100.449 E6.75459
G1 X107.463 Y101.000 E6.77978
G1 X106.294 Y99.831 E6.85536
G1 X106.294 Y100.382 E6.88055
G1 X107.463 Y101.551 E6.95614
G1 X107.463 Y102.102 E6.98133
G1 X106.294 Y100.933 E7.05691
G1 X106.294 Y101.484 E7.08210
G1 X107.463 Y102.653 E7.15769
G1 X107.463 Y103.204 E7.18288
G1 X106.294 Y102.035 E7.25846
G1 X106.294 Y102.586 E7.28365
G1 X107.463 Y103.755 E7.35923
G1 X107.463 Y104.306 E7.38442
G1 X106.294 Y103.137 E7.46001
G1 X106.294 Y103.688 E7.48520
G1 X107.463 Y104.857 E7.56078
G1 X107.463 Y105.408 E7.58597
G1 X106.294 Y104.239 E7.66156
G1 X106.294 Y104.790 E7.68675
G1 X107.463 Y105.959 E7.76233
G1 X107.393 Y106.440 E7.78456
G1 X108.150 Y107.197 E7.83351
G1 X108.701 Y107.197 E7.85870
G1 X107.944 Y106.440 E7.90765
G1 X107.463 Y106.510 E7.92988
G1 X106.294 Y105.341 E8.00547
G1 X106.294 Y105.891 E8.03066
G1 X107.599 Y107.197 E8.11507
G1 X107.048 Y107.197 E8.14025
G1 X106.294 Y106.442 E8.18904
G1 X106.294 Y106.993 E8.21423
G1 X106.497 Y107.197 E8.22739
G92 E0
G1 X106.914 Y106.648 F7800.000
G1 X106.914 Y106.648 F7800.000
G1 X108.184 Y99.517 F7800.000
G1 X107.449 Y98.782 E0.04753 F540.000
G1 X107.463 Y98.245 E0.07209
G1 X106.294 Y97.076 E0.14767
G1 X106.294 Y96.525 E0.17286
G1 X107.463 Y97.694 E0.24845
G1 X107.463 Y97.143 E0.27363
G1 X106.294 Y95.974 E0.34922
G1 X106.294 Y95.423 E0.37441
G1 X107.463 Y96.592 E0.44999
G1 X107.463 Y96.041 E0.47518
G1 X106.294 Y94.872 E0.55077
G1 X106.294 Y94.321 E0.57596
G1 X107.463 Y95.490 E0.65154
G1 X107.463 Y94.939 E0.67673
G1 X106.294 Y93.770 E0.75232
G1 X106.294 Y93.219 E0.77751
G1 X107.463 Y94.388 E0.85309
G1 X107.463 Y93.837 E0.87828
G1 X106.428 Y92.803 E0.94514
G1 X106.979 Y92.803 E0.97033
G1 X107.463 Y93.286 E1.00156
G92 E0
G1 X105.843 Y92.352 F7800.000
G1 X103.843 Y92.352 F7800.000
G1 X99.214 Y92.352 F7800.000
G1 X97.214 Y92.352 F7800.000
G1 X95.574 Y93.803 F7800.000
G1 X95.574 Y92.577 E0.05546 F378.000
G1 X96.989 Y92.577 E0.11949
G1 X96.989 Y107.423 E0.79126
G1 X94.713 Y107.423 E0.89426
G1 X90.696 Y96.741 E1.41065
G1 X90.247 Y95.324 E1.47791
G1 X90.044 Y94.557 E1.51383
G1 X89.618 Y94.559 E1.53311
G1 X89.213 Y96.083 E1.60446
G1 X88.935 Y96.966 E1.64636
G1 X84.928 Y107.423 E2.15309
G1 X82.585 Y107.423 E2.25907
G1 X82.585 Y92.577 E2.93084
G1 X83.978 Y92.577 E2.99388
G1 X83.978 Y102.555 E3.44539
G1 X83.907 Y105.674 E3.58654 F378.000
G1 X84.382 Y105.750 E3.60829
G1 X84.700 Y104.688 E3.65845
G1 X85.304 Y102.851 E3.74600
G1 X89.248 Y92.577 E4.24394
G1 X90.391 Y92.577 E4.29566
G1 X94.281 Y102.853 E4.79282
G1 X94.573 Y103.672 E4.83217
G1 X94.889 Y104.678 E4.87990
G1 X95.177 Y105.690 E4.92753
G1 X95.659 Y105.611 E4.94962
G1 X95.585 Y103.667 E5.03761
G1 X95.574 Y102.557 E5.08786
G1 X95.574 Y94.034 E5.47353
G1 X96.763 Y93.007 F7800.000
G1 X96.560 Y92.803 E5.48662 F540.000
G1 X96.012 Y92.803 E5.51152
G1 X96.763 Y93.554 E5.55982
G1 X96.763 Y94.102 E5.58472
G1 X95.800 Y93.139 E5.64663
G1 X95.800 Y93.687 E5.67153
G1 X96.763 Y94.650 E5.73344
G1 X96.763 Y95.198 E5.75835
G1 X95.800 Y94.235 E5.82026
G1 X95.800 Y94.783 E5.84516
G1 X96.763 Y95.746 E5.90707
G1 X96.763 Y96.293 E5.93197
G1 X95.800 Y95.330 E5.99388
G1 X95.800 Y95.878 E6.01878
G1 X96.763 Y96.841 E6.08069
G1 X96.763 Y97.389 E6.10559
G1 X95.800 Y96.426 E6.16750
G1 X95.800 Y96.974 E6.19240
G1 X96.763 Y97.937 E6.25431
G1 X96.763 Y98.485 E6.27921
G1 X95.800 Y97.522 E6.34112
G1 X95.800 Y98.070 E6.36602
G1 X96.763 Y99.033 E6.42793
G1 X96.763 Y99.580 E6.45283
G1 X95.800 Y98.617 E6.51474
G1 X95.800 Y99.165 E6.53965
G1 X96.763 Y100.128 E6.60156
G1 X96.763 Y100.676 E6.62646
G1 X95.800 Y99.713 E6.68837
G1 X95.800 Y100.261 E6.71327
G1 X96.763 Y101.224 E6.77518
G1 X96.763 Y101.772 E6.80008
G1 X95.800 Y100.809 E6.86199
G1 X95.800 Y101.356 E6.88689
G1 X96.763 Y102.320 E6.94880
G1 X96.763 Y102.867 E6.97370
G1 X95.800 Y101.904 E7.03561
G1 X95.800 Y102.452 E7.06051
G1 X96.763 Y103.415 E7.12242
G1 X96.763 Y103.963 E7.14732
G1 X95.806 Y103.005 E7.20890
G1 X95.811 Y103.558 E7.23405
G1 X96.763 Y104.511 E7.29528
G1 X96.763 Y105.059 E7.32018
G1 X95.832 Y104.127 E7.38007
G1 X95.853 Y104.696 E7.40597
G1 X96.763 Y105.607 E7.46448
G1 X96.763 Y106.154 E7.48938
G1 X95.875 Y105.266 E7.54650
G1 X95.856 Y105.795 E7.57055
G1 X96.763 Y106.702 E7.62889
G1 X96.711 Y107.197 E7.65152
G1 X95.386 Y105.872 E7.73666
G1 X95.019 Y106.053 E7.75526
G1 X94.148 Y105.183 E7.81121
G1 X94.801 Y105.287 E7.84125
G1 X93.818 Y104.305 E7.90441
G1 X94.569 Y104.508 E7.93976
G1 X93.488 Y103.427 E8.00924
G1 X93.999 Y102.842 F7800.000
G1 X92.828 Y101.671 E8.08454 F540.000
G1 X93.331 Y101.079 F7800.000
G1 X92.167 Y99.914 E8.15940 F540.000
G1 X92.664 Y99.316 F7800.000
G1 X91.507 Y98.158 E8.23379 F540.000
G1 X91.996 Y97.553 F7800.000
G1 X90.860 Y96.416 E8.30687 F540.000
G1 X91.329 Y95.789 F7800.000
G1 X90.376 Y94.836 E8.36813 F540.000
G1 X90.995 Y94.908 E8.39646
G1 X89.243 Y93.155 E8.50913
G1 X89.438 Y92.803 E8.52744
G1 X90.661 Y94.026 E8.60608
G1 X89.872 Y94.332 F7800.000
G1 X89.091 Y93.551 E8.65628 F540.000
G1 X88.939 Y93.947 E8.67555
G1 X89.434 Y94.443 E8.70741
G1 X89.319 Y94.875 E8.72776
G1 X88.787 Y94.343 E8.76199
G1 X88.635 Y94.739 E8.78127
G1 X89.204 Y95.308 E8.81787
G1 X89.089 Y95.741 E8.83822
G1 X88.483 Y95.135 E8.87720
G1 X88.331 Y95.530 E8.89647
G1 X88.970 Y96.170 E8.93759
G1 X88.839 Y96.587 E8.95744
G1 X88.179 Y95.926 E8.99989
G1 X88.027 Y96.322 E9.01917
G1 X88.705 Y97.000 E9.06277
G1 X88.553 Y97.396 E9.08205
G1 X87.875 Y96.718 E9.12566
G1 X87.723 Y97.114 E9.14494
G1 X88.402 Y97.793 E9.18857
G1 X88.250 Y98.189 E9.20784
G1 X87.571 Y97.510 E9.25148
G1 X87.419 Y97.906 E9.27076
G1 X88.098 Y98.585 E9.31441
G1 X87.946 Y98.981 E9.33369
G1 X87.267 Y98.301 E9.37735
G1 X87.115 Y98.697 E9.39663
G1 X87.795 Y99.377 E9.44030
G1 X87.643 Y99.773 E9.45958
G1 X86.963 Y99.093 E9.50327
G1 X86.811 Y99.489 E9.52254
G1 X87.491 Y100.169 E9.56624
G1 X87.339 Y100.565 E9.58552
G1 X86.659 Y99.885 E9.62924
G1 X86.507 Y100.281 E9.64851
G1 X87.188 Y100.961 E9.69223
G1 X87.036 Y101.357 E9.71151
G1 X86.355 Y100.677 E9.75525
G1 X86.203 Y101.072 E9.77452
G1 X86.884 Y101.753 E9.81827
G1 X86.732 Y102.149 E9.83755
G1 X86.051 Y101.468 E9.88131
G1 X85.900 Y101.864 E9.90059
G1 X86.580 Y102.545 E9.94436
G1 X86.429 Y102.941 E9.96364
G1 X85.748 Y102.260 E10.00743
G1 X85.596 Y102.656 E10.02670
G1 X86.277 Y103.337 E10.07050
G1 X86.125 Y103.733 E10.08978
G1 X85.451 Y103.059 E10.13311
G1 X85.316 Y103.472 E10.15283
G1 X85.973 Y104.129 E10.19512
G1 X85.822 Y104.525 E10.21440
G1 X85.180 Y103.884 E10.25565
G1 X85.044 Y104.296 E10.27538
G1 X85.670 Y104.922 E10.31558
G1 X85.518 Y105.318 E10.33486
G1 X84.909 Y104.709 E10.37401
G1 X84.783 Y105.130 E10.39401
G1 X85.366 Y105.714 E10.43153
G1 X85.215 Y106.110 E10.45081
G1 X84.656 Y105.551 E10.48669
G1 X84.530 Y105.973 E10.50669
G1 X85.063 Y106.506 E10.54094
G1 X84.911 Y106.902 E10.56022
G1 X83.930 Y105.921 E10.62329
G1 X83.683 Y105.674 F7800.000
G1 X82.811 Y104.802 E10.67932 F540.000
G1 X82.811 Y105.350 E10.70422
G1 X84.658 Y107.197 E10.82295
G1 X84.111 Y107.197 E10.84785
G1 X82.811 Y105.898 E10.93137
G1 X82.811 Y106.446 E10.95627
G1 X83.563 Y107.197 E11.00457
G1 X83.015 Y107.197 E11.02947
G1 X82.811 Y106.993 E11.04256
G1 X83.695 Y105.138 F7800.000
G1 X82.811 Y104.254 E11.09937 F540.000
G1 X82.811 Y103.707 E11.12427
G1 X83.707 Y104.603 E11.18187
G1 X83.720 Y104.067 E11.20623
G1 X82.811 Y103.159 E11.26461
G1 X82.811 Y102.611 E11.28951
G1 X83.732 Y103.531 E11.34869
G1 X83.744 Y102.996 E11.37304
G1 X82.811 Y102.063 E11.43300
G1 X82.811 Y101.515 E11.45791
G1 X83.752 Y102.456 E11.51840
G1 X83.752 Y101.909 E11.54330
G1 X82.811 Y100.967 E11.60380
G1 X82.811 Y100.420 E11.62870
G1 X83.752 Y101.361 E11.68919
G1 X83.752 Y100.813 E11.71410
G1 X82.811 Y99.872 E11.77459
G1 X82.811 Y99.324 E11.79949
G1 X83.752 Y100.265 E11.85999
G1 X83.752 Y99.717 E11.88489
G1 X82.811 Y98.776 E11.94539
G1 X82.811 Y98.228 E11.97029
G1 X83.752 Y99.169 E12.03078
G1 X83.752 Y98.622 E12.05568
G1 X82.811 Y97.680 E12.11618
G1 X82.811 Y97.133 E12.14108
G1 X83.752 Y98.074 E12.20158
G1 X83.752 Y97.526 E12.22648
G1 X82.811 Y96.585 E12.28697
G1 X82.811 Y96.037 E12.31187
G1 X83.752 Y96.978 E12.37237
G1 X83.752 Y96.430 E12.39727
G1 X82.811 Y95.489 E12.45777
G1 X82.811 Y94.941 E12.48267
G1 X83.752 Y95.882 E12.54316
G1 X83.752 Y95.335 E12.56806
G1 X82.811 Y94.394 E12.62856
G1 X82.811 Y93.846 E12.65346
G1 X83.752 Y94.787 E12.71396
G1 X83.752 Y94.239 E12.73886
G1 X82.811 Y93.298 E12.79935
G1 X82.864 Y92.803 E12.82198
G1 X83.752 Y93.691 E12.87907
G1 X83.752 Y93.143 E12.90398
G1 X83.412 Y92.803 E12.92586
G92 E0
G1 X89.615 Y93.784 F7800.000
G1 X89.818 Y93.644 F7800.000
G1 X89.818 Y93.406 F7800.000
G1 X89.781 Y93.352 F7800.000
G1 X89.986 Y92.803 F7800.000
G1 X90.328 Y93.145 E0.02197 F540.000
G1 X90.605 Y95.614 F7800.000
G1 X91.663 Y96.671 E0.08994 F540.000
G1 X91.176 Y97.280 F7800.000
G1 X92.330 Y98.434 E0.16411 F540.000
G1 X91.837 Y99.036 F7800.000
G1 X92.998 Y100.197 E0.23874 F540.000
G1 X92.497 Y100.792 F7800.000
G1 X93.665 Y101.960 E0.31381 F540.000
G1 X93.158 Y102.549 F7800.000
G1 X94.309 Y103.700 E0.38782 F540.000
G1 X94.916 Y105.950 F7800.000
G1 X96.163 Y107.197 E0.46797 F540.000
G1 X95.615 Y107.197 E0.49287
G1 X94.479 Y106.061 E0.56591
G1 X94.809 Y106.939 F7800.000
G1 X95.067 Y107.197 E0.58251 F540.000
M106 S255
G92 E0
G1 Z0.600 F7800.000
G1 X107.729 Y102.637 F7800.000
G1 X106.878 Y98.331 E1.31513 F600.000
G1 X106.878 Y92.352 E3.10672
G1 X107.040 Y99.149 F7800.000
G1 X112.241 Y99.156 E4.66533 F600.000
G1 X113.710 Y99.350 E5.10938
G1 X114.169 Y99.466 E5.25112
G1 X114.608 Y99.645 E5.39307
G1 X114.763 Y99.734 E5.44673
G1 X115.556 Y100.349 E5.74737
G1 X115.810 Y100.612 E5.85684
G1 X116.143 Y101.080 E6.02918
G1 X116.427 Y101.981 E6.31225
G1 X116.595 Y103.055 E6.63799
G1 X116.417 Y104.127 E6.96346
G1 X116.134 Y104.993 E7.23646
G1 X115.797 Y105.435 E7.40301
G1 X115.562 Y105.666 E7.50171
G1 X114.769 Y106.241 E7.79521
G1 X114.559 Y106.354 E7.86657
G1 X114.125 Y106.519 E8.00594
G1 X113.672 Y106.625 E8.14536
G1 X112.225 Y106.807 E8.58220
G1 X112.011 Y106.818 E8.64630
G1 X107.914 Y106.818 E9.87422
G1 X106.951 Y106.539 E10.17448
G1 X106.878 Y105.989 E10.34084
G1 X106.878 Y99.968 E12.14501
G1 X107.040 Y99.149 E12.39502
G92 E0
G1 X105.843 Y92.352 F7800.000
G1 X101.528 Y94.666 F7800.000
G1 X99.214 Y92.352 F7800.000
G1 X97.214 Y92.352 F7800.000
G1 X96.282 Y92.352 F7800.000
G1 X96.282 Y102.553 E3.05684 F600.000
G1 X96.320 Y105.387 E3.90606
G1 X96.021 Y106.455 E4.23827
G1 X95.610 Y106.527 E4.36358
G1 X95.323 Y106.542 E4.44947
G1 X94.611 Y105.643 E4.79314
G1 X94.009 Y103.861 E5.35679
G1 X93.716 Y103.060 E5.61219
G1 X91.258 Y96.547 E7.69830
G1 X90.594 Y94.592 E8.31687
G1 X89.866 Y93.677 E8.66734
G1 X89.818 Y93.644 E8.68488
G1 X89.054 Y94.587 E9.04855
G1 X88.330 Y96.755 E9.73345
G1 X85.910 Y103.066 E11.75884
G1 X84.977 Y105.723 E12.60259
G1 X84.341 Y106.569 E12.91989
G1 X83.964 Y106.559 E13.03285
G1 X83.528 Y106.480 E13.16539
G1 X83.249 Y105.463 E13.48158
G1 X83.282 Y102.547 E14.35514
G1 X83.282 Y92.352 E17.41018
G92 E0
G1 Z0.900 F7800.000
G1 X107.729 Y102.637 F7800.000
G1 X106.878 Y98.331 E1.31513 F600.000
G1 X106.878 Y92.352 E3.10672
G1 X107.040 Y99.149 F7800.000
G1 X112.241 Y99.156 E4.66533 F600.000
G1 X113.710 Y99.350 E5.10938
G1 X114.169 Y99.466 E5.25112
G1 X114.608 Y99.645 E5.39307
G1 X114.763 Y99.734 E5.44673
G1 X115.556 Y100.349 E5.74737
G1 X115.810 Y100.612 E5.85684
G1 X116.143 Y101.080 E6.02918
G1 X116.427 Y101.981 E6.31225
G1 X116.595 Y103.055 E6.63799
G1 X116.417 Y104.127 E6.96346
G1 X116.134 Y104.993 E7.23646
G1 X115.797 Y105.435 E7.40301
G1 X115.562 Y105.666 E7.50171
G1 X114.769 Y106.241 E7.79521
G1 X114.559 Y106.354 E7.86657
G1 X114.125 Y106.519 E8.00594
G1 X113.672 Y106.625 E8.14536
G1 X112.225 Y106.807 E8.58220
G1 X112.011 Y106.818 E8.64630
G1 X107.914 Y106.818 E9.87422
G1 X106.951 Y106.539 E10.17448
G1 X106.878 Y105.989 E10.34084
G1 X106.878 Y99.968 E12.14501
G1 X107.040 Y99.149 E12.39502
G92 E0
G1 X105.843 Y92.352 F7800.000
G1 X101.528 Y94.666 F7800.000
G1 X99.214 Y92.352 F7800.000
G1 X97.214 Y92.352 F7800.000
G1 X96.282 Y92.352 F7800.000
G1 X96.282 Y102.553 E3.05683 F600.000
G1 X96.320 Y105.387 E3.90606
G1 X96.021 Y106.455 E4.23827
G1 X95.610 Y106.527 E4.36358
G1 X95.323 Y106.542 E4.44947
G1 X94.611 Y105.643 E4.79314
