; generated by Slic3r 1.2.9 on 2016-03-11 at 01:27:31

; external perimeters extrusion width = 1.54mm
; perimeters extrusion width = 2.62mm
; infill extrusion width = 6.27mm
; solid infill extrusion width = 2.62mm
; top infill extrusion width = 2.62mm

M107
M104 S30 ; set temperature
G28 ; home all axes
G1 Z5 F5000 ; lift nozzle
M302
M92 E10000
M500
M501
G1 E100
M109 S30 ; wait for temperature to be reached
G21 ; set units to millimeters
G90 ; use absolute coordinates
M82 ; use absolute distances for extrusion
G92 E0
G1 Z0.300 F7800.000
G1 X115.244 Y96.659 F7800.000
G1 X113.645 Y99.088 E0.13158 F378.000
G1 X115.001 Y99.461 E0.19523
G1 X115.869 Y99.924 E0.23973
G1 X116.574 Y100.565 E0.28284
G1 X117.095 Y101.351 E0.32552
G1 X117.408 Y102.254 E0.36875
G1 X117.514 Y103.277 E0.41529
G1 X117.364 Y104.492 E0.47068
G1 X116.923 Y105.500 E0.52047
G1 X116.188 Y106.318 E0.57022
G1 X115.174 Y106.927 E0.62376
G1 X113.894 Y107.297 E0.68407
G1 X112.333 Y107.423 E0.75492
G1 X105.366 Y107.423 E1.07016
G1 X105.366 Y92.577 E1.74193
G1 X106.987 Y92.577 E1.81528
G1 X106.987 Y98.940 E2.10320
G1 X112.111 Y98.940 E2.33504 F378.000
G1 X116.087 Y92.577 E2.67456
G1 X117.931 Y92.577 E2.75798
G1 X115.371 Y96.466 E2.96866
G92 E0
G1 X116.260 Y101.494 F7800.000
G1 X116.260 Y101.494 F7800.000
G1 X114.162 Y100.481 F7800.000
G1 X114.909 Y100.943 E0.03975 F378.000
G1 X115.453 Y101.573 E0.07743
G1 X115.778 Y102.349 E0.11549
G1 X115.885 Y103.258 E0.15687
G1 X115.776 Y104.137 E0.19695
G1 X115.444 Y104.880 E0.23378
G1 X114.890 Y105.469 E0.27039
G1 X114.142 Y105.888 E0.30920
G1 X113.223 Y106.134 E0.35224
G1 X112.144 Y106.214 E0.40118
G1 X106.987 Y106.214 E0.63454
G1 X106.987 Y100.127 E0.90998
G1 X112.232 Y100.127 E1.14732 F378.000
G1 X113.277 Y100.215 E1.19474
G1 X113.941 Y100.415 E1.22612
G1 X114.212 Y100.232 F7800.000
G1 X113.207 Y99.227 E1.29089 F540.000
G1 X113.494 Y98.964 E1.30861
G1 X112.775 Y98.245 E1.35495
G1 X112.986 Y97.907 E1.37312
G1 X113.712 Y98.633 E1.41989
G1 X113.930 Y98.302 E1.43797
G1 X113.197 Y97.569 E1.48518
G1 X113.409 Y97.231 E1.50335
G1 X114.148 Y97.970 E1.55100
G1 X114.366 Y97.639 E1.56908
G1 X113.620 Y96.893 E1.61717
G1 X113.831 Y96.555 E1.63534
G1 X114.584 Y97.308 E1.68386
G1 X114.802 Y96.976 E1.70194
G1 X114.042 Y96.217 E1.75091
G1 X114.254 Y95.879 E1.76908
G1 X115.020 Y96.645 E1.81848
G1 X115.238 Y96.314 E1.83656
G1 X114.465 Y95.541 E1.88640
G1 X114.676 Y95.203 E1.90457
G1 X115.456 Y95.983 E1.95485
G1 X115.674 Y95.651 E1.97293
G1 X114.887 Y94.864 E2.02364
G1 X115.099 Y94.526 E2.04181
G1 X115.892 Y95.320 E2.09297
G1 X116.110 Y94.989 E2.11105
G1 X115.310 Y94.188 E2.16264
G1 X115.521 Y93.850 E2.18081
G1 X116.328 Y94.657 E2.23284
G1 X116.546 Y94.326 E2.25092
G1 X115.732 Y93.512 E2.30339
G1 X115.944 Y93.174 E2.32156
G1 X116.764 Y93.995 E2.37447
G1 X116.983 Y93.664 E2.39255
G1 X116.155 Y92.836 E2.44589
G1 X116.671 Y92.803 E2.46948
G1 X117.201 Y93.332 E2.50360
G1 X117.221 Y92.803 E2.52774
G1 X117.419 Y93.001 E2.54051
G92 E0
G1 X116.260 Y101.494 F7800.000
G1 X116.260 Y101.494 F7800.000
G1 X114.723 Y99.644 F7800.000
G1 X117.032 Y101.953 E0.14879 F540.000
G1 X117.217 Y102.688 E0.18334
G1 X113.965 Y99.436 E0.39294
G1 X113.276 Y99.295 E0.42503
G1 X112.564 Y98.583 E0.47093
G1 X112.352 Y98.921 E0.48910
G1 X113.426 Y99.995 E0.55833
G1 X112.824 Y99.943 E0.58588
G1 X112.047 Y99.166 E0.63595
G1 X111.498 Y99.166 E0.66099
G1 X112.233 Y99.901 E0.70838
G1 X111.684 Y99.901 E0.73342
G1 X110.949 Y99.166 E0.78080
G1 X110.399 Y99.166 E0.80584
G1 X111.134 Y99.901 E0.85322
G1 X110.585 Y99.901 E0.87826
G1 X109.850 Y99.166 E0.92565
G1 X109.301 Y99.166 E0.95069
G1 X110.036 Y99.901 E0.99807
G1 X109.486 Y99.901 E1.02311
G1 X108.751 Y99.166 E1.07050
G1 X108.202 Y99.166 E1.09554
G1 X108.937 Y99.901 E1.14292
G1 X108.388 Y99.901 E1.16796
G1 X107.653 Y99.166 E1.21534
G1 X107.103 Y99.166 E1.24038
G1 X107.838 Y99.901 E1.28777
G1 X107.289 Y99.901 E1.31281
G1 X105.592 Y98.204 E1.42220
G1 X105.592 Y98.753 E1.44724
G1 X106.761 Y99.922 E1.52260
G1 X106.761 Y100.472 E1.54764
G1 X105.592 Y99.303 E1.62300
G1 X105.592 Y99.852 E1.64804
G1 X106.761 Y101.021 E1.72340
G1 X106.761 Y101.570 E1.74844
G1 X105.592 Y100.401 E1.82380
G1 X105.592 Y100.951 E1.84884
G1 X106.761 Y102.120 E1.92420
G1 X106.761 Y102.669 E1.94924
G1 X105.592 Y101.500 E2.02460
G1 X105.592 Y102.049 E2.04964
G1 X106.761 Y103.218 E2.12500
G1 X106.761 Y103.768 E2.15004
G1 X105.592 Y102.599 E2.22540
G1 X105.592 Y103.148 E2.25044
G1 X106.761 Y104.317 E2.32580
G1 X106.761 Y104.867 E2.35084
G1 X105.592 Y103.697 E2.42620
G1 X105.592 Y104.247 E2.45124
G1 X106.761 Y105.416 E2.52660
G1 X106.761 Y105.965 E2.55164
G1 X105.592 Y104.796 E2.62700
G1 X105.592 Y105.345 E2.65204
G1 X107.444 Y107.197 E2.77139
G1 X107.993 Y107.197 E2.79643
G1 X107.236 Y106.440 E2.84523
G1 X107.785 Y106.440 E2.87027
G1 X108.542 Y107.197 E2.91908
G1 X109.092 Y107.197 E2.94412
G1 X108.335 Y106.440 E2.99292
G1 X108.884 Y106.440 E3.01796
G1 X109.641 Y107.197 E3.06676
G1 X110.190 Y107.197 E3.09180
G1 X109.433 Y106.440 E3.14060
G1 X109.983 Y106.440 E3.16564
G1 X110.740 Y107.197 E3.21444
G1 X111.289 Y107.197 E3.23948
G1 X110.532 Y106.440 E3.28829
G1 X111.081 Y106.440 E3.31333
G1 X111.838 Y107.197 E3.36213
G1 X112.388 Y107.197 E3.38717
G1 X111.631 Y106.440 E3.43597
G1 X112.173 Y106.433 E3.46068
G1 X112.897 Y107.157 E3.50738
G1 X113.406 Y107.116 E3.53063
G1 X112.684 Y106.395 E3.57714
G1 X113.195 Y106.356 E3.60049
G1 X113.914 Y107.075 E3.64683
G1 X114.341 Y106.953 E3.66708
G1 X113.629 Y106.241 E3.71299
G1 X114.062 Y106.125 E3.73345
G1 X114.767 Y106.830 E3.77889
G1 X115.181 Y106.694 E3.79874
G1 X114.436 Y105.949 E3.84679
G1 X114.788 Y105.752 E3.86519
G1 X115.524 Y106.488 E3.91266
G1 X115.867 Y106.282 E3.93091
G1 X115.106 Y105.520 E3.98000
G1 X115.372 Y105.237 E3.99771
G1 X116.169 Y106.034 E4.04907
G1 X116.437 Y105.753 E4.06678
G1 X115.633 Y104.948 E4.11864
G1 X115.802 Y104.569 E4.13759
G1 X116.697 Y105.464 E4.19528
G1 X116.881 Y105.098 E4.21393
G1 X115.972 Y104.189 E4.27251
G1 X116.047 Y103.714 E4.29441
G1 X117.048 Y104.716 E4.35895
G1 X117.171 Y104.290 E4.37918
G1 X116.107 Y103.225 E4.44777
G1 X116.047 Y102.616 E4.47566
G1 X117.231 Y103.800 E4.55198
G1 X117.280 Y103.300 E4.57490
G1 X115.873 Y101.893 E4.66560
G92 E0
G1 X116.260 Y101.494 F7800.000
G1 X116.260 Y101.494 F7800.000
G1 X106.761 Y98.824 F7800.000
G1 X105.592 Y97.655 E0.07536 F540.000
G1 X105.592 Y97.105 E0.10040
G1 X106.761 Y98.274 E0.17576
G1 X106.761 Y97.725 E0.20080
G1 X105.592 Y96.556 E0.27616
G1 X105.592 Y96.007 E0.30120
G1 X106.761 Y97.176 E0.37656
G1 X106.761 Y96.626 E0.40160
G1 X105.592 Y95.457 E0.47696
G1 X105.592 Y94.908 E0.50200
G1 X106.761 Y96.077 E0.57736
G1 X106.761 Y95.528 E0.60240
G1 X105.592 Y94.359 E0.67776
G1 X105.592 Y93.809 E0.70280
G1 X106.761 Y94.978 E0.77816
G1 X106.761 Y94.429 E0.80320
G1 X105.592 Y93.260 E0.87856
G1 X105.684 Y92.803 E0.89981
G1 X106.761 Y93.880 E0.96921
G1 X106.761 Y93.330 E0.99425
G1 X106.234 Y92.803 E1.02825
G1 X105.592 Y105.895 F7800.000
G1 X106.894 Y107.197 E1.11219 F540.000
G1 X106.345 Y107.197 E1.13723
G1 X105.592 Y106.444 E1.18577
G1 X105.592 Y106.993 E1.21081
G1 X105.796 Y107.197 E1.22393
G92 E0
G1 X105.141 Y107.648 F7800.000
G1 X103.141 Y107.648 F7800.000
G1 X98.506 Y107.648 F7800.000
G1 X96.506 Y107.648 F7800.000
G1 X93.496 Y106.070 F7800.000
G1 X89.987 Y96.741 E0.45100 F378.000
G1 X89.538 Y95.324 E0.51826
G1 X89.336 Y94.557 E0.55419
G1 X88.910 Y94.559 E0.57346
G1 X88.505 Y96.083 E0.64481
G1 X88.226 Y96.966 E0.68671
G1 X84.219 Y107.423 E1.19344
G1 X81.877 Y107.423 E1.29943
G1 X81.877 Y92.577 E1.97120
G1 X83.270 Y92.577 E2.03423
G1 X83.270 Y102.555 E2.48574
G1 X83.199 Y105.674 E2.62689 F378.000
G1 X83.673 Y105.750 E2.64864
G1 X83.992 Y104.688 E2.69880
G1 X84.596 Y102.851 E2.78635
G1 X88.540 Y92.577 E3.28429
G1 X89.683 Y92.577 E3.33601
G1 X93.573 Y102.853 E3.83318
G1 X93.865 Y103.672 E3.87252
G1 X94.180 Y104.678 E3.92025
G1 X94.469 Y105.690 E3.96788
G1 X94.950 Y105.611 E3.98997
G1 X94.877 Y103.667 E4.07796
G1 X94.866 Y102.557 E4.12821
G1 X94.866 Y92.577 E4.57980
G1 X96.281 Y92.577 E4.64383
G1 X96.281 Y107.423 E5.31560
G1 X94.005 Y107.423 E5.41859
G1 X93.577 Y106.287 E5.47353
G1 X93.770 Y106.061 F7800.000
G1 X94.906 Y107.197 E5.54657 F540.000
G1 X95.454 Y107.197 E5.57147
G1 X94.208 Y105.950 E5.65162
G1 X94.100 Y106.939 F7800.000
G1 X94.359 Y107.197 E5.66821 F540.000
G1 X93.601 Y103.700 F7800.000
G1 X92.449 Y102.549 E5.74222 F540.000
G1 X92.957 Y101.960 F7800.000
G1 X91.789 Y100.792 E5.81730 F540.000
G1 X92.289 Y100.197 F7800.000
G1 X91.128 Y99.036 E5.89192 F540.000
G1 X91.622 Y98.434 F7800.000
G1 X90.468 Y97.280 E5.96609 F540.000
G1 X90.954 Y96.671 F7800.000
G1 X89.897 Y95.614 E6.03407 F540.000
G1 X90.621 Y95.789 F7800.000
G1 X89.668 Y94.836 E6.09533 F540.000
G1 X90.287 Y94.908 E6.12366
G1 X88.534 Y93.155 E6.23633
G1 X88.730 Y92.803 E6.25464
G1 X89.953 Y94.026 E6.33327
G1 X89.163 Y94.332 F7800.000
G1 X88.382 Y93.551 E6.38348 F540.000
G1 X88.230 Y93.947 E6.40275
G1 X88.726 Y94.443 E6.43461
G1 X88.611 Y94.875 E6.45496
G1 X88.078 Y94.343 E6.48919
G1 X87.926 Y94.739 E6.50847
G1 X88.496 Y95.308 E6.54507
G1 X88.381 Y95.741 E6.56542
G1 X87.774 Y95.135 E6.60440
G1 X87.622 Y95.530 E6.62367
G1 X88.262 Y96.170 E6.66479
G1 X88.131 Y96.587 E6.68464
G1 X87.470 Y95.926 E6.72709
G1 X87.318 Y96.322 E6.74637
G1 X87.997 Y97.000 E6.78997
G1 X87.845 Y97.396 E6.80925
G1 X87.167 Y96.718 E6.85286
G1 X87.015 Y97.114 E6.87214
G1 X87.693 Y97.793 E6.91577
G1 X87.541 Y98.189 E6.93504
G1 X86.863 Y97.510 E6.97868
G1 X86.711 Y97.906 E6.99796
G1 X87.390 Y98.585 E7.04161
G1 X87.238 Y98.981 E7.06089
G1 X86.559 Y98.301 E7.10455
G1 X86.407 Y98.697 E7.12383
G1 X87.086 Y99.377 E7.16750
G1 X86.934 Y99.773 E7.18678
G1 X86.255 Y99.093 E7.23047
G1 X86.103 Y99.489 E7.24974
G1 X86.783 Y100.169 E7.29344
G1 X86.631 Y100.565 E7.31272
G1 X85.951 Y99.885 E7.35644
G1 X85.799 Y100.281 E7.37571
G1 X86.479 Y100.961 E7.41943
G1 X86.327 Y101.357 E7.43871
G1 X85.647 Y100.677 E7.48245
G1 X85.495 Y101.072 E7.50172
G1 X86.176 Y101.753 E7.54547
G1 X86.024 Y102.149 E7.56475
G1 X85.343 Y101.468 E7.60851
G1 X85.191 Y101.864 E7.62779
G1 X85.872 Y102.545 E7.67156
G1 X85.720 Y102.941 E7.69084
G1 X85.039 Y102.260 E7.73463
G1 X84.887 Y102.656 E7.75390
G1 X85.568 Y103.337 E7.79770
G1 X85.417 Y103.733 E7.81698
G1 X84.743 Y103.059 E7.86031
G1 X84.607 Y103.472 E7.88003
G1 X85.265 Y104.129 E7.92232
G1 X85.113 Y104.525 E7.94160
G1 X84.472 Y103.884 E7.98285
G1 X84.336 Y104.296 E8.00258
G1 X84.961 Y104.922 E8.04278
G1 X84.810 Y105.318 E8.06206
G1 X84.201 Y104.709 E8.10121
G1 X84.074 Y105.130 E8.12121
G1 X84.658 Y105.714 E8.15873
G1 X84.506 Y106.110 E8.17801
G1 X83.948 Y105.551 E8.21389
G1 X83.822 Y105.973 E8.23389
G1 X84.354 Y106.506 E8.26814
G1 X84.203 Y106.902 E8.28742
G1 X83.221 Y105.921 E8.35049
G1 X82.975 Y105.674 F7800.000
G1 X82.103 Y104.802 E8.40652 F540.000
G1 X82.103 Y105.350 E8.43142
G1 X83.950 Y107.197 E8.55015
G1 X83.402 Y107.197 E8.57505
G1 X82.103 Y105.898 E8.65857
G1 X82.103 Y106.446 E8.68347
G1 X82.854 Y107.197 E8.73177
G1 X82.307 Y107.197 E8.75667
G1 X82.103 Y106.993 E8.76976
G1 X82.987 Y105.138 F7800.000
G1 X82.103 Y104.254 E8.82657 F540.000
G1 X82.103 Y103.707 E8.85147
G1 X82.999 Y104.603 E8.90907
G1 X83.011 Y104.067 E8.93342
G1 X82.103 Y103.159 E8.99181
G1 X82.103 Y102.611 E9.01671
G1 X83.024 Y103.531 E9.07589
G1 X83.036 Y102.996 E9.10024
G1 X82.103 Y102.063 E9.16020
G1 X82.103 Y101.515 E9.18510
G1 X83.044 Y102.456 E9.24560
G1 X83.044 Y101.909 E9.27050
G1 X82.103 Y100.967 E9.33100
G1 X82.103 Y100.420 E9.35590
G1 X83.044 Y101.361 E9.41639
G1 X83.044 Y100.813 E9.44129
G1 X82.103 Y99.872 E9.50179
G1 X82.103 Y99.324 E9.52669
G1 X83.044 Y100.265 E9.58719
G1 X83.044 Y99.717 E9.61209
G1 X82.103 Y98.776 E9.67258
G1 X82.103 Y98.228 E9.69749
G1 X83.044 Y99.169 E9.75798
G1 X83.044 Y98.622 E9.78288
G1 X82.103 Y97.680 E9.84338
G1 X82.103 Y97.133 E9.86828
G1 X83.044 Y98.074 E9.92878
G1 X83.044 Y97.526 E9.95368
G1 X82.103 Y96.585 E10.01417
G1 X82.103 Y96.037 E10.03907
G1 X83.044 Y96.978 E10.09957
G1 X83.044 Y96.430 E10.12447
G1 X82.103 Y95.489 E10.18497
G1 X82.103 Y94.941 E10.20987
G1 X83.044 Y95.882 E10.27036
G1 X83.044 Y95.335 E10.29526
G1 X82.103 Y94.394 E10.35576
G1 X82.103 Y93.846 E10.38066
G1 X83.044 Y94.787 E10.44116
G1 X83.044 Y94.239 E10.46606
G1 X82.103 Y93.298 E10.52655
G1 X82.156 Y92.803 E10.54918
G1 X83.044 Y93.691 E10.60627
G1 X83.044 Y93.143 E10.63117
G1 X82.704 Y92.803 E10.65305
G92 E0
G1 X88.907 Y93.784 F7800.000
G1 X89.109 Y93.644 F7800.000
G1 X89.110 Y93.406 F7800.000
G1 X89.072 Y93.352 F7800.000
G1 X89.278 Y92.803 F7800.000
G1 X89.619 Y93.145 E0.02197 F540.000
G1 X90.151 Y96.416 F7800.000
G1 X91.288 Y97.553 E0.09504 F540.000
G1 X90.798 Y98.158 F7800.000
G1 X91.956 Y99.316 E0.16944 F540.000
G1 X91.459 Y99.914 F7800.000
G1 X92.623 Y101.079 E0.24429 F540.000
G1 X92.119 Y101.671 F7800.000
G1 X93.291 Y102.842 E0.31960 F540.000
G1 X92.780 Y103.427 F7800.000
G1 X93.860 Y104.508 E0.38908 F540.000
G1 X93.110 Y104.305 E0.42443
G1 X94.092 Y105.287 E0.48759
G1 X93.440 Y105.183 E0.51762
G1 X94.310 Y106.053 E0.57357
G1 X94.678 Y105.872 E0.59217
G1 X96.002 Y107.197 E0.67732
G1 X96.055 Y106.702 E0.69994
G1 X95.147 Y105.795 E0.75828
G1 X95.166 Y105.266 E0.78234
G1 X96.055 Y106.154 E0.83946
G1 X96.055 Y105.607 E0.86436
G1 X95.145 Y104.696 E0.92287
G1 X95.123 Y104.127 E0.94876
G1 X96.055 Y105.059 E1.00865
G1 X96.055 Y104.511 E1.03355
G1 X95.102 Y103.558 E1.09479
G1 X95.097 Y103.005 E1.11993
G1 X96.055 Y103.963 E1.18151
G1 X96.055 Y103.415 E1.20641
G1 X95.092 Y102.452 E1.26832
G1 X95.092 Y101.904 E1.29322
G1 X96.055 Y102.867 E1.35513
G1 X96.055 Y102.320 E1.38004
G1 X95.092 Y101.356 E1.44195
G1 X95.092 Y100.809 E1.46685
G1 X96.055 Y101.772 E1.52876
G1 X96.055 Y101.224 E1.55366
G1 X95.092 Y100.261 E1.61557
G1 X95.092 Y99.713 E1.64047
G1 X96.055 Y100.676 E1.70238
G1 X96.055 Y100.128 E1.72728
G1 X95.092 Y99.165 E1.78919
G1 X95.092 Y98.617 E1.81409
G1 X96.055 Y99.580 E1.87600
G1 X96.055 Y99.033 E1.90090
G1 X95.092 Y98.070 E1.96281
G1 X95.092 Y97.522 E1.98771
G1 X96.055 Y98.485 E2.04962
G1 X96.055 Y97.937 E2.07452
G1 X95.092 Y96.974 E2.13643
G1 X95.092 Y96.426 E2.16134
G1 X96.055 Y97.389 E2.22325
G1 X96.055 Y96.841 E2.24815
G1 X95.092 Y95.878 E2.31006
G1 X95.092 Y95.330 E2.33496
G1 X96.055 Y96.294 E2.39687
G1 X96.055 Y95.746 E2.42177
G1 X95.092 Y94.783 E2.48368
G1 X95.092 Y94.235 E2.50858
G1 X96.055 Y95.198 E2.57049
G1 X96.055 Y94.650 E2.59539
G1 X95.092 Y93.687 E2.65730
G1 X95.092 Y93.139 E2.68220
G1 X96.055 Y94.102 E2.74411
G1 X96.055 Y93.554 E2.76901
G1 X95.304 Y92.803 E2.81732
G1 X95.851 Y92.803 E2.84222
G1 X96.055 Y93.007 E2.85531
M106 S255
G92 E0
G1 Z0.600 F7800.000
G1 X106.177 Y92.352 F7800.000
G1 X106.177 Y98.715 E1.90665 F600.000
G1 X107.027 Y103.021 E3.22178
G92 E0
G1 X106.212 Y106.648 F7800.000
G1 X106.212 Y106.648 F7800.000
G1 X112.007 Y98.681 F7800.000
G1 X113.310 Y99.535 E0.46680 F600.000
G1 X113.479 Y99.623 E0.52396
G1 X113.785 Y99.745 E0.62259
G1 X114.528 Y99.974 E0.85545
G1 X114.757 Y100.075 E0.93039
G1 X115.237 Y100.352 E1.09669
G1 X115.460 Y100.504 E1.17752
G1 X116.000 Y101.058 E1.40912
G1 X116.164 Y101.314 E1.50049
G1 X116.374 Y101.708 E1.63418
G1 X116.492 Y102.016 E1.73300
G1 X116.608 Y102.431 E1.86221
G1 X116.696 Y103.269 E2.11451
G1 X116.574 Y104.275 E2.41825
G1 X116.241 Y105.060 E2.67379
G1 X116.174 Y105.164 E2.71089
G1 X115.970 Y105.426 E2.81033
G1 X115.698 Y105.723 E2.93109
G1 X115.201 Y106.096 E3.11712
G1 X114.890 Y106.276 E3.22485
G1 X114.281 Y106.516 E3.42118
G1 X113.776 Y106.657 E3.57800
G1 X113.402 Y106.721 E3.69191
G1 X112.136 Y106.818 E4.07229
G1 X107.212 Y106.818 E5.54775
G1 X106.250 Y106.539 E5.84800
G1 X106.177 Y105.989 E6.01437
G1 X106.177 Y100.352 E7.70348
G1 X106.338 Y99.533 E7.95348
G1 X111.986 Y99.533 E9.64578
G1 X112.294 Y99.506 E9.73844
G1 X112.940 Y99.293 E9.94243
G1 X113.236 Y98.448 E10.21057
G1 X117.146 Y92.352 E12.38069
G92 E0
G1 X107.212 Y91.352 F7800.000
G1 X105.141 Y91.352 F7800.000
G1 X100.824 Y94.670 F7800.000
G1 X98.506 Y92.352 F7800.000
G1 X96.506 Y92.352 F7800.000
G1 X95.573 Y92.352 F7800.000
G1 X95.573 Y102.553 E3.05684 F600.000
