; generated by Slic3r 1.2.9 on 2016-03-11 at 01:27:35

; external perimeters extrusion width = 1.54mm
; perimeters extrusion width = 2.62mm
; infill extrusion width = 6.27mm
; solid infill extrusion width = 2.62mm
; top infill extrusion width = 2.62mm

M107
M104 S30 ; set temperature
G28 ; home all axes
G1 Z5 F5000 ; lift nozzle
M302
M92 E10000
M500
M501
G1 E100
M109 S30 ; wait for temperature to be reached
G21 ; set units to millimeters
G90 ; use absolute coordinates
M82 ; use absolute distances for extrusion
G92 E0
G1 Z0.300 F7800.000
G1 X117.781 Y100.960 F7800.000
G1 X117.781 Y107.519 E0.29679 F378.000
G1 X116.170 Y107.519 E0.36970
G1 X116.170 Y98.326 E0.78566
G1 X116.039 Y96.965 E0.84752
G1 X115.636 Y95.815 E0.90269
G1 X114.958 Y94.896 E0.95437
G1 X114.037 Y94.234 E1.00571
G1 X112.910 Y93.840 E1.05971
G1 X111.586 Y93.711 E1.11990
G1 X110.301 Y93.836 E1.17830
G1 X109.219 Y94.218 E1.23026
G1 X108.347 Y94.861 E1.27927
G1 X107.716 Y95.753 E1.32870
G1 X107.342 Y96.867 E1.38189
G1 X107.220 Y98.186 E1.44181
G1 X107.220 Y107.519 E1.86414
G1 X105.599 Y107.519 E1.93749
G1 X105.599 Y98.030 E2.36684
G1 X105.683 Y96.914 E2.41751
G1 X105.930 Y95.920 E2.46385
G1 X106.340 Y95.037 E2.50790
G1 X106.897 Y94.275 E2.55062
G1 X107.588 Y93.644 E2.59297
G1 X108.417 Y93.142 E2.63679
G1 X109.368 Y92.776 E2.68293
G1 X110.429 Y92.555 E2.73193
G1 X111.598 Y92.481 E2.78495
G1 X112.722 Y92.553 E2.83589
G1 X113.912 Y92.788 E2.89082 F378.000
G1 X114.892 Y93.168 E2.93836
G1 X115.742 Y93.690 E2.98352
G1 X116.452 Y94.345 E3.02719
G1 X117.023 Y95.134 E3.07127
G1 X117.442 Y96.047 E3.11675
G1 X117.695 Y97.074 E3.16459
G1 X117.781 Y98.225 E3.21684
G1 X117.781 Y100.729 E3.33013
G1 X115.957 Y95.951 F7800.000
G1 X117.493 Y97.487 E3.42845 F540.000
G1 X117.537 Y98.077 E3.45519
G1 X116.250 Y96.790 E3.53754
G1 X116.316 Y97.401 E3.56536
G1 X117.555 Y98.640 E3.64465
G1 X117.555 Y99.185 E3.66933
G1 X116.374 Y98.004 E3.74491
G1 X116.396 Y98.571 E3.77059
G1 X117.555 Y99.731 E3.84477
G1 X117.555 Y100.276 E3.86945
G1 X116.396 Y99.117 E3.94364
G1 X116.396 Y99.662 E3.96832
G1 X117.555 Y100.821 E4.04251
G1 X117.555 Y101.367 E4.06719
G1 X116.396 Y100.208 E4.14137
G1 X116.396 Y100.753 E4.16606
G1 X117.555 Y101.912 E4.24024
G1 X117.555 Y102.458 E4.26492
G1 X116.396 Y101.298 E4.33911
G1 X116.396 Y101.844 E4.36379
G1 X117.555 Y103.003 E4.43798
G1 X117.555 Y103.548 E4.46266
G1 X116.396 Y102.389 E4.53684
G1 X116.396 Y102.935 E4.56152
G1 X117.555 Y104.094 E4.63571
G1 X117.555 Y104.639 E4.66039
G1 X116.396 Y103.480 E4.73458
G1 X116.396 Y104.025 E4.75926
G1 X117.555 Y105.185 E4.83344
G1 X117.555 Y105.730 E4.85813
G1 X116.396 Y104.571 E4.93231
G1 X116.396 Y105.116 E4.95699
G1 X117.555 Y106.275 E5.03118
G1 X117.555 Y106.821 E5.05586
G1 X116.396 Y105.662 E5.13005
G1 X116.396 Y106.207 E5.15473
G1 X117.482 Y107.293 E5.22423
G1 X116.936 Y107.293 E5.24891
G1 X116.396 Y106.752 E5.28350
G92 E0
G1 X106.445 Y106.744 F7800.000
G1 X106.445 Y106.744 F7800.000
G1 X106.409 Y106.708 F7800.000
G1 X106.374 Y106.744 F7800.000
G1 X105.825 Y107.089 F7800.000
G1 X106.028 Y107.293 E0.01303 F540.000
G1 X106.574 Y107.293 E0.03771
G1 X105.825 Y106.544 E0.08564
G1 X105.825 Y105.999 E0.11032
G1 X106.994 Y107.168 E0.18514
G1 X106.994 Y106.622 E0.20982
G1 X105.825 Y105.453 E0.28464
G1 X105.825 Y104.908 E0.30933
G1 X106.994 Y106.077 E0.38414
G1 X106.994 Y105.532 E0.40883
G1 X105.825 Y104.362 E0.48365
G1 X105.825 Y103.817 E0.50833
G1 X106.994 Y104.986 E0.58315
G1 X106.994 Y104.441 E0.60783
G1 X105.825 Y103.272 E0.68265
G1 X105.825 Y102.726 E0.70733
G1 X106.994 Y103.895 E0.78215
G1 X106.994 Y103.350 E0.80683
G1 X105.825 Y102.181 E0.88165
G1 X105.825 Y101.635 E0.90633
G1 X106.994 Y102.805 E0.98115
G1 X106.994 Y102.259 E1.00583
G1 X105.825 Y101.090 E1.08065
G1 X105.825 Y100.545 E1.10533
G1 X106.994 Y101.714 E1.18015
G1 X106.994 Y101.168 E1.20483
G1 X105.825 Y99.999 E1.27965
G1 X105.825 Y99.454 E1.30433
G1 X106.994 Y100.623 E1.37915
G1 X106.994 Y100.078 E1.40383
G1 X105.825 Y98.908 E1.47865
G1 X105.825 Y98.363 E1.50333
G1 X106.994 Y99.532 E1.57815
G1 X106.994 Y98.987 E1.60283
G1 X105.835 Y97.828 E1.67702
G1 X105.873 Y97.320 E1.70004
G1 X106.994 Y98.441 E1.77180
G1 X107.024 Y97.926 E1.79515
G1 X105.920 Y96.822 E1.86579
G1 X106.029 Y96.386 E1.88616
G1 X107.070 Y97.427 E1.95281
G1 X107.116 Y96.928 E1.97550
G1 X106.138 Y95.949 E2.03814
G1 X106.309 Y95.575 E2.05675
G1 X107.246 Y96.511 E2.11667
G1 X107.383 Y96.103 E2.13617
G1 X106.482 Y95.203 E2.19379
G1 X106.699 Y94.874 E2.21161
G1 X107.520 Y95.695 E2.26414
G1 X107.746 Y95.375 E2.28185
G1 X106.929 Y94.559 E2.33410
G1 X107.195 Y94.279 E2.35156
G1 X107.972 Y95.056 E2.40129
G1 X108.198 Y94.737 E2.41900
G1 X107.472 Y94.011 E2.46548
G1 X107.769 Y93.763 E2.48301
G1 X108.509 Y94.502 E2.53032
G1 X108.822 Y94.270 E2.54797
G1 X108.109 Y93.557 E2.59362
G1 X108.448 Y93.351 E2.61159
G1 X109.136 Y94.038 E2.65558
G1 X109.534 Y93.891 E2.67479
G1 X108.839 Y93.196 E2.71927
G1 X109.233 Y93.045 E2.73837
G1 X109.937 Y93.749 E2.78344
G1 X110.346 Y93.612 E2.80294
G1 X109.664 Y92.930 E2.84661
G1 X110.115 Y92.836 E2.86747
G1 X110.843 Y93.564 E2.91405
G1 X111.340 Y93.515 E2.93664
G1 X110.591 Y92.767 E2.98457
G1 X111.104 Y92.734 E3.00783
G1 X111.873 Y93.504 E3.05708
G1 X112.478 Y93.563 E3.08456
G1 X111.630 Y92.715 E3.13879
G1 X112.213 Y92.752 E3.16519
G1 X113.092 Y93.631 E3.22143
G1 X113.929 Y93.923 F7800.000
G1 X112.828 Y92.822 E3.29193 F540.000
G1 X113.508 Y92.956 E3.32330
G1 X117.380 Y96.828 E3.57109
G1 X117.151 Y96.054 E3.60760
G1 X114.326 Y93.229 E3.78843
G1 X115.771 Y94.129 F7800.000
G1 X116.376 Y94.734 E3.82715 F540.000
G92 E0
G1 X108.317 Y92.939 F7800.000
G1 X101.349 Y94.758 F7800.000
G1 X98.848 Y107.744 F7800.000
G1 X92.806 Y108.265 F7800.000
G1 X89.491 Y97.408 F7800.000
G1 X88.781 Y97.136 F7800.000
G1 X85.057 Y106.226 F7800.000
G1 X84.561 Y107.519 E0.06264 F378.000
G1 X82.219 Y107.519 E0.16862
G1 X82.219 Y92.673 E0.84039
G1 X83.612 Y92.673 E0.90342
G1 X83.612 Y102.651 E1.35494
G1 X83.541 Y105.770 E1.49609 F378.000
G1 X84.015 Y105.846 E1.51784
G1 X84.334 Y104.784 E1.56800
G1 X84.938 Y102.946 E1.65554
G1 X88.882 Y92.673 E2.15348
G1 X90.025 Y92.673 E2.20520
G1 X93.915 Y102.949 E2.70237
G1 X94.207 Y103.768 E2.74172
G1 X94.522 Y104.774 E2.78945
G1 X94.811 Y105.786 E2.83707
G1 X95.292 Y105.707 E2.85916
G1 X95.219 Y103.763 E2.94716
G1 X95.208 Y102.653 E2.99741
G1 X95.208 Y92.673 E3.44899
G1 X96.623 Y92.673 E3.51302
G1 X96.623 Y107.519 E4.18479
G1 X94.347 Y107.519 E4.28779
G1 X90.329 Y96.837 E4.80418
G1 X89.880 Y95.420 E4.87144
G1 X89.678 Y94.653 E4.90736
G1 X89.252 Y94.655 E4.92664
G1 X88.847 Y96.179 E4.99798
G1 X88.568 Y97.062 E5.03989
G1 X85.139 Y106.011 E5.47353
G1 X83.563 Y106.017 F7800.000
G1 X84.545 Y106.998 E5.53660 F540.000
G1 X84.696 Y106.602 E5.55588
G1 X84.163 Y106.069 E5.59013
G1 X84.290 Y105.647 E5.61013
G1 X84.848 Y106.206 E5.64602
G1 X85.000 Y105.810 E5.66530
G1 X84.416 Y105.226 E5.70281
G1 X84.543 Y104.805 E5.72281
G1 X85.152 Y105.414 E5.76196
G1 X85.303 Y105.018 E5.78124
G1 X84.678 Y104.392 E5.82145
G1 X84.813 Y103.980 E5.84117
G1 X85.455 Y104.621 E5.88242
G1 X85.607 Y104.225 E5.90170
G1 X84.949 Y103.568 E5.94399
G1 X85.085 Y103.155 E5.96371
G1 X85.759 Y103.829 E6.00705
G1 X85.910 Y103.433 E6.02632
G1 X85.229 Y102.752 E6.07012
G1 X85.381 Y102.356 E6.08940
G1 X86.062 Y103.037 E6.13318
G1 X86.214 Y102.641 E6.15246
G1 X85.533 Y101.960 E6.19623
G1 X85.685 Y101.564 E6.21551
G1 X86.366 Y102.245 E6.25927
G1 X86.518 Y101.849 E6.27855
G1 X85.837 Y101.168 E6.32230
G1 X85.989 Y100.773 E6.34157
G1 X86.669 Y101.453 E6.38531
G1 X86.821 Y101.057 E6.40459
G1 X86.141 Y100.377 E6.44831
G1 X86.293 Y99.981 E6.46759
G1 X86.973 Y100.661 E6.51130
G1 X87.125 Y100.265 E6.53058
G1 X86.445 Y99.585 E6.57428
G1 X86.597 Y99.189 E6.59355
G1 X87.276 Y99.869 E6.63724
G1 X87.428 Y99.473 E6.65652
G1 X86.749 Y98.793 E6.70020
G1 X86.901 Y98.397 E6.71947
G1 X87.580 Y99.077 E6.76313
G1 X87.732 Y98.681 E6.78241
G1 X87.053 Y98.002 E6.82606
G1 X87.205 Y97.606 E6.84534
G1 X87.883 Y98.285 E6.88898
G1 X88.035 Y97.889 E6.90826
G1 X87.357 Y97.210 E6.95188
G1 X87.508 Y96.814 E6.97116
G1 X88.187 Y97.492 E7.01477
G1 X88.339 Y97.096 E7.03405
G1 X87.660 Y96.418 E7.07766
G1 X87.812 Y96.022 E7.09693
G1 X88.473 Y96.683 E7.13938
G1 X88.604 Y96.266 E7.15923
G1 X87.964 Y95.626 E7.20035
G1 X88.116 Y95.231 E7.21962
G1 X88.723 Y95.837 E7.25860
G1 X88.838 Y95.404 E7.27895
G1 X88.268 Y94.835 E7.31555
G1 X88.420 Y94.439 E7.33483
G1 X88.953 Y94.971 E7.36906
G1 X89.068 Y94.539 E7.38941
G1 X88.572 Y94.043 E7.42127
G1 X88.724 Y93.647 E7.44054
G1 X89.505 Y94.428 E7.49075
G1 X90.295 Y94.122 F7800.000
G1 X89.072 Y92.899 E7.56938 F540.000
G1 X88.876 Y93.251 E7.58770
G1 X90.629 Y95.004 E7.70036
G1 X90.009 Y94.932 E7.72869
G1 X90.962 Y95.885 E7.78995
G1 X90.239 Y95.710 F7800.000
G1 X91.296 Y96.767 E7.85793 F540.000
G1 X90.810 Y97.376 F7800.000
G1 X91.964 Y98.530 E7.93210 F540.000
G1 X91.470 Y99.132 F7800.000
G1 X92.631 Y100.293 E8.00672 F540.000
G1 X92.131 Y100.888 F7800.000
G1 X93.299 Y102.056 E8.08180 F540.000
G1 X92.791 Y102.645 F7800.000
G1 X93.943 Y103.796 E8.15581 F540.000
G1 X93.121 Y103.523 F7800.000
G1 X94.202 Y104.604 E8.22529 F540.000
G1 X93.452 Y104.401 E8.26064
G1 X94.434 Y105.383 E8.32380
G1 X93.782 Y105.279 E8.35383
G1 X94.652 Y106.149 E8.40979
G1 X95.019 Y105.968 E8.42838
G1 X96.344 Y107.293 E8.51353
G1 X96.397 Y106.798 E8.53616
G1 X95.489 Y105.891 E8.59450
G1 X95.508 Y105.362 E8.61855
G1 X96.397 Y106.250 E8.67567
G1 X96.397 Y105.702 E8.70057
G1 X95.487 Y104.792 E8.75908
G1 X95.465 Y104.223 E8.78498
G1 X96.397 Y105.155 E8.84486
G1 X96.397 Y104.607 E8.86976
G1 X95.444 Y103.654 E8.93100
G1 X95.439 Y103.101 E8.95615
G1 X96.397 Y104.059 E9.01772
G1 X96.397 Y103.511 E9.04263
G1 X95.434 Y102.548 E9.10454
G1 X95.434 Y102.000 E9.12944
G1 X96.397 Y102.963 E9.19135
G1 X96.397 Y102.416 E9.21625
G1 X95.434 Y101.452 E9.27816
G1 X95.434 Y100.905 E9.30306
G1 X96.397 Y101.868 E9.36497
G1 X96.397 Y101.320 E9.38987
G1 X95.434 Y100.357 E9.45178
G1 X95.434 Y99.809 E9.47668
G1 X96.397 Y100.772 E9.53859
G1 X96.397 Y100.224 E9.56349
G1 X95.434 Y99.261 E9.62540
G1 X95.434 Y98.713 E9.65030
G1 X96.397 Y99.676 E9.71221
G1 X96.397 Y99.129 E9.73711
G1 X95.434 Y98.166 E9.79902
G1 X95.434 Y97.618 E9.82393
G1 X96.397 Y98.581 E9.88584
G1 X96.397 Y98.033 E9.91074
G1 X95.434 Y97.070 E9.97265
G1 X95.434 Y96.522 E9.99755
G1 X96.397 Y97.485 E10.05946
G1 X96.397 Y96.937 E10.08436
G1 X95.434 Y95.974 E10.14627
G1 X95.434 Y95.426 E10.17117
G1 X96.397 Y96.389 E10.23308
G1 X96.397 Y95.842 E10.25798
G1 X95.434 Y94.879 E10.31989
G1 X95.434 Y94.331 E10.34479
G1 X96.397 Y95.294 E10.40670
G1 X96.397 Y94.746 E10.43160
G1 X95.434 Y93.783 E10.49351
G1 X95.434 Y93.235 E10.51841
G1 X96.397 Y94.198 E10.58032
G1 X96.397 Y93.650 E10.60523
G1 X95.646 Y92.899 E10.65353
G1 X96.193 Y92.899 E10.67843
G1 X96.397 Y93.103 E10.69152
G92 E0
G1 X89.652 Y93.878 F7800.000
G1 X89.451 Y93.740 F7800.000
G1 X89.452 Y93.502 F7800.000
G1 X89.489 Y93.448 F7800.000
G1 X89.961 Y93.241 F7800.000
G1 X89.620 Y92.899 E0.02197 F540.000
G1 X90.493 Y96.512 F7800.000
G1 X91.630 Y97.649 E0.09504 F540.000
G1 X91.140 Y98.254 F7800.000
G1 X92.297 Y99.412 E0.16944 F540.000
G1 X91.801 Y100.010 F7800.000
G1 X92.965 Y101.175 E0.24429 F540.000
G1 X92.461 Y101.767 F7800.000
G1 X93.632 Y102.938 E0.31960 F540.000
G1 X94.550 Y106.046 F7800.000
G1 X95.796 Y107.293 E0.39974 F540.000
G1 X95.248 Y107.293 E0.42464
G1 X94.112 Y106.157 E0.49768
G1 X94.442 Y107.035 F7800.000
G1 X94.701 Y107.293 E0.51428 F540.000
G92 E0
G1 X84.068 Y106.640 F7800.000
G1 X84.068 Y106.640 F7800.000
G1 X83.316 Y105.770 F7800.000
G1 X82.445 Y104.898 E0.05603 F540.000
G1 X82.445 Y105.446 E0.08093
G1 X84.292 Y107.293 E0.19966
G1 X83.744 Y107.293 E0.22456
G1 X82.445 Y105.994 E0.30808
G1 X82.445 Y106.542 E0.33298
G1 X83.196 Y107.293 E0.38128
G1 X82.648 Y107.293 E0.40618
G1 X82.445 Y107.089 E0.41927
G1 X83.329 Y105.234 F7800.000
G1 X82.445 Y104.350 E0.47608 F540.000
G1 X82.445 Y103.803 E0.50098
G1 X83.341 Y104.699 E0.55858
G1 X83.353 Y104.163 E0.58293
G1 X82.445 Y103.255 E0.64132
G1 X82.445 Y102.707 E0.66622
G1 X83.365 Y103.627 E0.72540
G1 X83.378 Y103.092 E0.74975
G1 X82.445 Y102.159 E0.80971
G1 X82.445 Y101.611 E0.83461
G1 X83.386 Y102.552 E0.89511
G1 X83.386 Y102.004 E0.92001
G1 X82.445 Y101.063 E0.98050
G1 X82.445 Y100.516 E1.00541
G1 X83.386 Y101.457 E1.06590
G1 X83.386 Y100.909 E1.09080
G1 X82.445 Y99.968 E1.15130
G1 X82.445 Y99.420 E1.17620
G1 X83.386 Y100.361 E1.23670
G1 X83.386 Y99.813 E1.26160
G1 X82.445 Y98.872 E1.32209
G1 X82.445 Y98.324 E1.34699
G1 X83.386 Y99.265 E1.40749
G1 X83.386 Y98.718 E1.43239
G1 X82.445 Y97.776 E1.49289
G1 X82.445 Y97.229 E1.51779
G1 X83.386 Y98.170 E1.57828
G1 X83.386 Y97.622 E1.60318
G1 X82.445 Y96.681 E1.66368
G1 X82.445 Y96.133 E1.68858
G1 X83.386 Y97.074 E1.74908
G1 X83.386 Y96.526 E1.77398
G1 X82.445 Y95.585 E1.83447
G1 X82.445 Y95.037 E1.85937
G1 X83.386 Y95.978 E1.91987
G1 X83.386 Y95.431 E1.94477
G1 X82.445 Y94.490 E2.00527
G1 X82.445 Y93.942 E2.03017
G1 X83.386 Y94.883 E2.09066
G1 X83.386 Y94.335 E2.11557
G1 X82.445 Y93.394 E2.17606
G1 X82.498 Y92.899 E2.19869
G1 X83.386 Y93.787 E2.25578
G1 X83.386 Y93.239 E2.28068
G1 X83.046 Y92.899 E2.30256
M106 S255
G92 E0
G1 Z0.600 F7800.000
G1 X116.975 Y107.744 F7800.000
G1 X116.974 Y98.255 E2.84325 F600.000
G1 X116.884 Y97.203 E3.15974
G1 X116.780 Y96.677 E3.32027
G1 X116.672 Y96.316 E3.43318
G1 X116.352 Y95.526 E3.68880
G1 X115.877 Y94.854 E3.93515
G1 X115.557 Y94.497 E4.07883
G1 X115.346 Y94.296 E4.16632
G1 X114.586 Y93.785 E4.44068
G1 X114.221 Y93.607 E4.56243
G1 X113.723 Y93.424 E4.72146
G1 X113.140 Y93.262 E4.90261
G1 X112.729 Y93.187 E5.02799
G1 X111.598 Y93.097 E5.36785
G1 X110.513 Y93.182 E5.69390
G1 X110.070 Y93.262 E5.82879
G1 X109.554 Y93.406 E5.98947
G1 X109.035 Y93.597 E6.15491
G1 X108.715 Y93.750 E6.26142
G1 X107.955 Y94.270 E6.53724
G1 X107.741 Y94.476 E6.62623
G1 X107.467 Y94.786 E6.75029
G1 X107.011 Y95.433 E6.98748
G1 X106.705 Y96.193 E7.23304
G1 X106.590 Y96.587 E7.35604
G1 X106.498 Y97.045 E7.49584
G1 X106.412 Y98.101 E7.81325
G1 X106.409 Y107.744 E10.70286
G92 E0
G1 X105.374 Y98.022 F7800.000
G1 X105.374 Y98.022 F7800.000
G1 X101.117 Y97.703 F7800.000
G1 X101.160 Y96.556 F7800.000
G1 X101.218 Y95.823 F7800.000
G1 X101.319 Y94.998 F7800.000
G1 X101.319 Y94.998 F7800.000
G1 X101.349 Y94.758 F7800.000
G1 X101.349 Y94.757 F7800.000
G1 X99.040 Y92.448 F7800.000
G1 X96.848 Y92.448 F7800.000
G1 X95.915 Y92.448 F7800.000
G1 X95.915 Y102.649 E3.05684 F600.000
G1 X95.954 Y105.483 E3.90606
G1 X95.655 Y106.551 E4.23827
G1 X95.243 Y106.623 E4.36358
G1 X94.957 Y106.638 E4.44947
G1 X94.245 Y105.739 E4.79314
G1 X93.642 Y103.957 E5.35679
G1 X93.349 Y103.156 E5.61219
G1 X90.892 Y96.643 E7.69830
G1 X90.228 Y94.688 E8.31687
G1 X89.499 Y93.773 E8.66734
G1 X89.451 Y93.740 E8.68488
G1 X88.687 Y94.683 E9.04855
G1 X87.964 Y96.851 E9.73345
G1 X85.543 Y103.162 E11.75884
G1 X84.611 Y105.819 E12.60259
G1 X83.974 Y106.665 E12.91989
G1 X83.597 Y106.655 E13.03285
G1 X83.162 Y106.576 E13.16539
G1 X82.882 Y105.559 E13.48158
G1 X82.915 Y102.643 E14.35514
G1 X82.915 Y92.448 E17.41018
G92 E0
G1 Z0.900 F7800.000
G1 X116.975 Y107.744 F7800.000
G1 X116.974 Y98.255 E2.84325 F600.000
G1 X116.884 Y97.203 E3.15974
G1 X116.780 Y96.677 E3.32027
G1 X116.672 Y96.316 E3.43318
G1 X116.352 Y95.526 E3.68880
G1 X115.877 Y94.854 E3.93515
G1 X115.557 Y94.497 E4.07883
G1 X115.346 Y94.296 E4.16632
G1 X114.586 Y93.785 E4.44068
G1 X114.221 Y93.607 E4.56243
G1 X113.723 Y93.424 E4.72146
G1 X113.140 Y93.262 E4.90261
G1 X112.729 Y93.187 E5.02799
G1 X111.598 Y93.097 E5.36785
G1 X110.513 Y93.182 E5.69390
G1 X110.070 Y93.262 E5.82879
G1 X109.554 Y93.406 E5.98947
G1 X109.035 Y93.597 E6.15491
G1 X108.715 Y93.750 E6.26142
G1 X107.955 Y94.270 E6.53724
G1 X107.741 Y94.476 E6.62623
G1 X107.467 Y94.786 E6.75029
G1 X107.011 Y95.433 E6.98748
G1 X106.705 Y96.193 E7.23304
G1 X106.590 Y96.587 E7.35604
G1 X106.498 Y97.045 E7.49584
G1 X106.412 Y98.101 E7.81325
G1 X106.409 Y107.744 E10.70286
G92 E0
G1 X105.374 Y98.022 F7800.000
G1 X105.374 Y98.022 F7800.000
G1 X101.117 Y97.703 F7800.000
