; generated by Slic3r 1.2.9 on 2016-03-11 at 01:27:36

; external perimeters extrusion width = 1.54mm
; perimeters extrusion width = 2.62mm
; infill extrusion width = 6.27mm
; solid infill extrusion width = 2.62mm
; top infill extrusion width = 2.62mm

M107
M104 S30 ; set temperature
G28 ; home all axes
G1 Z5 F5000 ; lift nozzle
M302
M92 E10000
M500
M501
G1 E100
M109 S30 ; wait for temperature to be reached
G21 ; set units to millimeters
G90 ; use absolute coordinates
M82 ; use absolute distances for extrusion
G92 E0
G1 Z0.300 F7800.000
G1 X115.541 Y105.862 F7800.000
G1 X112.011 Y96.800 E0.44007 F378.000
G1 X111.089 Y94.056 E0.57108
G1 X110.694 Y94.056 E0.58897
G1 X109.771 Y96.800 E0.71998
G1 X105.611 Y107.423 E1.23621
G1 X103.920 Y107.423 E1.31272
G1 X109.959 Y92.577 E2.03794
G1 X111.803 Y92.577 E2.12140
G1 X117.501 Y106.586 E2.80569
G1 X117.841 Y107.423 E2.84660 F378.000
G1 X116.149 Y107.423 E2.92315
G1 X115.625 Y106.078 E2.98848
G1 X115.852 Y105.940 F7800.000
G1 X117.109 Y107.197 E3.06932 F540.000
G1 X117.334 Y106.874 E3.08721
G1 X115.502 Y105.042 E3.20498
G1 X115.153 Y104.145 F7800.000
G1 X116.959 Y105.951 E3.32108 F540.000
G1 X116.583 Y105.027 F7800.000
G1 X114.803 Y103.247 E3.43551 F540.000
G1 X114.453 Y102.350 F7800.000
G1 X116.207 Y104.104 E3.54828 F540.000
G1 X115.832 Y103.180 F7800.000
G1 X114.104 Y101.452 E3.65938 F540.000
G1 X113.754 Y100.555 F7800.000
G1 X115.456 Y102.257 E3.76881 F540.000
G1 X115.081 Y101.334 F7800.000
G1 X113.404 Y99.657 E3.87657 F540.000
G1 X114.330 Y99.487 F7800.000
G1 X112.705 Y97.862 E3.98100 F540.000
G1 X113.579 Y97.640 F7800.000
G1 X112.050 Y96.112 E4.07925 F540.000
G1 X112.827 Y95.793 F7800.000
G1 X111.496 Y94.461 E4.16486 F540.000
G1 X112.076 Y93.946 F7800.000
G1 X110.933 Y92.803 E4.23837 F540.000
G1 X111.481 Y92.803 E4.26327
G1 X111.701 Y93.023 E4.27741
G1 X110.864 Y93.830 F7800.000
G1 X110.013 Y92.978 E4.33214 F540.000
G1 X110.385 Y92.803 E4.35085
G1 X112.452 Y94.870 E4.48371
G1 X111.773 Y95.287 F7800.000
G1 X113.203 Y96.717 E4.57565 F540.000
G1 X112.356 Y96.965 F7800.000
G1 X113.954 Y98.563 E4.67841 F540.000
G1 X113.055 Y98.760 F7800.000
G1 X114.705 Y100.410 E4.78450 F540.000
G1 X116.201 Y106.837 F7800.000
G1 X116.561 Y107.197 E4.80764 F540.000
G92 E0
G1 X105.349 Y105.966 F7800.000
G1 X105.349 Y105.966 F7800.000
G1 X105.079 Y106.643 F7800.000
G1 X105.072 Y106.648 F7800.000
G1 X104.509 Y107.197 F7800.000
G1 X104.310 Y106.998 E0.01279 F540.000
G1 X104.468 Y106.609 E0.03190
G1 X105.057 Y107.197 E0.06972
G1 X105.517 Y107.110 E0.09102
G1 X104.627 Y106.219 E0.14826
G1 X104.785 Y105.830 E0.16737
G1 X105.671 Y106.716 E0.22433
G1 X105.825 Y106.322 E0.24355
G1 X104.944 Y105.440 E0.30023
G1 X105.102 Y105.051 E0.31934
G1 X105.980 Y105.929 E0.37576
G1 X106.134 Y105.535 E0.39498
G1 X105.260 Y104.662 E0.45112
G1 X105.419 Y104.272 E0.47023
G1 X106.288 Y105.141 E0.52610
G1 X106.442 Y104.747 E0.54532
G1 X105.577 Y103.883 E0.60091
G1 X105.736 Y103.493 E0.62002
G1 X106.596 Y104.354 E0.67535
G1 X106.750 Y103.960 E0.69457
G1 X105.894 Y103.104 E0.74962
G1 X106.052 Y102.714 E0.76873
G1 X106.905 Y103.566 E0.82350
G1 X107.059 Y103.173 E0.84272
G1 X106.211 Y102.325 E0.89723
G1 X106.369 Y101.935 E0.91634
G1 X107.213 Y102.779 E0.97057
G1 X107.367 Y102.385 E0.98979
G1 X106.528 Y101.546 E1.04375
G1 X106.686 Y101.157 E1.06286
G1 X107.521 Y101.992 E1.11655
G1 X107.675 Y101.598 E1.13576
G1 X106.844 Y100.767 E1.18918
G1 X107.003 Y100.378 E1.20829
G1 X107.830 Y101.204 E1.26143
G1 X107.984 Y100.811 E1.28065
G1 X107.161 Y99.988 E1.33351
G1 X107.320 Y99.599 E1.35263
G1 X108.138 Y100.417 E1.40522
G1 X108.292 Y100.023 E1.42444
G1 X107.478 Y99.209 E1.47676
G1 X107.637 Y98.820 E1.49587
G1 X108.446 Y99.630 E1.54792
G1 X108.600 Y99.236 E1.56714
G1 X107.795 Y98.431 E1.61892
G1 X107.953 Y98.041 E1.63803
G1 X108.755 Y98.842 E1.68953
G1 X108.909 Y98.449 E1.70875
G1 X108.112 Y97.652 E1.75998
G1 X108.270 Y97.262 E1.77909
G1 X109.063 Y98.055 E1.83005
G1 X109.217 Y97.661 E1.84927
G1 X108.429 Y96.873 E1.89995
G1 X108.587 Y96.483 E1.91906
G1 X109.371 Y97.268 E1.96947
G1 X109.525 Y96.874 E1.98869
G1 X108.745 Y96.094 E2.03883
G1 X108.904 Y95.704 E2.05794
G1 X109.667 Y96.468 E2.10702
G1 X109.805 Y96.058 E2.12668
G1 X109.062 Y95.315 E2.17444
G1 X109.221 Y94.926 E2.19355
G1 X109.943 Y95.648 E2.23999
G1 X110.081 Y95.238 E2.25965
G1 X109.379 Y94.536 E2.30476
G1 X109.537 Y94.147 E2.32387
G1 X110.219 Y94.828 E2.36767
G1 X110.357 Y94.418 E2.38733
G1 X109.696 Y93.757 E2.42981
G1 X109.854 Y93.368 E2.44892
G1 X110.494 Y94.008 E2.49007
G92 E0
G1 X103.585 Y107.648 F7800.000
G1 X98.678 Y92.352 F7800.000
G1 X94.813 Y91.352 F7800.000
G1 X90.010 Y91.352 F7800.000
G1 X85.972 Y92.657 F7800.000
G1 X84.123 Y102.632 F7800.000
G1 X83.791 Y104.573 F7800.000
G1 X83.785 Y104.613 F7800.000
G1 X83.624 Y104.610 F7800.000
G1 X82.049 Y101.887 F7800.000
G1 X82.049 Y92.577 E0.42127 F378.000
G1 X83.442 Y92.577 E0.48430
G1 X83.442 Y102.555 E0.93582
G1 X83.371 Y105.674 E1.07697 F378.000
G1 X83.846 Y105.750 E1.09872
G1 X84.164 Y104.688 E1.14888
G1 X84.768 Y102.851 E1.23642
G1 X88.712 Y92.577 E1.73436
G1 X89.855 Y92.577 E1.78608
G1 X93.745 Y102.853 E2.28325
G1 X94.037 Y103.672 E2.32260
G1 X94.353 Y104.678 E2.37033
G1 X94.641 Y105.690 E2.41795
G1 X95.123 Y105.611 E2.44004
G1 X95.049 Y103.667 E2.52804
G1 X95.038 Y102.557 E2.57829
G1 X95.038 Y92.577 E3.02987
G1 X96.453 Y92.577 E3.09390
G1 X96.453 Y107.423 E3.76567
G1 X94.177 Y107.423 E3.86867
G1 X90.160 Y96.741 E4.38506
G1 X89.711 Y95.324 E4.45232
G1 X89.508 Y94.557 E4.48824
G1 X89.082 Y94.559 E4.50752
G1 X88.677 Y96.083 E4.57886
G1 X88.399 Y96.966 E4.62077
G1 X84.392 Y107.423 E5.12750
G1 X82.049 Y107.423 E5.23348
G1 X82.049 Y102.118 E5.47353
G1 X83.159 Y105.138 F7800.000
G1 X82.275 Y104.254 E5.53034 F540.000
G1 X82.275 Y103.707 E5.55524
G1 X83.171 Y104.603 E5.61284
G1 X83.184 Y104.067 E5.63720
G1 X82.275 Y103.159 E5.69558
G1 X82.275 Y102.611 E5.72048
G1 X83.196 Y103.531 E5.77966
G1 X83.208 Y102.996 E5.80401
G1 X82.275 Y102.063 E5.86397
G1 X82.275 Y101.515 E5.88887
G1 X83.216 Y102.456 E5.94937
G1 X83.216 Y101.909 E5.97427
G1 X82.275 Y100.967 E6.03477
G1 X82.275 Y100.420 E6.05967
G1 X83.216 Y101.361 E6.12016
G1 X83.216 Y100.813 E6.14507
G1 X82.275 Y99.872 E6.20556
G1 X82.275 Y99.324 E6.23046
G1 X83.216 Y100.265 E6.29096
G1 X83.216 Y99.717 E6.31586
G1 X82.275 Y98.776 E6.37635
G1 X82.275 Y98.228 E6.40126
G1 X83.216 Y99.169 E6.46175
G1 X83.216 Y98.622 E6.48665
G1 X82.275 Y97.680 E6.54715
G1 X82.275 Y97.133 E6.57205
G1 X83.216 Y98.074 E6.63255
G1 X83.216 Y97.526 E6.65745
G1 X82.275 Y96.585 E6.71794
G1 X82.275 Y96.037 E6.74284
G1 X83.216 Y96.978 E6.80334
G1 X83.216 Y96.430 E6.82824
G1 X82.275 Y95.489 E6.88874
G1 X82.275 Y94.941 E6.91364
G1 X83.216 Y95.882 E6.97413
G1 X83.216 Y95.335 E6.99903
G1 X82.275 Y94.394 E7.05953
G1 X82.275 Y93.846 E7.08443
G1 X83.216 Y94.787 E7.14493
G1 X83.216 Y94.239 E7.16983
G1 X82.275 Y93.298 E7.23032
G1 X82.328 Y92.803 E7.25295
G1 X83.216 Y93.691 E7.31004
G1 X83.216 Y93.143 E7.33494
G1 X82.876 Y92.803 E7.35682
G92 E0
G1 X89.079 Y93.784 F7800.000
G1 X89.282 Y93.644 F7800.000
G1 X89.282 Y93.406 F7800.000
G1 X89.245 Y93.352 F7800.000
G1 X89.450 Y92.803 F7800.000
G1 X89.792 Y93.145 E0.02197 F540.000
G1 X90.125 Y94.026 F7800.000
G1 X88.902 Y92.803 E0.10060 F540.000
G1 X88.707 Y93.155 E0.11892
G1 X90.459 Y94.908 E0.23158
G1 X89.840 Y94.836 E0.25991
G1 X90.793 Y95.789 E0.32117
G1 X90.069 Y95.614 F7800.000
G1 X91.127 Y96.671 E0.38915 F540.000
G1 X90.640 Y97.280 F7800.000
G1 X91.794 Y98.434 E0.46332 F540.000
G1 X91.301 Y99.036 F7800.000
G1 X92.462 Y100.197 E0.53794 F540.000
G1 X91.961 Y100.792 F7800.000
G1 X93.129 Y101.960 E0.61302 F540.000
G1 X92.622 Y102.549 F7800.000
G1 X93.773 Y103.700 E0.68703 F540.000
G1 X92.952 Y103.427 F7800.000
G1 X94.033 Y104.508 E0.75651 F540.000
G1 X93.282 Y104.305 E0.79186
G1 X94.265 Y105.287 E0.85502
G1 X93.612 Y105.183 E0.88505
G1 X94.483 Y106.053 E0.94100
G1 X94.850 Y105.872 E0.95960
G1 X96.175 Y107.197 E1.04475
G1 X96.227 Y106.702 E1.06738
G1 X95.320 Y105.795 E1.12572
G1 X95.339 Y105.266 E1.14977
G1 X96.227 Y106.154 E1.20689
G1 X96.227 Y105.607 E1.23179
G1 X95.317 Y104.696 E1.29030
G1 X95.296 Y104.127 E1.31619
G1 X96.227 Y105.059 E1.37608
G1 X96.227 Y104.511 E1.40098
G1 X95.275 Y103.558 E1.46222
G1 X95.270 Y103.005 E1.48736
G1 X96.227 Y103.963 E1.54894
G1 X96.227 Y103.415 E1.57384
G1 X95.264 Y102.452 E1.63575
G1 X95.264 Y101.904 E1.66066
G1 X96.227 Y102.867 E1.72257
G1 X96.227 Y102.320 E1.74747
G1 X95.264 Y101.356 E1.80938
G1 X95.264 Y100.809 E1.83428
G1 X96.227 Y101.772 E1.89619
G1 X96.227 Y101.224 E1.92109
G1 X95.264 Y100.261 E1.98300
G1 X95.264 Y99.713 E2.00790
G1 X96.227 Y100.676 E2.06981
G1 X96.227 Y100.128 E2.09471
G1 X95.264 Y99.165 E2.15662
G1 X95.264 Y98.617 E2.18152
G1 X96.227 Y99.580 E2.24343
G1 X96.227 Y99.033 E2.26833
G1 X95.264 Y98.070 E2.33024
G1 X95.264 Y97.522 E2.35514
G1 X96.227 Y98.485 E2.41705
G1 X96.227 Y97.937 E2.44196
G1 X95.264 Y96.974 E2.50387
G1 X95.264 Y96.426 E2.52877
G1 X96.227 Y97.389 E2.59068
G1 X96.227 Y96.841 E2.61558
G1 X95.264 Y95.878 E2.67749
G1 X95.264 Y95.330 E2.70239
G1 X96.227 Y96.293 E2.76430
G1 X96.227 Y95.746 E2.78920
G1 X95.264 Y94.783 E2.85111
G1 X95.264 Y94.235 E2.87601
G1 X96.227 Y95.198 E2.93792
G1 X96.227 Y94.650 E2.96282
G1 X95.264 Y93.687 E3.02473
G1 X95.264 Y93.139 E3.04963
G1 X96.227 Y94.102 E3.11154
G1 X96.227 Y93.554 E3.13644
G1 X95.476 Y92.803 E3.18475
G1 X96.024 Y92.803 E3.20965
G1 X96.227 Y93.007 E3.22274
G92 E0
G1 X89.483 Y93.782 F7800.000
G1 X89.483 Y93.782 F7800.000
G1 X91.460 Y97.553 F7800.000
G1 X90.324 Y96.416 E0.07308 F540.000
G1 X90.971 Y98.158 F7800.000
G1 X92.128 Y99.316 E0.14747 F540.000
G1 X91.631 Y99.914 F7800.000
G1 X92.795 Y101.079 E0.22233 F540.000
G1 X92.292 Y101.671 F7800.000
G1 X93.463 Y102.842 E0.29763 F540.000
G1 X94.380 Y105.950 F7800.000
G1 X95.627 Y107.197 E0.37777 F540.000
G1 X95.079 Y107.197 E0.40267
G1 X93.943 Y106.061 E0.47572
G1 X94.273 Y106.939 F7800.000
G1 X94.531 Y107.197 E0.49231 F540.000
G92 E0
G1 X83.899 Y106.544 F7800.000
G1 X83.899 Y106.544 F7800.000
G1 X83.394 Y105.921 F7800.000
G1 X84.375 Y106.902 E0.06307 F540.000
G1 X84.527 Y106.506 E0.08235
G1 X83.994 Y105.973 E0.11660
G1 X84.120 Y105.551 E0.13660
G1 X84.679 Y106.110 E0.17249
G1 X84.830 Y105.714 E0.19177
G1 X84.247 Y105.130 E0.22928
G1 X84.373 Y104.709 E0.24928
G1 X84.982 Y105.318 E0.28843
G1 X85.134 Y104.922 E0.30771
G1 X84.508 Y104.296 E0.34792
G1 X84.644 Y103.884 E0.36764
G1 X85.286 Y104.525 E0.40889
G1 X85.437 Y104.129 E0.42817
G1 X84.780 Y103.472 E0.47046
G1 X84.915 Y103.059 E0.49018
G1 X85.589 Y103.733 E0.53352
G1 X85.741 Y103.337 E0.55279
G1 X85.060 Y102.656 E0.59659
G1 X85.212 Y102.260 E0.61587
G1 X85.893 Y102.941 E0.65965
G1 X86.044 Y102.545 E0.67893
G1 X85.364 Y101.864 E0.72270
G1 X85.515 Y101.468 E0.74198
G1 X86.196 Y102.149 E0.78574
G1 X86.348 Y101.753 E0.80502
G1 X85.667 Y101.072 E0.84877
G1 X85.819 Y100.677 E0.86804
G1 X86.500 Y101.357 E0.91178
G1 X86.652 Y100.961 E0.93106
G1 X85.971 Y100.281 E0.97478
G1 X86.123 Y99.885 E0.99406
G1 X86.803 Y100.565 E1.03777
G1 X86.955 Y100.169 E1.05705
G1 X86.275 Y99.489 E1.10075
G1 X86.427 Y99.093 E1.12002
G1 X87.107 Y99.773 E1.16371
G1 X87.259 Y99.377 E1.18299
G1 X86.579 Y98.697 E1.22667
G1 X86.731 Y98.301 E1.24594
G1 X87.410 Y98.981 E1.28960
G1 X87.562 Y98.585 E1.30888
G1 X86.883 Y97.906 E1.35253
G1 X87.035 Y97.510 E1.37181
G1 X87.714 Y98.189 E1.41545
G1 X87.866 Y97.793 E1.43473
G1 X87.187 Y97.114 E1.47835
G1 X87.339 Y96.718 E1.49763
G1 X88.017 Y97.396 E1.54124
G1 X88.169 Y97.000 E1.56052
G1 X87.491 Y96.322 E1.60413
G1 X87.643 Y95.926 E1.62340
G1 X88.303 Y96.587 E1.66585
G1 X88.434 Y96.170 E1.68570
G1 X87.795 Y95.530 E1.72682
G1 X87.947 Y95.135 E1.74610
G1 X88.553 Y95.741 E1.78507
G1 X88.668 Y95.308 E1.80542
G1 X88.099 Y94.739 E1.84202
G1 X88.251 Y94.343 E1.86130
G1 X88.783 Y94.875 E1.89553
G1 X88.898 Y94.443 E1.91588
G1 X88.403 Y93.947 E1.94774
G1 X88.555 Y93.551 E1.96701
G1 X89.336 Y94.332 E2.01722
G92 E0
G1 X89.079 Y93.784 F7800.000
G1 X89.079 Y93.784 F7800.000
G1 X83.147 Y105.674 F7800.000
G1 X82.275 Y104.802 E0.05603 F540.000
G1 X82.275 Y105.350 E0.08093
G1 X84.122 Y107.197 E0.19966
G1 X83.575 Y107.197 E0.22456
G1 X82.275 Y105.898 E0.30808
G1 X82.275 Y106.446 E0.33298
G1 X83.027 Y107.197 E0.38128
G1 X82.479 Y107.197 E0.40618
G1 X82.275 Y106.993 E0.41927
M106 S255
G92 E0
G1 Z0.600 F7800.000
G1 X117.082 Y107.648 F7800.000
G1 X112.669 Y96.562 E3.57549 F600.000
G1 X111.723 Y94.013 E4.39002
G1 X111.283 Y93.349 E4.62870
G1 X110.856 Y93.316 E4.75726
G1 X110.481 Y93.353 E4.87014
G1 X110.050 Y94.010 E5.10553
G1 X109.105 Y96.558 E5.91987
G1 X104.678 Y107.648 E9.49799
G92 E0
G1 X103.585 Y107.648 F7800.000
G1 X96.678 Y91.352 F7800.000
G1 X92.542 Y92.623 F7800.000
G1 X94.360 Y102.558 F7800.000
G1 X94.813 Y102.558 F7800.000
G1 X95.746 Y92.352 F7800.000
G1 X95.746 Y102.553 E3.05684 F600.000
G1 X95.784 Y105.387 E3.90606
G1 X95.485 Y106.455 E4.23827
G1 X95.074 Y106.527 E4.36358
G1 X94.787 Y106.542 E4.44947
G1 X94.075 Y105.643 E4.79314
G1 X93.473 Y103.861 E5.35679
G1 X93.180 Y103.060 E5.61219
G1 X90.722 Y96.547 E7.69830
G1 X90.058 Y94.592 E8.31687
G1 X89.330 Y93.677 E8.66734
G1 X89.282 Y93.644 E8.68488
G1 X88.518 Y94.587 E9.04855
G1 X87.794 Y96.755 E9.73345
G1 X85.374 Y103.066 E11.75884
G1 X84.441 Y105.723 E12.60259
G1 X83.805 Y106.569 E12.91989
G1 X83.428 Y106.559 E13.03285
G1 X82.992 Y106.480 E13.16539
G1 X82.713 Y105.463 E13.48158
G1 X82.746 Y102.547 E14.35514
G1 X82.746 Y92.352 E17.41018
G92 E0
G1 Z0.900 F7800.000
G1 X117.082 Y107.648 F7800.000
G1 X112.669 Y96.562 E3.57549 F600.000
G1 X111.723 Y94.013 E4.39002
G1 X111.283 Y93.349 E4.62870
G1 X110.856 Y93.316 E4.75726
G1 X110.481 Y93.353 E4.87014
G1 X110.050 Y94.010 E5.10553
G1 X109.105 Y96.558 E5.91987
G1 X104.678 Y107.648 E9.49799
G92 E0
G1 X103.585 Y107.648 F7800.000
G1 X96.678 Y91.352 F7800.000
G1 X92.542 Y92.623 F7800.000
G1 X94.360 Y102.558 F7800.000
G1 X94.813 Y102.558 F7800.000
G1 X95.746 Y92.352 F7800.000
G1 X95.746 Y102.553 E3.05683 F600.000
G1 X95.784 Y105.387 E3.90606
G1 X95.485 Y106.455 E4.23827
G1 X95.074 Y106.527 E4.36358
G1 X94.787 Y106.542 E4.44947
G1 X94.075 Y105.643 E4.79314
G1 X93.473 Y103.861 E5.35679
G1 X93.180 Y103.060 E5.61219
G1 X90.722 Y96.547 E7.69830
G1 X90.058 Y94.592 E8.31687
G1 X89.330 Y93.677 E8.66734
G1 X89.282 Y93.644 E8.68488
G1 X88.518 Y94.587 E9.04855
G1 X87.794 Y96.755 E9.73345
G1 X85.374 Y103.066 E11.75884
G1 X84.441 Y105.723 E12.60259
G1 X83.805 Y106.569 E12.91989
G1 X83.428 Y106.559 E13.03285
G1 X82.992 Y106.480 E13.16539
G1 X82.713 Y105.463 E13.48158
G1 X82.746 Y102.547 E14.35515
G1 X82.746 Y92.352 E17.41018
G92 E0
G1 Z1.200 F7800.000
G1 X117.082 Y107.648 F7800.000
G1 X112.669 Y96.562 E3.57549 F600.000
G1 X111.723 Y94.013 E4.39002
G1 X111.283 Y93.349 E4.62870
G1 X110.856 Y93.316 E4.75726
G1 X110.481 Y93.353 E4.87014
G1 X110.050 Y94.010 E5.10553
G1 X109.105 Y96.558 E5.91987
G1 X104.678 Y107.648 E9.49799
G92 E0
G1 X103.585 Y107.648 F7800.000
G1 X96.678 Y91.352 F7800.000
G1 X92.542 Y92.623 F7800.000
G1 X94.360 Y102.558 F7800.000
G1 X94.813 Y102.558 F7800.000
G1 X95.746 Y92.352 F7800.000
G1 X95.746 Y102.553 E3.05683 F600.000
G1 X95.784 Y105.387 E3.90606
G1 X95.485 Y106.455 E4.23827
G1 X95.074 Y106.527 E4.36357
G1 X94.787 Y106.542 E4.44947
G1 X94.075 Y105.643 E4.79314
G1 X93.473 Y103.861 E5.35679
G1 X93.180 Y103.060 E5.61219
G1 X90.722 Y96.547 E7.69830
G1 X90.058 Y94.592 E8.31687
G1 X89.330 Y93.677 E8.66733
G1 X89.282 Y93.644 E8.68488
G1 X88.518 Y94.587 E9.04855
G1 X87.794 Y96.755 E9.73345
G1 X85.374 Y103.066 E11.75884
G1 X84.441 Y105.723 E12.60259
G1 X83.805 Y106.569 E12.91989
G1 X83.428 Y106.559 E13.03285
G1 X82.992 Y106.480 E13.16539
G1 X82.713 Y105.463 E13.48158
G1 X82.746 Y102.547 E14.35514
G1 X82.746 Y92.352 E17.41017
G92 E0
G1 Z1.500 F7800.000
G1 X117.082 Y107.648 F7800.000
G1 X112.669 Y96.562 E3.57549 F600.000
G1 X111.723 Y94.013 E4.39002
G1 X111.283 Y93.349 E4.62870
G1 X110.856 Y93.316 E4.75726
G1 X110.481 Y93.353 E4.87014
G1 X110.050 Y94.010 E5.10553
G1 X109.105 Y96.558 E5.91987
G1 X104.678 Y107.648 E9.49799
G92 E0
G1 X103.585 Y107.648 F7800.000
