; generated by Slic3r 1.2.9 on 2016-03-11 at 01:27:38

; external perimeters extrusion width = 1.54mm
; perimeters extrusion width = 2.62mm
; infill extrusion width = 6.27mm
; solid infill extrusion width = 2.62mm
; top infill extrusion width = 2.62mm

M107
M104 S30 ; set temperature
G28 ; home all axes
G1 Z5 F5000 ; lift nozzle
M302
M92 E10000
M500
M501
G1 E100
M109 S30 ; wait for temperature to be reached
G21 ; set units to millimeters
G90 ; use absolute coordinates
M82 ; use absolute distances for extrusion
G92 E0
G1 Z0.300 F7800.000
G1 X115.215 Y104.783 F7800.000
G1 X117.109 Y107.423 E0.14702 F378.000
G1 X115.378 Y107.423 E0.22535
G1 X111.143 Y101.251 E0.56405
G1 X106.786 Y107.423 E0.90590
G1 X105.057 Y107.423 E0.98414
G1 X110.250 Y100.299 E1.38306
G1 X104.613 Y92.577 E1.81566
G1 X106.341 Y92.577 E1.89385
G1 X110.650 Y98.746 E2.23434
G1 X111.131 Y99.435 E2.27236 F378.000
G1 X115.822 Y92.577 E2.64832
G1 X117.557 Y92.577 E2.72683
G1 X112.054 Y100.376 E3.15873
G1 X115.081 Y104.595 E3.39367
G1 X114.527 Y104.318 F7800.000
G1 X110.497 Y100.289 E3.65492 F540.000
G1 X110.264 Y100.608 E3.67305
G1 X110.906 Y101.251 E3.71469
G1 X110.678 Y101.574 E3.73286
G1 X110.031 Y100.928 E3.77478
G1 X109.798 Y101.247 E3.79291
G1 X110.449 Y101.898 E3.83511
G1 X110.220 Y102.222 E3.85328
G1 X109.565 Y101.567 E3.89576
G1 X109.332 Y101.886 E3.91389
G1 X109.992 Y102.546 E3.95665
G1 X109.763 Y102.870 E3.97482
G1 X109.099 Y102.206 E4.01786
G1 X108.866 Y102.526 E4.03598
G1 X109.535 Y103.194 E4.07930
G1 X109.306 Y103.518 E4.09747
G1 X108.633 Y102.845 E4.14107
G1 X108.401 Y103.165 E4.15920
G1 X109.077 Y103.841 E4.20307
G1 X108.849 Y104.165 E4.22125
G1 X108.168 Y103.484 E4.26540
G1 X107.935 Y103.804 E4.28353
G1 X108.620 Y104.489 E4.32796
G1 X108.391 Y104.813 E4.34613
G1 X107.702 Y104.123 E4.39085
G1 X107.469 Y104.443 E4.40897
G1 X108.163 Y105.137 E4.45397
G1 X107.934 Y105.461 E4.47214
G1 X107.236 Y104.762 E4.51741
G1 X107.003 Y105.082 E4.53554
G1 X107.706 Y105.785 E4.58109
G1 X107.477 Y106.108 E4.59926
G1 X106.770 Y105.401 E4.64509
G1 X106.537 Y105.721 E4.66322
G1 X107.248 Y106.432 E4.70933
G1 X107.020 Y106.756 E4.72750
G1 X106.304 Y106.041 E4.77389
G1 X106.071 Y106.360 E4.79201
G1 X106.791 Y107.080 E4.83868
G1 X106.356 Y107.197 E4.85935
G1 X105.838 Y106.680 E4.89289
G1 X105.605 Y106.999 E4.91102
G1 X105.803 Y107.197 E4.92385
G92 E0
G1 X112.767 Y103.111 F7800.000
G1 X115.929 Y106.273 E0.20495 F540.000
G1 X115.183 Y106.632 F7800.000
G1 X115.748 Y107.197 E0.24157 F540.000
G1 X116.300 Y107.197 E0.26689
G1 X113.975 Y104.872 E0.41764
G1 X113.125 Y102.364 F7800.000
G1 X109.391 Y98.630 E0.65971 F540.000
G1 X109.577 Y97.711 F7800.000
G1 X106.404 Y94.538 E0.86540 F540.000
G1 X107.017 Y94.046 F7800.000
G1 X105.774 Y92.803 E0.94599 F540.000
G1 X105.221 Y92.803 E0.97132
G1 X108.297 Y95.879 E1.17071
G1 X107.897 Y96.584 F7800.000
G1 X111.764 Y100.451 E1.42140 F540.000
G1 X111.993 Y100.127 E1.43957
G1 X111.340 Y99.474 E1.48192
G1 X111.564 Y99.146 E1.50014
G1 X112.221 Y99.803 E1.54276
G1 X112.450 Y99.479 E1.56093
G1 X111.788 Y98.818 E1.60382
G1 X112.013 Y98.490 E1.62204
G1 X112.679 Y99.155 E1.66519
G1 X112.907 Y98.832 E1.68337
G1 X112.237 Y98.162 E1.72679
G1 X112.462 Y97.834 E1.74501
G1 X113.136 Y98.508 E1.78871
G1 X113.364 Y98.184 E1.80688
G1 X112.686 Y97.506 E1.85084
G1 X112.911 Y97.177 E1.86906
G1 X113.593 Y97.860 E1.91329
G1 X113.821 Y97.536 E1.93147
G1 X113.135 Y96.849 E1.97596
G1 X113.359 Y96.521 E1.99419
G1 X114.050 Y97.212 E2.03895
G1 X114.278 Y96.888 E2.05713
G1 X113.584 Y96.193 E2.10216
G1 X113.808 Y95.865 E2.12039
G1 X114.507 Y96.564 E2.16569
G1 X114.736 Y96.240 E2.18386
G1 X114.033 Y95.537 E2.22944
G1 X114.257 Y95.209 E2.24766
G1 X114.964 Y95.916 E2.29350
G1 X115.193 Y95.592 E2.31168
G1 X114.481 Y94.881 E2.35779
G1 X114.706 Y94.553 E2.37601
G1 X115.421 Y95.268 E2.42239
G1 X115.650 Y94.944 E2.44056
G1 X114.930 Y94.225 E2.48721
G1 X115.155 Y93.897 E2.50543
G1 X115.878 Y94.621 E2.55235
G1 X116.107 Y94.297 E2.57053
G1 X115.379 Y93.569 E2.61771
G1 X115.603 Y93.241 E2.63593
G1 X116.335 Y93.973 E2.68339
G1 X116.564 Y93.649 E2.70156
G1 X115.828 Y92.913 E2.74929
G1 X116.271 Y92.803 E2.77020
G1 X116.793 Y93.325 E2.80403
G1 X116.823 Y92.803 E2.82800
G1 X117.021 Y93.001 E2.84083
G92 E0
G1 X109.972 Y100.299 F7800.000
G1 X101.150 Y105.122 F7800.000
G1 X98.863 Y107.648 F7800.000
G1 X96.863 Y107.648 F7800.000
G1 X94.719 Y105.316 F7800.000
G1 X94.825 Y105.690 E0.01761 F378.000
G1 X95.307 Y105.611 E0.03970
G1 X95.233 Y103.667 E0.12769
G1 X95.222 Y102.557 E0.17794
G1 X95.222 Y92.577 E0.62953
G1 X96.637 Y92.577 E0.69356
G1 X96.637 Y107.423 E1.36533
G1 X94.361 Y107.423 E1.46832
G1 X90.344 Y96.741 E1.98471
G1 X89.895 Y95.324 E2.05198
G1 X89.692 Y94.557 E2.08790
G1 X89.266 Y94.559 E2.10717
G1 X88.861 Y96.083 E2.17852
G1 X88.583 Y96.966 E2.22042
G1 X84.576 Y107.423 E2.72715
G1 X82.233 Y107.423 E2.83314
G1 X82.233 Y92.577 E3.50491
G1 X83.626 Y92.577 E3.56794
G1 X83.626 Y102.555 E4.01946
G1 X83.555 Y105.674 E4.16060 F378.000
G1 X84.030 Y105.750 E4.18236
G1 X84.348 Y104.688 E4.23251
G1 X84.953 Y102.851 E4.32006
G1 X88.896 Y92.577 E4.81800
G1 X90.039 Y92.577 E4.86972
G1 X93.929 Y102.853 E5.36689
G1 X94.221 Y103.672 E5.40624
G1 X94.655 Y105.094 E5.47352
G1 X94.564 Y105.950 F7800.000
G1 X95.811 Y107.197 E5.55367 F540.000
G1 X95.263 Y107.197 E5.57857
G1 X94.127 Y106.061 E5.65161
G1 X94.457 Y106.939 F7800.000
G1 X94.715 Y107.197 E5.66821 F540.000
G1 X93.957 Y103.700 F7800.000
G1 X92.806 Y102.549 E5.74222 F540.000
G1 X93.313 Y101.960 F7800.000
G1 X92.145 Y100.792 E5.81729 F540.000
G1 X92.646 Y100.197 F7800.000
G1 X91.485 Y99.036 E5.89192 F540.000
G1 X91.978 Y98.434 F7800.000
G1 X90.824 Y97.280 E5.96609 F540.000
G1 X91.311 Y96.671 F7800.000
G1 X90.253 Y95.614 E6.03406 F540.000
G1 X90.977 Y95.789 F7800.000
G1 X90.024 Y94.836 E6.09532 F540.000
G1 X90.643 Y94.908 E6.12366
G1 X88.891 Y93.155 E6.23632
G1 X89.086 Y92.803 E6.25463
G1 X90.310 Y94.026 E6.33327
G1 X89.520 Y94.332 F7800.000
G1 X88.739 Y93.551 E6.38347 F540.000
G1 X88.587 Y93.947 E6.40275
G1 X89.082 Y94.443 E6.43460
G1 X88.967 Y94.875 E6.45496
G1 X88.435 Y94.343 E6.48919
G1 X88.283 Y94.739 E6.50846
G1 X88.852 Y95.308 E6.54506
G1 X88.737 Y95.741 E6.56542
G1 X88.131 Y95.135 E6.60439
G1 X87.979 Y95.530 E6.62367
G1 X88.619 Y96.170 E6.66478
G1 X88.487 Y96.587 E6.68464
G1 X87.827 Y95.926 E6.72709
G1 X87.675 Y96.322 E6.74636
G1 X88.353 Y97.000 E6.78996
G1 X88.202 Y97.396 E6.80924
G1 X87.523 Y96.718 E6.85286
G1 X87.371 Y97.114 E6.87213
G1 X88.050 Y97.793 E6.91576
G1 X87.898 Y98.189 E6.93504
G1 X87.219 Y97.510 E6.97868
G1 X87.067 Y97.906 E6.99795
G1 X87.746 Y98.585 E7.04160
G1 X87.594 Y98.981 E7.06088
G1 X86.915 Y98.301 E7.10455
G1 X86.763 Y98.697 E7.12382
G1 X87.443 Y99.377 E7.16750
G1 X87.291 Y99.773 E7.18678
G1 X86.611 Y99.093 E7.23046
G1 X86.459 Y99.489 E7.24974
G1 X87.139 Y100.169 E7.29344
G1 X86.987 Y100.565 E7.31272
G1 X86.307 Y99.885 E7.35643
G1 X86.155 Y100.281 E7.37570
G1 X86.836 Y100.961 E7.41943
G1 X86.684 Y101.357 E7.43871
G1 X86.003 Y100.677 E7.48245
G1 X85.851 Y101.072 E7.50172
G1 X86.532 Y101.753 E7.54547
G1 X86.380 Y102.149 E7.56475
G1 X85.700 Y101.468 E7.60851
G1 X85.548 Y101.864 E7.62778
G1 X86.229 Y102.545 E7.67156
G1 X86.077 Y102.941 E7.69084
G1 X85.396 Y102.260 E7.73462
G1 X85.244 Y102.656 E7.75390
G1 X85.925 Y103.337 E7.79769
G1 X85.773 Y103.733 E7.81697
G1 X85.099 Y103.059 E7.86030
G1 X84.964 Y103.472 E7.88003
G1 X85.621 Y104.129 E7.92232
G1 X85.470 Y104.525 E7.94160
G1 X84.828 Y103.884 E7.98284
G1 X84.692 Y104.296 E8.00257
G1 X85.318 Y104.922 E8.04278
G1 X85.166 Y105.318 E8.06206
G1 X84.557 Y104.709 E8.10121
G1 X84.431 Y105.130 E8.12121
G1 X85.014 Y105.714 E8.15872
G1 X84.863 Y106.110 E8.17800
G1 X84.304 Y105.551 E8.21388
G1 X84.178 Y105.973 E8.23388
G1 X84.711 Y106.506 E8.26814
G1 X84.559 Y106.902 E8.28741
G1 X83.578 Y105.921 E8.35049
G1 X83.331 Y105.674 F7800.000
G1 X82.459 Y104.802 E8.40651 F540.000
G1 X82.459 Y105.350 E8.43141
G1 X84.306 Y107.197 E8.55015
G1 X83.759 Y107.197 E8.57505
G1 X82.459 Y105.898 E8.65856
G1 X82.459 Y106.446 E8.68347
G1 X83.211 Y107.197 E8.73177
G1 X82.663 Y107.197 E8.75667
G1 X82.459 Y106.993 E8.76975
G1 X83.343 Y105.138 F7800.000
G1 X82.459 Y104.254 E8.82657 F540.000
G1 X82.459 Y103.707 E8.85147
G1 X83.356 Y104.603 E8.90907
G1 X83.368 Y104.067 E8.93342
G1 X82.459 Y103.159 E8.99181
G1 X82.459 Y102.611 E9.01671
G1 X83.380 Y103.531 E9.07588
G1 X83.392 Y102.996 E9.10023
G1 X82.459 Y102.063 E9.16020
G1 X82.459 Y101.515 E9.18510
G1 X83.401 Y102.456 E9.24559
G1 X83.401 Y101.909 E9.27050
G1 X82.459 Y100.967 E9.33099
G1 X82.459 Y100.420 E9.35589
G1 X83.401 Y101.361 E9.41639
G1 X83.401 Y100.813 E9.44129
G1 X82.459 Y99.872 E9.50179
G1 X82.459 Y99.324 E9.52669
G1 X83.401 Y100.265 E9.58718
G1 X83.401 Y99.717 E9.61208
G1 X82.459 Y98.776 E9.67258
G1 X82.459 Y98.228 E9.69748
G1 X83.401 Y99.169 E9.75798
G1 X83.401 Y98.622 E9.78288
G1 X82.459 Y97.680 E9.84337
G1 X82.459 Y97.133 E9.86827
G1 X83.401 Y98.074 E9.92877
G1 X83.401 Y97.526 E9.95367
G1 X82.459 Y96.585 E10.01417
G1 X82.459 Y96.037 E10.03907
G1 X83.401 Y96.978 E10.09956
G1 X83.401 Y96.430 E10.12446
G1 X82.459 Y95.489 E10.18496
G1 X82.459 Y94.941 E10.20986
G1 X83.401 Y95.882 E10.27036
G1 X83.401 Y95.335 E10.29526
G1 X82.459 Y94.394 E10.35575
G1 X82.459 Y93.846 E10.38066
G1 X83.401 Y94.787 E10.44115
G1 X83.401 Y94.239 E10.46605
G1 X82.459 Y93.298 E10.52655
G1 X82.512 Y92.803 E10.54917
G1 X83.401 Y93.691 E10.60627
G1 X83.401 Y93.143 E10.63117
G1 X83.060 Y92.803 E10.65305
G92 E0
G1 X89.263 Y93.784 F7800.000
G1 X89.466 Y93.644 F7800.000
G1 X89.466 Y93.406 F7800.000
G1 X89.429 Y93.352 F7800.000
G1 X89.634 Y92.803 F7800.000
G1 X89.976 Y93.145 E0.02197 F540.000
G1 X90.508 Y96.416 F7800.000
G1 X91.645 Y97.553 E0.09504 F540.000
G1 X91.155 Y98.158 F7800.000
G1 X92.312 Y99.316 E0.16944 F540.000
G1 X91.815 Y99.914 F7800.000
G1 X92.980 Y101.079 E0.24429 F540.000
G1 X92.476 Y101.671 F7800.000
G1 X93.647 Y102.842 E0.31960 F540.000
G1 X93.136 Y103.427 F7800.000
G1 X94.217 Y104.508 E0.38908 F540.000
G1 X93.466 Y104.305 E0.42443
G1 X94.449 Y105.287 E0.48759
G1 X93.796 Y105.183 E0.51762
G1 X94.667 Y106.053 E0.57357
G1 X95.034 Y105.872 E0.59217
G1 X96.359 Y107.197 E0.67732
G1 X96.412 Y106.702 E0.69994
G1 X95.504 Y105.795 E0.75828
G1 X95.523 Y105.266 E0.78234
G1 X96.412 Y106.154 E0.83946
G1 X96.412 Y105.607 E0.86436
G1 X95.501 Y104.696 E0.92286
G1 X95.480 Y104.127 E0.94876
G1 X96.412 Y105.059 E1.00865
G1 X96.412 Y104.511 E1.03355
G1 X95.459 Y103.558 E1.09479
G1 X95.454 Y103.005 E1.11993
G1 X96.412 Y103.963 E1.18151
G1 X96.412 Y103.415 E1.20641
G1 X95.448 Y102.452 E1.26832
G1 X95.448 Y101.904 E1.29322
G1 X96.412 Y102.867 E1.35513
G1 X96.412 Y102.320 E1.38003
G1 X95.448 Y101.356 E1.44194
G1 X95.448 Y100.809 E1.46685
G1 X96.412 Y101.772 E1.52876
G1 X96.412 Y101.224 E1.55366
G1 X95.448 Y100.261 E1.61557
G1 X95.448 Y99.713 E1.64047
G1 X96.412 Y100.676 E1.70238
G1 X96.412 Y100.128 E1.72728
G1 X95.448 Y99.165 E1.78919
G1 X95.448 Y98.617 E1.81409
G1 X96.412 Y99.580 E1.87600
G1 X96.412 Y99.033 E1.90090
G1 X95.448 Y98.070 E1.96281
G1 X95.448 Y97.522 E1.98771
G1 X96.412 Y98.485 E2.04962
G1 X96.412 Y97.937 E2.07452
G1 X95.448 Y96.974 E2.13643
G1 X95.448 Y96.426 E2.16133
G1 X96.412 Y97.389 E2.22324
G1 X96.412 Y96.841 E2.24815
G1 X95.448 Y95.878 E2.31006
G1 X95.448 Y95.330 E2.33496
G1 X96.412 Y96.294 E2.39687
G1 X96.412 Y95.746 E2.42177
G1 X95.448 Y94.783 E2.48368
G1 X95.448 Y94.235 E2.50858
G1 X96.412 Y95.198 E2.57049
G1 X96.412 Y94.650 E2.59539
G1 X95.448 Y93.687 E2.65730
G1 X95.448 Y93.139 E2.68220
G1 X96.412 Y94.102 E2.74411
G1 X96.412 Y93.554 E2.76901
G1 X95.660 Y92.803 E2.81732
G1 X96.208 Y92.803 E2.84222
G1 X96.412 Y93.007 E2.85531
M106 S255
G92 E0
G1 Z0.600 F7800.000
G1 X116.842 Y92.352 F7800.000
G1 X111.852 Y99.533 E2.62028 F600.000
G1 X111.578 Y99.844 E2.74445
G1 X111.155 Y100.224 E2.91493
G1 X111.147 Y100.459 E2.98521
G1 X111.610 Y100.892 E3.17515
G1 X111.844 Y101.162 E3.28233
G1 X116.395 Y107.648 E5.65650
G1 X113.772 Y102.629 F7800.000
G1 X110.676 Y99.785 E6.91632 F600.000
G1 X110.442 Y99.520 E7.02241
G1 X105.323 Y92.352 E9.66156
G92 E0
G1 X105.765 Y107.648 F7800.000
G1 X110.431 Y101.144 E2.39856 F600.000
G1 X110.711 Y100.838 E2.52287
G1 X113.831 Y98.128 E3.76124
G92 E0
G1 X109.972 Y100.299 F7800.000
G1 X100.905 Y94.736 F7800.000
G1 X98.863 Y92.352 F7800.000
G1 X96.863 Y92.352 F7800.000
G1 X95.930 Y92.352 F7800.000
G1 X95.930 Y102.553 E3.05684 F600.000
G1 X95.968 Y105.387 E3.90606
G1 X95.670 Y106.455 E4.23827
G1 X95.258 Y106.527 E4.36358
G1 X94.971 Y106.542 E4.44947
G1 X94.259 Y105.643 E4.79314
G1 X93.657 Y103.861 E5.35679
G1 X93.364 Y103.060 E5.61219
G1 X90.906 Y96.547 E7.69830
G1 X90.243 Y94.592 E8.31687
G1 X89.514 Y93.677 E8.66734
G1 X89.466 Y93.644 E8.68488
G1 X88.702 Y94.587 E9.04855
G1 X87.978 Y96.755 E9.73345
G1 X85.558 Y103.066 E11.75884
G1 X84.625 Y105.723 E12.60259
G1 X83.989 Y106.569 E12.91989
G1 X83.612 Y106.559 E13.03285
G1 X83.176 Y106.480 E13.16539
G1 X82.897 Y105.463 E13.48158
G1 X82.930 Y102.547 E14.35514
G1 X82.930 Y92.352 E17.41018
G92 E0
G1 Z0.900 F7800.000
G1 X116.842 Y92.352 F7800.000
G1 X111.852 Y99.533 E2.62028 F600.000
G1 X111.578 Y99.844 E2.74445
G1 X111.155 Y100.224 E2.91493
G1 X111.147 Y100.459 E2.98521
G1 X111.610 Y100.892 E3.17515
G1 X111.844 Y101.162 E3.28233
G1 X116.395 Y107.648 E5.65650
G1 X113.772 Y102.629 F7800.000
G1 X110.676 Y99.785 E6.91632 F600.000
G1 X110.442 Y99.520 E7.02241
G1 X105.323 Y92.352 E9.66156
G92 E0
G1 X105.765 Y107.648 F7800.000
G1 X110.431 Y101.144 E2.39856 F600.000
G1 X110.711 Y100.838 E2.52287
G1 X113.831 Y98.128 E3.76124
G92 E0
G1 X109.972 Y100.299 F7800.000
G1 X100.905 Y94.736 F7800.000
G1 X98.863 Y92.352 F7800.000
G1 X96.863 Y92.352 F7800.000
G1 X95.930 Y92.352 F7800.000
G1 X95.930 Y102.553 E3.05683 F600.000
G1 X95.968 Y105.387 E3.90606
G1 X95.670 Y106.455 E4.23827
G1 X95.258 Y106.527 E4.36358
G1 X94.971 Y106.542 E4.44947
G1 X94.259 Y105.643 E4.79314
G1 X93.657 Y103.861 E5.35679
G1 X93.364 Y103.060 E5.61219
G1 X90.906 Y96.547 E7.69830
G1 X90.243 Y94.592 E8.31687
G1 X89.514 Y93.677 E8.66734
G1 X89.466 Y93.644 E8.68488
G1 X88.702 Y94.587 E9.04855
G1 X87.978 Y96.755 E9.73345
G1 X85.558 Y103.066 E11.75884
G1 X84.625 Y105.723 E12.60259
G1 X83.989 Y106.569 E12.91989
G1 X83.612 Y106.559 E13.03285
G1 X83.176 Y106.480 E13.16539
G1 X82.897 Y105.463 E13.48158
G1 X82.930 Y102.547 E14.35515
G1 X82.930 Y92.352 E17.41018
G92 E0
G1 Z1.200 F7800.000
G1 X116.842 Y92.352 F7800.000
G1 X111.852 Y99.533 E2.62028 F600.000
G1 X111.578 Y99.844 E2.74445
G1 X111.155 Y100.224 E2.91493
G1 X111.147 Y100.459 E2.98521
G1 X111.610 Y100.892 E3.17515
G1 X111.844 Y101.162 E3.28233
G1 X116.395 Y107.648 E5.65650
G1 X113.772 Y102.629 F7800.000
G1 X110.676 Y99.785 E6.91632 F600.000
G1 X110.442 Y99.520 E7.02241
G1 X105.323 Y92.352 E9.66155
G92 E0
G1 X105.765 Y107.648 F7800.000
G1 X110.431 Y101.144 E2.39856 F600.000
G1 X110.711 Y100.838 E2.52287
G1 X113.831 Y98.128 E3.76124
G92 E0
G1 X109.972 Y100.299 F7800.000
G1 X100.905 Y94.736 F7800.000
G1 X98.863 Y92.352 F7800.000
G1 X96.863 Y92.352 F7800.000
G1 X95.930 Y92.352 F7800.000
G1 X95.930 Y102.553 E3.05683 F600.000
G1 X95.968 Y105.387 E3.90606
G1 X95.670 Y106.455 E4.23827
G1 X95.258 Y106.527 E4.36357
G1 X94.971 Y106.542 E4.44947
G1 X94.259 Y105.643 E4.79314
G1 X93.657 Y103.861 E5.35679
G1 X93.364 Y103.060 E5.61219
G1 X90.906 Y96.547 E7.69830
G1 X90.243 Y94.592 E8.31687
G1 X89.514 Y93.677 E8.66733
G1 X89.466 Y93.644 E8.68488
G1 X88.702 Y94.587 E9.04855
G1 X87.978 Y96.755 E9.73345
G1 X85.558 Y103.066 E11.75884
G1 X84.625 Y105.723 E12.60259
G1 X83.989 Y106.569 E12.91989
G1 X83.612 Y106.559 E13.03285
G1 X83.176 Y106.480 E13.16539
G1 X82.897 Y105.463 E13.48158
G1 X82.930 Y102.547 E14.35514
G1 X82.930 Y92.352 E17.41017
G92 E0
G1 Z1.500 F7800.000
G1 X116.842 Y92.352 F7800.000
G1 X111.852 Y99.533 E2.62028 F600.000
G1 X111.578 Y99.844 E2.74445
G1 X111.155 Y100.224 E2.91493
G1 X111.147 Y100.459 E2.98521
G1 X111.610 Y100.892 E3.17515
G1 X111.844 Y101.162 E3.28233
G1 X116.395 Y107.648 E5.65650
G1 X113.772 Y102.629 F7800.000
G1 X110.676 Y99.785 E6.91632 F600.000
G1 X110.442 Y99.520 E7.02241
