; generated by Slic3r 1.2.9 on 2016-03-11 at 01:27:41

; external perimeters extrusion width = 1.54mm
; perimeters extrusion width = 2.62mm
; infill extrusion width = 6.27mm
; solid infill extrusion width = 2.62mm
; top infill extrusion width = 2.62mm

M107
M104 S30 ; set temperature
G28 ; home all axes
G1 Z5 F5000 ; lift nozzle
M302
M92 E10000
M500
M501
G1 E100
M109 S30 ; wait for temperature to be reached
G21 ; set units to millimeters
G90 ; use absolute coordinates
M82 ; use absolute distances for extrusion
G92 E0
G1 Z0.300 F7800.000
G1 X104.239 Y97.405 F7800.000
G1 X102.275 Y92.577 E0.23587 F378.000
G1 X103.934 Y92.577 E0.31095
G1 X105.499 Y96.563 E0.50472
G1 X105.686 Y97.041 E0.52794 F378.000
G1 X112.936 Y97.041 E0.85600
G1 X114.677 Y92.577 E1.07281
G1 X116.306 Y92.577 E1.14652
G1 X110.363 Y107.423 E1.87011
G1 X108.314 Y107.423 E1.96284
G1 X104.326 Y97.619 E2.44174
G1 X106.138 Y98.207 F7800.000
G1 X112.495 Y98.207 E2.72937 F378.000
G1 X110.219 Y104.086 E3.01464
G1 X109.510 Y106.198 E3.11545
G1 X109.111 Y106.197 E3.13350
G1 X108.792 Y105.195 E3.18108
G1 X108.202 Y103.544 E3.26039
G1 X106.221 Y98.422 E3.50889
G1 X105.956 Y98.459 F7800.000
G1 X104.262 Y96.765 E3.61833 F540.000
G1 X105.254 Y96.655 F7800.000
G1 X103.507 Y94.909 E3.73120 F540.000
G1 X103.885 Y95.837 F7800.000
G1 X106.029 Y97.981 E3.86976 F540.000
G1 X106.579 Y97.981 E3.89492
G1 X105.865 Y97.267 E3.94107
G1 X106.416 Y97.267 E3.96623
G1 X107.130 Y97.981 E4.01238
G1 X107.681 Y97.981 E4.03754
G1 X106.967 Y97.267 E4.08369
G1 X107.517 Y97.267 E4.10886
G1 X108.231 Y97.981 E4.15500
G1 X108.782 Y97.981 E4.18017
G1 X108.068 Y97.267 E4.22631
G1 X108.619 Y97.267 E4.25148
G1 X109.333 Y97.981 E4.29763
G1 X109.884 Y97.981 E4.32279
G1 X109.170 Y97.267 E4.36894
G1 X109.720 Y97.267 E4.39410
G1 X110.434 Y97.981 E4.44025
G1 X110.985 Y97.981 E4.46541
G1 X110.271 Y97.267 E4.51156
G1 X110.822 Y97.267 E4.53672
G1 X111.536 Y97.981 E4.58287
G1 X112.087 Y97.981 E4.60804
G1 X111.372 Y97.267 E4.65418
G92 E0
G1 X106.303 Y99.357 F7800.000
G1 X104.640 Y97.694 E0.10748 F540.000
G1 X105.017 Y98.622 F7800.000
G1 X106.650 Y100.255 E0.21300 F540.000
G1 X105.773 Y100.479 F7800.000
G1 X107.345 Y102.051 E0.31461 F540.000
G1 X106.528 Y102.335 F7800.000
G1 X108.034 Y103.842 E0.41196 F540.000
G1 X107.283 Y104.192 F7800.000
G1 X108.636 Y105.545 E0.49936 F540.000
G1 X108.038 Y106.049 F7800.000
G1 X109.187 Y107.197 E0.57357 F540.000
G1 X109.737 Y107.197 E0.59873
G1 X108.963 Y106.423 E0.64876
G1 X109.515 Y106.424 E0.67399
G1 X110.246 Y107.154 E0.72117
G1 X110.409 Y106.767 E0.74039
G1 X109.754 Y106.112 E0.78270
G1 X109.892 Y105.700 E0.80257
G1 X110.566 Y106.374 E0.84611
G1 X110.724 Y105.980 E0.86547
G1 X110.031 Y105.288 E0.91024
G1 X110.169 Y104.875 E0.93011
G1 X110.881 Y105.587 E0.97610
G1 X111.038 Y105.194 E0.99546
G1 X110.308 Y104.463 E1.04267
G1 X110.448 Y104.053 E1.06248
G1 X111.196 Y104.800 E1.11079
G1 X111.353 Y104.407 E1.13014
G1 X110.602 Y103.656 E1.17869
G1 X110.756 Y103.259 E1.19814
G1 X111.511 Y104.014 E1.24693
G1 X111.668 Y103.621 E1.26629
G1 X110.909 Y102.862 E1.31532
G1 X111.063 Y102.465 E1.33477
G1 X111.826 Y103.227 E1.38405
G1 X111.983 Y102.834 E1.40340
G1 X111.217 Y102.068 E1.45292
G1 X111.371 Y101.671 E1.47237
G1 X112.140 Y102.441 E1.52213
G1 X112.298 Y102.047 E1.54149
G1 X111.524 Y101.274 E1.59149
G1 X111.678 Y100.877 E1.61094
G1 X112.455 Y101.654 E1.66118
G1 X112.613 Y101.261 E1.68054
G1 X111.832 Y100.480 E1.73103
G1 X111.985 Y100.083 E1.75048
G1 X112.770 Y100.868 E1.80121
G1 X112.928 Y100.474 E1.82057
G1 X112.139 Y99.686 E1.87154
G1 X112.293 Y99.289 E1.89099
G1 X113.085 Y100.081 E1.94220
G1 X113.243 Y99.688 E1.96156
G1 X112.446 Y98.892 E2.01301
G1 X112.600 Y98.495 E2.03247
G1 X113.400 Y99.294 E2.08417
G1 X113.557 Y98.901 E2.10352
G1 X111.923 Y97.267 E2.20913
G1 X112.474 Y97.267 E2.23430
G1 X113.715 Y98.508 E2.31449
G1 X113.872 Y98.115 E2.33385
G1 X113.025 Y97.267 E2.38863
G1 X113.208 Y96.900 E2.40739
G1 X114.030 Y97.721 E2.46050
G1 X114.187 Y97.328 E2.47985
G1 X113.362 Y96.503 E2.53315
G1 X113.517 Y96.107 E2.55258
G1 X114.345 Y96.935 E2.60606
G1 X114.502 Y96.542 E2.62542
G1 X113.671 Y95.711 E2.67909
G1 X113.826 Y95.315 E2.69852
G1 X114.659 Y96.148 E2.75238
G1 X114.817 Y95.755 E2.77174
G1 X113.980 Y94.919 E2.82579
G1 X114.135 Y94.522 E2.84522
G1 X114.974 Y95.362 E2.89945
G1 X115.132 Y94.968 E2.91881
G1 X114.290 Y94.126 E2.97323
G1 X114.444 Y93.730 E2.99267
G1 X115.289 Y94.575 E3.04728
G1 X115.447 Y94.182 E3.06663
G1 X114.599 Y93.334 E3.12143
G1 X114.753 Y92.938 E3.14087
G1 X115.604 Y93.789 E3.19585
G1 X115.761 Y93.395 E3.21521
G1 X115.169 Y92.803 E3.25348
G1 X115.720 Y92.803 E3.27865
G1 X115.919 Y93.002 E3.29151
G92 E0
G1 X104.898 Y95.749 F7800.000
G1 X103.129 Y93.980 E0.11429 F540.000
G1 X102.752 Y93.052 F7800.000
G1 X104.542 Y94.842 E0.22999 F540.000
G1 X104.186 Y93.936 F7800.000
G1 X103.053 Y92.803 E0.30321 F540.000
G1 X103.604 Y92.803 E0.32837
G1 X103.831 Y93.029 E0.34301
G1 X105.395 Y99.550 F7800.000
G1 X106.998 Y101.153 E0.44658 F540.000
G1 X106.150 Y101.407 F7800.000
G1 X107.692 Y102.949 E0.54623 F540.000
G1 X106.906 Y103.264 F7800.000
G1 X108.340 Y104.698 E0.63893 F540.000
G1 X107.661 Y105.120 F7800.000
G1 X108.893 Y106.352 E0.71855 F540.000
G1 X108.416 Y106.977 F7800.000
G1 X108.636 Y107.197 E0.73276 F540.000
G92 E0
G1 X105.839 Y96.816 F7800.000
G1 X106.199 Y96.288 F7800.000
G1 X104.087 Y91.352 F7800.000
G1 X93.293 Y91.352 F7800.000
G1 X88.530 Y93.678 F7800.000
G1 X87.205 Y92.352 F7800.000
G1 X85.205 Y92.352 F7800.000
G1 X84.980 Y96.096 F7800.000
G1 X84.980 Y102.512 E0.29029 F378.000
G1 X84.926 Y104.320 E0.37215 F378.000
G1 X84.871 Y105.392 E0.42070
G1 X85.276 Y105.520 E0.43992
G1 X93.417 Y92.577 E1.13179
G1 X95.562 Y92.577 E1.22884
G1 X95.562 Y107.423 E1.90061
G1 X94.147 Y107.423 E1.96463
G1 X94.147 Y97.618 E2.40830
G1 X94.161 Y96.856 E2.44278
G1 X94.276 Y94.524 E2.54844
G1 X93.872 Y94.395 E2.56764
G1 X85.645 Y107.423 E3.26487
G1 X83.587 Y107.423 E3.35799
G1 X83.587 Y92.577 E4.02976
G1 X84.980 Y92.577 E4.09279
G1 X84.980 Y95.865 E4.24159
G1 X84.754 Y93.516 F7800.000
G1 X84.041 Y92.803 E4.28798 F540.000
G1 X83.813 Y93.129 E4.30631
G1 X84.754 Y94.070 E4.36755
G1 X84.754 Y94.625 E4.39306
G1 X83.813 Y93.684 E4.45430
G1 X83.813 Y94.238 E4.47982
G1 X84.754 Y95.180 E4.54106
G1 X84.754 Y95.734 E4.56658
G1 X83.813 Y94.793 E4.62782
G1 X83.813 Y95.348 E4.65334
G1 X84.754 Y96.289 E4.71458
G1 X84.754 Y96.843 E4.74010
G1 X83.813 Y95.902 E4.80134
G1 X83.813 Y96.457 E4.82685
G1 X84.754 Y97.398 E4.88809
G1 X84.754 Y97.952 E4.91361
G1 X83.813 Y97.011 E4.97485
G1 X83.813 Y97.566 E5.00037
G1 X84.754 Y98.507 E5.06161
G1 X84.754 Y99.062 E5.08713
G1 X83.813 Y98.120 E5.14837
G1 X83.813 Y98.675 E5.17389
G1 X84.754 Y99.616 E5.23513
G1 X84.754 Y100.171 E5.26064
G1 X83.813 Y99.230 E5.32188
G1 X83.813 Y99.784 E5.34740
G1 X84.754 Y100.725 E5.40864
G1 X84.754 Y101.280 E5.43416
G1 X83.813 Y100.339 E5.49540
G1 X83.813 Y100.893 E5.52092
G1 X84.754 Y101.834 E5.58216
G1 X84.754 Y102.389 E5.60768
G1 X83.813 Y101.448 E5.66892
G1 X83.813 Y102.002 E5.69443
G1 X84.743 Y102.933 E5.75501
G1 X84.727 Y103.472 E5.77980
G1 X83.813 Y102.557 E5.83933
G1 X83.813 Y103.112 E5.86485
G1 X84.711 Y104.010 E5.92333
G1 X84.692 Y104.546 E5.94798
G1 X83.813 Y103.666 E6.00521
G1 X83.813 Y104.221 E6.03073
G1 X84.665 Y105.073 E6.08620
G1 X83.813 Y106.993 F7800.000
G1 X84.016 Y107.197 E6.09945 F540.000
G1 X84.571 Y107.197 E6.12496
G1 X83.813 Y106.439 E6.17430
G1 X83.813 Y105.884 E6.19982
G1 X85.125 Y107.197 E6.28524
G1 X85.604 Y107.122 E6.30756
G1 X83.813 Y105.330 E6.42416
G1 X83.813 Y104.775 E6.44968
G1 X85.819 Y106.782 E6.58025
G1 X86.034 Y106.442 E6.59874
G1 X85.354 Y105.762 E6.64299
G1 X85.568 Y105.421 E6.66149
G1 X86.248 Y106.102 E6.70577
G1 X86.463 Y105.762 E6.72427
G1 X85.782 Y105.081 E6.76858
G1 X85.996 Y104.741 E6.78709
G1 X86.678 Y105.422 E6.83144
G1 X86.892 Y105.082 E6.84994
G1 X86.210 Y104.400 E6.89432
G1 X86.425 Y104.060 E6.91282
G1 X87.107 Y104.742 E6.95724
G1 X87.322 Y104.402 E6.97574
G1 X86.639 Y103.719 E7.02018
G1 X86.853 Y103.379 E7.03869
G1 X87.536 Y104.062 E7.08317
G1 X87.751 Y103.723 E7.10167
G1 X87.067 Y103.038 E7.14619
G1 X87.281 Y102.698 E7.16469
G1 X87.966 Y103.383 E7.20925
G1 X88.180 Y103.043 E7.22774
G1 X87.495 Y102.358 E7.27233
G1 X87.709 Y102.017 E7.29084
G1 X88.395 Y102.703 E7.33545
G1 X88.610 Y102.363 E7.35395
G1 X87.923 Y101.677 E7.39861
G1 X88.138 Y101.336 E7.41711
G1 X88.824 Y102.023 E7.46180
G1 X89.039 Y101.683 E7.48030
G1 X88.352 Y100.996 E7.52502
G1 X88.566 Y100.655 E7.54352
G1 X89.254 Y101.343 E7.58828
G1 X89.468 Y101.003 E7.60678
G1 X88.780 Y100.315 E7.65157
G1 X88.994 Y99.975 E7.67007
G1 X89.683 Y100.663 E7.71490
G1 X89.898 Y100.323 E7.73340
G1 X89.208 Y99.634 E7.77825
G1 X89.422 Y99.294 E7.79676
G1 X90.112 Y99.984 E7.84165
G1 X90.327 Y99.644 E7.86015
G1 X89.637 Y98.953 E7.90508
G1 X89.851 Y98.613 E7.92358
G1 X90.542 Y99.304 E7.96854
G1 X90.756 Y98.964 E7.98704
G1 X90.065 Y98.272 E8.03203
G1 X90.279 Y97.932 E8.05054
G1 X90.971 Y98.624 E8.09557
G1 X91.186 Y98.284 E8.11407
G1 X90.493 Y97.592 E8.15913
G1 X90.707 Y97.251 E8.17763
G1 X91.400 Y97.944 E8.22273
G1 X91.615 Y97.604 E8.24123
G1 X90.921 Y96.911 E8.28636
G1 X91.135 Y96.570 E8.30486
G1 X91.830 Y97.264 E8.35003
G1 X92.044 Y96.924 E8.36853
G1 X91.350 Y96.230 E8.41373
G1 X91.564 Y95.889 E8.43223
G1 X92.259 Y96.584 E8.47746
G1 X92.473 Y96.245 E8.49596
G1 X91.778 Y95.549 E8.54123
G1 X91.992 Y95.209 E8.55973
G1 X92.688 Y95.905 E8.60503
G1 X92.903 Y95.565 E8.62353
G1 X92.206 Y94.868 E8.66887
G1 X92.420 Y94.528 E8.68737
G1 X93.117 Y95.225 E8.73274
G1 X93.332 Y94.885 E8.75124
G1 X92.634 Y94.187 E8.79664
G1 X92.849 Y93.847 E8.81515
G1 X93.547 Y94.545 E8.86059
G1 X93.761 Y94.205 E8.87908
G1 X93.063 Y93.506 E8.92455
G1 X93.277 Y93.166 E8.94306
G1 X95.336 Y95.225 E9.07704
G1 X95.336 Y94.670 E9.10256
G1 X93.491 Y92.826 E9.22260
G1 X94.023 Y92.803 E9.24710
G1 X95.336 Y94.116 E9.33253
G1 X95.336 Y93.561 E9.35805
G1 X94.578 Y92.803 E9.40738
G1 X95.132 Y92.803 E9.43290
G1 X95.336 Y93.007 E9.44615
G1 X94.479 Y94.923 F7800.000
G1 X95.336 Y95.779 E9.50191 F540.000
G1 X95.336 Y96.334 E9.52743
G1 X94.453 Y95.451 E9.58488
G1 X94.427 Y95.979 E9.60923
G1 X95.336 Y96.889 E9.66839
G1 X95.336 Y97.443 E9.69390
G1 X94.400 Y96.508 E9.75476
G1 X94.382 Y97.044 E9.77944
G1 X95.336 Y97.998 E9.84151
G1 X95.336 Y98.552 E9.86703
G1 X94.373 Y97.589 E9.92970
G1 X94.373 Y98.144 E9.95522
G1 X95.336 Y99.107 E10.01789
G1 X95.336 Y99.661 E10.04341
G1 X94.373 Y98.698 E10.10608
G1 X94.373 Y99.253 E10.13159
G1 X95.336 Y100.216 E10.19427
G1 X95.336 Y100.770 E10.21978
G1 X94.373 Y99.807 E10.28246
G1 X94.373 Y100.362 E10.30797
G1 X95.336 Y101.325 E10.37065
G1 X95.336 Y101.880 E10.39616
G1 X94.373 Y100.917 E10.45884
G1 X94.373 Y101.471 E10.48435
G1 X95.336 Y102.434 E10.54703
G1 X95.336 Y102.989 E10.57254
G1 X94.373 Y102.026 E10.63521
G1 X94.373 Y102.580 E10.66073
G1 X95.336 Y103.543 E10.72340
G1 X95.336 Y104.098 E10.74892
G1 X94.373 Y103.135 E10.81159
G1 X94.373 Y103.689 E10.83711
G1 X95.336 Y104.652 E10.89978
G1 X95.336 Y105.207 E10.92530
G1 X94.373 Y104.244 E10.98797
G1 X94.373 Y104.798 E11.01349
G1 X95.336 Y105.762 E11.07616
G1 X95.336 Y106.316 E11.10168
G1 X94.373 Y105.353 E11.16435
G1 X94.373 Y105.908 E11.18987
G1 X95.336 Y106.871 E11.25254
G1 X95.107 Y107.197 E11.27087
G1 X94.373 Y106.462 E11.31869
G1 X94.373 Y107.017 E11.34421
G1 X94.553 Y107.197 E11.35594
M106 S255
G92 E0
G1 Z0.600 F7800.000
G1 X107.318 Y100.633 F7800.000
G1 X104.941 Y97.168 E1.25890 F600.000
G1 X103.016 Y92.352 E2.81311
G92 E0
G1 X113.702 Y94.457 F7800.000
G1 X113.049 Y98.774 E1.30814 F600.000
G1 X110.865 Y104.320 E3.09418
G1 X110.157 Y106.245 E3.70872
G1 X109.889 Y106.723 E3.87305
G1 X109.346 Y106.810 E4.03793
G1 X108.776 Y106.736 E4.21016
G1 X108.482 Y106.225 E4.38678
G1 X107.566 Y103.781 E5.16886
G1 X105.580 Y98.775 E6.78268
G1 X105.443 Y97.900 E7.04819
G1 X105.839 Y97.746 E7.17570
G1 X106.466 Y97.624 E7.36708
G1 X112.166 Y97.624 E9.07506
G1 X112.782 Y97.741 E9.26297
G1 X113.182 Y97.894 E9.39110
G1 X113.677 Y97.165 E9.65512
G1 X115.579 Y92.352 E11.20582
G92 E0
G1 X112.782 Y96.816 F7800.000
G1 X112.782 Y96.816 F7800.000
G1 X110.574 Y93.584 F7800.000
G1 X108.043 Y93.584 F7800.000
G1 X105.451 Y91.817 F7800.000
G1 X104.087 Y91.352 F7800.000
G1 X101.940 Y91.352 F7800.000
G1 X98.979 Y93.544 F7800.000
G1 X97.787 Y92.352 F7800.000
G1 X95.787 Y91.352 F7800.000
G1 X93.293 Y91.352 F7800.000
G1 X92.188 Y91.657 F7800.000
G1 X88.530 Y93.678 F7800.000
G1 X87.205 Y92.352 F7800.000
G1 X85.205 Y92.352 F7800.000
G1 X84.283 Y92.352 F7800.000
G1 X84.283 Y102.501 E3.04119 F600.000
G1 X84.234 Y105.185 E3.84543
G1 X84.620 Y106.390 E4.22466
G1 X84.808 Y106.422 E4.28197
G1 X85.108 Y106.449 E4.37217
G1 X85.931 Y105.726 E4.70041
G1 X93.207 Y94.181 E8.78972
G1 X93.931 Y93.507 E9.08590
G1 X94.330 Y93.535 E9.20579
G1 X94.562 Y93.577 E9.27644
G1 X94.914 Y94.729 E9.63746
G1 X94.854 Y97.625 E10.50543
G1 X94.854 Y107.648 E13.50886
G92 E0
G1 Z0.900 F7800.000
G1 X107.318 Y100.633 F7800.000
G1 X104.941 Y97.168 E1.25890 F600.000
G1 X103.016 Y92.352 E2.81311
G92 E0
G1 X113.702 Y94.457 F7800.000
G1 X113.049 Y98.774 E1.30814 F600.000
G1 X110.865 Y104.320 E3.09418
G1 X110.157 Y106.245 E3.70872
G1 X109.889 Y106.723 E3.87305
G1 X109.346 Y106.810 E4.03793
G1 X108.776 Y106.736 E4.21016
G1 X108.482 Y106.225 E4.38678
G1 X107.566 Y103.781 E5.16886
G1 X105.580 Y98.775 E6.78268
G1 X105.443 Y97.900 E7.04819
G1 X105.839 Y97.746 E7.17570
G1 X106.466 Y97.624 E7.36708
G1 X112.166 Y97.624 E9.07506
G1 X112.782 Y97.741 E9.26297
G1 X113.182 Y97.894 E9.39110
G1 X113.677 Y97.165 E9.65512
G1 X115.579 Y92.352 E11.20582
G92 E0
G1 X112.782 Y96.816 F7800.000
G1 X112.782 Y96.816 F7800.000
G1 X110.574 Y93.584 F7800.000
G1 X108.043 Y93.584 F7800.000
G1 X105.451 Y91.817 F7800.000
G1 X104.087 Y91.352 F7800.000
G1 X101.940 Y91.352 F7800.000
G1 X98.979 Y93.544 F7800.000
G1 X97.787 Y92.352 F7800.000
G1 X95.787 Y91.352 F7800.000
G1 X93.293 Y91.352 F7800.000
G1 X92.188 Y91.657 F7800.000
G1 X88.530 Y93.678 F7800.000
G1 X87.205 Y92.352 F7800.000
G1 X85.205 Y92.352 F7800.000
G1 X84.283 Y92.352 F7800.000
G1 X84.283 Y102.501 E3.04119 F600.000
G1 X84.234 Y105.185 E3.84543
G1 X84.620 Y106.390 E4.22466
G1 X84.808 Y106.422 E4.28197
G1 X85.108 Y106.449 E4.37217
G1 X85.931 Y105.726 E4.70041
G1 X93.207 Y94.181 E8.78972
G1 X93.931 Y93.507 E9.08590
G1 X94.330 Y93.535 E9.20579
G1 X94.562 Y93.577 E9.27644
G1 X94.914 Y94.729 E9.63746
G1 X94.854 Y97.625 E10.50543
G1 X94.854 Y107.648 E13.50886
G92 E0
G1 Z1.200 F7800.000
G1 X107.318 Y100.633 F7800.000
G1 X104.941 Y97.168 E1.25890 F600.000
G1 X103.016 Y92.352 E2.81311
G92 E0
G1 X113.702 Y94.457 F7800.000
G1 X113.049 Y98.774 E1.30814 F600.000
G1 X110.865 Y104.320 E3.09418
G1 X110.157 Y106.245 E3.70872
G1 X109.889 Y106.723 E3.87305
G1 X109.346 Y106.810 E4.03793
G1 X108.776 Y106.736 E4.21016
G1 X108.482 Y106.225 E4.38678
G1 X107.566 Y103.781 E5.16886
G1 X105.580 Y98.775 E6.78268
G1 X105.443 Y97.900 E7.04819
G1 X105.839 Y97.746 E7.17570
G1 X106.466 Y97.624 E7.36708
G1 X112.166 Y97.624 E9.07506
G1 X112.782 Y97.741 E9.26297
G1 X113.182 Y97.894 E9.39110
G1 X113.677 Y97.165 E9.65512
G1 X115.579 Y92.352 E11.20582
G92 E0
G1 X101.940 Y91.352 F7800.000
G1 X93.293 Y91.352 F7800.000
G1 X88.530 Y93.678 F7800.000
G1 X87.205 Y92.352 F7800.000
G1 X85.205 Y92.352 F7800.000
G1 X84.283 Y92.352 F7800.000
G1 X84.283 Y102.501 E3.04119 F600.000
G1 X84.234 Y105.185 E3.84543
G1 X84.620 Y106.390 E4.22466
G1 X84.808 Y106.422 E4.28197
G1 X85.108 Y106.449 E4.37217
G1 X85.931 Y105.726 E4.70041
G1 X93.207 Y94.181 E8.78972
G1 X93.931 Y93.507 E9.08590
G1 X94.330 Y93.535 E9.20580
G1 X94.562 Y93.577 E9.27644
G1 X94.914 Y94.729 E9.63746
G1 X94.854 Y97.625 E10.50543
G1 X94.854 Y107.648 E13.50886
G92 E0
G1 Z1.500 F7800.000
G1 X107.318 Y100.633 F7800.000
G1 X104.941 Y97.168 E1.25889 F600.000
G1 X103.016 Y92.352 E2.81310
G92 E0
G1 X113.702 Y94.457 F7800.000
G1 X113.049 Y98.774 E1.30814 F600.000
G1 X110.865 Y104.320 E3.09418
G1 X110.157 Y106.245 E3.70872
G1 X109.889 Y106.723 E3.87305
G1 X109.346 Y106.810 E4.03793
G1 X108.776 Y106.736 E4.21016
G1 X108.482 Y106.225 E4.38678
