; generated by Slic3r 1.2.9 on 2016-03-11 at 01:27:42

; external perimeters extrusion width = 1.54mm
; perimeters extrusion width = 2.62mm
; infill extrusion width = 6.27mm
; solid infill extrusion width = 2.62mm
; top infill extrusion width = 2.62mm

M107
M104 S30 ; set temperature
G28 ; home all axes
G1 Z5 F5000 ; lift nozzle
M302
M92 E10000
M500
M501
G1 E100
M109 S30 ; wait for temperature to be reached
G21 ; set units to millimeters
G90 ; use absolute coordinates
M82 ; use absolute distances for extrusion
G92 E0
G1 Z0.300 F7800.000
G1 X107.013 Y107.423 F7800.000
G1 X104.503 Y107.423 E0.11357 F378.000
G1 X104.503 Y92.577 E0.78534
G1 X110.461 Y92.577 E1.05491
G1 X111.962 Y92.693 E1.12302
G1 X112.062 Y92.700 E1.12760 F378.000
G1 X113.389 Y93.064 E1.18986
G1 X114.453 Y93.663 E1.24510
G1 X115.228 Y94.467 E1.29562
G1 X115.692 Y95.456 E1.34507
G1 X115.849 Y96.650 E1.39955
G1 X115.746 Y97.552 E1.44066
G1 X115.439 Y98.339 E1.47884
G1 X114.929 Y99.016 E1.51720
G1 X114.226 Y99.561 E1.55744
G1 X113.340 Y99.946 E1.60117
G1 X112.221 Y100.177 E1.65288
G1 X112.197 Y100.600 E1.67201
G1 X113.051 Y100.878 E1.71263
G1 X113.721 Y101.267 E1.74769
G1 X114.256 Y101.778 E1.78119
G1 X114.647 Y102.398 E1.81433
G1 X114.883 Y103.110 E1.84828
G1 X114.960 Y103.901 E1.88425
G1 X114.398 Y105.853 E1.97616
G1 X112.718 Y107.019 E2.06866
G1 X109.805 Y107.423 E2.20177
G1 X107.244 Y107.423 E2.31763
G92 E0
G1 X105.349 Y106.648 F7800.000
G1 X105.349 Y106.648 F7800.000
G1 X107.244 Y99.729 F7800.000
G1 X106.124 Y99.729 E0.05068 F378.000
G1 X106.124 Y93.786 E0.31959
G1 X110.369 Y93.786 E0.51166 F378.000
G1 X111.544 Y93.866 E0.56497
G1 X112.512 Y94.113 E0.61017
G1 X113.262 Y94.537 E0.64914
G1 X113.793 Y95.139 E0.68546
G1 X114.107 Y95.902 E0.72282
G1 X114.212 Y96.831 E0.76508
G1 X113.758 Y98.445 E0.84097
G1 X112.387 Y99.420 E0.91709
G1 X110.214 Y99.729 E1.01640
G1 X107.475 Y99.729 E1.14033
G1 X107.475 Y100.895 F7800.000
G1 X109.827 Y100.895 E1.24675 F378.000
G1 X110.865 Y100.967 E1.29383
G1 X111.736 Y101.188 E1.33449
G1 X112.431 Y101.567 E1.37032
G1 X112.936 Y102.117 E1.40408
G1 X113.236 Y102.825 E1.43889
G1 X113.333 Y103.676 E1.47765
G1 X113.231 Y104.489 E1.51473
G1 X112.916 Y105.154 E1.54802
G1 X112.389 Y105.643 E1.58056
G1 X111.688 Y105.966 E1.61547
G1 X110.833 Y106.153 E1.65508
G1 X109.826 Y106.214 E1.70072
G1 X106.124 Y106.214 E1.86823
G1 X106.124 Y100.895 E2.10891
G1 X107.244 Y100.895 E2.15959 F378.000
G1 X111.987 Y100.912 F7800.000
G1 X112.715 Y101.227 E2.23738 F540.000
G1 X112.047 Y99.839 F7800.000
G1 X112.483 Y99.763 E2.28083 F540.000
G1 X112.904 Y99.589 E2.32544
G1 X113.108 Y99.394 F7800.000
G1 X113.411 Y99.697 E2.34502 F540.000
G1 X113.795 Y99.530 E2.36416
G1 X113.284 Y99.019 E2.39717
G1 X113.606 Y98.790 E2.41523
G1 X114.173 Y99.357 E2.45188
G1 X114.484 Y99.117 E2.46984
G1 X113.928 Y98.561 E2.50574
G1 X114.058 Y98.141 E2.52588
G1 X114.793 Y98.875 E2.57336
G1 X115.030 Y98.561 E2.59134
G1 X114.179 Y97.710 E2.64632
G1 X114.300 Y97.280 E2.66674
G1 X115.261 Y98.241 E2.72884
G1 X115.415 Y97.844 E2.74829
G1 X114.421 Y96.850 E2.81257
G1 X114.385 Y96.263 E2.83945
G1 X115.542 Y97.420 E2.91426
G1 X115.599 Y96.926 E2.93702
G1 X114.264 Y95.591 E3.02332
G1 X115.055 Y94.729 F7800.000
G1 X114.116 Y93.791 E3.08401 F540.000
G1 X112.989 Y93.214 F7800.000
G1 X115.486 Y95.712 E3.24546 F540.000
G1 X115.569 Y96.346 E3.27470
G1 X112.230 Y93.006 E3.49062
G1 X111.568 Y92.895 E3.52128
G1 X112.535 Y93.862 E3.58376
G1 X111.795 Y93.673 E3.61865
G1 X110.971 Y92.849 E3.67192
G1 X110.374 Y92.804 E3.69929
G1 X111.180 Y93.609 E3.75136
G1 X110.589 Y93.569 E3.77845
G1 X109.823 Y92.803 E3.82796
G1 X109.272 Y92.803 E3.85315
G1 X110.029 Y93.560 E3.90209
G1 X109.478 Y93.560 E3.92728
G1 X108.721 Y92.803 E3.97623
G1 X108.170 Y92.803 E4.00142
G1 X108.927 Y93.560 E4.05036
G1 X108.376 Y93.560 E4.07555
G1 X107.619 Y92.803 E4.12450
G1 X107.068 Y92.803 E4.14969
G1 X107.825 Y93.560 E4.19864
G1 X107.274 Y93.560 E4.22382
G1 X106.517 Y92.803 E4.27277
G1 X105.966 Y92.803 E4.29796
G1 X106.723 Y93.560 E4.34691
G1 X106.172 Y93.560 E4.37209
G1 X105.415 Y92.803 E4.42104
G1 X104.864 Y92.803 E4.44623
G1 X105.898 Y93.837 E4.51310
G1 X105.898 Y94.388 E4.53829
G1 X104.729 Y93.219 E4.61387
G1 X104.729 Y93.770 E4.63906
G1 X105.898 Y94.939 E4.71465
G1 X105.898 Y95.490 E4.73984
G1 X104.729 Y94.321 E4.81542
G1 X104.729 Y94.872 E4.84061
G1 X105.898 Y96.041 E4.91619
G1 X105.898 Y96.592 E4.94138
G1 X104.729 Y95.423 E5.01696
G1 X104.729 Y95.974 E5.04215
G1 X105.898 Y97.143 E5.11774
G1 X105.898 Y97.694 E5.14292
G1 X104.729 Y96.525 E5.21851
G1 X104.729 Y97.076 E5.24370
G1 X105.898 Y98.245 E5.31928
G1 X105.898 Y98.796 E5.34447
G1 X104.729 Y97.627 E5.42005
G1 X104.729 Y98.178 E5.44524
G1 X105.898 Y99.347 E5.52082
G1 X105.898 Y99.898 E5.54601
G1 X104.729 Y98.729 E5.62160
G1 X104.729 Y99.280 E5.64679
G1 X106.118 Y100.669 E5.73660
G1 X105.898 Y101.000 F7800.000
G1 X104.729 Y99.831 E5.81218 F540.000
G1 X104.729 Y100.382 E5.83737
G1 X105.898 Y101.551 E5.91296
G1 X105.898 Y102.102 E5.93814
G1 X104.729 Y100.933 E6.01373
G1 X104.729 Y101.484 E6.03892
G1 X105.898 Y102.653 E6.11450
G1 X105.898 Y103.204 E6.13969
G1 X104.729 Y102.035 E6.21527
G1 X104.729 Y102.586 E6.24046
G1 X105.898 Y103.755 E6.31604
G1 X105.898 Y104.306 E6.34123
G1 X104.729 Y103.137 E6.41682
G1 X104.729 Y103.688 E6.44200
G1 X105.898 Y104.857 E6.51759
G1 X105.898 Y105.408 E6.54278
G1 X104.729 Y104.239 E6.61836
G1 X104.729 Y104.790 E6.64355
G1 X105.898 Y105.959 E6.71913
G1 X105.829 Y106.440 E6.74137
G1 X106.586 Y107.197 E6.79031
G1 X107.137 Y107.197 E6.81550
G1 X106.380 Y106.440 E6.86445
G1 X105.898 Y106.510 E6.88668
G1 X104.729 Y105.341 E6.96226
G1 X104.729 Y105.892 E6.98745
G1 X106.035 Y107.197 E7.07186
G1 X105.484 Y107.197 E7.09705
G1 X104.729 Y106.442 E7.14583
G1 X104.729 Y106.993 E7.17102
G1 X104.933 Y107.197 E7.18418
G1 X106.931 Y106.440 F7800.000
G1 X107.688 Y107.197 E7.23313 F540.000
G1 X108.239 Y107.197 E7.25831
G1 X107.482 Y106.440 E7.30726
G1 X108.033 Y106.440 E7.33245
G1 X108.790 Y107.197 E7.38140
G1 X109.341 Y107.197 E7.40659
G1 X108.584 Y106.440 E7.45553
G1 X109.135 Y106.440 E7.48072
G1 X109.888 Y107.194 E7.52946
G1 X110.372 Y107.127 E7.55179
G1 X109.686 Y106.440 E7.59619
G1 X110.209 Y106.412 E7.62015
G1 X110.856 Y107.060 E7.66199
G1 X111.340 Y106.992 E7.68432
G1 X110.728 Y106.381 E7.72385
G1 X111.189 Y106.290 E7.74530
G1 X111.824 Y106.925 E7.78634
G1 X112.307 Y106.858 E7.80867
G1 X111.641 Y106.191 E7.85177
G1 X112.029 Y106.028 E7.87100
G1 X112.757 Y106.756 E7.91805
G1 X113.082 Y106.530 E7.93615
G1 X112.406 Y105.855 E7.97982
G1 X112.710 Y105.608 E7.99773
G1 X113.407 Y106.305 E8.04279
G1 X113.732 Y106.079 E8.06089
G1 X112.996 Y105.342 E8.10851
G1 X113.208 Y105.003 E8.12679
G1 X114.057 Y105.853 E8.18173
G1 X114.278 Y105.523 E8.19989
G1 X113.385 Y104.630 E8.25764
G1 X113.488 Y104.182 E8.27865
G1 X114.401 Y105.095 E8.33770
G1 X114.525 Y104.667 E8.35805
G1 X113.549 Y103.692 E8.42111
G1 X113.504 Y103.096 E8.44845
G1 X114.648 Y104.240 E8.52240
G1 X114.710 Y103.751 E8.54492
G1 X113.331 Y102.371 E8.63411
G1 X112.874 Y101.364 F7800.000
G1 X114.610 Y103.100 E8.74636 F540.000
G1 X111.800 Y100.840 F7800.000
G1 X110.819 Y99.860 E8.80972 F540.000
G1 X111.302 Y99.792 E8.83199
G1 X111.897 Y100.387 E8.87048
G1 X111.204 Y100.796 F7800.000
G1 X110.337 Y99.929 E8.92656 F540.000
G1 X109.812 Y99.955 E8.95059
G1 X110.571 Y100.714 E8.99966
G1 X109.979 Y100.673 E9.02678
G1 X109.261 Y99.955 E9.07321
G1 X108.710 Y99.955 E9.09840
G1 X109.424 Y100.669 E9.14457
G1 X108.873 Y100.669 E9.16976
G1 X108.159 Y99.955 E9.21593
G1 X107.608 Y99.955 E9.24111
G1 X108.322 Y100.669 E9.28728
G1 X107.771 Y100.669 E9.31247
G1 X107.057 Y99.955 E9.35864
G1 X106.506 Y99.955 E9.38383
G1 X107.220 Y100.669 E9.42999
G1 X106.669 Y100.669 E9.45518
G1 X105.955 Y99.955 E9.50135
G92 E0
G1 X104.278 Y107.648 F7800.000
G1 X96.350 Y108.648 F7800.000
G1 X91.139 Y106.302 F7800.000
G1 X87.434 Y108.344 F7800.000
G1 X86.332 Y107.648 F7800.000
G1 X88.162 Y104.329 F7800.000
G1 X86.208 Y107.423 E0.16560 F378.000
G1 X84.150 Y107.423 E0.25872
G1 X84.150 Y92.577 E0.93049
G1 X85.543 Y92.577 E0.99352
G1 X85.543 Y102.512 E1.44306
G1 X85.489 Y104.320 E1.52491 F378.000
G1 X85.434 Y105.392 E1.57347
G1 X85.839 Y105.520 E1.59269
G1 X93.980 Y92.577 E2.28456
G1 X96.125 Y92.577 E2.38160
G1 X96.125 Y107.423 E3.05338
G1 X94.710 Y107.423 E3.11740
G1 X94.710 Y97.618 E3.56107
G1 X94.724 Y96.856 E3.59555
G1 X94.839 Y94.524 E3.70121
G1 X94.435 Y94.395 E3.72041
G1 X88.285 Y104.133 E4.24159
G1 X85.956 Y106.370 F7800.000
G1 X85.682 Y106.470 F7800.000
G1 X85.180 Y106.392 F7800.000
G1 X84.925 Y106.043 F7800.000
G1 X85.228 Y105.073 F7800.000
G1 X84.376 Y104.221 E4.29706 F540.000
G1 X84.376 Y103.666 E4.32258
G1 X85.255 Y104.546 E4.37981
G1 X85.274 Y104.010 E4.40445
G1 X84.376 Y103.112 E4.46294
G1 X84.376 Y102.557 E4.48846
G1 X85.290 Y103.472 E4.54799
G1 X85.306 Y102.933 E4.57278
G1 X84.376 Y102.002 E4.63335
G1 X84.376 Y101.448 E4.65887
G1 X85.317 Y102.389 E4.72011
G1 X85.317 Y101.834 E4.74563
G1 X84.376 Y100.893 E4.80687
G1 X84.376 Y100.339 E4.83239
G1 X85.317 Y101.280 E4.89363
G1 X85.317 Y100.725 E4.91915
G1 X84.376 Y99.784 E4.98039
G1 X84.376 Y99.230 E5.00590
G1 X85.317 Y100.171 E5.06714
G1 X85.317 Y99.616 E5.09266
G1 X84.376 Y98.675 E5.15390
G1 X84.376 Y98.120 E5.17942
G1 X85.317 Y99.062 E5.24066
G1 X85.317 Y98.507 E5.26618
G1 X84.376 Y97.566 E5.32742
G1 X84.376 Y97.011 E5.35294
G1 X85.317 Y97.952 E5.41418
G1 X85.317 Y97.398 E5.43969
G1 X84.376 Y96.457 E5.50093
G1 X84.376 Y95.902 E5.52645
G1 X85.317 Y96.843 E5.58769
G1 X85.317 Y96.289 E5.61321
G1 X84.376 Y95.348 E5.67445
G1 X84.376 Y94.793 E5.69997
G1 X85.317 Y95.734 E5.76121
G1 X85.317 Y95.180 E5.78673
G1 X84.376 Y94.238 E5.84797
G1 X84.376 Y93.684 E5.87348
G1 X85.317 Y94.625 E5.93472
G1 X85.317 Y94.070 E5.96024
G1 X84.376 Y93.129 E6.02148
G1 X84.604 Y92.803 E6.03981
G1 X85.317 Y93.516 E6.08620
G92 E0
G1 X94.293 Y93.535 F7800.000
G1 X94.473 Y93.470 F7800.000
G1 X95.130 Y93.572 F7800.000
G1 X95.350 Y93.874 F7800.000
G1 X95.042 Y94.923 F7800.000
G1 X95.899 Y95.779 E0.05576 F540.000
G1 X95.899 Y96.334 E0.08127
G1 X95.016 Y95.451 E0.13873
G1 X94.990 Y95.979 E0.16308
G1 X95.899 Y96.889 E0.22223
G1 X95.899 Y97.443 E0.24775
G1 X94.963 Y96.508 E0.30861
G1 X94.945 Y97.044 E0.33329
G1 X95.899 Y97.998 E0.39536
G1 X95.899 Y98.552 E0.42087
G1 X94.936 Y97.589 E0.48355
G1 X94.936 Y98.144 E0.50906
G1 X95.899 Y99.107 E0.57174
G1 X95.899 Y99.661 E0.59725
G1 X94.936 Y98.698 E0.65993
G1 X94.936 Y99.253 E0.68544
G1 X95.899 Y100.216 E0.74812
G1 X95.899 Y100.770 E0.77363
G1 X94.936 Y99.807 E0.83631
G1 X94.936 Y100.362 E0.86182
G1 X95.899 Y101.325 E0.92450
G1 X95.899 Y101.880 E0.95001
G1 X94.936 Y100.917 E1.01268
G1 X94.936 Y101.471 E1.03820
G1 X95.899 Y102.434 E1.10087
G1 X95.899 Y102.989 E1.12639
G1 X94.936 Y102.026 E1.18906
G1 X94.936 Y102.580 E1.21458
G1 X95.899 Y103.543 E1.27725
G1 X95.899 Y104.098 E1.30277
G1 X94.936 Y103.135 E1.36544
G1 X94.936 Y103.689 E1.39096
G1 X95.899 Y104.652 E1.45363
G1 X95.899 Y105.207 E1.47915
G1 X94.936 Y104.244 E1.54182
G1 X94.936 Y104.798 E1.56734
G1 X95.899 Y105.762 E1.63001
G1 X95.899 Y106.316 E1.65553
G1 X94.936 Y105.353 E1.71820
G1 X94.936 Y105.908 E1.74372
G1 X95.899 Y106.871 E1.80639
G1 X95.670 Y107.197 E1.82472
G1 X94.936 Y106.462 E1.87254
G1 X94.936 Y107.017 E1.89805
G1 X95.116 Y107.197 E1.90979
G92 E0
G1 X85.956 Y106.370 F7800.000
G1 X85.682 Y106.470 F7800.000
G1 X85.180 Y106.392 F7800.000
G1 X84.925 Y106.648 F7800.000
G1 X84.376 Y106.993 F7800.000
G1 X84.579 Y107.197 E0.01325 F540.000
G1 X85.134 Y107.197 E0.03877
G1 X84.376 Y106.439 E0.08810
G1 X84.376 Y105.884 E0.11362
G1 X85.688 Y107.197 E0.19904
G1 X86.167 Y107.122 E0.22136
G1 X84.376 Y105.330 E0.33796
G1 X84.376 Y104.775 E0.36348
G1 X86.382 Y106.782 E0.49405
G1 X86.597 Y106.442 E0.51255
G1 X85.917 Y105.762 E0.55679
G1 X86.131 Y105.421 E0.57530
G1 X86.811 Y106.102 E0.61957
G1 X87.026 Y105.762 E0.63807
G1 X86.345 Y105.081 E0.68239
G1 X86.559 Y104.741 E0.70089
G1 X87.241 Y105.422 E0.74524
G1 X87.455 Y105.082 E0.76374
G1 X86.773 Y104.400 E0.80812
G1 X86.988 Y104.060 E0.82662
G1 X87.670 Y104.742 E0.87104
G1 X87.885 Y104.402 E0.88954
G1 X87.202 Y103.719 E0.93399
G1 X87.416 Y103.379 E0.95249
G1 X88.099 Y104.062 E0.99697
G1 X88.314 Y103.723 E1.01547
G1 X87.630 Y103.038 E1.05999
G1 X87.844 Y102.698 E1.07850
G1 X88.529 Y103.383 E1.12305
G1 X88.743 Y103.043 E1.14155
G1 X88.058 Y102.358 E1.18613
G1 X88.272 Y102.017 E1.20464
G1 X88.958 Y102.703 E1.24926
G1 X89.173 Y102.363 E1.26775
G1 X88.486 Y101.677 E1.31241
G1 X88.701 Y101.336 E1.33091
G1 X89.387 Y102.023 E1.37560
G1 X89.602 Y101.683 E1.39410
G1 X88.915 Y100.996 E1.43882
G1 X89.129 Y100.655 E1.45733
G1 X89.817 Y101.343 E1.50208
G1 X90.031 Y101.003 E1.52058
G1 X89.343 Y100.315 E1.56537
G1 X89.557 Y99.975 E1.58388
G1 X90.246 Y100.663 E1.62870
G1 X90.461 Y100.323 E1.64720
G1 X89.771 Y99.634 E1.69206
G1 X89.985 Y99.294 E1.71056
G1 X90.675 Y99.984 E1.75545
G1 X90.890 Y99.644 E1.77395
G1 X90.200 Y98.953 E1.81888
G1 X90.414 Y98.613 E1.83738
G1 X91.105 Y99.304 E1.88234
G1 X91.319 Y98.964 E1.90084
G1 X90.628 Y98.272 E1.94584
G1 X90.842 Y97.932 E1.96434
G1 X91.534 Y98.624 E2.00937
G1 X91.749 Y98.284 E2.02787
G1 X91.056 Y97.592 E2.07293
G1 X91.270 Y97.251 E2.09144
G1 X91.963 Y97.944 E2.13653
G1 X92.178 Y97.604 E2.15503
G1 X91.484 Y96.911 E2.20016
G1 X91.698 Y96.570 E2.21867
G1 X92.393 Y97.264 E2.26383
G1 X92.607 Y96.924 E2.28233
G1 X91.913 Y96.230 E2.32753
G1 X92.127 Y95.889 E2.34603
G1 X92.822 Y96.584 E2.39126
G1 X93.036 Y96.245 E2.40976
G1 X92.341 Y95.549 E2.45503
G1 X92.555 Y95.209 E2.47354
G1 X93.251 Y95.905 E2.51884
G1 X93.466 Y95.565 E2.53733
G1 X92.769 Y94.868 E2.58267
G1 X92.983 Y94.528 E2.60117
G1 X93.680 Y95.225 E2.64654
G1 X93.895 Y94.885 E2.66504
G1 X93.197 Y94.187 E2.71044
G1 X93.412 Y93.847 E2.72895
G1 X94.110 Y94.545 E2.77439
G1 X94.324 Y94.205 E2.79288
G1 X93.626 Y93.506 E2.83836
G1 X93.840 Y93.166 E2.85686
G1 X95.899 Y95.225 E2.99084
G1 X95.899 Y94.670 E3.01636
G1 X94.054 Y92.826 E3.13640
G1 X94.586 Y92.803 E3.16091
G1 X95.899 Y94.116 E3.24633
G1 X95.899 Y93.561 E3.27185
G1 X95.141 Y92.803 E3.32119
G1 X95.695 Y92.803 E3.34670
G1 X95.899 Y93.007 E3.35995
M106 S255
G92 E0
G1 Z0.600 F7800.000
G1 X106.152 Y103.801 F7800.000
G1 X105.314 Y99.504 E1.31181 F600.000
G1 X105.314 Y94.011 E2.95776
G1 X105.387 Y93.461 E3.12413
G1 X106.349 Y93.181 E3.42438
G1 X110.418 Y93.182 E4.64347
G1 X111.714 Y93.283 E5.03313
G1 X111.954 Y93.322 E5.10601
G1 X112.851 Y93.575 E5.38515
G1 X113.132 Y93.691 E5.47621
G1 X113.560 Y93.932 E5.62360
G1 X113.997 Y94.254 E5.78597
G1 X114.330 Y94.615 E5.93341
G1 X114.532 Y94.875 E6.03194
G1 X114.896 Y95.689 E6.29912
G1 X115.020 Y96.695 E6.60296
G1 X114.981 Y97.093 E6.72259
G1 X114.931 Y97.351 E6.80143
G1 X114.732 Y97.944 E6.98890
G1 X114.440 Y98.533 E7.18601
G1 X114.033 Y98.969 E7.36456
G1 X113.924 Y99.050 E7.40540
G1 X113.187 Y99.466 E7.65872
G1 X112.652 Y99.699 E7.83360
G1 X112.318 Y99.792 E7.93769
G1 X111.463 Y100.308 E8.23704
G1 X110.664 Y101.178 E8.59083
G1 X105.471 Y100.312 F7800.000
G1 X110.315 Y100.324 E10.04218 F600.000
G1 X110.891 Y100.303 E10.21478
G1 X111.447 Y100.326 E10.38163
G1 X111.821 Y100.739 E10.54857
G1 X111.954 Y100.848 E10.60022
G1 X112.242 Y101.022 E10.70087
G1 X112.797 Y101.282 E10.88451
G1 X113.370 Y101.734 E11.10325
G1 X113.722 Y102.215 E11.28198
G1 X113.970 Y102.718 E11.44985
G1 X114.094 Y103.277 E11.62150
G1 X114.135 Y103.825 E11.78630
G1 X113.987 Y104.547 E12.00708
G1 X113.900 Y104.847 E12.10049
G1 X113.707 Y105.357 E12.26404
G1 X113.368 Y105.704 E12.40935
G1 X112.868 Y106.106 E12.60159
G1 X112.462 Y106.363 E12.74542
G1 X111.791 Y106.549 E12.95423
G1 X110.970 Y106.696 E13.20420
G1 X109.763 Y106.818 E13.56765
G1 X106.349 Y106.818 E14.59055
G1 X105.387 Y106.539 E14.89081
G1 X105.314 Y105.989 E15.05718
G1 X105.314 Y101.120 E16.51615
G1 X105.471 Y100.312 E16.76283
G92 E0
G1 X104.278 Y92.352 F7800.000
G1 X96.350 Y91.352 F7800.000
G1 X89.093 Y93.678 F7800.000
G1 X87.768 Y92.352 F7800.000
G1 X85.768 Y92.352 F7800.000
G1 X84.846 Y92.352 F7800.000
G1 X84.846 Y102.501 E3.04119 F600.000
G1 X84.797 Y105.185 E3.84543
