; generated by Slic3r 1.2.9 on 2016-03-11 at 01:27:43

; external perimeters extrusion width = 1.54mm
; perimeters extrusion width = 2.62mm
; infill extrusion width = 6.27mm
; solid infill extrusion width = 2.62mm
; top infill extrusion width = 2.62mm

M107
M104 S30 ; set temperature
G28 ; home all axes
G1 Z5 F5000 ; lift nozzle
M302
M92 E10000
M500
M501
G1 E100
M109 S30 ; wait for temperature to be reached
G21 ; set units to millimeters
G90 ; use absolute coordinates
M82 ; use absolute distances for extrusion
G92 E0
G1 Z0.300 F7800.000
G1 X113.170 Y105.645 F7800.000
G1 X113.930 Y105.077 E0.04296 F378.000
G1 X114.533 Y104.364 E0.08521
G1 X114.883 Y103.697 E0.11927
G1 X116.411 Y104.202 E0.19208
G1 X115.938 Y105.088 E0.23752
G1 X115.167 Y105.989 E0.29119
G1 X114.210 Y106.694 E0.34497
G1 X113.070 Y107.204 E0.40149
G1 X111.747 Y107.511 E0.46295
G1 X110.245 Y107.614 E0.53109
G1 X108.130 Y107.390 E0.62729
G1 X106.364 Y106.723 E0.71271
G1 X104.931 Y105.616 E0.79466
G1 X103.870 Y104.118 E0.87772
G1 X103.230 Y102.270 E0.96620
G1 X103.015 Y100.061 E1.06664
G1 X103.111 Y98.546 E1.13533
G1 X103.399 Y97.176 E1.19868
G1 X103.876 Y95.954 E1.25804
G1 X104.533 Y94.896 E1.31439
G1 X105.360 Y94.017 E1.36899
G1 X106.360 Y93.314 E1.42431
G1 X107.516 Y92.799 E1.48158
G1 X108.813 Y92.489 E1.54189
G1 X110.251 Y92.386 E1.60713
G1 X111.570 Y92.490 E1.66703
G1 X111.659 Y92.497 E1.67106 F378.000
G1 X112.942 Y92.829 E1.73103
G1 X114.104 Y93.381 E1.78921
G1 X115.123 Y94.143 E1.84680
G1 X115.979 Y95.107 E1.90515
G1 X116.559 Y96.088 E1.95671
G1 X115.256 Y96.737 E2.02261
G1 X114.086 Y95.102 E2.11358
G1 X112.400 Y94.000 E2.20472
G1 X110.355 Y93.635 E2.29874
G1 X108.731 Y93.832 E2.37276
G1 X107.341 Y94.425 E2.44113
G1 X106.193 Y95.414 E2.50970
G1 X105.342 Y96.722 E2.58032
G1 X104.834 Y98.274 E2.65420
G1 X104.666 Y100.064 E2.73552
G1 X104.827 Y101.863 E2.81725
G1 X105.315 Y103.401 E2.89026
G1 X106.134 Y104.672 E2.95870
G1 X107.255 Y105.620 E3.02511
G1 X108.635 Y106.187 E3.09263
G1 X110.257 Y106.374 E3.16651
G1 X111.328 Y106.293 E3.21513
G1 X112.301 Y106.050 E3.26049
G1 X112.960 Y105.743 E3.29340
G1 X115.366 Y104.126 F7800.000
G1 X115.928 Y104.688 E3.32937 F540.000
G1 X115.730 Y105.035 E3.34747
G1 X114.860 Y104.166 E3.40315
G1 X114.660 Y104.511 E3.42123
G1 X115.478 Y105.329 E3.47358
G1 X115.226 Y105.623 E3.49110
G1 X114.410 Y104.807 E3.54336
G1 X114.160 Y105.103 E3.56088
G1 X114.955 Y105.898 E3.61179
G1 X114.645 Y106.133 E3.62942
G1 X113.873 Y105.361 E3.67886
G1 X113.561 Y105.595 E3.69650
G1 X114.331 Y106.365 E3.74579
G1 X113.993 Y106.573 E3.76375
G1 X113.249 Y105.828 E3.81142
G1 X112.877 Y106.001 E3.83001
G1 X113.616 Y106.741 E3.87735
G1 X113.239 Y106.909 E3.89605
G1 X112.504 Y106.175 E3.94308
G1 X112.099 Y106.315 E3.96249
G1 X112.829 Y107.044 E4.00917
G1 X112.386 Y107.147 E4.02974
G1 X111.663 Y106.424 E4.07603
G1 X111.215 Y106.522 E4.09677
G1 X111.943 Y107.250 E4.14338
G1 X111.457 Y107.310 E4.16555
G1 X110.708 Y106.561 E4.21352
G1 X110.201 Y106.599 E4.23655
G1 X110.947 Y107.345 E4.28432
G1 X110.436 Y107.380 E4.30748
G1 X109.591 Y106.535 E4.36160
G1 X108.974 Y106.464 E4.38970
G1 X109.846 Y107.335 E4.44551
G1 X109.236 Y107.271 E4.47329
G1 X108.298 Y106.334 E4.53329
G1 X107.372 Y105.953 F7800.000
G1 X108.625 Y107.206 E4.61351 F540.000
G1 X107.898 Y107.024 E4.64747
G1 X103.692 Y102.819 E4.91668
G1 X103.442 Y102.022 E4.95448
G1 X105.264 Y103.845 E5.07116
G1 X104.901 Y102.936 F7800.000
G1 X103.383 Y101.418 E5.16834 F540.000
G1 X103.324 Y100.813 E5.19583
G1 X104.647 Y102.137 E5.28058
G1 X104.561 Y101.505 E5.30946
G1 X103.265 Y100.209 E5.39243
G1 X103.262 Y99.660 E5.41726
G1 X104.507 Y100.906 E5.49699
G1 X104.454 Y100.306 E5.52423
G1 X103.294 Y99.147 E5.59844
G1 X103.327 Y98.634 E5.62171
G1 X104.473 Y99.780 E5.69509
G1 X104.520 Y99.282 E5.71777
G1 X103.406 Y98.168 E5.78908
G1 X103.501 Y97.717 E5.80994
G1 X104.567 Y98.783 E5.87818
G1 X104.615 Y98.286 E5.90079
G1 X103.596 Y97.266 E5.96607
G1 X103.738 Y96.863 E5.98542
G1 X104.750 Y97.875 E6.05019
G1 X104.884 Y97.464 E6.06977
G1 X103.891 Y96.471 E6.13334
G1 X104.045 Y96.078 E6.15241
G1 X105.019 Y97.052 E6.21478
G1 X105.159 Y96.647 E6.23420
G1 X104.244 Y95.732 E6.29278
G1 X104.453 Y95.395 E6.31071
G1 X105.374 Y96.316 E6.36968
G1 X105.589 Y95.986 E6.38753
G1 X104.662 Y95.059 E6.44690
G1 X104.917 Y94.768 E6.46440
G1 X105.804 Y95.655 E6.52120
G1 X106.019 Y95.325 E6.53905
G1 X105.186 Y94.492 E6.59238
G1 X105.459 Y94.219 E6.60984
G1 X106.304 Y95.065 E6.66396
G1 X106.598 Y94.812 E6.68148
G1 X105.759 Y93.973 E6.73517
G1 X106.079 Y93.748 E6.75289
G1 X106.891 Y94.560 E6.80485
G1 X107.184 Y94.307 E6.82236
G1 X106.399 Y93.523 E6.87257
G1 X106.771 Y93.349 E6.89115
G1 X107.543 Y94.121 E6.94056
G1 X107.925 Y93.958 E6.95938
G1 X107.149 Y93.181 E7.00909
G1 X107.527 Y93.013 E7.02780
G1 X108.308 Y93.794 E7.07780
G1 X108.690 Y93.631 E7.09662
G1 X107.966 Y92.907 E7.14298
G1 X108.406 Y92.802 E7.16347
G1 X109.165 Y93.561 E7.21206
G1 X109.652 Y93.502 E7.23425
G1 X108.857 Y92.707 E7.28511
G1 X109.366 Y92.670 E7.30821
G1 X110.138 Y93.443 E7.35764
G1 X110.690 Y93.449 E7.38264
G1 X109.875 Y92.634 E7.43484
G1 X110.419 Y92.632 E7.45948
G1 X111.355 Y93.568 E7.51937
G1 X112.019 Y93.686 E7.54991
G1 X111.012 Y92.679 E7.61439
G1 X111.623 Y92.745 E7.64222
G1 X112.800 Y93.922 E7.71758
G1 X113.235 Y93.266 F7800.000
G1 X116.076 Y96.107 E7.89948 F540.000
G1 X115.712 Y96.288 E7.91789
G1 X114.228 Y94.805 E8.01289
G1 X114.376 Y94.952 F7800.000
G1 X112.359 Y92.935 E8.14204 F540.000
G1 X114.719 Y94.204 F7800.000
G1 X115.218 Y94.704 E8.17400 F540.000
G92 E0
G1 X104.071 Y98.116 F7800.000
G1 X104.033 Y98.112 F7800.000
G1 X103.841 Y100.047 F7800.000
G1 X103.792 Y100.048 F7800.000
G1 X103.981 Y103.653 F7800.000
G1 X107.021 Y106.693 E0.19461 F540.000
G1 X105.362 Y105.580 F7800.000
G1 X105.004 Y105.222 E0.21753 F540.000
G92 E0
G1 X103.009 Y102.319 F7800.000
G1 X99.723 Y105.588 F7800.000
G1 X97.741 Y107.648 F7800.000
G1 X95.549 Y107.648 F7800.000
G1 X93.909 Y103.358 F7800.000
G1 X93.909 Y97.618 E0.25974 F378.000
G1 X93.923 Y96.856 E0.29422
G1 X94.038 Y94.524 E0.39988
G1 X93.634 Y94.395 E0.41908
G1 X85.407 Y107.423 E1.11631
G1 X83.349 Y107.423 E1.20943
G1 X83.349 Y92.577 E1.88120
G1 X84.742 Y92.577 E1.94423
G1 X84.742 Y102.512 E2.39377
G1 X84.688 Y104.320 E2.47563 F378.000
G1 X84.633 Y105.392 E2.52418
G1 X85.038 Y105.520 E2.54340
G1 X93.179 Y92.577 E3.23527
G1 X95.324 Y92.577 E3.33232
G1 X95.324 Y107.423 E4.00409
G1 X93.909 Y107.423 E4.06812
G1 X93.909 Y103.589 E4.24159
G1 X94.315 Y107.197 F7800.000
G1 X94.135 Y107.017 E4.25332 F540.000
G1 X94.135 Y106.462 E4.27884
G1 X94.869 Y107.197 E4.32666
G1 X95.098 Y106.871 E4.34499
G1 X94.135 Y105.908 E4.40766
G1 X94.135 Y105.353 E4.43318
G1 X95.098 Y106.316 E4.49585
G1 X95.098 Y105.762 E4.52137
G1 X94.135 Y104.798 E4.58404
G1 X94.135 Y104.244 E4.60956
G1 X95.098 Y105.207 E4.67223
G1 X95.098 Y104.652 E4.69775
G1 X94.135 Y103.689 E4.76042
G1 X94.135 Y103.135 E4.78594
G1 X95.098 Y104.098 E4.84861
G1 X95.098 Y103.543 E4.87413
G1 X94.135 Y102.580 E4.93680
G1 X94.135 Y102.026 E4.96232
G1 X95.098 Y102.989 E5.02499
G1 X95.098 Y102.434 E5.05050
G1 X94.135 Y101.471 E5.11318
G1 X94.135 Y100.917 E5.13869
G1 X95.098 Y101.880 E5.20137
G1 X95.098 Y101.325 E5.22688
G1 X94.135 Y100.362 E5.28956
G1 X94.135 Y99.807 E5.31507
G1 X95.098 Y100.770 E5.37775
G1 X95.098 Y100.216 E5.40326
G1 X94.135 Y99.253 E5.46594
G1 X94.135 Y98.698 E5.49145
G1 X95.098 Y99.661 E5.55412
G1 X95.098 Y99.107 E5.57964
G1 X94.135 Y98.144 E5.64231
G1 X94.135 Y97.589 E5.66783
G1 X95.098 Y98.552 E5.73050
G1 X95.098 Y97.998 E5.75602
G1 X94.144 Y97.044 E5.81809
G1 X94.162 Y96.508 E5.84277
G1 X95.098 Y97.443 E5.90363
G1 X95.098 Y96.889 E5.92914
G1 X94.189 Y95.979 E5.98830
G1 X94.215 Y95.451 E6.01265
G1 X95.098 Y96.334 E6.07011
G1 X95.098 Y95.779 E6.09562
G1 X94.241 Y94.923 E6.15138
G1 X95.098 Y93.007 F7800.000
G1 X94.894 Y92.803 E6.16463 F540.000
G1 X94.340 Y92.803 E6.19015
G1 X95.098 Y93.561 E6.23948
G1 X95.098 Y94.116 E6.26500
G1 X93.785 Y92.803 E6.35043
G1 X93.253 Y92.825 E6.37493
G1 X95.098 Y94.670 E6.49497
G1 X95.098 Y95.225 E6.52049
G1 X93.039 Y93.166 E6.65447
G1 X92.825 Y93.506 E6.67298
G1 X93.523 Y94.205 E6.71845
G1 X93.309 Y94.545 E6.73694
G1 X92.611 Y93.847 E6.78238
G1 X92.396 Y94.187 E6.80089
G1 X93.094 Y94.885 E6.84629
G1 X92.879 Y95.225 E6.86479
G1 X92.182 Y94.528 E6.91016
G1 X91.968 Y94.868 E6.92866
G1 X92.665 Y95.565 E6.97400
G1 X92.450 Y95.905 E6.99250
G1 X91.754 Y95.209 E7.03780
G1 X91.540 Y95.549 E7.05630
G1 X92.235 Y96.245 E7.10157
G1 X92.021 Y96.584 E7.12007
G1 X91.326 Y95.889 E7.16530
G1 X91.112 Y96.230 E7.18380
G1 X91.806 Y96.924 E7.22900
G1 X91.592 Y97.264 E7.24750
G1 X90.897 Y96.570 E7.29267
G1 X90.683 Y96.911 E7.31117
G1 X91.377 Y97.604 E7.35630
G1 X91.162 Y97.944 E7.37480
G1 X90.469 Y97.251 E7.41990
G1 X90.255 Y97.592 E7.43840
G1 X90.948 Y98.284 E7.48346
G1 X90.733 Y98.624 E7.50196
G1 X90.041 Y97.932 E7.54699
G1 X89.827 Y98.272 E7.56550
G1 X90.518 Y98.964 E7.61049
G1 X90.304 Y99.304 E7.62899
G1 X89.613 Y98.613 E7.67395
G1 X89.399 Y98.953 E7.69245
G1 X90.089 Y99.644 E7.73738
G1 X89.874 Y99.984 E7.75588
G1 X89.184 Y99.294 E7.80077
G1 X88.970 Y99.634 E7.81928
G1 X89.660 Y100.323 E7.86413
G1 X89.445 Y100.663 E7.88263
G1 X88.756 Y99.975 E7.92746
G1 X88.542 Y100.315 E7.94596
G1 X89.230 Y101.003 E7.99075
G1 X89.016 Y101.343 E8.00925
G1 X88.328 Y100.655 E8.05400
G1 X88.114 Y100.996 E8.07251
G1 X88.801 Y101.683 E8.11723
G1 X88.586 Y102.023 E8.13573
G1 X87.900 Y101.336 E8.18042
G1 X87.685 Y101.677 E8.19892
G1 X88.372 Y102.363 E8.24358
G1 X88.157 Y102.703 E8.26207
G1 X87.471 Y102.017 E8.30669
G1 X87.257 Y102.358 E8.32520
G1 X87.942 Y103.043 E8.36979
G1 X87.728 Y103.383 E8.38828
G1 X87.043 Y102.698 E8.43283
G1 X86.829 Y103.038 E8.45134
G1 X87.513 Y103.723 E8.49586
G1 X87.298 Y104.062 E8.51436
G1 X86.615 Y103.379 E8.55884
G1 X86.401 Y103.719 E8.57735
G1 X87.084 Y104.402 E8.62179
G1 X86.869 Y104.742 E8.64029
G1 X86.187 Y104.060 E8.68471
G1 X85.972 Y104.400 E8.70321
G1 X86.654 Y105.082 E8.74759
G1 X86.440 Y105.422 E8.76609
G1 X85.758 Y104.741 E8.81044
G1 X85.544 Y105.081 E8.82895
G1 X86.225 Y105.762 E8.87326
G1 X86.010 Y106.102 E8.89176
G1 X85.330 Y105.421 E8.93603
G1 X85.116 Y105.762 E8.95454
G1 X85.796 Y106.442 E8.99879
G1 X85.581 Y106.782 E9.01728
G1 X83.575 Y104.775 E9.14785
G1 X83.575 Y105.330 E9.17337
G1 X85.366 Y107.122 E9.28997
G1 X84.887 Y107.197 E9.31229
G1 X83.575 Y105.884 E9.39771
G1 X83.575 Y106.439 E9.42323
G1 X84.333 Y107.197 E9.47257
G1 X83.778 Y107.197 E9.49808
G1 X83.575 Y106.993 E9.51133
G1 X84.427 Y105.073 F7800.000
G1 X83.575 Y104.221 E9.56680 F540.000
G1 X83.575 Y103.666 E9.59232
G1 X84.454 Y104.546 E9.64955
G1 X84.473 Y104.010 E9.67420
G1 X83.575 Y103.112 E9.73268
G1 X83.575 Y102.557 E9.75820
G1 X84.489 Y103.472 E9.81773
G1 X84.505 Y102.933 E9.84252
G1 X83.575 Y102.002 E9.90309
G1 X83.575 Y101.448 E9.92861
G1 X84.516 Y102.389 E9.98985
G1 X84.516 Y101.834 E10.01537
G1 X83.575 Y100.893 E10.07661
G1 X83.575 Y100.339 E10.10213
G1 X84.516 Y101.280 E10.16337
G1 X84.516 Y100.725 E10.18889
G1 X83.575 Y99.784 E10.25013
G1 X83.575 Y99.230 E10.27564
G1 X84.516 Y100.171 E10.33688
G1 X84.516 Y99.616 E10.36240
G1 X83.575 Y98.675 E10.42364
G1 X83.575 Y98.120 E10.44916
G1 X84.516 Y99.062 E10.51040
G1 X84.516 Y98.507 E10.53592
G1 X83.575 Y97.566 E10.59716
G1 X83.575 Y97.011 E10.62268
G1 X84.516 Y97.952 E10.68392
G1 X84.516 Y97.398 E10.70943
G1 X83.575 Y96.457 E10.77067
G1 X83.575 Y95.902 E10.79619
G1 X84.516 Y96.843 E10.85743
G1 X84.516 Y96.289 E10.88295
G1 X83.575 Y95.348 E10.94419
G1 X83.575 Y94.793 E10.96971
G1 X84.516 Y95.734 E11.03095
G1 X84.516 Y95.180 E11.05647
G1 X83.575 Y94.238 E11.11771
G1 X83.575 Y93.684 E11.14322
G1 X84.516 Y94.625 E11.20446
G1 X84.516 Y94.070 E11.22998
G1 X83.575 Y93.129 E11.29122
G1 X83.803 Y92.803 E11.30955
G1 X84.516 Y93.516 E11.35594
M106 S255
G92 E0
G1 Z0.600 F7800.000
G1 X115.861 Y103.783 F7800.000
G1 X115.104 Y104.879 E0.39907 F600.000
G1 X114.641 Y105.424 E0.61327
G1 X114.517 Y105.540 E0.66419
G1 X113.840 Y106.059 E0.91981
G1 X113.447 Y106.278 E1.05467
G1 X112.850 Y106.550 E1.25120
G1 X112.437 Y106.685 E1.38132
G1 X111.652 Y106.874 E1.62349
G1 X111.356 Y106.915 E1.71289
G1 X110.256 Y106.992 E2.04330
G1 X108.595 Y106.811 E2.54416
G1 X108.283 Y106.749 E2.63944
G1 X107.032 Y106.256 E3.04239
G1 X106.715 Y106.095 E3.14885
G1 X105.681 Y105.260 E3.54706
G1 X105.489 Y105.081 E3.62575
G1 X104.662 Y103.857 E4.06831
G1 X104.592 Y103.747 E4.10737
G1 X104.543 Y103.614 E4.14996
G1 X104.039 Y102.094 E4.62983
G1 X103.843 Y100.047 E5.24586
G1 X103.950 Y98.660 E5.66270
G1 X104.064 Y97.996 E5.86470
G1 X104.218 Y97.420 E6.04324
G1 X104.619 Y96.326 E6.39258
G1 X105.199 Y95.408 E6.71790
G1 X105.513 Y95.010 E6.86976
G1 X105.886 Y94.624 E7.03068
G1 X106.730 Y93.966 E7.35120
G1 X107.095 Y93.761 E7.47684
G1 X107.746 Y93.477 E7.68949
G1 X108.446 Y93.246 E7.91036
G1 X108.914 Y93.144 E8.05388
G1 X110.248 Y93.015 E8.45566
G1 X110.497 Y93.029 E8.53030
G1 X111.547 Y93.164 E8.84756
G1 X112.467 Y93.364 E9.12965
G1 X112.720 Y93.440 E9.20882
G1 X113.728 Y94.003 E9.55475
G1 X114.432 Y94.496 E9.81217
G1 X114.641 Y94.666 E9.89306
G1 X115.357 Y95.561 E10.23633
G1 X116.035 Y96.600 E10.60816
G92 E0
G1 X110.251 Y92.160 F7800.000
G1 X110.251 Y92.160 F7800.000
G1 X110.179 Y91.161 F7800.000
G1 X108.702 Y91.215 F7800.000
G1 X108.530 Y91.228 F7800.000
G1 X107.158 Y91.389 F7800.000
G1 X106.929 Y91.427 F7800.000
G1 X105.620 Y91.705 F7800.000
G1 X105.312 Y91.787 F7800.000
G1 X104.045 Y92.188 F7800.000
G1 X103.619 Y92.347 F7800.000
G1 X102.366 Y92.889 F7800.000
G1 X101.796 Y93.171 F7800.000
G1 X100.507 Y93.887 F7800.000
G1 X99.786 Y94.334 F7800.000
G1 X99.749 Y94.360 F7800.000
G1 X97.741 Y92.352 F7800.000
G1 X95.549 Y91.256 F7800.000
G1 X93.055 Y91.256 F7800.000
G1 X91.844 Y91.590 F7800.000
G1 X88.335 Y93.528 F7800.000
G1 X87.159 Y92.352 F7800.000
G1 X84.967 Y92.352 F7800.000
G1 X84.045 Y92.352 F7800.000
G1 X84.045 Y102.501 E3.04120 F600.000
G1 X83.996 Y105.185 E3.84543
G1 X84.382 Y106.390 E4.22466
G1 X84.570 Y106.422 E4.28197
G1 X84.870 Y106.449 E4.37217
G1 X85.693 Y105.726 E4.70041
G1 X92.969 Y94.181 E8.78972
G1 X93.693 Y93.507 E9.08590
G1 X94.092 Y93.535 E9.20579
G1 X94.324 Y93.577 E9.27644
G1 X94.676 Y94.729 E9.63746
G1 X94.616 Y97.625 E10.50543
G1 X94.616 Y107.648 E13.50886
G92 E0
G1 Z0.900 F7800.000
G1 X115.861 Y103.783 F7800.000
G1 X115.104 Y104.879 E0.39907 F600.000
G1 X114.641 Y105.424 E0.61327
G1 X114.517 Y105.540 E0.66419
G1 X113.840 Y106.059 E0.91981
G1 X113.447 Y106.278 E1.05467
G1 X112.850 Y106.550 E1.25120
G1 X112.437 Y106.685 E1.38132
G1 X111.652 Y106.874 E1.62349
G1 X111.356 Y106.915 E1.71289
G1 X110.256 Y106.992 E2.04330
G1 X108.595 Y106.811 E2.54416
G1 X108.283 Y106.749 E2.63944
G1 X107.032 Y106.256 E3.04239
G1 X106.715 Y106.095 E3.14885
G1 X105.681 Y105.260 E3.54706
G1 X105.489 Y105.081 E3.62575
G1 X104.662 Y103.857 E4.06831
G1 X104.592 Y103.747 E4.10737
G1 X104.543 Y103.614 E4.14996
G1 X104.039 Y102.094 E4.62983
G1 X103.843 Y100.047 E5.24586
G1 X103.950 Y98.660 E5.66270
G1 X104.064 Y97.996 E5.86470
G1 X104.218 Y97.420 E6.04324
G1 X104.619 Y96.326 E6.39258
G1 X105.199 Y95.408 E6.71790
G1 X105.513 Y95.010 E6.86976
G1 X105.886 Y94.624 E7.03068
G1 X106.730 Y93.966 E7.35120
G1 X107.095 Y93.761 E7.47684
G1 X107.746 Y93.477 E7.68949
G1 X108.446 Y93.246 E7.91036
G1 X108.914 Y93.144 E8.05388
G1 X110.248 Y93.015 E8.45566
G1 X110.497 Y93.029 E8.53030
G1 X111.547 Y93.164 E8.84756
G1 X112.467 Y93.364 E9.12965
G1 X112.720 Y93.440 E9.20882
G1 X113.728 Y94.003 E9.55475
G1 X114.432 Y94.496 E9.81217
G1 X114.641 Y94.666 E9.89306
G1 X115.357 Y95.561 E10.23633
G1 X116.035 Y96.600 E10.60816
G92 E0
G1 X110.251 Y92.160 F7800.000
G1 X110.251 Y92.160 F7800.000
G1 X110.179 Y91.161 F7800.000
G1 X108.702 Y91.215 F7800.000
G1 X108.530 Y91.228 F7800.000
G1 X107.158 Y91.389 F7800.000
G1 X106.929 Y91.427 F7800.000
G1 X105.620 Y91.705 F7800.000
G1 X105.312 Y91.787 F7800.000
G1 X104.045 Y92.188 F7800.000
G1 X103.619 Y92.347 F7800.000
G1 X102.366 Y92.889 F7800.000
G1 X101.796 Y93.171 F7800.000
G1 X100.507 Y93.887 F7800.000
G1 X99.786 Y94.334 F7800.000
