; generated by Slic3r 1.2.9 on 2016-03-11 at 01:27:45

; external perimeters extrusion width = 1.54mm
; perimeters extrusion width = 2.62mm
; infill extrusion width = 6.27mm
; solid infill extrusion width = 2.62mm
; top infill extrusion width = 2.62mm

M107
M104 S30 ; set temperature
G28 ; home all axes
G1 Z5 F5000 ; lift nozzle
M302
M92 E10000
M500
M501
G1 E100
M109 S30 ; wait for temperature to be reached
G21 ; set units to millimeters
G90 ; use absolute coordinates
M82 ; use absolute distances for extrusion
G92 E0
G1 Z0.300 F7800.000
G1 X112.857 Y93.819 F7800.000
G1 X106.016 Y93.819 E0.30956 F378.000
G1 X106.016 Y99.611 E0.57165
G1 X114.865 Y99.611 E0.97206
G1 X114.865 Y100.831 E1.02726
G1 X106.016 Y100.831 E1.42767
G1 X106.016 Y106.181 E1.66976
G1 X115.515 Y106.181 E2.09958
G1 X115.515 Y107.423 E2.15578
G1 X104.395 Y107.423 E2.65895
G1 X104.395 Y92.577 E3.33072
G1 X115.959 Y92.577 E3.85398
G1 X115.959 Y93.819 E3.91018
G1 X113.088 Y93.819 E4.04008 F378.000
G1 X115.733 Y93.007 F7800.000
G1 X115.529 Y92.803 E4.05312 F540.000
G1 X114.984 Y92.803 E4.07782
G1 X115.733 Y93.552 E4.12579
G1 X115.228 Y93.593 E4.14872
G1 X114.438 Y92.803 E4.19930
G1 X113.892 Y92.803 E4.22400
G1 X114.682 Y93.593 E4.27459
G1 X114.137 Y93.593 E4.29929
G1 X113.347 Y92.803 E4.34988
G1 X112.801 Y92.803 E4.37458
G1 X113.591 Y93.593 E4.42516
G1 X113.046 Y93.593 E4.44987
G1 X112.256 Y92.803 E4.50045
G1 X111.710 Y92.803 E4.52515
G1 X112.500 Y93.593 E4.57574
G1 X111.954 Y93.593 E4.60044
G1 X111.164 Y92.803 E4.65103
G1 X110.619 Y92.803 E4.67573
G1 X111.409 Y93.593 E4.72631
G1 X110.863 Y93.593 E4.75101
G1 X110.073 Y92.803 E4.80160
G1 X109.527 Y92.803 E4.82630
G1 X110.317 Y93.593 E4.87689
G1 X109.772 Y93.593 E4.90159
G1 X108.982 Y92.803 E4.95217
G1 X108.436 Y92.803 E4.97688
G1 X109.226 Y93.593 E5.02746
G1 X108.681 Y93.593 E5.05216
G1 X107.890 Y92.803 E5.10275
G1 X107.345 Y92.803 E5.12745
G1 X108.135 Y93.593 E5.17804
G1 X107.589 Y93.593 E5.20274
G1 X106.799 Y92.803 E5.25332
G1 X106.254 Y92.803 E5.27803
G1 X107.044 Y93.593 E5.32861
G1 X106.498 Y93.593 E5.35331
G1 X105.708 Y92.803 E5.40390
G1 X105.162 Y92.803 E5.42860
G1 X105.952 Y93.593 E5.47918
G1 X105.790 Y93.976 F7800.000
G1 X104.639 Y92.825 E5.55289 F540.000
G1 X104.621 Y93.353 E5.57679
G1 X105.790 Y94.522 E5.65164
G1 X105.790 Y95.067 E5.67634
G1 X104.621 Y93.898 E5.75120
G1 X104.621 Y94.444 E5.77590
G1 X105.790 Y95.613 E5.85075
G1 X105.790 Y96.159 E5.87545
G1 X104.621 Y94.990 E5.95030
G1 X104.621 Y95.535 E5.97501
G1 X105.790 Y96.704 E6.04986
G1 X105.790 Y97.250 E6.07456
G1 X104.621 Y96.081 E6.14941
G1 X104.621 Y96.626 E6.17411
G1 X105.790 Y97.796 E6.24896
G1 X105.790 Y98.341 E6.27367
G1 X104.621 Y97.172 E6.34852
G1 X104.621 Y97.718 E6.37322
G1 X105.790 Y98.887 E6.44807
G1 X105.790 Y99.432 E6.47277
G1 X104.621 Y98.263 E6.54762
G1 X104.621 Y98.809 E6.57233
G1 X106.417 Y100.605 E6.68732
G1 X105.871 Y100.605 E6.71202
G1 X104.621 Y99.355 E6.79208
G1 X104.621 Y99.900 E6.81678
G1 X105.790 Y101.069 E6.89163
G1 X105.790 Y101.615 E6.91633
G1 X104.621 Y100.446 E6.99118
G1 X104.621 Y100.992 E7.01589
G1 X105.790 Y102.161 E7.09074
G1 X105.790 Y102.706 E7.11544
G1 X104.621 Y101.537 E7.19029
G1 X104.621 Y102.083 E7.21499
G1 X105.790 Y103.252 E7.28985
G1 X105.790 Y103.798 E7.31455
G1 X104.621 Y102.628 E7.38940
G1 X104.621 Y103.174 E7.41410
G1 X105.790 Y104.343 E7.48895
G1 X105.790 Y104.889 E7.51365
G1 X104.621 Y103.720 E7.58851
G1 X104.621 Y104.265 E7.61321
G1 X105.790 Y105.434 E7.68806
G1 X105.790 Y105.980 E7.71276
G1 X104.621 Y104.811 E7.78761
G1 X104.621 Y105.357 E7.81231
G1 X106.461 Y107.197 E7.93015
G1 X107.007 Y107.197 E7.95485
G1 X106.217 Y106.407 E8.00544
G1 X106.762 Y106.407 E8.03014
G1 X107.553 Y107.197 E8.08073
G1 X108.098 Y107.197 E8.10543
G1 X107.308 Y106.407 E8.15601
G1 X107.854 Y106.407 E8.18072
G1 X108.644 Y107.197 E8.23130
G1 X109.189 Y107.197 E8.25600
G1 X108.399 Y106.407 E8.30659
G1 X108.945 Y106.407 E8.33129
G1 X109.735 Y107.197 E8.38188
G1 X110.281 Y107.197 E8.40658
G1 X109.491 Y106.407 E8.45717
G1 X110.036 Y106.407 E8.48187
G1 X110.826 Y107.197 E8.53245
G1 X111.372 Y107.197 E8.55716
G1 X110.582 Y106.407 E8.60774
G1 X111.127 Y106.407 E8.63244
G1 X111.918 Y107.197 E8.68303
G1 X112.463 Y107.197 E8.70773
G1 X111.673 Y106.407 E8.75832
G1 X112.219 Y106.407 E8.78302
G1 X113.009 Y107.197 E8.83361
G1 X113.554 Y107.197 E8.85831
G1 X112.764 Y106.407 E8.90889
G1 X113.310 Y106.407 E8.93360
G1 X114.100 Y107.197 E8.98418
G1 X114.646 Y107.197 E9.00888
G1 X113.856 Y106.407 E9.05947
G1 X114.401 Y106.407 E9.08417
G1 X115.191 Y107.197 E9.13476
G1 X115.289 Y106.749 E9.15552
G1 X114.947 Y106.407 E9.17742
G92 E0
G1 X105.241 Y106.648 F7800.000
G1 X105.241 Y106.648 F7800.000
G1 X114.601 Y100.605 F7800.000
G1 X113.833 Y99.837 E0.04918 F540.000
G1 X114.379 Y99.837 E0.07388
G1 X114.639 Y100.097 E0.09053
G1 X114.056 Y100.605 F7800.000
G1 X113.288 Y99.837 E0.13971 F540.000
G1 X112.742 Y99.837 E0.16441
G1 X113.510 Y100.605 E0.21359
G1 X112.964 Y100.605 E0.23829
G1 X112.196 Y99.837 E0.28747
G1 X111.651 Y99.837 E0.31217
G1 X112.419 Y100.605 E0.36135
G1 X111.873 Y100.605 E0.38605
G1 X111.105 Y99.837 E0.43522
G1 X110.559 Y99.837 E0.45993
G1 X111.328 Y100.605 E0.50910
G1 X110.782 Y100.605 E0.53381
G1 X110.014 Y99.837 E0.58298
G1 X109.468 Y99.837 E0.60769
G1 X110.236 Y100.605 E0.65686
G1 X109.691 Y100.605 E0.68157
G1 X108.923 Y99.837 E0.73074
G1 X108.377 Y99.837 E0.75544
G1 X109.145 Y100.605 E0.80462
G1 X108.599 Y100.605 E0.82932
G1 X107.831 Y99.837 E0.87850
G1 X107.286 Y99.837 E0.90320
G1 X108.054 Y100.605 E0.95238
G1 X107.508 Y100.605 E0.97708
G1 X106.740 Y99.837 E1.02626
G1 X106.194 Y99.837 E1.05096
G1 X106.962 Y100.605 E1.10014
G92 E0
G1 X105.241 Y106.648 F7800.000
G1 X105.241 Y106.648 F7800.000
G1 X105.205 Y106.612 F7800.000
G1 X105.170 Y106.648 F7800.000
G1 X104.621 Y105.902 F7800.000
G1 X105.916 Y107.197 E0.08290 F540.000
G1 X105.370 Y107.197 E0.10760
G1 X104.621 Y106.448 E0.15557
G1 X104.621 Y106.993 E0.18027
G1 X104.824 Y107.197 E0.19331
G92 E0
G1 X106.241 Y101.056 F7800.000
G1 X115.696 Y103.468 F7800.000
G1 X116.867 Y108.331 F7800.000
G1 X96.241 Y108.648 F7800.000
G1 X91.030 Y106.302 F7800.000
G1 X93.543 Y97.616 F7800.000
G1 X94.376 Y97.616 F7800.000
G1 X94.624 Y96.676 F7800.000
G1 X94.731 Y94.524 E0.09751 F378.000
G1 X94.327 Y94.395 E0.11671
G1 X86.099 Y107.423 E0.81394
G1 X84.041 Y107.423 E0.90706
G1 X84.041 Y92.577 E1.57883
G1 X85.434 Y92.577 E1.64186
G1 X85.434 Y102.512 E2.09140
G1 X85.380 Y104.320 E2.17326 F378.000
G1 X85.325 Y105.392 E2.22181
G1 X85.730 Y105.520 E2.24103
G1 X93.871 Y92.577 E2.93290
G1 X96.016 Y92.577 E3.02995
G1 X96.016 Y107.423 E3.70172
G1 X94.601 Y107.423 E3.76575
G1 X94.614 Y96.907 E4.24158
G1 X94.933 Y94.923 F7800.000
G1 X95.790 Y95.779 E4.29734 F540.000
G1 X95.790 Y96.334 E4.32286
G1 X94.907 Y95.451 E4.38032
G1 X94.881 Y95.979 E4.40466
G1 X95.790 Y96.889 E4.46382
G1 X95.790 Y97.443 E4.48934
G1 X94.855 Y96.508 E4.55020
G1 X94.836 Y97.044 E4.57487
G1 X95.790 Y97.998 E4.63694
G1 X95.790 Y98.552 E4.66246
G1 X94.827 Y97.589 E4.72513
G1 X94.827 Y98.144 E4.75065
G1 X95.790 Y99.107 E4.81332
G1 X95.790 Y99.661 E4.83884
G1 X94.827 Y98.698 E4.90151
G1 X94.827 Y99.253 E4.92703
G1 X95.790 Y100.216 E4.98970
G1 X95.790 Y100.770 E5.01522
G1 X94.827 Y99.807 E5.07789
G1 X94.827 Y100.362 E5.10341
G1 X95.790 Y101.325 E5.16608
G1 X95.790 Y101.880 E5.19160
G1 X94.827 Y100.917 E5.25427
G1 X94.827 Y101.471 E5.27979
G1 X95.790 Y102.434 E5.34246
G1 X95.790 Y102.989 E5.36798
G1 X94.827 Y102.026 E5.43065
G1 X94.827 Y102.580 E5.45617
G1 X95.790 Y103.543 E5.51884
G1 X95.790 Y104.098 E5.54436
G1 X94.827 Y103.135 E5.60703
G1 X94.827 Y103.689 E5.63255
G1 X95.790 Y104.652 E5.69522
G1 X95.790 Y105.207 E5.72074
G1 X94.827 Y104.244 E5.78341
G1 X94.827 Y104.798 E5.80893
G1 X95.790 Y105.762 E5.87160
G1 X95.790 Y106.316 E5.89712
G1 X94.827 Y105.353 E5.95979
G1 X94.827 Y105.908 E5.98530
G1 X95.790 Y106.871 E6.04798
G1 X95.562 Y107.197 E6.06630
G1 X94.827 Y106.462 E6.11412
G1 X94.827 Y107.017 E6.13964
G1 X95.007 Y107.197 E6.15137
G92 E0
G1 X85.848 Y106.370 F7800.000
G1 X85.574 Y106.470 F7800.000
G1 X85.072 Y106.392 F7800.000
G1 X84.816 Y106.043 F7800.000
G1 X85.120 Y105.073 F7800.000
G1 X84.267 Y104.221 E0.05547 F540.000
G1 X84.267 Y103.666 E0.08099
G1 X85.147 Y104.546 E0.13822
G1 X85.166 Y104.010 E0.16287
G1 X84.267 Y103.112 E0.22135
G1 X84.267 Y102.557 E0.24687
G1 X85.182 Y103.472 E0.30640
G1 X85.198 Y102.933 E0.33119
G1 X84.267 Y102.002 E0.39176
G1 X84.267 Y101.448 E0.41728
G1 X85.208 Y102.389 E0.47852
G1 X85.208 Y101.834 E0.50404
G1 X84.267 Y100.893 E0.56528
G1 X84.267 Y100.339 E0.59080
G1 X85.208 Y101.280 E0.65204
G1 X85.208 Y100.725 E0.67756
G1 X84.267 Y99.784 E0.73880
G1 X84.267 Y99.230 E0.76431
G1 X85.208 Y100.171 E0.82555
G1 X85.208 Y99.616 E0.85107
G1 X84.267 Y98.675 E0.91231
G1 X84.267 Y98.120 E0.93783
G1 X85.208 Y99.062 E0.99907
G1 X85.208 Y98.507 E1.02459
G1 X84.267 Y97.566 E1.08583
G1 X84.267 Y97.011 E1.11135
G1 X85.208 Y97.952 E1.17259
G1 X85.208 Y97.398 E1.19810
G1 X84.267 Y96.457 E1.25934
G1 X84.267 Y95.902 E1.28486
G1 X85.208 Y96.843 E1.34610
G1 X85.208 Y96.289 E1.37162
G1 X84.267 Y95.348 E1.43286
G1 X84.267 Y94.793 E1.45838
G1 X85.208 Y95.734 E1.51962
G1 X85.208 Y95.180 E1.54514
G1 X84.267 Y94.238 E1.60638
G1 X84.267 Y93.684 E1.63189
G1 X85.208 Y94.625 E1.69313
G1 X85.208 Y94.070 E1.71865
G1 X84.267 Y93.129 E1.77989
G1 X84.495 Y92.803 E1.79822
G1 X85.208 Y93.516 E1.84461
G92 E0
G1 X94.184 Y93.535 F7800.000
G1 X94.364 Y93.470 F7800.000
G1 X95.021 Y93.572 F7800.000
G1 X95.241 Y93.352 F7800.000
G1 X95.790 Y93.007 F7800.000
G1 X95.587 Y92.803 E0.01325 F540.000
G1 X95.032 Y92.803 E0.03877
G1 X95.790 Y93.561 E0.08810
G1 X95.790 Y94.116 E0.11362
G1 X94.477 Y92.803 E0.19905
G1 X93.945 Y92.826 E0.22355
G1 X95.790 Y94.670 E0.34359
G1 X95.790 Y95.225 E0.36911
G1 X93.731 Y93.166 E0.50309
G1 X93.517 Y93.506 E0.52160
G1 X94.216 Y94.205 E0.56707
G1 X94.001 Y94.545 E0.58557
G1 X93.303 Y93.847 E0.63100
G1 X93.089 Y94.187 E0.64951
G1 X93.787 Y94.885 E0.69491
G1 X93.572 Y95.225 E0.71341
G1 X92.875 Y94.528 E0.75878
G1 X92.661 Y94.868 E0.77728
G1 X93.357 Y95.565 E0.82262
G1 X93.143 Y95.905 E0.84112
G1 X92.447 Y95.209 E0.88642
G1 X92.232 Y95.549 E0.90492
G1 X92.928 Y96.245 E0.95019
G1 X92.713 Y96.584 E0.96869
G1 X92.018 Y95.889 E1.01392
G1 X91.804 Y96.230 E1.03243
G1 X92.499 Y96.924 E1.07762
G1 X92.284 Y97.264 E1.09612
G1 X91.590 Y96.570 E1.14129
G1 X91.376 Y96.911 E1.15979
G1 X92.069 Y97.604 E1.20492
G1 X91.855 Y97.944 E1.22342
G1 X91.162 Y97.251 E1.26852
G1 X90.948 Y97.592 E1.28702
G1 X91.640 Y98.284 E1.33208
G1 X91.425 Y98.624 E1.35058
G1 X90.733 Y97.932 E1.39561
G1 X90.519 Y98.272 E1.41412
G1 X91.211 Y98.964 E1.45911
G1 X90.996 Y99.304 E1.47761
G1 X90.305 Y98.613 E1.52257
G1 X90.091 Y98.953 E1.54108
G1 X90.781 Y99.644 E1.58600
G1 X90.567 Y99.984 E1.60450
G1 X89.877 Y99.294 E1.64939
G1 X89.663 Y99.634 E1.66790
G1 X90.352 Y100.323 E1.71275
G1 X90.137 Y100.663 E1.73125
G1 X89.449 Y99.975 E1.77608
G1 X89.234 Y100.315 E1.79458
G1 X89.923 Y101.003 E1.83937
G1 X89.708 Y101.343 E1.85787
G1 X89.020 Y100.655 E1.90263
G1 X88.806 Y100.996 E1.92113
G1 X89.493 Y101.683 E1.96585
G1 X89.279 Y102.023 E1.98435
G1 X88.592 Y101.336 E2.02904
G1 X88.378 Y101.677 E2.04754
G1 X89.064 Y102.363 E2.09220
G1 X88.849 Y102.703 E2.11070
G1 X88.164 Y102.017 E2.15532
G1 X87.950 Y102.358 E2.17382
G1 X88.635 Y103.043 E2.21841
G1 X88.420 Y103.383 E2.23691
G1 X87.736 Y102.698 E2.28146
G1 X87.521 Y103.038 E2.29996
G1 X88.206 Y103.723 E2.34448
G1 X87.991 Y104.062 E2.36298
G1 X87.307 Y103.379 E2.40746
G1 X87.093 Y103.719 E2.42597
G1 X87.776 Y104.402 E2.47042
G1 X87.562 Y104.742 E2.48891
G1 X86.879 Y104.060 E2.53333
G1 X86.665 Y104.400 E2.55184
G1 X87.347 Y105.082 E2.59622
G1 X87.132 Y105.422 E2.61471
G1 X86.451 Y104.741 E2.65906
G1 X86.237 Y105.081 E2.67757
G1 X86.918 Y105.762 E2.72188
G1 X86.703 Y106.102 E2.74038
G1 X86.022 Y105.421 E2.78466
G1 X85.808 Y105.762 E2.80316
G1 X86.488 Y106.442 E2.84741
G1 X86.274 Y106.782 E2.86591
G1 X84.267 Y104.775 E2.99648
G1 X84.267 Y105.330 E3.02199
G1 X86.059 Y107.122 E3.13859
G1 X85.580 Y107.197 E3.16091
G1 X84.267 Y105.884 E3.24634
G1 X84.267 Y106.439 E3.27185
G1 X85.025 Y107.197 E3.32119
G1 X84.471 Y107.197 E3.34671
G1 X84.267 Y106.993 E3.35995
M106 S255
G92 E0
G1 Z0.600 F7800.000
G1 X116.184 Y93.198 F7800.000
G1 X106.241 Y93.198 E2.97938 F600.000
G1 X105.286 Y93.468 E3.27683
G1 X105.205 Y94.044 E3.45118
G1 X105.205 Y99.386 E5.05189
G1 X106.076 Y103.706 E6.37226
G1 X105.241 Y106.648 F7800.000
G1 X105.241 Y106.648 F7800.000
G1 X115.740 Y106.802 F7800.000
G1 X106.241 Y106.802 E9.21860 F600.000
G1 X105.286 Y106.532 E9.51604
G1 X105.205 Y105.956 E9.69039
G1 X105.205 Y101.056 E11.15866
G1 X105.374 Y100.221 E11.41390
G1 X115.090 Y100.221 E14.32531
G92 E0
G1 X115.497 Y96.731 F7800.000
G1 X117.012 Y91.524 F7800.000
G1 X96.241 Y91.352 F7800.000
G1 X88.985 Y93.678 F7800.000
G1 X87.659 Y92.352 F7800.000
G1 X85.659 Y92.352 F7800.000
G1 X84.738 Y92.352 F7800.000
G1 X84.738 Y102.501 E3.04119 F600.000
G1 X84.688 Y105.185 E3.84543
G1 X85.074 Y106.390 E4.22466
G1 X85.263 Y106.422 E4.28197
G1 X85.562 Y106.449 E4.37217
G1 X86.385 Y105.726 E4.70041
G1 X93.662 Y94.181 E8.78972
G1 X94.385 Y93.507 E9.08590
G1 X94.784 Y93.535 E9.20579
G1 X95.017 Y93.577 E9.27644
G1 X95.369 Y94.729 E9.63746
G1 X95.309 Y97.625 E10.50543
G1 X95.309 Y107.648 E13.50886
G92 E0
G1 Z0.900 F7800.000
G1 X116.184 Y93.198 F7800.000
G1 X106.241 Y93.198 E2.97938 F600.000
G1 X105.286 Y93.468 E3.27683
G1 X105.205 Y94.044 E3.45118
G1 X105.205 Y99.386 E5.05189
G1 X106.076 Y103.706 E6.37226
G1 X105.241 Y106.648 F7800.000
G1 X105.241 Y106.648 F7800.000
G1 X115.740 Y106.802 F7800.000
G1 X106.241 Y106.802 E9.21860 F600.000
G1 X105.286 Y106.532 E9.51604
G1 X105.205 Y105.956 E9.69039
G1 X105.205 Y101.056 E11.15866
G1 X105.374 Y100.221 E11.41390
G1 X115.090 Y100.221 E14.32531
G92 E0
G1 X115.497 Y96.731 F7800.000
G1 X117.012 Y91.524 F7800.000
G1 X96.241 Y91.352 F7800.000
G1 X88.985 Y93.678 F7800.000
G1 X87.659 Y92.352 F7800.000
G1 X85.659 Y92.352 F7800.000
G1 X84.738 Y92.352 F7800.000
G1 X84.738 Y102.501 E3.04119 F600.000
G1 X84.688 Y105.185 E3.84543
G1 X85.074 Y106.390 E4.22466
G1 X85.263 Y106.422 E4.28197
G1 X85.562 Y106.449 E4.37217
G1 X86.385 Y105.726 E4.70041
G1 X93.662 Y94.181 E8.78972
G1 X94.385 Y93.507 E9.08590
G1 X94.784 Y93.535 E9.20579
G1 X95.017 Y93.577 E9.27644
G1 X95.369 Y94.729 E9.63746
G1 X95.309 Y97.625 E10.50543
G1 X95.309 Y107.648 E13.50886
G92 E0
G1 Z1.200 F7800.000
G1 X116.184 Y93.198 F7800.000
G1 X106.241 Y93.198 E2.97938 F600.000
G1 X105.286 Y93.468 E3.27683
G1 X105.205 Y94.044 E3.45118
G1 X105.205 Y99.386 E5.05189
G1 X106.076 Y103.706 E6.37226
G1 X105.241 Y106.648 F7800.000
G1 X105.241 Y106.648 F7800.000
G1 X115.740 Y106.802 F7800.000
G1 X106.241 Y106.802 E9.21860 F600.000
G1 X105.286 Y106.532 E9.51604
G1 X105.205 Y105.956 E9.69039
G1 X105.205 Y101.056 E11.15866
G1 X105.374 Y100.221 E11.41390
G1 X115.090 Y100.221 E14.32531
G92 E0
G1 X115.497 Y96.731 F7800.000
G1 X117.012 Y91.524 F7800.000
G1 X96.241 Y91.352 F7800.000
G1 X88.985 Y93.678 F7800.000
G1 X87.659 Y92.352 F7800.000
G1 X85.659 Y92.352 F7800.000
G1 X84.738 Y92.352 F7800.000
G1 X84.738 Y102.501 E3.04119 F600.000
G1 X84.688 Y105.185 E3.84543
G1 X85.074 Y106.390 E4.22466
G1 X85.263 Y106.422 E4.28197
G1 X85.562 Y106.449 E4.37217
G1 X86.385 Y105.726 E4.70041
G1 X93.662 Y94.181 E8.78972
G1 X94.385 Y93.507 E9.08590
G1 X94.785 Y93.535 E9.20580
G1 X95.017 Y93.577 E9.27644
G1 X95.369 Y94.729 E9.63746
G1 X95.309 Y97.625 E10.50543
G1 X95.309 Y107.648 E13.50886
G92 E0
G1 Z1.500 F7800.000
G1 X116.184 Y93.198 F7800.000
G1 X106.241 Y93.198 E2.97938 F600.000
G1 X105.286 Y93.468 E3.27683
G1 X105.205 Y94.044 E3.45118
G1 X105.205 Y99.386 E5.05189
G1 X106.076 Y103.706 E6.37226
G1 X105.241 Y106.648 F7800.000
G1 X105.241 Y106.648 F7800.000
G1 X115.740 Y106.802 F7800.000
G1 X106.241 Y106.802 E9.21860 F600.000
G1 X105.286 Y106.532 E9.51604
G1 X105.205 Y105.956 E9.69039
G1 X105.205 Y101.056 E11.15866
G1 X105.374 Y100.221 E11.41390
G1 X115.090 Y100.221 E14.32531
G92 E0
G1 X115.497 Y96.731 F7800.000
