; generated by Slic3r 1.2.9 on 2016-03-11 at 01:27:46

; external perimeters extrusion width = 1.54mm
; perimeters extrusion width = 2.62mm
; infill extrusion width = 6.27mm
; solid infill extrusion width = 2.62mm
; top infill extrusion width = 2.62mm

M107
M104 S30 ; set temperature
G28 ; home all axes
G1 Z5 F5000 ; lift nozzle
M302
M92 E10000
M500
M501
G1 E100
M109 S30 ; wait for temperature to be reached
G21 ; set units to millimeters
G90 ; use absolute coordinates
M82 ; use absolute distances for extrusion
G92 E0
G1 Z0.300 F7800.000
G1 X102.978 Y98.192 F7800.000
G1 X103.198 Y97.183 E0.04672 F378.000
G1 X103.692 Y95.956 E0.10655
G1 X104.371 Y94.893 E0.16364
G1 X105.223 Y94.012 E0.21912
G1 X106.252 Y93.309 E0.27549
G1 X107.444 Y92.797 E0.33419
G1 X108.785 Y92.489 E0.39646
G1 X110.278 Y92.385 E0.46420
G1 X111.457 Y92.452 E0.51763
G1 X111.592 Y92.459 E0.52371 F378.000
G1 X112.839 Y92.680 E0.58102
G1 X114.019 Y93.048 E0.63696
G1 X115.106 Y93.550 E0.69114
G1 X116.071 Y94.172 E0.74309
G1 X116.853 Y94.857 E0.79012
G1 X116.853 Y99.807 E1.01411
G1 X110.827 Y99.807 E1.28678
G1 X110.827 Y98.522 E1.34492
G1 X115.395 Y98.522 E1.55162
G1 X115.395 Y95.430 E1.69155
G1 X114.709 Y94.866 E1.73172
G1 X113.981 Y94.436 E1.76997
G1 X113.145 Y94.084 E1.81103
G1 X112.233 Y93.824 E1.85394
G1 X111.277 Y93.668 E1.89778
G1 X110.270 Y93.615 E1.94340
G1 X108.597 Y93.806 E2.01957
G1 X107.166 Y94.387 E2.08948
G1 X105.996 Y95.358 E2.15828
G1 X105.135 Y96.660 E2.22888
G1 X104.622 Y98.231 E2.30367
G1 X104.453 Y100.064 E2.38699
G1 X104.612 Y101.895 E2.47012
G1 X105.095 Y103.443 E2.54352
G1 X105.908 Y104.705 E2.61144
G1 X107.034 Y105.636 E2.67755
G1 X108.444 Y106.191 E2.74614
G1 X110.119 Y106.374 E2.82239
G1 X111.228 Y106.306 E2.87264
G1 X112.212 Y106.102 E2.91811
G1 X113.077 Y105.758 E2.96022
G1 X113.826 Y105.261 E3.00091
G1 X114.457 Y104.600 E3.04227
G1 X114.868 Y103.944 E3.07728
G1 X116.405 Y104.397 E3.14978
G1 X115.906 Y105.266 E3.19509
G1 X115.126 Y106.137 E3.24804
G1 X114.193 Y106.789 E3.29954
G1 X113.074 Y107.245 E3.35422
G1 X111.736 Y107.522 E3.41604
G1 X110.184 Y107.614 E3.48640
G1 X108.001 Y107.393 E3.58567
G1 X106.189 Y106.736 E3.67287
G1 X104.733 Y105.648 E3.75513
G1 X103.664 Y104.161 E3.83801
G1 X103.018 Y102.303 E3.92700
G1 X102.801 Y100.062 E4.02890
G1 X102.900 Y98.552 E4.09735
G1 X102.929 Y98.418 E4.10358
G1 X104.663 Y102.912 F7800.000
G1 X103.167 Y101.416 E4.19997 F540.000
G1 X103.108 Y100.808 E4.22781
G1 X104.415 Y102.114 E4.31199
G1 X104.343 Y101.494 E4.34046
G1 X103.049 Y100.200 E4.42383
G1 X103.049 Y99.650 E4.44887
G1 X104.291 Y100.892 E4.52889
G1 X104.238 Y100.291 E4.55640
G1 X103.083 Y99.135 E4.63086
G1 X103.117 Y98.620 E4.65438
G1 X104.261 Y99.764 E4.72810
G1 X104.307 Y99.261 E4.75110
G1 X103.202 Y98.156 E4.82235
G1 X103.300 Y97.705 E4.84338
G1 X104.354 Y98.759 E4.91130
G1 X104.400 Y98.256 E4.93431
G1 X103.398 Y97.254 E4.99890
G1 X103.547 Y96.854 E5.01834
G1 X104.534 Y97.841 E5.08193
G1 X104.669 Y97.427 E5.10177
G1 X103.705 Y96.463 E5.16391
G1 X103.863 Y96.071 E5.18314
G1 X104.804 Y97.013 E5.24382
G1 X104.941 Y96.600 E5.26362
G1 X104.069 Y95.728 E5.31983
G1 X104.283 Y95.393 E5.33795
G1 X105.160 Y96.270 E5.39446
G1 X105.378 Y95.939 E5.41251
G1 X104.497 Y95.058 E5.46932
G1 X104.762 Y94.774 E5.48702
G1 X105.597 Y95.609 E5.54084
G1 X105.815 Y95.278 E5.55889
G1 X105.036 Y94.499 E5.60910
G1 X105.311 Y94.224 E5.62679
G1 X106.104 Y95.018 E5.67791
G1 X106.404 Y94.769 E5.69568
G1 X105.615 Y93.979 E5.74656
G1 X105.941 Y93.756 E5.76456
G1 X106.704 Y94.520 E5.81376
G1 X107.005 Y94.271 E5.83153
G1 X106.267 Y93.534 E5.87904
G1 X106.642 Y93.359 E5.89788
G1 X107.370 Y94.087 E5.94478
G1 X107.761 Y93.929 E5.96399
G1 X107.026 Y93.195 E6.01130
G1 X107.411 Y93.030 E6.03035
G1 X108.151 Y93.770 E6.07807
G1 X108.542 Y93.612 E6.09727
G1 X107.849 Y92.919 E6.14189
G1 X108.296 Y92.817 E6.16276
G1 X109.019 Y93.540 E6.20935
G1 X109.512 Y93.483 E6.23195
G1 X108.742 Y92.714 E6.28153
G1 X109.255 Y92.677 E6.30494
G1 X110.004 Y93.427 E6.35324
G1 X110.524 Y93.398 E6.37697
G1 X109.768 Y92.642 E6.42570
G1 X110.293 Y92.617 E6.44962
G1 X111.104 Y93.428 E6.50186
G1 X111.722 Y93.497 F7800.000
G1 X110.875 Y92.650 E6.55643 F540.000
G1 X111.457 Y92.683 E6.58298
G1 X112.378 Y93.604 E6.64235
G1 X113.146 Y93.823 F7800.000
G1 X112.122 Y92.798 E6.70837 F540.000
G1 X112.810 Y92.937 E6.74035
G1 X114.052 Y94.180 E6.82039
G1 X114.567 Y93.597 F7800.000
G1 X116.627 Y95.656 E6.95312 F540.000
G1 X116.627 Y95.107 F7800.000
G1 X116.228 Y94.709 E6.97881 F540.000
G1 X113.608 Y93.186 F7800.000
G1 X116.627 Y96.206 E7.17337 F540.000
G1 X116.627 Y96.755 E7.19838
G1 X115.621 Y95.749 E7.26321
G1 X115.621 Y96.298 E7.28823
G1 X116.627 Y97.304 E7.35306
G1 X116.627 Y97.853 E7.37808
G1 X115.621 Y96.847 E7.44291
G1 X115.621 Y97.396 E7.46792
G1 X116.627 Y98.402 E7.53275
G1 X116.627 Y98.951 E7.55777
G1 X115.621 Y97.945 E7.62260
G1 X115.621 Y98.494 E7.64762
G1 X116.627 Y99.500 E7.71244
G1 X116.158 Y99.581 E7.73410
G1 X115.325 Y98.748 E7.78778
G1 X114.776 Y98.748 E7.81280
G1 X115.609 Y99.581 E7.86648
G1 X115.060 Y99.581 E7.89150
G1 X114.227 Y98.748 E7.94518
G1 X113.678 Y98.748 E7.97020
G1 X114.511 Y99.581 E8.02388
G1 X113.962 Y99.581 E8.04890
G1 X113.129 Y98.748 E8.10258
G1 X112.580 Y98.748 E8.12760
G1 X113.413 Y99.581 E8.18128
G1 X112.864 Y99.581 E8.20630
G1 X112.031 Y98.748 E8.25998
G1 X111.482 Y98.748 E8.28500
G1 X112.315 Y99.581 E8.33868
G1 X111.766 Y99.581 E8.36370
G1 X111.053 Y98.868 E8.40962
G92 E0
G1 X115.213 Y104.854 F7800.000
G1 X115.213 Y104.854 F7800.000
G1 X115.216 Y104.863 F7800.000
G1 X115.230 Y104.859 F7800.000
G1 X115.471 Y104.385 F7800.000
G1 X115.925 Y104.839 E0.02924 F540.000
G1 X115.721 Y105.184 E0.04751
G1 X114.861 Y104.323 E0.10297
G1 X114.649 Y104.661 E0.12112
G1 X115.462 Y105.474 E0.17349
G1 X115.200 Y105.761 E0.19120
G1 X114.389 Y104.950 E0.24347
G1 X114.120 Y105.231 E0.26117
G1 X114.925 Y106.036 E0.31305
G1 X114.605 Y106.265 E0.33098
G1 X113.831 Y105.490 E0.38086
G1 X113.501 Y105.710 E0.39891
G1 X114.282 Y106.490 E0.44921
G1 X113.924 Y106.681 E0.46770
G1 X113.171 Y105.929 E0.51619
G1 X112.785 Y106.091 E0.53530
G1 X113.534 Y106.840 E0.58357
G1 X113.144 Y106.999 E0.60276
G1 X112.392 Y106.248 E0.65121
G1 X111.964 Y106.369 E0.67146
G1 X112.702 Y107.106 E0.71898
G1 X112.246 Y107.201 E0.74015
G1 X111.509 Y106.463 E0.78766
G1 X111.036 Y106.539 E0.80949
G1 X111.791 Y107.295 E0.85816
G1 X111.275 Y107.328 E0.88173
G1 X110.519 Y106.571 E0.93048
G1 X109.995 Y106.597 E0.95435
G1 X110.757 Y107.358 E1.00342
G1 X110.233 Y107.383 E1.02732
G1 X109.379 Y106.530 E1.08233
G1 X108.763 Y106.463 E1.11057
G1 X109.622 Y107.322 E1.16591
G1 X109.011 Y107.260 E1.19390
G1 X108.080 Y106.329 E1.25386
G1 X107.174 Y105.972 F7800.000
G1 X108.400 Y107.198 E1.33281 F540.000
G1 X107.640 Y106.987 E1.36874
G1 X103.469 Y102.816 E1.63750
G1 X103.226 Y102.024 E1.67522
G1 X104.962 Y103.760 E1.78705
G1 X103.761 Y103.658 F7800.000
G1 X106.778 Y106.675 E1.98145 F540.000
G1 X105.151 Y105.596 F7800.000
G1 X104.800 Y105.246 E2.00402 F540.000
G92 E0
G1 X102.575 Y100.065 F7800.000
G1 X99.554 Y94.367 F7800.000
G1 X95.347 Y91.256 F7800.000
G1 X88.134 Y93.528 F7800.000
G1 X85.542 Y102.515 F7800.000
G1 X84.765 Y102.515 F7800.000
G1 X84.540 Y95.021 F7800.000
G1 X84.540 Y102.512 E0.33896 F378.000
G1 X84.486 Y104.320 E0.42081 F378.000
G1 X84.431 Y105.392 E0.46937
G1 X84.836 Y105.520 E0.48859
G1 X92.977 Y92.577 E1.18046
G1 X95.122 Y92.577 E1.27751
G1 X95.122 Y107.423 E1.94928
G1 X93.707 Y107.423 E2.01330
G1 X93.707 Y97.618 E2.45697
G1 X93.721 Y96.856 E2.49145
G1 X93.837 Y94.524 E2.59711
G1 X93.433 Y94.395 E2.61631
G1 X85.205 Y107.423 E3.31354
G1 X83.147 Y107.423 E3.40666
G1 X83.147 Y92.577 E4.07843
G1 X84.540 Y92.577 E4.14146
G1 X84.540 Y94.790 E4.24159
G1 X84.314 Y93.516 F7800.000
G1 X83.601 Y92.803 E4.28798 F540.000
G1 X83.373 Y93.129 E4.30631
G1 X84.314 Y94.070 E4.36755
G1 X84.314 Y94.625 E4.39306
G1 X83.373 Y93.684 E4.45430
G1 X83.373 Y94.238 E4.47982
G1 X84.314 Y95.180 E4.54106
G1 X84.314 Y95.734 E4.56658
G1 X83.373 Y94.793 E4.62782
G1 X83.373 Y95.348 E4.65334
G1 X84.314 Y96.289 E4.71458
G1 X84.314 Y96.843 E4.74010
G1 X83.373 Y95.902 E4.80134
G1 X83.373 Y96.457 E4.82685
G1 X84.314 Y97.398 E4.88809
G1 X84.314 Y97.952 E4.91361
G1 X83.373 Y97.011 E4.97485
G1 X83.373 Y97.566 E5.00037
G1 X84.314 Y98.507 E5.06161
G1 X84.314 Y99.062 E5.08713
G1 X83.373 Y98.120 E5.14837
G1 X83.373 Y98.675 E5.17389
G1 X84.314 Y99.616 E5.23513
G1 X84.314 Y100.171 E5.26064
G1 X83.373 Y99.230 E5.32188
G1 X83.373 Y99.784 E5.34740
G1 X84.314 Y100.725 E5.40864
G1 X84.314 Y101.280 E5.43416
G1 X83.373 Y100.339 E5.49540
G1 X83.373 Y100.893 E5.52092
G1 X84.314 Y101.834 E5.58216
G1 X84.314 Y102.389 E5.60768
G1 X83.373 Y101.448 E5.66892
G1 X83.373 Y102.002 E5.69443
G1 X84.304 Y102.933 E5.75501
G1 X84.288 Y103.472 E5.77980
G1 X83.373 Y102.557 E5.83933
G1 X83.373 Y103.112 E5.86485
G1 X84.272 Y104.010 E5.92333
G1 X84.253 Y104.546 E5.94798
G1 X83.373 Y103.666 E6.00521
G1 X83.373 Y104.221 E6.03073
G1 X84.226 Y105.073 E6.08620
G1 X83.373 Y106.993 F7800.000
G1 X83.577 Y107.197 E6.09945 F540.000
G1 X84.131 Y107.197 E6.12496
G1 X83.373 Y106.439 E6.17430
G1 X83.373 Y105.884 E6.19982
G1 X84.686 Y107.197 E6.28524
G1 X85.165 Y107.122 E6.30756
G1 X83.373 Y105.330 E6.42416
G1 X83.373 Y104.775 E6.44968
G1 X85.380 Y106.782 E6.58024
G1 X85.594 Y106.442 E6.59874
G1 X84.914 Y105.762 E6.64299
G1 X85.128 Y105.421 E6.66149
G1 X85.809 Y106.102 E6.70577
G1 X86.024 Y105.762 E6.72427
G1 X85.343 Y105.081 E6.76858
G1 X85.557 Y104.741 E6.78709
G1 X86.238 Y105.422 E6.83144
G1 X86.453 Y105.082 E6.84993
G1 X85.771 Y104.400 E6.89432
G1 X85.985 Y104.060 E6.91282
G1 X86.668 Y104.742 E6.95724
G1 X86.882 Y104.402 E6.97573
G1 X86.199 Y103.719 E7.02018
G1 X86.413 Y103.379 E7.03869
G1 X87.097 Y104.062 E7.08317
G1 X87.312 Y103.723 E7.10167
G1 X86.627 Y103.038 E7.14619
G1 X86.842 Y102.698 E7.16469
G1 X87.526 Y103.383 E7.20924
G1 X87.741 Y103.043 E7.22774
G1 X87.056 Y102.358 E7.27233
G1 X87.270 Y102.017 E7.29083
G1 X87.955 Y102.703 E7.33545
G1 X88.170 Y102.363 E7.35395
G1 X87.484 Y101.677 E7.39861
G1 X87.698 Y101.336 E7.41711
G1 X88.385 Y102.023 E7.46180
G1 X88.599 Y101.683 E7.48030
G1 X87.912 Y100.996 E7.52502
G1 X88.126 Y100.655 E7.54352
G1 X88.814 Y101.343 E7.58828
G1 X89.029 Y101.003 E7.60678
G1 X88.340 Y100.315 E7.65157
G1 X88.555 Y99.975 E7.67007
G1 X89.243 Y100.663 E7.71490
G1 X89.458 Y100.323 E7.73340
G1 X88.769 Y99.634 E7.77825
G1 X88.983 Y99.294 E7.79676
G1 X89.673 Y99.984 E7.84165
G1 X89.887 Y99.644 E7.86015
G1 X89.197 Y98.953 E7.90508
G1 X89.411 Y98.613 E7.92358
G1 X90.102 Y99.304 E7.96854
G1 X90.317 Y98.964 E7.98704
G1 X89.625 Y98.272 E8.03203
G1 X89.839 Y97.932 E8.05054
G1 X90.531 Y98.624 E8.09557
G1 X90.746 Y98.284 E8.11407
G1 X90.054 Y97.592 E8.15913
G1 X90.268 Y97.251 E8.17763
G1 X90.961 Y97.944 E8.22273
G1 X91.175 Y97.604 E8.24123
G1 X90.482 Y96.911 E8.28636
G1 X90.696 Y96.570 E8.30486
G1 X91.390 Y97.264 E8.35003
G1 X91.605 Y96.924 E8.36853
G1 X90.910 Y96.230 E8.41372
G1 X91.124 Y95.889 E8.43223
G1 X91.819 Y96.584 E8.47746
G1 X92.034 Y96.245 E8.49596
G1 X91.338 Y95.549 E8.54123
G1 X91.552 Y95.209 E8.55973
G1 X92.249 Y95.905 E8.60503
G1 X92.463 Y95.565 E8.62353
G1 X91.767 Y94.868 E8.66887
G1 X91.981 Y94.528 E8.68737
G1 X92.678 Y95.225 E8.73274
G1 X92.893 Y94.885 E8.75124
G1 X92.195 Y94.187 E8.79664
G1 X92.409 Y93.847 E8.81515
G1 X93.107 Y94.545 E8.86058
G1 X93.322 Y94.205 E8.87908
G1 X92.623 Y93.506 E8.92455
G1 X92.837 Y93.166 E8.94306
G1 X94.896 Y95.225 E9.07704
G1 X94.896 Y94.670 E9.10256
G1 X93.051 Y92.825 E9.22260
G1 X93.583 Y92.803 E9.24710
G1 X94.896 Y94.116 E9.33253
G1 X94.896 Y93.561 E9.35805
G1 X94.138 Y92.803 E9.40738
G1 X94.693 Y92.803 E9.43290
G1 X94.896 Y93.007 E9.44615
G1 X94.039 Y94.923 F7800.000
G1 X94.896 Y95.779 E9.50191 F540.000
G1 X94.896 Y96.334 E9.52742
G1 X94.013 Y95.451 E9.58488
G1 X93.987 Y95.979 E9.60923
G1 X94.896 Y96.889 E9.66838
G1 X94.896 Y97.443 E9.69390
G1 X93.961 Y96.508 E9.75476
G1 X93.942 Y97.044 E9.77944
G1 X94.896 Y97.998 E9.84151
G1 X94.896 Y98.552 E9.86702
G1 X93.933 Y97.589 E9.92970
G1 X93.933 Y98.144 E9.95521
G1 X94.896 Y99.107 E10.01789
G1 X94.896 Y99.661 E10.04340
G1 X93.933 Y98.698 E10.10608
G1 X93.933 Y99.253 E10.13159
G1 X94.896 Y100.216 E10.19427
G1 X94.896 Y100.770 E10.21978
G1 X93.933 Y99.807 E10.28245
G1 X93.933 Y100.362 E10.30797
G1 X94.896 Y101.325 E10.37064
G1 X94.896 Y101.880 E10.39616
G1 X93.933 Y100.917 E10.45883
G1 X93.933 Y101.471 E10.48435
G1 X94.896 Y102.434 E10.54702
G1 X94.896 Y102.989 E10.57254
G1 X93.933 Y102.026 E10.63521
G1 X93.933 Y102.580 E10.66073
G1 X94.896 Y103.543 E10.72340
G1 X94.896 Y104.098 E10.74892
G1 X93.933 Y103.135 E10.81159
G1 X93.933 Y103.689 E10.83711
G1 X94.896 Y104.652 E10.89978
G1 X94.896 Y105.207 E10.92530
G1 X93.933 Y104.244 E10.98797
G1 X93.933 Y104.798 E11.01349
G1 X94.896 Y105.762 E11.07616
G1 X94.896 Y106.316 E11.10168
G1 X93.933 Y105.353 E11.16435
G1 X93.933 Y105.908 E11.18987
G1 X94.896 Y106.871 E11.25254
G1 X94.668 Y107.197 E11.27087
G1 X93.933 Y106.462 E11.31869
G1 X93.933 Y107.017 E11.34420
G1 X94.113 Y107.197 E11.35594
M106 S255
G92 E0
G1 Z0.600 F7800.000
G1 X115.863 Y104.003 F7800.000
G1 X114.993 Y105.143 E0.42993 F600.000
G1 X114.611 Y105.556 E0.59836
G1 X114.379 Y105.755 E0.68994
G1 X113.838 Y106.138 E0.88840
G1 X113.482 Y106.326 E1.00906
G1 X112.872 Y106.582 E1.20743
G1 X112.324 Y106.740 E1.37822
G1 X111.651 Y106.879 E1.58430
G1 X111.371 Y106.916 E1.66885
G1 X110.196 Y106.991 E2.02148
G1 X110.034 Y106.982 E2.07023
G1 X108.407 Y106.811 E2.56036
G1 X108.183 Y106.772 E2.62851
G1 X106.825 Y106.264 E3.06302
G1 X106.569 Y106.143 E3.14797
G1 X105.471 Y105.289 E3.56478
G1 X105.277 Y105.114 E3.64303
G1 X104.447 Y103.897 E4.08442
G1 X104.379 Y103.789 E4.12262
G1 X104.327 Y103.650 E4.16695
G1 X103.825 Y102.126 E4.64788
G1 X103.636 Y100.156 E5.24098
G1 X103.633 Y99.968 E5.29712
G1 X103.736 Y98.670 E5.68749
G1 X103.859 Y97.955 E5.90469
G1 X104.002 Y97.430 E6.06773
G1 X104.408 Y96.325 E6.42053
G1 X105.006 Y95.395 E6.75200
G1 X105.347 Y94.969 E6.91539
G1 X105.717 Y94.598 E7.07249
G1 X106.596 Y93.936 E7.40216
G1 X106.944 Y93.748 E7.52064
G1 X107.657 Y93.450 E7.75227
G1 X108.557 Y93.182 E8.03358
G1 X108.880 Y93.127 E8.13175
G1 X110.282 Y93.001 E8.55369
G1 X111.388 Y93.063 E8.88546
G1 X112.319 Y93.214 E9.16812
G1 X112.689 Y93.296 E9.28158
G1 X113.303 Y93.480 E9.47384
G1 X113.786 Y93.653 E9.62751
G1 X114.319 Y93.893 E9.80268
G1 X114.784 Y94.136 E9.95988
G1 X115.030 Y94.288 E10.04643
G1 X115.756 Y94.823 E10.31674
G1 X116.094 Y95.201 E10.46870
G1 X116.124 Y95.536 E10.56953
G1 X116.124 Y98.297 E11.39686
G1 X116.008 Y98.962 E11.59915
G1 X111.469 Y99.164 E12.96047
G1 X117.078 Y99.164 E14.64104
G92 E0
G1 X110.602 Y98.297 F7800.000
G1 X110.602 Y98.297 F7800.000
G1 X107.792 Y98.297 F7800.000
G1 X107.702 Y98.867 F7800.000
G1 X107.648 Y100.032 F7800.000
G1 X107.646 Y100.073 F7800.000
G1 X107.828 Y101.261 F7800.000
G1 X108.167 Y102.008 F7800.000
G1 X108.488 Y102.414 F7800.000
G1 X108.790 Y102.658 F7800.000
G1 X109.260 Y102.884 F7800.000
G1 X110.198 Y103.072 F7800.000
G1 X110.602 Y103.073 F7800.000
G1 X110.796 Y103.067 F7800.000
G1 X111.287 Y103.016 F7800.000
G1 X111.608 Y102.955 F7800.000
G1 X111.837 Y102.886 F7800.000
G1 X112.106 Y102.771 F7800.000
G1 X112.748 Y102.415 F7800.000
G1 X115.294 Y101.894 F7800.000
G1 X116.973 Y102.136 F7800.000
G1 X117.078 Y102.032 F7800.000
G1 X118.078 Y100.032 F7800.000
G1 X118.078 Y94.755 F7800.000
G1 X117.872 Y93.848 F7800.000
G1 X117.347 Y92.690 F7800.000
G1 X117.215 Y92.426 F7800.000
G1 X117.073 Y92.165 F7800.000
G1 X116.153 Y91.894 F7800.000
G1 X115.916 Y91.833 F7800.000
G1 X114.688 Y91.564 F7800.000
G1 X114.508 Y91.530 F7800.000
G1 X113.242 Y91.337 F7800.000
G1 X113.094 Y91.320 F7800.000
G1 X111.800 Y91.206 F7800.000
G1 X111.676 Y91.198 F7800.000
G1 X111.374 Y91.190 F7800.000
G1 X110.333 Y91.161 F7800.000
G1 X110.208 Y91.161 F7800.000
G1 X108.679 Y91.214 F7800.000
G1 X108.513 Y91.226 F7800.000
G1 X107.099 Y91.387 F7800.000
G1 X106.876 Y91.422 F7800.000
G1 X105.536 Y91.698 F7800.000
G1 X105.231 Y91.776 F7800.000
G1 X103.941 Y92.175 F7800.000
