; generated by Slic3r 1.2.9 on 2016-03-11 at 01:27:53

; external perimeters extrusion width = 1.54mm
; perimeters extrusion width = 2.62mm
; infill extrusion width = 6.27mm
; solid infill extrusion width = 2.62mm
; top infill extrusion width = 2.62mm

M107
M104 S30 ; set temperature
G28 ; home all axes
G1 Z5 F5000 ; lift nozzle
M302
M92 E10000
M500
M501
G1 E100
M109 S30 ; wait for temperature to be reached
G21 ; set units to millimeters
G90 ; use absolute coordinates
M82 ; use absolute distances for extrusion
G92 E0
G1 Z0.300 F7800.000
G1 X104.193 Y97.680 F7800.000
G1 X104.193 Y92.577 E0.23091 F378.000
G1 X105.586 Y92.577 E0.29394
G1 X105.586 Y102.512 E0.74348
G1 X105.532 Y104.320 E0.82533 F378.000
G1 X105.477 Y105.392 E0.87389
G1 X105.882 Y105.520 E0.89311
G1 X114.023 Y92.577 E1.58498
G1 X116.168 Y92.577 E1.68202
G1 X116.168 Y107.423 E2.35380
G1 X114.753 Y107.423 E2.41782
G1 X114.753 Y97.618 E2.86149
G1 X114.767 Y96.856 E2.89597
G1 X114.883 Y94.524 E3.00163
G1 X114.478 Y94.395 E3.02082
G1 X106.251 Y107.423 E3.71806
G1 X104.193 Y107.423 E3.81118
G1 X104.193 Y97.911 E4.24159
G1 X105.360 Y93.516 F7800.000
G1 X104.647 Y92.803 E4.28798 F540.000
G1 X104.419 Y93.129 E4.30631
G1 X105.360 Y94.070 E4.36755
G1 X105.360 Y94.625 E4.39306
G1 X104.419 Y93.684 E4.45430
G1 X104.419 Y94.238 E4.47982
G1 X105.360 Y95.180 E4.54106
G1 X105.360 Y95.734 E4.56658
G1 X104.419 Y94.793 E4.62782
G1 X104.419 Y95.348 E4.65334
G1 X105.360 Y96.289 E4.71458
G1 X105.360 Y96.843 E4.74010
G1 X104.419 Y95.902 E4.80134
G1 X104.419 Y96.457 E4.82686
G1 X105.360 Y97.398 E4.88810
G1 X105.360 Y97.952 E4.91361
G1 X104.419 Y97.011 E4.97485
G1 X104.419 Y97.566 E5.00037
G1 X105.360 Y98.507 E5.06161
G1 X105.360 Y99.062 E5.08713
G1 X104.419 Y98.120 E5.14837
G1 X104.419 Y98.675 E5.17389
G1 X105.360 Y99.616 E5.23513
G1 X105.360 Y100.171 E5.26065
G1 X104.419 Y99.230 E5.32189
G1 X104.419 Y99.784 E5.34741
G1 X105.360 Y100.725 E5.40865
G1 X105.360 Y101.280 E5.43416
G1 X104.419 Y100.339 E5.49540
G1 X104.419 Y100.893 E5.52092
G1 X105.360 Y101.834 E5.58216
G1 X105.360 Y102.389 E5.60768
G1 X104.419 Y101.448 E5.66892
G1 X104.419 Y102.002 E5.69444
G1 X105.350 Y102.933 E5.75501
G1 X105.334 Y103.472 E5.77980
G1 X104.419 Y102.557 E5.83933
G1 X104.419 Y103.112 E5.86485
G1 X105.318 Y104.010 E5.92334
G1 X105.298 Y104.546 E5.94798
G1 X104.419 Y103.666 E6.00522
G1 X104.419 Y104.221 E6.03073
G1 X105.271 Y105.073 E6.08620
G1 X104.419 Y106.993 F7800.000
G1 X104.622 Y107.197 E6.09945 F540.000
G1 X105.177 Y107.197 E6.12497
G1 X104.419 Y106.439 E6.17430
G1 X104.419 Y105.884 E6.19982
G1 X105.732 Y107.197 E6.28524
G1 X106.211 Y107.122 E6.30756
G1 X104.419 Y105.330 E6.42416
G1 X104.419 Y104.775 E6.44968
G1 X106.425 Y106.782 E6.58025
G1 X106.640 Y106.442 E6.59875
G1 X105.960 Y105.762 E6.64299
G1 X106.174 Y105.421 E6.66150
G1 X106.855 Y106.102 E6.70578
G1 X107.069 Y105.762 E6.72428
G1 X106.388 Y105.081 E6.76859
G1 X106.602 Y104.741 E6.78710
G1 X107.284 Y105.422 E6.83144
G1 X107.499 Y105.082 E6.84994
G1 X106.817 Y104.400 E6.89432
G1 X107.031 Y104.060 E6.91283
G1 X107.713 Y104.742 E6.95724
G1 X107.928 Y104.402 E6.97574
G1 X107.245 Y103.719 E7.02019
G1 X107.459 Y103.379 E7.03870
G1 X108.143 Y104.062 E7.08318
G1 X108.357 Y103.723 E7.10168
G1 X107.673 Y103.038 E7.14620
G1 X107.887 Y102.698 E7.16470
G1 X108.572 Y103.383 E7.20925
G1 X108.787 Y103.043 E7.22775
G1 X108.101 Y102.358 E7.27234
G1 X108.316 Y102.017 E7.29084
G1 X109.001 Y102.703 E7.33546
G1 X109.216 Y102.363 E7.35396
G1 X108.530 Y101.677 E7.39861
G1 X108.744 Y101.336 E7.41712
G1 X109.431 Y102.023 E7.46181
G1 X109.645 Y101.683 E7.48031
G1 X108.958 Y100.996 E7.52503
G1 X109.172 Y100.655 E7.54353
G1 X109.860 Y101.343 E7.58829
G1 X110.074 Y101.003 E7.60679
G1 X109.386 Y100.315 E7.65158
G1 X109.600 Y99.975 E7.67008
G1 X110.289 Y100.663 E7.71491
G1 X110.504 Y100.323 E7.73340
G1 X109.814 Y99.634 E7.77826
G1 X110.029 Y99.294 E7.79677
G1 X110.718 Y99.984 E7.84166
G1 X110.933 Y99.644 E7.86016
G1 X110.243 Y98.953 E7.90508
G1 X110.457 Y98.613 E7.92359
G1 X111.148 Y99.304 E7.96855
G1 X111.362 Y98.964 E7.98705
G1 X110.671 Y98.272 E8.03204
G1 X110.885 Y97.932 E8.05055
G1 X111.577 Y98.624 E8.09558
G1 X111.792 Y98.284 E8.11408
G1 X111.099 Y97.592 E8.15914
G1 X111.313 Y97.251 E8.17764
G1 X112.006 Y97.944 E8.22274
G1 X112.221 Y97.604 E8.24124
G1 X111.528 Y96.911 E8.28637
G1 X111.742 Y96.570 E8.30487
G1 X112.436 Y97.264 E8.35004
G1 X112.650 Y96.924 E8.36854
G1 X111.956 Y96.230 E8.41374
G1 X112.170 Y95.889 E8.43224
G1 X112.865 Y96.584 E8.47747
G1 X113.080 Y96.245 E8.49597
G1 X112.384 Y95.549 E8.54124
G1 X112.598 Y95.209 E8.55974
G1 X113.294 Y95.905 E8.60505
G1 X113.509 Y95.565 E8.62354
G1 X112.812 Y94.868 E8.66888
G1 X113.026 Y94.528 E8.68738
G1 X113.724 Y95.225 E8.73275
G1 X113.938 Y94.885 E8.75125
G1 X113.241 Y94.187 E8.79665
G1 X113.455 Y93.847 E8.81516
G1 X114.153 Y94.545 E8.86060
G1 X114.368 Y94.205 E8.87910
G1 X113.669 Y93.506 E8.92457
G1 X113.883 Y93.166 E8.94307
G1 X115.942 Y95.225 E9.07705
G1 X115.942 Y94.670 E9.10257
G1 X114.097 Y92.826 E9.22261
G1 X114.629 Y92.803 E9.24712
G1 X115.942 Y94.116 E9.33254
G1 X115.942 Y93.561 E9.35806
G1 X115.184 Y92.803 E9.40740
G1 X115.738 Y92.803 E9.43291
G1 X115.942 Y93.007 E9.44616
G1 X115.085 Y94.923 F7800.000
G1 X115.942 Y95.779 E9.50192 F540.000
G1 X115.942 Y96.334 E9.52744
G1 X115.059 Y95.451 E9.58489
G1 X115.033 Y95.979 E9.60924
G1 X115.942 Y96.889 E9.66839
G1 X115.942 Y97.443 E9.69391
G1 X115.007 Y96.508 E9.75476
G1 X114.988 Y97.044 E9.77944
G1 X115.942 Y97.998 E9.84150
G1 X115.942 Y98.552 E9.86702
G1 X114.979 Y97.589 E9.92969
G1 X114.979 Y98.144 E9.95521
G1 X115.942 Y99.107 E10.01788
G1 X115.942 Y99.661 E10.04340
G1 X114.979 Y98.698 E10.10607
G1 X114.979 Y99.253 E10.13159
G1 X115.942 Y100.216 E10.19426
G1 X115.942 Y100.770 E10.21978
G1 X114.979 Y99.807 E10.28245
G1 X114.979 Y100.362 E10.30797
G1 X115.942 Y101.325 E10.37064
G1 X115.942 Y101.880 E10.39616
G1 X114.979 Y100.917 E10.45883
G1 X114.979 Y101.471 E10.48435
G1 X115.942 Y102.434 E10.54702
G1 X115.942 Y102.989 E10.57254
G1 X114.979 Y102.026 E10.63521
G1 X114.979 Y102.580 E10.66073
G1 X115.942 Y103.543 E10.72340
G1 X115.942 Y104.098 E10.74892
G1 X114.979 Y103.135 E10.81159
G1 X114.979 Y103.689 E10.83711
G1 X115.942 Y104.652 E10.89978
G1 X115.942 Y105.207 E10.92530
G1 X114.979 Y104.244 E10.98797
G1 X114.979 Y104.798 E11.01349
G1 X115.942 Y105.762 E11.07616
G1 X115.942 Y106.316 E11.10167
G1 X114.979 Y105.353 E11.16435
G1 X114.979 Y105.908 E11.18986
G1 X115.942 Y106.871 E11.25254
G1 X115.714 Y107.197 E11.27086
G1 X114.979 Y106.462 E11.31868
G1 X114.979 Y107.017 E11.34420
G1 X115.159 Y107.197 E11.35593
G92 E0
G1 X114.528 Y107.648 F7800.000
G1 X96.032 Y108.648 F7800.000
G1 X90.821 Y106.302 F7800.000
G1 X93.572 Y96.823 F7800.000
G1 X93.891 Y95.802 F7800.000
G1 X94.237 Y94.721 F7800.000
G1 X94.215 Y94.662 F7800.000
G1 X87.506 Y104.864 F7800.000
G1 X85.890 Y107.423 E0.13693 F378.000
G1 X83.832 Y107.423 E0.23005
G1 X83.832 Y92.577 E0.90182
G1 X85.225 Y92.577 E0.96485
G1 X85.225 Y102.512 E1.41439
G1 X85.171 Y104.320 E1.49625 F378.000
G1 X85.116 Y105.392 E1.54480
G1 X85.521 Y105.520 E1.56402
G1 X93.662 Y92.577 E2.25589
G1 X95.807 Y92.577 E2.35294
G1 X95.807 Y107.423 E3.02471
G1 X94.392 Y107.423 E3.08873
G1 X94.392 Y97.618 E3.53240
G1 X94.406 Y96.856 E3.56689
G1 X94.522 Y94.524 E3.67254
G1 X94.118 Y94.395 E3.69174
G1 X87.629 Y104.669 E4.24159
G1 X85.639 Y106.370 F7800.000
G1 X85.365 Y106.470 F7800.000
G1 X84.863 Y106.392 F7800.000
G1 X84.607 Y106.043 F7800.000
G1 X84.911 Y105.073 F7800.000
G1 X84.058 Y104.221 E4.29706 F540.000
G1 X84.058 Y103.666 E4.32258
G1 X84.938 Y104.546 E4.37981
G1 X84.957 Y104.010 E4.40445
G1 X84.058 Y103.112 E4.46294
G1 X84.058 Y102.557 E4.48846
G1 X84.973 Y103.472 E4.54799
G1 X84.989 Y102.933 E4.57278
G1 X84.058 Y102.002 E4.63335
G1 X84.058 Y101.448 E4.65887
G1 X84.999 Y102.389 E4.72011
G1 X84.999 Y101.834 E4.74563
G1 X84.058 Y100.893 E4.80687
G1 X84.058 Y100.339 E4.83239
G1 X84.999 Y101.280 E4.89363
G1 X84.999 Y100.725 E4.91915
G1 X84.058 Y99.784 E4.98039
G1 X84.058 Y99.230 E5.00590
G1 X84.999 Y100.171 E5.06714
G1 X84.999 Y99.616 E5.09266
G1 X84.058 Y98.675 E5.15390
G1 X84.058 Y98.120 E5.17942
G1 X84.999 Y99.062 E5.24066
G1 X84.999 Y98.507 E5.26618
G1 X84.058 Y97.566 E5.32742
G1 X84.058 Y97.011 E5.35294
G1 X84.999 Y97.952 E5.41418
G1 X84.999 Y97.398 E5.43969
G1 X84.058 Y96.457 E5.50093
G1 X84.058 Y95.902 E5.52645
G1 X84.999 Y96.843 E5.58769
G1 X84.999 Y96.289 E5.61321
G1 X84.058 Y95.348 E5.67445
G1 X84.058 Y94.793 E5.69997
G1 X84.999 Y95.734 E5.76121
G1 X84.999 Y95.180 E5.78673
G1 X84.058 Y94.238 E5.84797
G1 X84.058 Y93.684 E5.87348
G1 X84.999 Y94.625 E5.93472
G1 X84.999 Y94.070 E5.96024
G1 X84.058 Y93.129 E6.02148
G1 X84.286 Y92.803 E6.03981
G1 X84.999 Y93.516 E6.08620
G92 E0
G1 X93.975 Y93.535 F7800.000
G1 X94.155 Y93.470 F7800.000
G1 X94.812 Y93.572 F7800.000
G1 X95.032 Y93.874 F7800.000
G1 X94.724 Y94.923 F7800.000
G1 X95.581 Y95.779 E0.05576 F540.000
G1 X95.581 Y96.334 E0.08127
G1 X94.698 Y95.451 E0.13873
G1 X94.672 Y95.979 E0.16308
G1 X95.581 Y96.889 E0.22223
G1 X95.581 Y97.443 E0.24775
G1 X94.646 Y96.508 E0.30861
G1 X94.627 Y97.044 E0.33329
G1 X95.581 Y97.998 E0.39536
G1 X95.581 Y98.552 E0.42087
G1 X94.618 Y97.589 E0.48355
G1 X94.618 Y98.144 E0.50906
G1 X95.581 Y99.107 E0.57174
G1 X95.581 Y99.661 E0.59725
G1 X94.618 Y98.698 E0.65993
G1 X94.618 Y99.253 E0.68544
G1 X95.581 Y100.216 E0.74812
G1 X95.581 Y100.770 E0.77363
G1 X94.618 Y99.807 E0.83631
G1 X94.618 Y100.362 E0.86182
G1 X95.581 Y101.325 E0.92449
G1 X95.581 Y101.880 E0.95001
G1 X94.618 Y100.917 E1.01268
G1 X94.618 Y101.471 E1.03820
G1 X95.581 Y102.434 E1.10087
G1 X95.581 Y102.989 E1.12639
G1 X94.618 Y102.026 E1.18906
G1 X94.618 Y102.580 E1.21458
G1 X95.581 Y103.543 E1.27725
G1 X95.581 Y104.098 E1.30277
G1 X94.618 Y103.135 E1.36544
G1 X94.618 Y103.689 E1.39096
G1 X95.581 Y104.652 E1.45363
G1 X95.581 Y105.207 E1.47915
G1 X94.618 Y104.244 E1.54182
G1 X94.618 Y104.798 E1.56734
G1 X95.581 Y105.762 E1.63001
G1 X95.581 Y106.316 E1.65553
G1 X94.618 Y105.353 E1.71820
G1 X94.618 Y105.908 E1.74372
G1 X95.581 Y106.871 E1.80639
G1 X95.353 Y107.197 E1.82472
G1 X94.618 Y106.462 E1.87254
G1 X94.618 Y107.017 E1.89806
G1 X94.798 Y107.197 E1.90979
G92 E0
G1 X85.639 Y106.370 F7800.000
G1 X85.365 Y106.470 F7800.000
G1 X84.863 Y106.392 F7800.000
G1 X84.607 Y106.648 F7800.000
G1 X84.058 Y106.993 F7800.000
G1 X84.262 Y107.197 E0.01325 F540.000
G1 X84.816 Y107.197 E0.03877
G1 X84.058 Y106.439 E0.08810
G1 X84.058 Y105.884 E0.11362
G1 X85.371 Y107.197 E0.19904
G1 X85.850 Y107.122 E0.22136
G1 X84.058 Y105.330 E0.33796
G1 X84.058 Y104.775 E0.36348
G1 X86.065 Y106.782 E0.49405
G1 X86.279 Y106.442 E0.51255
G1 X85.599 Y105.762 E0.55679
G1 X85.813 Y105.421 E0.57530
G1 X86.494 Y106.102 E0.61957
G1 X86.709 Y105.762 E0.63807
G1 X86.028 Y105.081 E0.68239
G1 X86.242 Y104.741 E0.70089
G1 X86.923 Y105.422 E0.74524
G1 X87.138 Y105.082 E0.76374
G1 X86.456 Y104.400 E0.80812
G1 X86.670 Y104.060 E0.82662
G1 X87.353 Y104.742 E0.87104
G1 X87.567 Y104.402 E0.88954
G1 X86.884 Y103.719 E0.93399
G1 X87.098 Y103.379 E0.95249
G1 X87.782 Y104.062 E0.99697
G1 X87.997 Y103.723 E1.01547
G1 X87.312 Y103.038 E1.05999
G1 X87.527 Y102.698 E1.07850
G1 X88.211 Y103.383 E1.12305
G1 X88.426 Y103.043 E1.14155
G1 X87.741 Y102.358 E1.18613
G1 X87.955 Y102.017 E1.20464
G1 X88.640 Y102.703 E1.24926
G1 X88.855 Y102.363 E1.26775
G1 X88.169 Y101.677 E1.31241
G1 X88.383 Y101.336 E1.33091
G1 X89.070 Y102.023 E1.37560
G1 X89.284 Y101.683 E1.39410
G1 X88.597 Y100.996 E1.43882
G1 X88.811 Y100.655 E1.45733
G1 X89.499 Y101.343 E1.50208
G1 X89.714 Y101.003 E1.52058
G1 X89.025 Y100.315 E1.56537
G1 X89.240 Y99.975 E1.58388
G1 X89.928 Y100.663 E1.62870
G1 X90.143 Y100.323 E1.64720
G1 X89.454 Y99.634 E1.69206
G1 X89.668 Y99.294 E1.71056
G1 X90.358 Y99.984 E1.75545
G1 X90.572 Y99.644 E1.77395
G1 X89.882 Y98.953 E1.81888
G1 X90.096 Y98.613 E1.83738
G1 X90.787 Y99.304 E1.88234
G1 X91.002 Y98.964 E1.90084
G1 X90.310 Y98.272 E1.94584
G1 X90.524 Y97.932 E1.96434
G1 X91.216 Y98.624 E2.00937
G1 X91.431 Y98.284 E2.02787
G1 X90.739 Y97.592 E2.07293
G1 X90.953 Y97.251 E2.09144
G1 X91.646 Y97.944 E2.13653
G1 X91.860 Y97.604 E2.15503
G1 X91.167 Y96.911 E2.20016
G1 X91.381 Y96.570 E2.21867
G1 X92.075 Y97.264 E2.26383
G1 X92.290 Y96.924 E2.28233
G1 X91.595 Y96.230 E2.32753
G1 X91.809 Y95.889 E2.34603
G1 X92.504 Y96.584 E2.39126
G1 X92.719 Y96.245 E2.40976
G1 X92.023 Y95.549 E2.45503
G1 X92.238 Y95.209 E2.47354
G1 X92.934 Y95.905 E2.51884
G1 X93.148 Y95.565 E2.53733
G1 X92.452 Y94.868 E2.58267
G1 X92.666 Y94.528 E2.60117
G1 X93.363 Y95.225 E2.64654
G1 X93.578 Y94.885 E2.66504
G1 X92.880 Y94.187 E2.71044
G1 X93.094 Y93.847 E2.72895
G1 X93.792 Y94.545 E2.77439
G1 X94.007 Y94.205 E2.79288
G1 X93.308 Y93.506 E2.83836
G1 X93.522 Y93.166 E2.85686
G1 X95.581 Y95.225 E2.99084
G1 X95.581 Y94.670 E3.01636
G1 X93.736 Y92.826 E3.13640
G1 X94.268 Y92.803 E3.16091
G1 X95.581 Y94.116 E3.24633
G1 X95.581 Y93.561 E3.27185
G1 X94.823 Y92.803 E3.32118
G1 X95.378 Y92.803 E3.34670
G1 X95.581 Y93.007 E3.35995
M106 S255
G92 E0
G1 Z0.600 F7800.000
G1 X104.889 Y92.352 F7800.000
G1 X104.889 Y102.501 E3.04120 F600.000
G1 X104.840 Y105.185 E3.84543
G1 X105.226 Y106.390 E4.22466
G1 X105.414 Y106.422 E4.28198
G1 X105.714 Y106.449 E4.37217
G1 X106.537 Y105.726 E4.70041
G1 X113.813 Y94.181 E8.78972
G1 X114.537 Y93.507 E9.08590
G1 X114.936 Y93.535 E9.20580
G1 X115.168 Y93.577 E9.27644
G1 X115.521 Y94.729 E9.63745
G1 X115.460 Y97.625 E10.50545
G1 X115.460 Y107.648 E13.50886
G92 E0
G1 X114.528 Y97.616 F7800.000
G1 X114.528 Y97.616 F7800.000
G1 X113.695 Y97.616 F7800.000
G1 X111.182 Y106.302 F7800.000
G1 X107.477 Y108.344 F7800.000
G1 X106.375 Y108.648 F7800.000
G1 X103.968 Y108.648 F7800.000
G1 X101.968 Y107.648 F7800.000
G1 X100.000 Y105.680 F7800.000
G1 X100.000 Y94.320 F7800.000
G1 X98.032 Y92.352 F7800.000
G1 X96.032 Y91.352 F7800.000
G1 X93.538 Y91.352 F7800.000
G1 X92.433 Y91.657 F7800.000
G1 X88.776 Y93.678 F7800.000
G1 X87.450 Y92.352 F7800.000
G1 X85.450 Y92.352 F7800.000
G1 X84.529 Y92.352 F7800.000
G1 X84.529 Y102.501 E3.04119 F600.000
G1 X84.479 Y105.185 E3.84543
G1 X84.865 Y106.390 E4.22466
G1 X85.054 Y106.422 E4.28197
G1 X85.353 Y106.449 E4.37217
G1 X86.176 Y105.726 E4.70041
G1 X93.453 Y94.181 E8.78972
G1 X94.176 Y93.507 E9.08590
G1 X94.575 Y93.535 E9.20579
G1 X94.808 Y93.577 E9.27644
G1 X95.160 Y94.729 E9.63746
G1 X95.100 Y97.625 E10.50543
G1 X95.100 Y107.648 E13.50886
G92 E0
G1 Z0.900 F7800.000
G1 X104.889 Y92.352 F7800.000
G1 X104.889 Y102.501 E3.04120 F600.000
G1 X104.840 Y105.185 E3.84543
G1 X105.226 Y106.390 E4.22466
G1 X105.414 Y106.422 E4.28198
G1 X105.714 Y106.449 E4.37217
G1 X106.537 Y105.726 E4.70041
G1 X113.813 Y94.181 E8.78972
G1 X114.537 Y93.507 E9.08590
G1 X114.936 Y93.535 E9.20579
G1 X115.168 Y93.577 E9.27644
G1 X115.521 Y94.729 E9.63745
G1 X115.460 Y97.625 E10.50545
G1 X115.460 Y107.648 E13.50886
G92 E0
G1 X114.528 Y97.616 F7800.000
G1 X114.528 Y97.616 F7800.000
G1 X113.695 Y97.616 F7800.000
G1 X111.182 Y106.302 F7800.000
G1 X107.477 Y108.344 F7800.000
G1 X106.375 Y108.648 F7800.000
G1 X103.968 Y108.648 F7800.000
G1 X101.968 Y107.648 F7800.000
G1 X100.000 Y105.680 F7800.000
G1 X100.000 Y94.320 F7800.000
G1 X98.032 Y92.352 F7800.000
G1 X96.032 Y91.352 F7800.000
G1 X93.538 Y91.352 F7800.000
G1 X92.433 Y91.657 F7800.000
G1 X88.776 Y93.678 F7800.000
G1 X87.450 Y92.352 F7800.000
G1 X85.450 Y92.352 F7800.000
G1 X84.529 Y92.352 F7800.000
G1 X84.529 Y102.501 E3.04119 F600.000
G1 X84.479 Y105.185 E3.84543
G1 X84.865 Y106.390 E4.22466
G1 X85.054 Y106.422 E4.28197
G1 X85.353 Y106.449 E4.37217
G1 X86.176 Y105.726 E4.70041
G1 X93.453 Y94.181 E8.78972
G1 X94.176 Y93.507 E9.08590
G1 X94.575 Y93.535 E9.20579
G1 X94.808 Y93.577 E9.27644
G1 X95.160 Y94.729 E9.63746
G1 X95.100 Y97.625 E10.50543
G1 X95.100 Y107.648 E13.50886
G92 E0
G1 Z1.200 F7800.000
G1 X104.889 Y92.352 F7800.000
G1 X104.889 Y102.501 E3.04120 F600.000
G1 X104.840 Y105.185 E3.84543
G1 X105.226 Y106.390 E4.22466
G1 X105.414 Y106.422 E4.28197
G1 X105.714 Y106.449 E4.37217
G1 X106.537 Y105.726 E4.70041
