; generated by Slic3r 1.2.9 on 2016-03-11 at 01:27:54

; external perimeters extrusion width = 1.54mm
; perimeters extrusion width = 2.62mm
; infill extrusion width = 6.27mm
; solid infill extrusion width = 2.62mm
; top infill extrusion width = 2.62mm

M107
M104 S30 ; set temperature
G28 ; home all axes
G1 Z5 F5000 ; lift nozzle
M302
M92 E10000
M500
M501
G1 E100
M109 S30 ; wait for temperature to be reached
G21 ; set units to millimeters
G90 ; use absolute coordinates
M82 ; use absolute distances for extrusion
G92 E0
G1 Z0.300 F7800.000
G1 X103.247 Y103.960 F7800.000
G1 X102.656 Y102.275 E0.08080 F378.000
G1 X102.437 Y100.061 E0.18147
G1 X102.535 Y98.562 E0.24946
G1 X102.827 Y97.196 E0.31269
G1 X103.313 Y95.965 E0.37256
G1 X103.981 Y94.896 E0.42960
G1 X104.819 Y94.011 E0.48472
G1 X105.831 Y93.308 E0.54047
G1 X107.003 Y92.797 E0.59833
G1 X108.320 Y92.489 E0.65953
G1 X109.783 Y92.386 E0.72593
G1 X111.249 Y92.491 E0.79243
G1 X112.546 Y92.802 E0.85278 F378.000
G1 X113.719 Y93.319 E0.91077
G1 X114.736 Y94.028 E0.96689
G1 X115.582 Y94.915 E1.02234
G1 X116.258 Y95.983 E1.07955
G1 X116.753 Y97.209 E1.13939
G1 X117.051 Y98.570 E1.20239
G1 X117.151 Y100.065 E1.27021
G1 X117.052 Y101.563 E1.33815
G1 X116.758 Y102.916 E1.40078
G1 X116.270 Y104.124 E1.45976
G1 X115.600 Y105.169 E1.51594
G1 X114.758 Y106.032 E1.57046
G1 X113.743 Y106.716 E1.62588
G1 X112.570 Y107.214 E1.68352
G1 X111.258 Y107.514 E1.74443
G1 X109.808 Y107.614 E1.81018
G1 X107.644 Y107.390 E1.90861
G1 X105.840 Y106.725 E1.99562
G1 X104.381 Y105.621 E2.07841
G1 X103.338 Y104.171 E2.15925
G1 X104.747 Y103.438 F7800.000
G1 X104.253 Y101.890 E2.23277 F378.000
G1 X104.089 Y100.065 E2.31569
G1 X104.254 Y98.242 E2.39850
G1 X104.754 Y96.676 E2.47289
G1 X105.592 Y95.372 E2.54305
G1 X106.735 Y94.394 E2.61110
G1 X108.136 Y93.808 E2.67985 F378.000
G1 X109.783 Y93.615 E2.75485
G1 X111.466 Y93.801 E2.83151
G1 X112.882 Y94.368 E2.90052
G1 X114.017 Y95.317 E2.96745
G1 X114.839 Y96.605 E3.03661
G1 X115.327 Y98.190 E3.11164
G1 X115.488 Y100.065 E3.19682
G1 X115.326 Y101.868 E3.27872
G1 X114.833 Y103.408 E3.35188
G1 X114.005 Y104.678 E3.42048
G1 X112.871 Y105.623 E3.48729
G1 X111.466 Y106.188 E3.55580
G1 X109.806 Y106.374 E3.63140
G1 X108.133 Y106.191 E3.70755
G1 X106.720 Y105.634 E3.77629
G1 X105.578 Y104.701 E3.84297
G1 X104.874 Y103.631 E3.90095
G1 X104.562 Y103.674 F7800.000
G1 X102.861 Y101.973 E4.01129 F540.000
G1 X102.801 Y101.360 E4.03958
G1 X104.292 Y102.851 E4.13635
G1 X104.033 Y102.039 E4.17549
G1 X102.740 Y100.746 E4.25936
G1 X102.680 Y100.133 E4.28765
G1 X103.977 Y101.430 E4.37183
G1 X103.923 Y100.823 E4.39981
G1 X102.689 Y99.589 E4.47986
G1 X102.723 Y99.070 E4.50373
G1 X103.868 Y100.215 E4.57806
G1 X103.903 Y99.697 E4.60190
G1 X102.757 Y98.551 E4.67628
G1 X102.851 Y98.092 E4.69777
G1 X103.949 Y99.190 E4.76902
G1 X103.995 Y98.683 E4.79239
G1 X102.948 Y97.636 E4.86028
G1 X103.049 Y97.184 E4.88155
G1 X104.056 Y98.191 E4.94689
G1 X104.189 Y97.771 E4.96708
G1 X103.205 Y96.787 E5.03094
G1 X103.362 Y96.391 E5.05050
G1 X104.323 Y97.352 E5.11288
G1 X104.457 Y96.933 E5.13307
G1 X103.522 Y95.998 E5.19371
G1 X103.735 Y95.658 E5.21213
G1 X104.612 Y96.535 E5.26909
G1 X104.829 Y96.199 E5.28745
G1 X103.947 Y95.317 E5.34466
G1 X104.164 Y94.981 E5.36301
G1 X105.045 Y95.862 E5.42018
G1 X105.262 Y95.525 E5.43854
G1 X104.434 Y94.697 E5.49226
G1 X104.710 Y94.421 E5.51021
G1 X105.493 Y95.203 E5.56097
G1 X105.791 Y94.948 E5.57897
G1 X104.987 Y94.144 E5.63113
G1 X105.305 Y93.910 E5.64928
G1 X106.089 Y94.693 E5.70013
G1 X106.387 Y94.438 E5.71813
G1 X105.631 Y93.683 E5.76714
G1 X105.968 Y93.467 E5.78550
G1 X106.694 Y94.193 E5.83264
G1 X107.084 Y94.030 E5.85203
G1 X106.353 Y93.299 E5.89949
G1 X106.738 Y93.131 E5.91876
G1 X107.474 Y93.867 E5.96654
G1 X107.864 Y93.704 E5.98594
G1 X107.140 Y92.980 E6.03292
G1 X107.588 Y92.875 E6.05404
G1 X108.285 Y93.572 E6.09926
G1 X108.780 Y93.514 E6.12213
G1 X108.037 Y92.770 E6.17038
G1 X108.515 Y92.696 E6.19262
G1 X109.275 Y93.456 E6.24191
G1 X109.770 Y93.398 E6.26478
G1 X109.032 Y92.660 E6.31267
G1 X109.549 Y92.623 E6.33643
G1 X110.368 Y93.443 E6.38961
G1 X110.990 Y93.512 E6.41833
G1 X110.121 Y92.643 E6.47473
G1 X110.717 Y92.685 E6.50214
G1 X111.612 Y93.581 E6.56024
G1 X112.082 Y92.945 F7800.000
G1 X114.317 Y95.179 E6.70523 F540.000
G1 X114.174 Y95.037 F7800.000
G1 X116.545 Y97.408 E6.85911 F540.000
G1 X116.701 Y98.116 E6.89238
G1 X115.067 Y96.482 E6.99841
G1 X115.313 Y97.281 E7.03677
G1 X116.835 Y98.803 E7.13553
G1 X116.874 Y99.396 E7.16278
G1 X115.551 Y98.073 E7.24862
G1 X115.603 Y98.678 E7.27648
G1 X116.914 Y99.988 E7.36152
G1 X116.899 Y100.527 E7.38625
G1 X115.655 Y99.283 E7.46698
G1 X115.707 Y99.888 E7.49484
G1 X116.865 Y101.046 E7.56999
G1 X116.831 Y101.565 E7.59385
G1 X115.677 Y100.411 E7.66874
G1 X115.631 Y100.918 E7.69212
G1 X116.737 Y102.023 E7.76386
G1 X116.638 Y102.478 E7.78519
G1 X115.585 Y101.425 E7.85349
G1 X115.525 Y101.918 E7.87626
G1 X116.536 Y102.928 E7.94184
G1 X116.377 Y103.322 E7.96134
G1 X115.391 Y102.337 E8.02529
G1 X115.257 Y102.756 E8.04548
G1 X116.217 Y103.716 E8.10780
G1 X116.052 Y104.103 E8.12713
G1 X115.123 Y103.175 E8.18739
G1 X114.962 Y103.567 E8.20683
G1 X115.836 Y104.440 E8.26352
G1 X115.620 Y104.777 E8.28189
G1 X114.744 Y103.902 E8.33872
G1 X114.526 Y104.236 E8.35705
G1 X115.390 Y105.100 E8.41312
G1 X115.113 Y105.377 E8.43106
G1 X114.307 Y104.571 E8.48335
G1 X114.064 Y104.880 E8.50142
G1 X114.837 Y105.653 E8.55158
G1 X114.560 Y105.930 E8.56952
G1 X113.762 Y105.132 E8.62133
G1 X113.460 Y105.383 E8.63935
G1 X114.231 Y106.153 E8.68935
G1 X113.900 Y106.376 E8.70763
G1 X113.158 Y105.634 E8.75578
G1 X112.828 Y105.857 E8.77405
G1 X113.551 Y106.580 E8.82095
G1 X113.163 Y106.745 E8.84030
G1 X112.434 Y106.016 E8.88760
G1 X112.039 Y106.174 E8.90711
G1 X112.774 Y106.909 E8.95480
G1 X112.359 Y107.047 E8.97488
G1 X111.645 Y106.333 E9.02121
G1 X111.196 Y106.437 E9.04236
G1 X111.909 Y107.150 E9.08862
G1 X111.459 Y107.253 E9.10981
G1 X110.699 Y106.493 E9.15912
G1 X110.202 Y106.549 E9.18208
G1 X110.966 Y107.313 E9.23168
G1 X110.449 Y107.349 E9.25548
G1 X109.699 Y106.600 E9.30410
G1 X109.078 Y106.531 E9.33278
G1 X109.932 Y107.385 E9.38816
G1 X109.322 Y107.328 E9.41626
G1 X108.457 Y106.463 E9.47238
G1 X107.770 Y106.329 E9.50451
G1 X108.705 Y107.264 E9.56519
G1 X108.088 Y107.200 E9.59365
G1 X106.857 Y105.969 E9.67352
G1 X106.458 Y106.676 F7800.000
G1 X103.400 Y103.619 E9.87195 F540.000
G1 X103.101 Y102.766 F7800.000
G1 X107.334 Y106.999 E10.14666 F540.000
G1 X104.803 Y105.574 F7800.000
G1 X104.449 Y105.220 E10.16964 F540.000
G92 E0
G1 X104.046 Y96.343 F7800.000
G1 X104.027 Y96.330 F7800.000
G1 X104.621 Y95.391 F7800.000
G1 X104.825 Y95.131 F7800.000
G1 X112.529 Y93.944 F7800.000
G1 X111.355 Y92.771 E0.07614 F540.000
G1 X112.970 Y93.279 F7800.000
G1 X116.179 Y96.489 E0.28440 F540.000
G1 X115.199 Y94.956 F7800.000
G1 X114.359 Y94.116 E0.33891 F540.000
G92 E0
G1 X102.211 Y100.065 F7800.000
G1 X98.849 Y103.584 F7800.000
G1 X95.049 Y108.744 F7800.000
G1 X89.795 Y106.451 F7800.000
G1 X92.589 Y96.823 F7800.000
G1 X92.907 Y95.802 F7800.000
G1 X93.253 Y94.721 F7800.000
G1 X93.231 Y94.662 F7800.000
G1 X86.685 Y104.607 F7800.000
G1 X84.907 Y107.423 E0.15069 F378.000
G1 X82.849 Y107.423 E0.24381
G1 X82.849 Y92.577 E0.91558
G1 X84.242 Y92.577 E0.97861
G1 X84.242 Y102.512 E1.42815
G1 X84.188 Y104.320 E1.51000 F378.000
G1 X84.133 Y105.392 E1.55856
G1 X84.538 Y105.520 E1.57778
G1 X92.679 Y92.577 E2.26965
G1 X94.824 Y92.577 E2.36670
G1 X94.824 Y107.423 E3.03847
G1 X93.409 Y107.423 E3.10249
G1 X93.409 Y97.618 E3.54616
G1 X93.423 Y96.856 E3.58064
G1 X93.538 Y94.524 E3.68630
G1 X93.134 Y94.395 E3.70550
G1 X86.808 Y104.412 E4.24159
G1 X84.655 Y106.370 F7800.000
G1 X84.381 Y106.470 F7800.000
G1 X83.879 Y106.392 F7800.000
G1 X83.624 Y106.043 F7800.000
G1 X83.927 Y105.073 F7800.000
G1 X83.075 Y104.221 E4.29706 F540.000
G1 X83.075 Y103.666 E4.32258
G1 X83.954 Y104.546 E4.37981
G1 X83.973 Y104.010 E4.40446
G1 X83.075 Y103.112 E4.46294
G1 X83.075 Y102.557 E4.48846
G1 X83.989 Y103.472 E4.54799
G1 X84.005 Y102.933 E4.57278
G1 X83.075 Y102.002 E4.63335
G1 X83.075 Y101.448 E4.65887
G1 X84.016 Y102.389 E4.72011
G1 X84.016 Y101.834 E4.74563
G1 X83.075 Y100.893 E4.80687
G1 X83.075 Y100.339 E4.83239
G1 X84.016 Y101.280 E4.89363
G1 X84.016 Y100.725 E4.91915
G1 X83.075 Y99.784 E4.98039
G1 X83.075 Y99.230 E5.00590
G1 X84.016 Y100.171 E5.06714
G1 X84.016 Y99.616 E5.09266
G1 X83.075 Y98.675 E5.15390
G1 X83.075 Y98.120 E5.17942
G1 X84.016 Y99.062 E5.24066
G1 X84.016 Y98.507 E5.26618
G1 X83.075 Y97.566 E5.32742
G1 X83.075 Y97.011 E5.35294
G1 X84.016 Y97.952 E5.41418
G1 X84.016 Y97.398 E5.43969
G1 X83.075 Y96.457 E5.50093
G1 X83.075 Y95.902 E5.52645
G1 X84.016 Y96.843 E5.58769
G1 X84.016 Y96.289 E5.61321
G1 X83.075 Y95.348 E5.67445
G1 X83.075 Y94.793 E5.69997
G1 X84.016 Y95.734 E5.76121
G1 X84.016 Y95.180 E5.78673
G1 X83.075 Y94.238 E5.84797
G1 X83.075 Y93.684 E5.87348
G1 X84.016 Y94.625 E5.93472
G1 X84.016 Y94.070 E5.96024
G1 X83.075 Y93.129 E6.02148
G1 X83.303 Y92.803 E6.03981
G1 X84.016 Y93.516 E6.08620
G92 E0
G1 X92.992 Y93.535 F7800.000
G1 X93.172 Y93.470 F7800.000
G1 X93.829 Y93.572 F7800.000
G1 X94.049 Y93.874 F7800.000
G1 X93.741 Y94.923 F7800.000
G1 X94.598 Y95.779 E0.05576 F540.000
G1 X94.598 Y96.334 E0.08127
G1 X93.715 Y95.451 E0.13873
G1 X93.689 Y95.979 E0.16308
G1 X94.598 Y96.889 E0.22223
G1 X94.598 Y97.443 E0.24775
G1 X93.662 Y96.508 E0.30861
G1 X93.644 Y97.044 E0.33329
G1 X94.598 Y97.998 E0.39536
G1 X94.598 Y98.552 E0.42087
G1 X93.635 Y97.589 E0.48355
G1 X93.635 Y98.144 E0.50906
G1 X94.598 Y99.107 E0.57174
G1 X94.598 Y99.661 E0.59725
G1 X93.635 Y98.698 E0.65993
G1 X93.635 Y99.253 E0.68544
G1 X94.598 Y100.216 E0.74812
G1 X94.598 Y100.770 E0.77363
G1 X93.635 Y99.807 E0.83631
G1 X93.635 Y100.362 E0.86182
G1 X94.598 Y101.325 E0.92450
G1 X94.598 Y101.880 E0.95001
G1 X93.635 Y100.917 E1.01268
G1 X93.635 Y101.471 E1.03820
G1 X94.598 Y102.434 E1.10087
G1 X94.598 Y102.989 E1.12639
G1 X93.635 Y102.026 E1.18906
G1 X93.635 Y102.580 E1.21458
G1 X94.598 Y103.543 E1.27725
G1 X94.598 Y104.098 E1.30277
G1 X93.635 Y103.135 E1.36544
G1 X93.635 Y103.689 E1.39096
G1 X94.598 Y104.652 E1.45363
G1 X94.598 Y105.207 E1.47915
G1 X93.635 Y104.244 E1.54182
G1 X93.635 Y104.798 E1.56734
G1 X94.598 Y105.762 E1.63001
G1 X94.598 Y106.316 E1.65553
G1 X93.635 Y105.353 E1.71820
G1 X93.635 Y105.908 E1.74372
G1 X94.598 Y106.871 E1.80639
G1 X94.369 Y107.197 E1.82472
G1 X93.635 Y106.462 E1.87254
G1 X93.635 Y107.017 E1.89805
G1 X93.815 Y107.197 E1.90979
G92 E0
G1 X84.655 Y106.370 F7800.000
G1 X84.381 Y106.470 F7800.000
G1 X83.879 Y106.392 F7800.000
G1 X83.624 Y106.648 F7800.000
G1 X83.075 Y106.993 F7800.000
G1 X83.278 Y107.197 E0.01325 F540.000
G1 X83.833 Y107.197 E0.03877
G1 X83.075 Y106.439 E0.08810
G1 X83.075 Y105.884 E0.11362
G1 X84.387 Y107.197 E0.19904
G1 X84.866 Y107.122 E0.22136
G1 X83.075 Y105.330 E0.33796
G1 X83.075 Y104.775 E0.36348
G1 X85.081 Y106.782 E0.49405
G1 X85.296 Y106.442 E0.51255
G1 X84.616 Y105.762 E0.55679
G1 X84.830 Y105.421 E0.57530
G1 X85.510 Y106.102 E0.61957
G1 X85.725 Y105.762 E0.63807
G1 X85.044 Y105.081 E0.68239
G1 X85.258 Y104.741 E0.70089
G1 X85.940 Y105.422 E0.74524
G1 X86.154 Y105.082 E0.76374
G1 X85.472 Y104.400 E0.80812
G1 X85.687 Y104.060 E0.82662
G1 X86.369 Y104.742 E0.87104
G1 X86.584 Y104.402 E0.88954
G1 X85.901 Y103.719 E0.93399
G1 X86.115 Y103.379 E0.95249
G1 X86.798 Y104.062 E0.99698
G1 X87.013 Y103.723 E1.01547
G1 X86.329 Y103.038 E1.05999
G1 X86.543 Y102.698 E1.07850
G1 X87.228 Y103.383 E1.12305
G1 X87.442 Y103.043 E1.14155
G1 X86.757 Y102.358 E1.18613
G1 X86.971 Y102.017 E1.20464
G1 X87.657 Y102.703 E1.24926
G1 X87.872 Y102.363 E1.26775
G1 X87.185 Y101.677 E1.31241
G1 X87.400 Y101.336 E1.33091
G1 X88.086 Y102.023 E1.37560
G1 X88.301 Y101.683 E1.39410
G1 X87.614 Y100.996 E1.43882
G1 X87.828 Y100.655 E1.45733
G1 X88.516 Y101.343 E1.50208
G1 X88.730 Y101.003 E1.52058
G1 X88.042 Y100.315 E1.56537
G1 X88.256 Y99.975 E1.58388
G1 X88.945 Y100.663 E1.62870
G1 X89.160 Y100.323 E1.64720
G1 X88.470 Y99.634 E1.69206
G1 X88.684 Y99.294 E1.71056
G1 X89.374 Y99.984 E1.75545
G1 X89.589 Y99.644 E1.77395
G1 X88.899 Y98.953 E1.81888
G1 X89.113 Y98.613 E1.83738
G1 X89.804 Y99.304 E1.88234
G1 X90.018 Y98.964 E1.90084
G1 X89.327 Y98.272 E1.94584
G1 X89.541 Y97.932 E1.96434
G1 X90.233 Y98.624 E2.00937
G1 X90.448 Y98.284 E2.02787
G1 X89.755 Y97.592 E2.07293
G1 X89.969 Y97.251 E2.09144
G1 X90.662 Y97.944 E2.13653
G1 X90.877 Y97.604 E2.15503
G1 X90.183 Y96.911 E2.20016
G1 X90.397 Y96.570 E2.21867
G1 X91.092 Y97.264 E2.26383
G1 X91.306 Y96.924 E2.28233
G1 X90.612 Y96.230 E2.32753
G1 X90.826 Y95.889 E2.34603
G1 X91.521 Y96.584 E2.39127
G1 X91.735 Y96.245 E2.40976
G1 X91.040 Y95.549 E2.45503
G1 X91.254 Y95.209 E2.47354
G1 X91.950 Y95.905 E2.51884
G1 X92.165 Y95.565 E2.53734
G1 X91.468 Y94.868 E2.58267
G1 X91.682 Y94.528 E2.60118
G1 X92.379 Y95.225 E2.64654
G1 X92.594 Y94.885 E2.66504
G1 X91.896 Y94.187 E2.71045
G1 X92.111 Y93.847 E2.72895
G1 X92.809 Y94.545 E2.77439
G1 X93.023 Y94.205 E2.79289
G1 X92.325 Y93.506 E2.83836
G1 X92.539 Y93.166 E2.85686
G1 X94.598 Y95.225 E2.99084
G1 X94.598 Y94.670 E3.01636
G1 X92.753 Y92.825 E3.13641
G1 X93.285 Y92.803 E3.16091
G1 X94.598 Y94.116 E3.24633
G1 X94.598 Y93.561 E3.27185
G1 X93.840 Y92.803 E3.32119
G1 X94.394 Y92.803 E3.34670
G1 X94.598 Y93.007 E3.35995
M106 S255
G92 E0
G1 Z0.600 F7800.000
G1 X103.265 Y100.047 F7800.000
G1 X103.370 Y98.678 E0.41153 F600.000
G1 X103.490 Y97.973 E0.62588
G1 X103.632 Y97.439 E0.79152
G1 X104.033 Y96.328 E1.14547
G1 X104.621 Y95.391 E1.47686
G1 X104.936 Y94.989 E1.62983
G1 X105.128 Y94.779 E1.71524
G1 X105.320 Y94.596 E1.79480
G1 X106.179 Y93.933 E2.11988
G1 X106.506 Y93.754 E2.23139
G1 X107.219 Y93.449 E2.46386
G1 X107.865 Y93.240 E2.66727
G1 X108.416 Y93.127 E2.83584
G1 X109.783 Y93.002 E3.24709
G1 X111.138 Y93.123 E3.65471
G1 X111.724 Y93.240 E3.83387
G1 X112.334 Y93.433 E4.02548
G1 X113.090 Y93.752 E4.27153
G1 X113.386 Y93.910 E4.37210
G1 X114.263 Y94.580 E4.70267
G1 X114.445 Y94.750 E4.77747
G1 X114.639 Y94.962 E4.86330
G1 X114.974 Y95.390 E5.02624
G1 X115.566 Y96.339 E5.36128
G1 X115.963 Y97.454 E5.71595
G1 X116.133 Y98.145 E5.92930
G1 X116.215 Y98.688 E6.09398
G1 X116.318 Y100.065 E6.50780
G1 X116.213 Y101.445 E6.92234
G1 X116.094 Y102.140 E7.13364
G1 X115.952 Y102.667 E7.29723
G1 X115.554 Y103.754 E7.64416
G1 X114.969 Y104.668 E7.96932
G1 X114.654 Y105.061 E8.12007
G1 X114.457 Y105.273 E8.20699
G1 X114.269 Y105.446 E8.28338
G1 X113.405 Y106.094 E8.60709
G1 X113.089 Y106.261 E8.71416
G1 X112.359 Y106.563 E8.95085
G1 X111.729 Y106.761 E9.14868
G1 X111.163 Y106.873 E9.32168
G1 X109.819 Y106.992 E9.72604
G1 X108.095 Y106.812 E10.24542
G1 X107.871 Y106.773 E10.31349
G1 X106.509 Y106.264 E10.74920
G1 X106.181 Y106.101 E10.85884
G1 X105.145 Y105.287 E11.25388
G1 X104.928 Y105.088 E11.34191
G1 X104.018 Y103.753 E11.82619
G1 X103.482 Y102.162 E12.32902
G1 X103.440 Y101.938 E12.39748
G1 X103.265 Y100.047 E12.96634
G92 E0
G1 X102.311 Y98.531 F7800.000
G1 X97.241 Y92.352 F7800.000
G1 X91.344 Y91.590 F7800.000
G1 X86.659 Y92.352 F7800.000
G1 X84.467 Y92.352 F7800.000
G1 X83.545 Y92.352 F7800.000
G1 X83.545 Y102.501 E3.04120 F600.000
G1 X83.496 Y105.185 E3.84543
G1 X83.882 Y106.390 E4.22466
G1 X84.070 Y106.422 E4.28197
G1 X84.370 Y106.449 E4.37217
G1 X85.193 Y105.726 E4.70041
G1 X92.469 Y94.181 E8.78972
G1 X93.193 Y93.507 E9.08590
G1 X93.592 Y93.535 E9.20579
G1 X93.824 Y93.577 E9.27644
G1 X94.176 Y94.729 E9.63746
G1 X94.116 Y97.625 E10.50543
G1 X94.116 Y107.648 E13.50886
G92 E0
G1 Z0.900 F7800.000
G1 X103.265 Y100.047 F7800.000
G1 X103.370 Y98.678 E0.41153 F600.000
G1 X103.490 Y97.973 E0.62588
G1 X103.632 Y97.439 E0.79152
G1 X104.033 Y96.328 E1.14547
G1 X104.621 Y95.391 E1.47686
G1 X104.936 Y94.989 E1.62983
G1 X105.128 Y94.779 E1.71524
G1 X105.320 Y94.596 E1.79480
G1 X106.179 Y93.933 E2.11988
G1 X106.506 Y93.754 E2.23139
G1 X107.219 Y93.449 E2.46386
G1 X107.865 Y93.240 E2.66727
G1 X108.416 Y93.127 E2.83584
G1 X109.783 Y93.002 E3.24709
G1 X111.138 Y93.123 E3.65471
G1 X111.724 Y93.240 E3.83387
