; generated by Slic3r 1.2.9 on 2016-03-11 at 01:27:55

; external perimeters extrusion width = 1.54mm
; perimeters extrusion width = 2.62mm
; infill extrusion width = 6.27mm
; solid infill extrusion width = 2.62mm
; top infill extrusion width = 2.62mm

M107
M104 S30 ; set temperature
G28 ; home all axes
G1 Z5 F5000 ; lift nozzle
M302
M92 E10000
M500
M501
G1 E100
M109 S30 ; wait for temperature to be reached
G21 ; set units to millimeters
G90 ; use absolute coordinates
M82 ; use absolute distances for extrusion
G92 E0
G1 Z0.300 F7800.000
G1 X114.040 Y99.460 F7800.000
G1 X114.511 Y99.777 E0.02566 F378.000
G1 X115.253 Y100.677 E0.07843
G1 X115.699 Y101.766 E0.13166
G1 X115.849 Y103.055 E0.19040
G1 X115.699 Y104.347 E0.24925
G1 X115.256 Y105.415 E0.30156
G1 X114.520 Y106.273 E0.35271
G1 X113.508 Y106.907 E0.40675
G1 X112.235 Y107.292 E0.46692
G1 X110.687 Y107.423 E0.53723
G1 X104.503 Y107.423 E0.81703
G1 X104.503 Y92.577 E1.48880
G1 X106.124 Y92.577 E1.56215
G1 X106.124 Y98.556 E1.83269
G1 X110.818 Y98.556 E2.04507 F378.000
G1 X112.285 Y98.695 E2.11174
G1 X113.509 Y99.103 E2.17016
G1 X113.849 Y99.331 E2.18867
G1 X112.900 Y100.402 F7800.000
G1 X113.812 Y101.210 E2.24381 F378.000
G1 X114.224 Y103.035 E2.32845
G1 X113.801 Y104.800 E2.41061
G1 X112.515 Y105.872 E2.48638
G1 X110.466 Y106.214 E2.58036
G1 X106.124 Y106.214 E2.77681
G1 X106.124 Y99.743 E3.06962
G1 X110.553 Y99.743 E3.27002 F378.000
G1 X112.557 Y100.098 E3.36212
G1 X112.727 Y100.249 E3.37240
G1 X112.876 Y99.161 F7800.000
G1 X115.369 Y101.654 E3.53356 F540.000
G1 X115.531 Y102.368 E3.56702
G1 X112.073 Y98.910 E3.79060
G1 X111.465 Y98.852 E3.81854
G1 X112.445 Y99.833 E3.88195
G1 X111.776 Y99.714 E3.91304
G1 X110.856 Y98.795 E3.97250
G1 X110.292 Y98.782 E3.99828
G1 X111.106 Y99.596 E4.05089
G1 X110.477 Y99.517 E4.07990
G1 X109.741 Y98.782 E4.12743
G1 X109.190 Y98.782 E4.15262
G1 X109.926 Y99.517 E4.20014
G1 X109.375 Y99.517 E4.22533
G1 X108.639 Y98.782 E4.27286
G1 X108.088 Y98.782 E4.29805
G1 X108.824 Y99.517 E4.34557
G1 X108.273 Y99.517 E4.37076
G1 X107.537 Y98.782 E4.41829
G1 X106.986 Y98.782 E4.44348
G1 X107.722 Y99.517 E4.49100
G1 X107.171 Y99.517 E4.51619
G1 X106.436 Y98.782 E4.56372
G1 X105.898 Y98.796 E4.58828
G1 X104.729 Y97.627 E4.66387
G1 X104.729 Y97.076 E4.68906
G1 X105.898 Y98.245 E4.76464
G1 X105.885 Y98.782 E4.78921
G1 X106.620 Y99.517 E4.83673
G1 X106.069 Y99.517 E4.86192
G1 X104.729 Y98.178 E4.94851
G1 X104.729 Y98.729 E4.97370
G1 X105.898 Y99.898 E5.04929
G1 X105.898 Y100.449 E5.07448
G1 X104.729 Y99.280 E5.15006
G1 X104.729 Y99.831 E5.17525
G1 X105.898 Y101.000 E5.25084
G1 X105.898 Y101.551 E5.27603
G1 X104.729 Y100.382 E5.35161
G1 X104.729 Y100.933 E5.37680
G1 X105.898 Y102.102 E5.45239
G1 X105.898 Y102.653 E5.47758
G1 X104.729 Y101.484 E5.55316
G1 X104.729 Y102.035 E5.57835
G1 X105.898 Y103.204 E5.65394
G1 X105.898 Y103.755 E5.67913
G1 X104.729 Y102.586 E5.75471
G1 X104.729 Y103.137 E5.77990
G1 X105.898 Y104.306 E5.85549
G1 X105.898 Y104.857 E5.88068
G1 X104.729 Y103.688 E5.95626
G1 X104.729 Y104.239 E5.98145
G1 X105.898 Y105.408 E6.05704
G1 X105.898 Y105.959 E6.08223
G1 X104.729 Y104.790 E6.15781
G1 X104.729 Y105.341 E6.18300
G1 X106.586 Y107.197 E6.30304
G1 X107.137 Y107.197 E6.32822
G1 X106.380 Y106.440 E6.37717
G1 X106.931 Y106.440 E6.40236
G1 X107.688 Y107.197 E6.45131
G1 X108.239 Y107.197 E6.47650
G1 X107.482 Y106.440 E6.52545
G1 X108.033 Y106.440 E6.55064
G1 X108.790 Y107.197 E6.59959
G1 X109.341 Y107.197 E6.62478
G1 X108.584 Y106.440 E6.67372
G1 X109.135 Y106.440 E6.69891
G1 X109.892 Y107.197 E6.74786
G1 X110.443 Y107.197 E6.77305
G1 X109.686 Y106.440 E6.82200
G1 X110.237 Y106.440 E6.84719
G1 X110.975 Y107.178 E6.89494
G1 X111.483 Y107.136 E6.91825
G1 X110.734 Y106.386 E6.96671
G1 X111.206 Y106.307 E6.98860
G1 X111.991 Y107.093 E7.03938
G1 X112.459 Y107.009 E7.06110
G1 X111.678 Y106.228 E7.11158
G1 X112.150 Y106.150 E7.13347
G1 X112.882 Y106.881 E7.18077
G1 X113.305 Y106.753 E7.20097
G1 X112.602 Y106.050 E7.24641
G1 X112.902 Y105.800 E7.26430
G1 X113.675 Y106.572 E7.31423
G1 X114.013 Y106.360 E7.33250
G1 X113.203 Y105.549 E7.38490
G1 X113.503 Y105.299 E7.40279
G1 X114.346 Y106.142 E7.45730
G1 X114.618 Y105.863 E7.47511
G1 X113.804 Y105.048 E7.52776
G1 X114.033 Y104.727 E7.54581
G1 X114.873 Y105.566 E7.60007
G1 X115.107 Y105.250 E7.61808
G1 X114.140 Y104.283 E7.68060
G1 X114.247 Y103.838 E7.70149
G1 X115.269 Y104.860 E7.76757
G1 X115.430 Y104.471 E7.78685
G1 X114.353 Y103.394 E7.85648
G1 X114.457 Y102.946 E7.87748
G1 X115.520 Y104.009 E7.94622
G1 X115.577 Y103.516 E7.96895
G1 X114.296 Y102.234 E8.05177
G1 X114.135 Y101.523 E8.08512
G1 X115.604 Y102.991 E8.18007
G1 X114.518 Y100.252 F7800.000
G1 X114.132 Y99.867 E8.20499 F540.000
G92 E0
G1 X114.577 Y101.076 F7800.000
G1 X114.577 Y101.076 F7800.000
G1 X105.898 Y97.694 F7800.000
G1 X104.729 Y96.525 E0.07559 F540.000
G1 X104.729 Y95.974 E0.10078
G1 X105.898 Y97.143 E0.17636
G1 X105.898 Y96.592 E0.20155
G1 X104.729 Y95.423 E0.27714
G1 X104.729 Y94.872 E0.30233
G1 X105.898 Y96.041 E0.37791
G1 X105.898 Y95.490 E0.40310
G1 X104.729 Y94.321 E0.47869
G1 X104.729 Y93.770 E0.50388
G1 X105.898 Y94.939 E0.57946
G1 X105.898 Y94.388 E0.60465
G1 X104.729 Y93.219 E0.68024
G1 X104.864 Y92.803 E0.70023
G1 X105.898 Y93.837 E0.76708
G1 X105.898 Y93.286 E0.79227
G1 X105.415 Y92.803 E0.82350
G1 X104.729 Y106.993 F7800.000
G1 X104.933 Y107.197 E0.83666 F540.000
G1 X105.484 Y107.197 E0.86185
G1 X104.729 Y106.442 E0.91064
G1 X104.729 Y105.891 E0.93582
G1 X106.035 Y107.197 E1.02023
G92 E0
G1 X104.278 Y107.648 F7800.000
G1 X102.278 Y107.648 F7800.000
G1 X98.350 Y107.648 F7800.000
G1 X96.350 Y107.648 F7800.000
G1 X96.125 Y97.565 F7800.000
G1 X96.125 Y107.423 E0.44608 F378.000
G1 X94.710 Y107.423 E0.51011
G1 X94.710 Y97.618 E0.95377
G1 X94.724 Y96.856 E0.98826
G1 X94.839 Y94.524 E1.09391
G1 X94.435 Y94.395 E1.11311
G1 X86.208 Y107.423 E1.81034
G1 X84.150 Y107.423 E1.90347
G1 X84.150 Y92.577 E2.57524
G1 X85.543 Y92.577 E2.63827
G1 X85.543 Y102.512 E3.08781
G1 X85.489 Y104.320 E3.16966 F378.000
G1 X85.434 Y105.392 E3.21822
G1 X85.839 Y105.520 E3.23744
G1 X93.980 Y92.577 E3.92931
G1 X96.125 Y92.577 E4.02635
G1 X96.125 Y97.334 E4.24159
G1 X95.042 Y94.923 F7800.000
G1 X95.899 Y95.779 E4.29735 F540.000
G1 X95.899 Y96.334 E4.32286
G1 X95.016 Y95.451 E4.38032
G1 X94.990 Y95.979 E4.40467
G1 X95.899 Y96.889 E4.46382
G1 X95.899 Y97.443 E4.48934
G1 X94.963 Y96.508 E4.55020
G1 X94.945 Y97.044 E4.57488
G1 X95.899 Y97.998 E4.63695
G1 X95.899 Y98.552 E4.66246
G1 X94.936 Y97.589 E4.72514
G1 X94.936 Y98.144 E4.75065
G1 X95.899 Y99.107 E4.81333
G1 X95.899 Y99.661 E4.83884
G1 X94.936 Y98.698 E4.90152
G1 X94.936 Y99.253 E4.92703
G1 X95.899 Y100.216 E4.98971
G1 X95.899 Y100.770 E5.01522
G1 X94.936 Y99.807 E5.07790
G1 X94.936 Y100.362 E5.10341
G1 X95.899 Y101.325 E5.16608
G1 X95.899 Y101.880 E5.19160
G1 X94.936 Y100.917 E5.25427
G1 X94.936 Y101.471 E5.27979
G1 X95.899 Y102.434 E5.34246
G1 X95.899 Y102.989 E5.36798
G1 X94.936 Y102.026 E5.43065
G1 X94.936 Y102.580 E5.45617
G1 X95.899 Y103.543 E5.51884
G1 X95.899 Y104.098 E5.54436
G1 X94.936 Y103.135 E5.60703
G1 X94.936 Y103.689 E5.63255
G1 X95.899 Y104.652 E5.69522
G1 X95.899 Y105.207 E5.72074
G1 X94.936 Y104.244 E5.78341
G1 X94.936 Y104.798 E5.80893
G1 X95.899 Y105.762 E5.87160
G1 X95.899 Y106.316 E5.89712
G1 X94.936 Y105.353 E5.95979
G1 X94.936 Y105.908 E5.98531
G1 X95.899 Y106.871 E6.04798
G1 X95.670 Y107.197 E6.06631
G1 X94.936 Y106.462 E6.11413
G1 X94.936 Y107.017 E6.13964
G1 X95.116 Y107.197 E6.15138
G92 E0
G1 X85.956 Y106.370 F7800.000
G1 X85.682 Y106.470 F7800.000
G1 X85.180 Y106.392 F7800.000
G1 X84.925 Y106.043 F7800.000
G1 X85.228 Y105.073 F7800.000
G1 X84.376 Y104.221 E0.05547 F540.000
G1 X84.376 Y103.666 E0.08099
G1 X85.255 Y104.546 E0.13822
G1 X85.274 Y104.010 E0.16287
G1 X84.376 Y103.112 E0.22135
G1 X84.376 Y102.557 E0.24687
G1 X85.290 Y103.472 E0.30640
G1 X85.306 Y102.933 E0.33119
G1 X84.376 Y102.002 E0.39176
G1 X84.376 Y101.448 E0.41728
G1 X85.317 Y102.389 E0.47852
G1 X85.317 Y101.834 E0.50404
G1 X84.376 Y100.893 E0.56528
G1 X84.376 Y100.339 E0.59080
G1 X85.317 Y101.280 E0.65204
G1 X85.317 Y100.725 E0.67756
G1 X84.376 Y99.784 E0.73880
G1 X84.376 Y99.230 E0.76431
G1 X85.317 Y100.171 E0.82555
G1 X85.317 Y99.616 E0.85107
G1 X84.376 Y98.675 E0.91231
G1 X84.376 Y98.120 E0.93783
G1 X85.317 Y99.062 E0.99907
G1 X85.317 Y98.507 E1.02459
G1 X84.376 Y97.566 E1.08583
G1 X84.376 Y97.011 E1.11135
G1 X85.317 Y97.952 E1.17259
G1 X85.317 Y97.398 E1.19810
G1 X84.376 Y96.457 E1.25934
G1 X84.376 Y95.902 E1.28486
G1 X85.317 Y96.843 E1.34610
G1 X85.317 Y96.289 E1.37162
G1 X84.376 Y95.348 E1.43286
G1 X84.376 Y94.793 E1.45838
G1 X85.317 Y95.734 E1.51962
G1 X85.317 Y95.180 E1.54514
G1 X84.376 Y94.238 E1.60638
G1 X84.376 Y93.684 E1.63189
G1 X85.317 Y94.625 E1.69313
G1 X85.317 Y94.070 E1.71865
G1 X84.376 Y93.129 E1.77989
G1 X84.604 Y92.803 E1.79822
G1 X85.317 Y93.516 E1.84461
G92 E0
G1 X94.293 Y93.535 F7800.000
G1 X94.473 Y93.470 F7800.000
G1 X95.130 Y93.572 F7800.000
G1 X95.350 Y93.352 F7800.000
G1 X95.899 Y93.007 F7800.000
G1 X95.695 Y92.803 E0.01325 F540.000
G1 X95.141 Y92.803 E0.03877
G1 X95.899 Y93.561 E0.08810
G1 X95.899 Y94.116 E0.11362
G1 X94.586 Y92.803 E0.19905
G1 X94.054 Y92.826 E0.22355
G1 X95.899 Y94.670 E0.34359
G1 X95.899 Y95.225 E0.36911
G1 X93.840 Y93.166 E0.50309
G1 X93.626 Y93.506 E0.52160
G1 X94.324 Y94.205 E0.56707
G1 X94.110 Y94.545 E0.58557
G1 X93.412 Y93.847 E0.63100
G1 X93.197 Y94.187 E0.64951
G1 X93.895 Y94.885 E0.69491
G1 X93.680 Y95.225 E0.71341
G1 X92.983 Y94.528 E0.75878
G1 X92.769 Y94.868 E0.77728
G1 X93.466 Y95.565 E0.82262
G1 X93.251 Y95.905 E0.84112
G1 X92.555 Y95.209 E0.88642
G1 X92.341 Y95.549 E0.90492
G1 X93.036 Y96.245 E0.95019
G1 X92.822 Y96.584 E0.96869
G1 X92.127 Y95.889 E1.01392
G1 X91.913 Y96.230 E1.03243
G1 X92.607 Y96.924 E1.07762
G1 X92.393 Y97.264 E1.09612
G1 X91.698 Y96.570 E1.14129
G1 X91.484 Y96.911 E1.15979
G1 X92.178 Y97.604 E1.20492
G1 X91.963 Y97.944 E1.22342
G1 X91.270 Y97.251 E1.26852
G1 X91.056 Y97.592 E1.28702
G1 X91.749 Y98.284 E1.33209
G1 X91.534 Y98.624 E1.35058
G1 X90.842 Y97.932 E1.39561
G1 X90.628 Y98.272 E1.41412
G1 X91.319 Y98.964 E1.45911
G1 X91.105 Y99.304 E1.47761
G1 X90.414 Y98.613 E1.52257
G1 X90.200 Y98.953 E1.54108
G1 X90.890 Y99.644 E1.58600
G1 X90.675 Y99.984 E1.60450
G1 X89.985 Y99.294 E1.64939
G1 X89.771 Y99.634 E1.66790
G1 X90.461 Y100.323 E1.71275
G1 X90.246 Y100.663 E1.73125
G1 X89.557 Y99.975 E1.77608
G1 X89.343 Y100.315 E1.79458
G1 X90.031 Y101.003 E1.83937
G1 X89.817 Y101.343 E1.85787
G1 X89.129 Y100.655 E1.90263
G1 X88.915 Y100.996 E1.92113
G1 X89.602 Y101.683 E1.96585
G1 X89.387 Y102.023 E1.98435
G1 X88.701 Y101.336 E2.02904
G1 X88.486 Y101.677 E2.04755
G1 X89.173 Y102.363 E2.09220
G1 X88.958 Y102.703 E2.11070
G1 X88.272 Y102.017 E2.15532
G1 X88.058 Y102.358 E2.17382
G1 X88.743 Y103.043 E2.21841
G1 X88.529 Y103.383 E2.23691
G1 X87.844 Y102.698 E2.28146
G1 X87.630 Y103.038 E2.29996
G1 X88.314 Y103.723 E2.34448
G1 X88.099 Y104.062 E2.36298
G1 X87.416 Y103.379 E2.40746
G1 X87.202 Y103.719 E2.42597
G1 X87.885 Y104.402 E2.47042
G1 X87.670 Y104.742 E2.48891
G1 X86.988 Y104.060 E2.53333
G1 X86.773 Y104.400 E2.55183
G1 X87.455 Y105.082 E2.59622
G1 X87.241 Y105.422 E2.61471
G1 X86.559 Y104.741 E2.65906
G1 X86.345 Y105.081 E2.67757
G1 X87.026 Y105.762 E2.72188
G1 X86.811 Y106.102 E2.74038
G1 X86.131 Y105.421 E2.78466
G1 X85.917 Y105.762 E2.80316
G1 X86.597 Y106.442 E2.84741
G1 X86.382 Y106.782 E2.86591
G1 X84.376 Y104.775 E2.99648
G1 X84.376 Y105.330 E3.02199
G1 X86.167 Y107.122 E3.13859
G1 X85.688 Y107.197 E3.16091
G1 X84.376 Y105.884 E3.24633
G1 X84.376 Y106.439 E3.27185
G1 X85.134 Y107.197 E3.32119
G1 X84.579 Y107.197 E3.34671
G1 X84.376 Y106.993 E3.35995
M106 S255
G92 E0
G1 Z0.600 F7800.000
G1 X106.165 Y102.637 F7800.000
G1 X105.314 Y98.331 E1.31513 F600.000
G1 X105.314 Y92.352 E3.10672
G1 X105.476 Y99.149 F7800.000
G1 X110.677 Y99.156 E4.66536 F600.000
G1 X112.146 Y99.350 E5.10941
G1 X112.605 Y99.466 E5.25115
G1 X113.044 Y99.645 E5.39310
G1 X113.199 Y99.734 E5.44676
G1 X113.992 Y100.349 E5.74740
G1 X114.246 Y100.612 E5.85687
G1 X114.579 Y101.080 E6.02919
G1 X114.863 Y101.981 E6.31226
G1 X115.031 Y103.055 E6.63802
G1 X114.853 Y104.127 E6.96349
G1 X114.570 Y104.993 E7.23646
G1 X114.232 Y105.435 E7.40303
G1 X113.998 Y105.666 E7.50174
G1 X113.205 Y106.241 E7.79522
G1 X112.995 Y106.354 E7.86657
G1 X112.561 Y106.519 E8.00594
G1 X112.107 Y106.625 E8.14537
G1 X110.661 Y106.807 E8.58224
G1 X110.447 Y106.818 E8.64631
G1 X106.349 Y106.818 E9.87426
G1 X105.387 Y106.539 E10.17451
G1 X105.314 Y105.989 E10.34088
G1 X105.314 Y99.968 E12.14505
G1 X105.476 Y99.149 E12.39505
G92 E0
G1 X104.278 Y92.352 F7800.000
G1 X96.350 Y91.352 F7800.000
G1 X89.093 Y93.678 F7800.000
G1 X87.768 Y92.352 F7800.000
G1 X85.768 Y92.352 F7800.000
G1 X84.846 Y92.352 F7800.000
G1 X84.846 Y102.501 E3.04119 F600.000
G1 X84.797 Y105.185 E3.84543
G1 X85.183 Y106.390 E4.22466
G1 X85.371 Y106.422 E4.28197
G1 X85.671 Y106.449 E4.37217
G1 X86.494 Y105.726 E4.70041
G1 X93.770 Y94.181 E8.78972
G1 X94.494 Y93.507 E9.08590
G1 X94.893 Y93.535 E9.20579
G1 X95.125 Y93.577 E9.27644
G1 X95.477 Y94.729 E9.63746
G1 X95.417 Y97.625 E10.50543
G1 X95.417 Y107.648 E13.50886
G92 E0
G1 Z0.900 F7800.000
G1 X106.165 Y102.637 F7800.000
G1 X105.314 Y98.331 E1.31513 F600.000
G1 X105.314 Y92.352 E3.10672
G1 X105.476 Y99.149 F7800.000
G1 X110.677 Y99.156 E4.66536 F600.000
G1 X112.146 Y99.350 E5.10941
G1 X112.605 Y99.466 E5.25115
G1 X113.044 Y99.645 E5.39310
G1 X113.199 Y99.734 E5.44676
G1 X113.992 Y100.349 E5.74740
G1 X114.246 Y100.612 E5.85687
G1 X114.579 Y101.080 E6.02919
G1 X114.863 Y101.981 E6.31226
G1 X115.031 Y103.055 E6.63802
G1 X114.853 Y104.127 E6.96349
G1 X114.570 Y104.993 E7.23646
G1 X114.232 Y105.435 E7.40303
G1 X113.998 Y105.666 E7.50174
G1 X113.205 Y106.241 E7.79522
G1 X112.995 Y106.354 E7.86657
G1 X112.561 Y106.519 E8.00594
G1 X112.107 Y106.625 E8.14537
G1 X110.661 Y106.807 E8.58224
G1 X110.447 Y106.818 E8.64631
G1 X106.349 Y106.818 E9.87426
G1 X105.387 Y106.539 E10.17451
G1 X105.314 Y105.989 E10.34088
G1 X105.314 Y99.968 E12.14505
G1 X105.476 Y99.149 E12.39505
G92 E0
G1 X104.278 Y92.352 F7800.000
G1 X96.350 Y91.352 F7800.000
G1 X89.093 Y93.678 F7800.000
G1 X87.768 Y92.352 F7800.000
G1 X85.768 Y92.352 F7800.000
G1 X84.846 Y92.352 F7800.000
G1 X84.846 Y102.501 E3.04119 F600.000
G1 X84.797 Y105.185 E3.84543
G1 X85.183 Y106.390 E4.22466
G1 X85.371 Y106.422 E4.28197
G1 X85.671 Y106.449 E4.37217
G1 X86.494 Y105.726 E4.70041
G1 X93.770 Y94.181 E8.78972
G1 X94.494 Y93.507 E9.08590
G1 X94.893 Y93.535 E9.20579
G1 X95.125 Y93.577 E9.27644
G1 X95.477 Y94.729 E9.63746
G1 X95.417 Y97.625 E10.50543
G1 X95.417 Y107.648 E13.50886
G92 E0
G1 Z1.200 F7800.000
G1 X106.165 Y102.637 F7800.000
G1 X105.314 Y98.331 E1.31513 F600.000
G1 X105.314 Y92.352 E3.10672
G1 X105.476 Y99.149 F7800.000
G1 X110.677 Y99.156 E4.66536 F600.000
G1 X112.146 Y99.350 E5.10941
G1 X112.605 Y99.466 E5.25115
G1 X113.044 Y99.645 E5.39310
G1 X113.199 Y99.734 E5.44676
G1 X113.992 Y100.349 E5.74740
G1 X114.246 Y100.612 E5.85687
G1 X114.579 Y101.080 E6.02920
G1 X114.863 Y101.981 E6.31226
G1 X115.031 Y103.055 E6.63802
G1 X114.853 Y104.127 E6.96349
G1 X114.570 Y104.993 E7.23646
G1 X114.232 Y105.435 E7.40303
G1 X113.998 Y105.666 E7.50174
G1 X113.205 Y106.241 E7.79522
G1 X112.995 Y106.354 E7.86657
G1 X112.561 Y106.519 E8.00594
G1 X112.107 Y106.625 E8.14537
G1 X110.661 Y106.807 E8.58224
G1 X110.447 Y106.818 E8.64631
G1 X106.349 Y106.818 E9.87426
G1 X105.387 Y106.539 E10.17451
G1 X105.314 Y105.989 E10.34088
G1 X105.314 Y99.968 E12.14505
G1 X105.476 Y99.149 E12.39505
G92 E0
G1 X104.278 Y92.352 F7800.000
G1 X96.350 Y91.352 F7800.000
G1 X89.093 Y93.678 F7800.000
G1 X87.768 Y92.352 F7800.000
G1 X85.768 Y92.352 F7800.000
G1 X84.846 Y92.352 F7800.000
G1 X84.846 Y102.501 E3.04119 F600.000
G1 X84.797 Y105.185 E3.84543
G1 X85.183 Y106.390 E4.22466
G1 X85.371 Y106.422 E4.28197
G1 X85.671 Y106.449 E4.37217
G1 X86.494 Y105.726 E4.70041
G1 X93.770 Y94.181 E8.78972
G1 X94.494 Y93.507 E9.08590
G1 X94.893 Y93.535 E9.20580
