; generated by Slic3r 1.2.9 on 2016-03-11 at 01:27:56

; external perimeters extrusion width = 1.54mm
; perimeters extrusion width = 2.62mm
; infill extrusion width = 6.27mm
; solid infill extrusion width = 2.62mm
; top infill extrusion width = 2.62mm

M107
M104 S30 ; set temperature
G28 ; home all axes
G1 Z5 F5000 ; lift nozzle
M302
M92 E10000
M500
M501
G1 E100
M109 S30 ; wait for temperature to be reached
G21 ; set units to millimeters
G90 ; use absolute coordinates
M82 ; use absolute distances for extrusion
G92 E0
G1 Z0.300 F7800.000
G1 X111.643 Y109.442 F7800.000
G1 X111.258 Y109.530 E0.01788 F378.000
G1 X109.808 Y109.630 E0.08363
G1 X107.644 Y109.406 E0.18206
G1 X105.840 Y108.738 E0.26910
G1 X104.381 Y107.631 E0.35197
G1 X103.305 Y106.131 E0.43554
G1 X102.656 Y104.276 E0.52444
G1 X102.437 Y102.055 E0.62544
G1 X102.526 Y100.611 E0.69091
G1 X102.792 Y99.290 E0.75190
G1 X103.235 Y98.094 E0.80957
G1 X103.842 Y97.048 E0.86433
G1 X104.605 Y96.169 E0.91697
G1 X105.526 Y95.456 E0.96967
G1 X106.592 Y94.918 E1.02371
G1 X107.790 Y94.566 E1.08020
G1 X109.273 Y94.383 E1.14783
G1 X109.807 Y92.960 E1.21658
G1 X110.363 Y91.961 E1.26833
G1 X110.990 Y91.243 E1.31145
G1 X111.711 Y90.760 E1.35072
G1 X112.557 Y90.468 E1.39122
G1 X113.543 Y90.369 E1.43603
G1 X114.096 Y90.393 E1.46108
G1 X114.769 Y90.473 E1.49175 F378.000
G1 X115.242 Y90.567 E1.51360
G1 X115.242 Y91.566 E1.55879
G1 X114.640 Y91.486 E1.58629
G1 X114.213 Y91.470 E1.60563
G1 X113.478 Y91.541 E1.63905
G1 X112.817 Y91.762 E1.67056
G1 X112.245 Y92.132 E1.70139
G1 X111.759 Y92.661 E1.73389
G1 X111.350 Y93.357 E1.77042
G1 X110.922 Y94.442 E1.82320
G1 X112.933 Y94.939 E1.91697
G1 X114.389 Y95.730 E1.99193
G1 X115.571 Y96.886 E2.06676
G1 X116.446 Y98.354 E2.14406
G1 X116.974 Y100.076 E2.22559
G1 X117.151 Y102.063 E2.31582
G1 X117.052 Y103.562 E2.38382
G1 X116.758 Y104.919 E2.44662
G1 X116.269 Y106.130 E2.50574
G1 X115.599 Y107.179 E2.56204
G1 X114.758 Y108.044 E2.61665
G1 X113.742 Y108.730 E2.67212
G1 X112.570 Y109.229 E2.72978
G1 X111.868 Y109.390 E2.76236
G1 X111.466 Y108.203 F7800.000
G1 X109.806 Y108.390 E2.83797 F378.000
G1 X108.133 Y108.206 E2.91413
G1 X106.719 Y107.647 E2.98290
G1 X105.578 Y106.711 E3.04969
G1 X104.747 Y105.443 E3.11829
G1 X104.253 Y103.890 E3.19203
G1 X104.089 Y102.059 E3.27523
G1 X104.254 Y100.230 E3.35831
G1 X104.753 Y98.659 E3.43293
G1 X105.592 Y97.350 E3.50325
G1 X106.734 Y96.369 E3.57141
G1 X108.136 Y95.781 E3.64019
G1 X109.638 Y95.604 E3.70861
G1 X109.783 Y95.587 E3.71521 F378.000
G1 X111.467 Y95.774 E3.79188
G1 X112.883 Y96.343 E3.86093
G1 X114.018 Y97.295 E3.92796
G1 X114.839 Y98.588 E3.99728
G1 X115.327 Y100.178 E4.07254
G1 X115.488 Y102.059 E4.15799
G1 X115.326 Y103.869 E4.24019
G1 X114.833 Y105.414 E4.31357
G1 X114.006 Y106.688 E4.38232
G1 X112.871 Y107.636 E4.44923
G1 X111.680 Y108.117 E4.50732
G1 X107.746 Y108.335 F7800.000
G1 X108.689 Y109.278 E4.56800 F540.000
G1 X109.301 Y109.341 E4.59597
G1 X108.436 Y108.476 E4.65162
G1 X109.052 Y108.544 E4.67980
G1 X109.910 Y109.402 E4.73499
G1 X110.423 Y109.367 E4.75836
G1 X109.668 Y108.612 E4.80690
G1 X110.172 Y108.568 E4.82990
G1 X110.935 Y109.331 E4.87900
G1 X111.428 Y109.276 E4.90155
G1 X110.665 Y108.512 E4.95064
G1 X111.157 Y108.457 E4.97319
G1 X111.874 Y109.173 E5.01928
G1 X112.320 Y109.071 E5.04009
G1 X111.611 Y108.362 E5.08571
G1 X112.001 Y108.204 E5.10486
G1 X112.737 Y108.940 E5.15219
G1 X113.122 Y108.777 E5.17120
G1 X112.392 Y108.047 E5.21814
G1 X112.782 Y107.889 E5.23730
G1 X113.506 Y108.613 E5.28386
G1 X113.859 Y108.417 E5.30220
G1 X113.120 Y107.679 E5.34970
G1 X113.419 Y107.429 E5.36740
G1 X114.186 Y108.196 E5.41674
G1 X114.513 Y107.975 E5.43469
G1 X113.717 Y107.180 E5.48587
G1 X114.016 Y106.930 E5.50357
G1 X114.794 Y107.708 E5.55359
G1 X115.068 Y107.434 E5.57122
G1 X114.271 Y106.637 E5.62248
G1 X114.487 Y106.305 E5.64050
G1 X115.342 Y107.160 E5.69550
G1 X115.579 Y106.849 E5.71329
G1 X114.703 Y105.972 E5.76967
G1 X114.918 Y105.640 E5.78769
G1 X115.793 Y106.515 E5.84393
G1 X116.007 Y106.180 E5.86198
G1 X115.095 Y105.268 E5.92063
G1 X115.227 Y104.853 E5.94047
G1 X116.182 Y105.808 E6.00191
G1 X116.340 Y105.417 E6.02107
G1 X115.360 Y104.437 E6.08411
G1 X115.492 Y104.021 E6.10395
G1 X116.497 Y105.026 E6.16860
G1 X116.613 Y104.594 E6.18897
G1 X115.574 Y103.555 E6.25581
G1 X115.619 Y103.052 E6.27878
G1 X116.711 Y104.144 E6.34901
G1 X116.809 Y103.693 E6.36997
G1 X115.664 Y102.549 E6.44358
G1 X115.709 Y102.046 E6.46655
G1 X116.855 Y103.192 E6.54027
G1 X116.889 Y102.677 E6.56371
G1 X115.671 Y101.459 E6.64207
G1 X115.620 Y100.860 E6.66943
G1 X116.923 Y102.163 E6.75326
G1 X116.872 Y101.564 E6.78062
G1 X115.568 Y100.260 E6.86446
G1 X115.397 Y99.541 E6.89810
G1 X116.818 Y100.962 E6.98952
G1 X116.764 Y100.360 E7.01700
G1 X115.154 Y98.750 E7.12058
G1 X116.325 Y98.824 F7800.000
G1 X112.617 Y95.116 E7.35912 F540.000
G1 X111.889 Y94.936 E7.39323
G1 X113.100 Y96.147 E7.47115
G1 X113.739 Y95.690 F7800.000
G1 X115.705 Y97.656 E7.59760 F540.000
G1 X114.535 Y97.583 F7800.000
G1 X116.567 Y99.615 E7.72829 F540.000
G1 X112.184 Y95.779 F7800.000
G1 X111.161 Y94.756 E7.79411 F540.000
G1 X110.590 Y94.733 E7.82009
G1 X109.694 Y93.838 E7.87772
G1 X111.024 Y92.382 F7800.000
G1 X111.024 Y92.382 F7800.000
G1 X115.016 Y90.938 F7800.000
G1 X114.807 Y90.729 E7.89117 F540.000
G1 X114.798 Y91.268 E7.91568
G1 X114.170 Y90.640 E7.95608
G1 X113.583 Y90.601 E7.98283
G1 X114.231 Y91.248 E8.02448
G1 X113.731 Y91.297 E8.04730
G1 X113.070 Y90.636 E8.08981
G1 X112.572 Y90.686 E8.11258
G1 X113.278 Y91.392 E8.15800
G1 X112.867 Y91.530 E8.17771
G1 X112.159 Y90.821 E8.22327
G1 X111.754 Y90.965 E8.24280
G1 X112.515 Y91.725 E8.29171
G1 X112.182 Y91.941 E8.30974
G1 X111.426 Y91.185 E8.35835
G1 X111.102 Y91.408 E8.37628
G1 X111.908 Y92.215 E8.42815
G1 X111.646 Y92.501 E8.44580
G1 X110.846 Y91.701 E8.49724
G1 X110.590 Y91.993 E8.51491
G1 X111.431 Y92.834 E8.56896
G1 X111.228 Y93.179 E8.58717
G1 X110.381 Y92.332 E8.64161
G1 X110.185 Y92.684 E8.65994
G1 X111.055 Y93.554 E8.71590
G1 X110.900 Y93.947 E8.73512
G1 X109.993 Y93.040 E8.79348
G1 X109.843 Y93.439 E8.81285
G1 X110.745 Y94.340 E8.87084
G1 X110.432 Y94.576 E8.88864
G1 X111.384 Y95.528 E8.94986
G1 X110.767 Y95.459 E8.97809
G1 X109.544 Y94.236 E9.05675
G1 X109.351 Y94.591 E9.07513
G1 X110.150 Y95.391 E9.12655
G1 X109.601 Y95.389 E9.15153
G1 X108.863 Y94.651 E9.19900
G1 X108.375 Y94.712 E9.22135
G1 X109.111 Y95.447 E9.26866
G1 X108.620 Y95.505 E9.29111
G1 X107.888 Y94.772 E9.33826
G1 X107.449 Y94.881 E9.35883
G1 X108.132 Y95.565 E9.40279
G1 X107.746 Y95.727 E9.42184
G1 X107.025 Y95.006 E9.46821
G1 X106.604 Y95.134 E9.48819
G1 X107.360 Y95.889 E9.53676
G1 X106.973 Y96.051 E9.55581
G1 X106.240 Y95.317 E9.60298
G1 X105.876 Y95.501 E9.62154
G1 X106.603 Y96.228 E9.66829
G1 X106.308 Y96.481 E9.68597
G1 X105.526 Y95.700 E9.73622
G1 X105.218 Y95.939 E9.75399
G1 X106.013 Y96.735 E9.80515
G1 X105.718 Y96.988 E9.82283
G1 X104.909 Y96.179 E9.87489
G1 X104.629 Y96.447 E9.89252
G1 X105.427 Y97.245 E9.94385
G1 X105.213 Y97.580 E9.96190
G1 X104.369 Y96.735 E10.01623
G1 X104.114 Y97.028 E10.03390
G1 X104.999 Y97.914 E10.09086
G1 X104.785 Y98.248 E10.10890
G1 X103.891 Y97.354 E10.16642
G1 X103.690 Y97.700 E10.18466
G1 X104.571 Y98.582 E10.24137
G1 X104.433 Y98.991 E10.26103
G1 X103.488 Y98.047 E10.32176
G1 X103.326 Y98.433 E10.34079
G1 X104.301 Y99.408 E10.40350
G1 X104.168 Y99.824 E10.42335
G1 X103.178 Y98.833 E10.48709
G1 X103.030 Y99.233 E10.50649
G1 X104.036 Y100.240 E10.57125
G1 X103.989 Y100.740 E10.59411
G1 X102.929 Y99.681 E10.66225
G1 X102.837 Y100.137 E10.68342
G1 X103.943 Y101.243 E10.75456
G1 X103.898 Y101.746 E10.77752
G1 X102.748 Y100.596 E10.85146
G1 X102.717 Y101.112 E10.87499
G1 X103.874 Y102.270 E10.94942
G1 X103.927 Y102.871 E10.97690
G1 X102.685 Y101.629 E11.05682
G1 X102.685 Y102.177 E11.08174
G1 X103.981 Y103.473 E11.16513
G1 X104.049 Y104.089 E11.19331
G1 X102.744 Y102.785 E11.27720
G1 X102.804 Y103.393 E11.30498
G1 X104.304 Y104.893 E11.40148
G1 X104.598 Y105.735 F7800.000
G1 X102.864 Y104.001 E11.51302 F540.000
G1 X103.110 Y104.795 E11.55085
G1 X107.326 Y109.011 E11.82204
G1 X108.078 Y109.214 E11.85743
G1 X106.839 Y107.976 E11.93710
G1 X106.457 Y108.690 F7800.000
G1 X103.406 Y105.639 E12.13333 F540.000
G1 X104.450 Y107.231 F7800.000
G1 X104.805 Y107.586 E12.15614 F540.000
G92 E0
G1 X102.434 Y104.325 F7800.000
G1 X99.208 Y107.696 F7800.000
G1 X93.184 Y110.760 F7800.000
G1 X92.584 Y98.853 F7800.000
G1 X92.907 Y97.818 F7800.000
G1 X93.253 Y96.737 F7800.000
G1 X93.231 Y96.678 F7800.000
G1 X85.083 Y106.668 F7800.000
G1 X92.679 Y94.593 E0.64550 F378.000
G1 X94.824 Y94.593 E0.74255
G1 X94.824 Y109.439 E1.41432
G1 X93.409 Y109.439 E1.47835
G1 X93.409 Y99.634 E1.92201
G1 X93.423 Y98.872 E1.95650
G1 X93.538 Y96.540 E2.06215
G1 X93.134 Y96.411 E2.08135
G1 X84.907 Y109.439 E2.77858
G1 X82.849 Y109.439 E2.87170
G1 X82.849 Y94.593 E3.54347
G1 X84.242 Y94.593 E3.60651
G1 X84.242 Y104.528 E4.05604
G1 X84.188 Y106.336 E4.13790 F378.000
G1 X84.133 Y107.408 E4.18645
G1 X84.538 Y107.536 E4.20568
G1 X84.960 Y106.864 E4.24159
G1 X83.927 Y107.089 F7800.000
G1 X83.075 Y106.237 E4.29706 F540.000
G1 X83.075 Y105.682 E4.32258
G1 X83.954 Y106.562 E4.37981
G1 X83.973 Y106.026 E4.40445
G1 X83.075 Y105.128 E4.46294
G1 X83.075 Y104.573 E4.48846
G1 X83.989 Y105.488 E4.54799
G1 X84.005 Y104.949 E4.57278
G1 X83.075 Y104.018 E4.63335
G1 X83.075 Y103.464 E4.65887
G1 X84.016 Y104.405 E4.72011
G1 X84.016 Y103.850 E4.74563
G1 X83.075 Y102.909 E4.80687
G1 X83.075 Y102.355 E4.83239
G1 X84.016 Y103.296 E4.89363
G1 X84.016 Y102.741 E4.91915
G1 X83.075 Y101.800 E4.98039
G1 X83.075 Y101.246 E5.00590
G1 X84.016 Y102.187 E5.06714
G1 X84.016 Y101.632 E5.09266
G1 X83.075 Y100.691 E5.15390
G1 X83.075 Y100.136 E5.17942
G1 X84.016 Y101.078 E5.24066
G1 X84.016 Y100.523 E5.26618
G1 X83.075 Y99.582 E5.32742
G1 X83.075 Y99.027 E5.35294
G1 X84.016 Y99.968 E5.41418
G1 X84.016 Y99.414 E5.43969
G1 X83.075 Y98.473 E5.50093
G1 X83.075 Y97.918 E5.52645
G1 X84.016 Y98.859 E5.58769
G1 X84.016 Y98.305 E5.61321
G1 X83.075 Y97.364 E5.67445
G1 X83.075 Y96.809 E5.69997
G1 X84.016 Y97.750 E5.76121
G1 X84.016 Y97.196 E5.78673
G1 X83.075 Y96.254 E5.84797
G1 X83.075 Y95.700 E5.87348
G1 X84.016 Y96.641 E5.93472
G1 X84.016 Y96.086 E5.96024
G1 X83.075 Y95.145 E6.02148
G1 X83.303 Y94.819 E6.03981
G1 X84.016 Y95.532 E6.08620
G92 E0
G1 X92.992 Y95.551 F7800.000
G1 X93.172 Y95.486 F7800.000
G1 X93.829 Y95.588 F7800.000
G1 X94.049 Y95.890 F7800.000
G1 X93.741 Y96.939 F7800.000
G1 X94.598 Y97.795 E0.05576 F540.000
G1 X94.598 Y98.350 E0.08127
G1 X93.715 Y97.467 E0.13873
G1 X93.689 Y97.995 E0.16308
G1 X94.598 Y98.905 E0.22223
G1 X94.598 Y99.459 E0.24775
G1 X93.662 Y98.524 E0.30861
G1 X93.644 Y99.060 E0.33329
G1 X94.598 Y100.014 E0.39536
G1 X94.598 Y100.568 E0.42087
G1 X93.635 Y99.605 E0.48355
G1 X93.635 Y100.160 E0.50906
G1 X94.598 Y101.123 E0.57174
G1 X94.598 Y101.677 E0.59725
G1 X93.635 Y100.714 E0.65993
G1 X93.635 Y101.269 E0.68544
G1 X94.598 Y102.232 E0.74812
G1 X94.598 Y102.786 E0.77363
G1 X93.635 Y101.823 E0.83630
G1 X93.635 Y102.378 E0.86182
G1 X94.598 Y103.341 E0.92449
G1 X94.598 Y103.896 E0.95001
G1 X93.635 Y102.933 E1.01268
G1 X93.635 Y103.487 E1.03820
G1 X94.598 Y104.450 E1.10087
G1 X94.598 Y105.005 E1.12639
G1 X93.635 Y104.042 E1.18906
G1 X93.635 Y104.596 E1.21458
G1 X94.598 Y105.559 E1.27725
G1 X94.598 Y106.114 E1.30277
G1 X93.635 Y105.151 E1.36544
G1 X93.635 Y105.705 E1.39096
G1 X94.598 Y106.668 E1.45363
G1 X94.598 Y107.223 E1.47915
G1 X93.635 Y106.260 E1.54182
G1 X93.635 Y106.814 E1.56734
G1 X94.598 Y107.778 E1.63001
G1 X94.598 Y108.332 E1.65553
G1 X93.635 Y107.369 E1.71820
G1 X93.635 Y107.924 E1.74372
G1 X94.598 Y108.887 E1.80639
G1 X94.369 Y109.213 E1.82472
G1 X93.635 Y108.478 E1.87254
G1 X93.635 Y109.033 E1.89805
G1 X93.815 Y109.213 E1.90979
G92 E0
G1 X84.655 Y108.386 F7800.000
G1 X84.381 Y108.486 F7800.000
G1 X83.879 Y108.408 F7800.000
G1 X83.624 Y108.664 F7800.000
G1 X83.075 Y109.009 F7800.000
G1 X83.278 Y109.213 E0.01325 F540.000
G1 X83.833 Y109.213 E0.03877
G1 X83.075 Y108.455 E0.08810
G1 X83.075 Y107.900 E0.11362
G1 X84.387 Y109.213 E0.19904
G1 X84.866 Y109.138 E0.22136
G1 X83.075 Y107.346 E0.33796
G1 X83.075 Y106.791 E0.36348
G1 X85.081 Y108.798 E0.49405
G1 X85.296 Y108.458 E0.51255
G1 X84.616 Y107.778 E0.55679
G1 X84.830 Y107.437 E0.57530
G1 X85.510 Y108.118 E0.61957
G1 X85.725 Y107.778 E0.63807
G1 X85.044 Y107.097 E0.68239
G1 X85.258 Y106.757 E0.70089
G1 X85.940 Y107.438 E0.74524
G1 X86.154 Y107.098 E0.76374
G1 X85.472 Y106.416 E0.80812
G1 X85.687 Y106.076 E0.82662
G1 X86.369 Y106.758 E0.87104
G1 X86.584 Y106.418 E0.88954
G1 X85.901 Y105.735 E0.93399
G1 X86.115 Y105.395 E0.95249
G1 X86.798 Y106.078 E0.99697
G1 X87.013 Y105.739 E1.01547
G1 X86.329 Y105.054 E1.05999
G1 X86.543 Y104.714 E1.07850
G1 X87.228 Y105.399 E1.12305
G1 X87.442 Y105.059 E1.14155
G1 X86.757 Y104.374 E1.18613
G1 X86.971 Y104.033 E1.20464
G1 X87.657 Y104.719 E1.24926
G1 X87.872 Y104.379 E1.26775
G1 X87.185 Y103.693 E1.31241
G1 X87.400 Y103.352 E1.33091
G1 X88.086 Y104.039 E1.37560
G1 X88.301 Y103.699 E1.39410
G1 X87.614 Y103.012 E1.43882
G1 X87.828 Y102.671 E1.45733
G1 X88.516 Y103.359 E1.50208
G1 X88.730 Y103.019 E1.52058
G1 X88.042 Y102.331 E1.56537
G1 X88.256 Y101.991 E1.58388
G1 X88.945 Y102.679 E1.62870
G1 X89.160 Y102.339 E1.64720
G1 X88.470 Y101.650 E1.69206
G1 X88.684 Y101.310 E1.71056
G1 X89.374 Y102.000 E1.75545
G1 X89.589 Y101.660 E1.77395
G1 X88.899 Y100.969 E1.81888
G1 X89.113 Y100.629 E1.83738
G1 X89.804 Y101.320 E1.88234
G1 X90.018 Y100.980 E1.90084
G1 X89.327 Y100.288 E1.94584
G1 X89.541 Y99.948 E1.96434
G1 X90.233 Y100.640 E2.00937
G1 X90.448 Y100.300 E2.02787
G1 X89.755 Y99.608 E2.07293
G1 X89.969 Y99.267 E2.09144
G1 X90.662 Y99.960 E2.13653
G1 X90.877 Y99.620 E2.15503
G1 X90.183 Y98.927 E2.20016
G1 X90.397 Y98.586 E2.21867
G1 X91.092 Y99.280 E2.26383
G1 X91.306 Y98.940 E2.28233
G1 X90.612 Y98.246 E2.32753
G1 X90.826 Y97.905 E2.34603
G1 X91.521 Y98.600 E2.39126
G1 X91.735 Y98.261 E2.40976
G1 X91.040 Y97.565 E2.45503
G1 X91.254 Y97.225 E2.47354
G1 X91.950 Y97.921 E2.51884
G1 X92.165 Y97.581 E2.53733
G1 X91.468 Y96.884 E2.58267
G1 X91.682 Y96.544 E2.60117
G1 X92.379 Y97.241 E2.64654
G1 X92.594 Y96.901 E2.66504
G1 X91.896 Y96.203 E2.71044
G1 X92.111 Y95.863 E2.72895
G1 X92.809 Y96.561 E2.77439
G1 X93.023 Y96.221 E2.79289
G1 X92.325 Y95.522 E2.83836
G1 X92.539 Y95.182 E2.85686
G1 X94.598 Y97.241 E2.99084
G1 X94.598 Y96.686 E3.01636
G1 X92.753 Y94.842 E3.13640
G1 X93.285 Y94.819 E3.16091
G1 X94.598 Y96.132 E3.24633
G1 X94.598 Y95.577 E3.27185
G1 X93.840 Y94.819 E3.32118
G1 X94.394 Y94.819 E3.34670
G1 X94.598 Y95.023 E3.35995
M106 S255
G92 E0
G1 Z0.600 F7800.000
G1 X109.059 Y94.182 F7800.000
G1 X111.023 Y95.103 E0.65005 F600.000
G1 X111.714 Y95.241 E0.86105
G1 X112.693 Y95.558 E1.16951
G1 X113.085 Y95.742 E1.29935
G1 X113.321 Y95.877 E1.38056
G1 X113.959 Y96.312 E1.61213
G1 X114.435 Y96.743 E1.80458
G1 X114.629 Y96.948 E1.88903
G1 X114.966 Y97.363 E2.04931
G1 X115.456 Y98.160 E2.32964
G1 X115.707 Y98.681 E2.50306
G1 X116.087 Y99.920 E2.89118
G1 X116.160 Y100.236 E2.98832
G1 X116.318 Y102.072 E3.54075
G1 X116.213 Y103.444 E3.95301
G1 X116.094 Y104.140 E4.16441
G1 X115.952 Y104.671 E4.32910
G1 X115.554 Y105.761 E4.67709
G1 X114.968 Y106.678 E5.00312
G1 X114.655 Y107.070 E5.15320
G1 X114.268 Y107.459 E5.31763
G1 X113.404 Y108.109 E5.64162
G1 X113.091 Y108.275 E5.74797
G1 X112.359 Y108.578 E5.98535
G1 X111.730 Y108.776 E6.18271
G1 X111.163 Y108.888 E6.35613
G1 X109.819 Y109.008 E6.76039
G1 X108.095 Y108.827 E7.27991
G1 X107.793 Y108.769 E7.37202
G1 X106.508 Y108.277 E7.78428
G1 X106.182 Y108.115 E7.89327
G1 X105.143 Y107.296 E8.28979
G1 X104.929 Y107.098 E8.37711
G1 X104.018 Y105.760 E8.86225
G1 X103.461 Y104.098 E9.38732
G1 X103.265 Y102.040 E10.00692
G1 X103.364 Y100.721 E10.40332
G1 X103.487 Y99.961 E10.63395
G1 X103.601 Y99.519 E10.77064
G1 X103.971 Y98.441 E11.11219
G1 X104.096 Y98.202 E11.19290
G1 X104.510 Y97.525 E11.43077
G1 X104.929 Y96.965 E11.64044
G1 X105.118 Y96.747 E11.72671
G1 X105.924 Y96.086 E12.03909
