; generated by Slic3r 1.2.9 on 2016-03-11 at 01:28:01

; external perimeters extrusion width = 1.54mm
; perimeters extrusion width = 2.62mm
; infill extrusion width = 6.27mm
; solid infill extrusion width = 2.62mm
; top infill extrusion width = 2.62mm

M107
M104 S30 ; set temperature
G28 ; home all axes
G1 Z5 F5000 ; lift nozzle
M302
M92 E10000
M500
M501
G1 E100
M109 S30 ; wait for temperature to be reached
G21 ; set units to millimeters
G90 ; use absolute coordinates
M82 ; use absolute distances for extrusion
G92 E0
G1 Z0.300 F7800.000
G1 X114.606 Y104.706 F7800.000
G1 X114.606 Y98.326 E0.28866 F378.000
G1 X114.475 Y96.965 E0.35052
G1 X114.072 Y95.815 E0.40569
G1 X113.394 Y94.896 E0.45736
G1 X112.473 Y94.234 E0.50871
G1 X111.346 Y93.840 E0.56272
G1 X110.022 Y93.711 E0.62290
G1 X108.737 Y93.836 E0.68130
G1 X107.654 Y94.218 E0.73326
G1 X106.783 Y94.861 E0.78228
G1 X106.151 Y95.753 E0.83170
G1 X105.778 Y96.867 E0.88490
G1 X105.656 Y98.186 E0.94481
G1 X105.656 Y107.519 E1.36714
G1 X104.035 Y107.519 E1.44049
G1 X104.035 Y98.030 E1.86984
G1 X104.118 Y96.914 E1.92051
G1 X104.366 Y95.920 E1.96685
G1 X104.776 Y95.037 E2.01090
G1 X105.333 Y94.275 E2.05362
G1 X106.024 Y93.644 E2.09597
G1 X106.852 Y93.142 E2.13979
G1 X107.804 Y92.776 E2.18593
G1 X108.864 Y92.555 E2.23493
G1 X110.034 Y92.481 E2.28795
G1 X111.125 Y92.551 E2.33745
G1 X111.250 Y92.558 E2.34307 F378.000
G1 X112.347 Y92.788 E2.39381
G1 X113.328 Y93.168 E2.44140
G1 X114.178 Y93.690 E2.48656
G1 X114.888 Y94.345 E2.53023
G1 X115.459 Y95.134 E2.57431
G1 X115.878 Y96.047 E2.61979
G1 X116.131 Y97.074 E2.66763
G1 X116.217 Y98.225 E2.71988
G1 X116.217 Y107.519 E3.14041
G1 X114.606 Y107.519 E3.21331
G1 X114.606 Y104.937 E3.33016
G1 X114.832 Y106.752 F7800.000
G1 X115.372 Y107.293 E3.36476 F540.000
G1 X115.918 Y107.293 E3.38944
G1 X114.832 Y106.207 E3.45894
G1 X114.832 Y105.662 E3.48362
G1 X115.991 Y106.821 E3.55780
G1 X115.991 Y106.275 E3.58248
G1 X114.832 Y105.116 E3.65666
G1 X114.832 Y104.571 E3.68134
G1 X115.991 Y105.730 E3.75552
G1 X115.991 Y105.185 E3.78020
G1 X114.832 Y104.025 E3.85438
G1 X114.832 Y103.480 E3.87906
G1 X115.991 Y104.639 E3.95324
G1 X115.991 Y104.094 E3.97792
G1 X114.832 Y102.935 E4.05210
G1 X114.832 Y102.389 E4.07678
G1 X115.991 Y103.548 E4.15096
G1 X115.991 Y103.003 E4.17564
G1 X114.832 Y101.844 E4.24982
G1 X114.832 Y101.298 E4.27450
G1 X115.991 Y102.458 E4.34868
G1 X115.991 Y101.912 E4.37337
G1 X114.832 Y100.753 E4.44754
G1 X114.832 Y100.208 E4.47223
G1 X115.991 Y101.367 E4.54641
G1 X115.991 Y100.821 E4.57109
G1 X114.832 Y99.662 E4.64527
G1 X114.832 Y99.117 E4.66995
G1 X115.991 Y100.276 E4.74413
G1 X115.991 Y99.731 E4.76881
G1 X114.832 Y98.571 E4.84299
G1 X114.810 Y98.004 E4.86867
G1 X115.991 Y99.185 E4.94424
G1 X115.991 Y98.640 E4.96892
G1 X114.752 Y97.401 E5.04820
G1 X114.686 Y96.790 E5.07602
G1 X115.973 Y98.076 E5.15837
G1 X115.929 Y97.487 E5.18510
G1 X114.393 Y95.951 E5.28342
G1 X114.812 Y94.734 F7800.000
G1 X114.207 Y94.129 E5.32214 F540.000
G1 X112.762 Y93.229 F7800.000
G1 X115.587 Y96.054 E5.50298 F540.000
G1 X115.816 Y96.828 E5.53948
G1 X111.940 Y92.953 E5.78752
G1 X111.250 Y92.808 E5.81940
G1 X112.365 Y93.923 E5.89077
G1 X111.527 Y93.631 F7800.000
G1 X110.649 Y92.752 E5.94701 F540.000
G1 X110.066 Y92.715 E5.97341
G1 X110.914 Y93.563 E6.02764
G1 X110.309 Y93.504 E6.05512
G1 X109.540 Y92.734 E6.10437
G1 X109.027 Y92.767 E6.12763
G1 X109.776 Y93.515 E6.17556
G1 X109.279 Y93.564 E6.19815
G1 X108.551 Y92.836 E6.24473
G1 X108.100 Y92.930 E6.26560
G1 X108.782 Y93.612 E6.30926
G1 X108.373 Y93.749 E6.32876
G1 X107.669 Y93.045 E6.37383
G1 X107.275 Y93.196 E6.39294
G1 X107.970 Y93.891 E6.43741
G1 X107.572 Y94.038 E6.45662
G1 X106.884 Y93.351 E6.50061
G1 X106.545 Y93.557 E6.51858
G1 X107.258 Y94.270 E6.56423
G1 X106.944 Y94.502 E6.58188
G1 X106.205 Y93.763 E6.62919
G1 X105.908 Y94.011 E6.64671
G1 X106.634 Y94.737 E6.69320
G1 X106.408 Y95.056 E6.71090
G1 X105.631 Y94.279 E6.76063
G1 X105.365 Y94.559 E6.77809
G1 X106.182 Y95.375 E6.83034
G1 X105.956 Y95.695 E6.84805
G1 X105.135 Y94.874 E6.90058
G1 X104.918 Y95.203 E6.91840
G1 X105.819 Y96.103 E6.97602
G1 X105.682 Y96.511 E6.99552
G1 X104.745 Y95.575 E7.05544
G1 X104.573 Y95.949 E7.07405
G1 X105.552 Y96.928 E7.13669
G1 X105.506 Y97.427 E7.15938
G1 X104.465 Y96.386 E7.22603
G1 X104.356 Y96.822 E7.24640
G1 X105.460 Y97.926 E7.31704
G1 X105.430 Y98.441 E7.34039
G1 X104.309 Y97.320 E7.41215
G1 X104.271 Y97.828 E7.43517
G1 X105.430 Y98.987 E7.50936
G1 X105.430 Y99.532 E7.53404
G1 X104.261 Y98.363 E7.60886
G1 X104.261 Y98.908 E7.63354
G1 X105.430 Y100.078 E7.70836
G1 X105.430 Y100.623 E7.73304
G1 X104.261 Y99.454 E7.80786
G1 X104.261 Y99.999 E7.83254
G1 X105.430 Y101.168 E7.90736
G1 X105.430 Y101.714 E7.93204
G1 X104.261 Y100.545 E8.00686
G1 X104.261 Y101.090 E8.03154
G1 X105.430 Y102.259 E8.10636
G1 X105.430 Y102.805 E8.13104
G1 X104.261 Y101.635 E8.20586
G1 X104.261 Y102.181 E8.23054
G1 X105.430 Y103.350 E8.30536
G1 X105.430 Y103.895 E8.33004
G1 X104.261 Y102.726 E8.40486
G1 X104.261 Y103.272 E8.42954
G1 X105.430 Y104.441 E8.50436
G1 X105.430 Y104.986 E8.52904
G1 X104.261 Y103.817 E8.60386
G1 X104.261 Y104.362 E8.62855
G1 X105.430 Y105.532 E8.70336
G1 X105.430 Y106.077 E8.72805
G1 X104.261 Y104.908 E8.80287
G1 X104.261 Y105.453 E8.82755
G1 X105.430 Y106.622 E8.90237
G1 X105.430 Y107.168 E8.92705
G1 X104.261 Y105.999 E9.00187
G1 X104.261 Y106.544 E9.02655
G1 X105.010 Y107.293 E9.07448
G1 X104.464 Y107.293 E9.09916
G1 X104.261 Y107.089 E9.11219
G92 E0
G1 X103.810 Y98.022 F7800.000
G1 X100.185 Y94.458 F7800.000
G1 X95.983 Y91.352 F7800.000
G1 X88.770 Y93.624 F7800.000
G1 X87.593 Y92.448 F7800.000
G1 X85.401 Y92.448 F7800.000
G1 X85.176 Y95.114 F7800.000
G1 X85.176 Y102.608 E0.33909 F378.000
G1 X85.122 Y104.416 E0.42095 F378.000
G1 X85.067 Y105.488 E0.46950
G1 X85.472 Y105.616 E0.48873
G1 X93.613 Y92.673 E1.18059
G1 X95.758 Y92.673 E1.27764
G1 X95.758 Y107.519 E1.94941
G1 X94.343 Y107.519 E2.01344
G1 X94.343 Y97.714 E2.45710
G1 X94.357 Y96.952 E2.49159
G1 X94.473 Y94.620 E2.59724
G1 X94.069 Y94.491 E2.61644
G1 X85.841 Y107.519 E3.31367
G1 X83.783 Y107.519 E3.40680
G1 X83.783 Y92.673 E4.07857
G1 X85.176 Y92.673 E4.14160
G1 X85.176 Y94.883 E4.24159
G1 X84.950 Y93.612 F7800.000
G1 X84.237 Y92.899 E4.28798 F540.000
G1 X84.009 Y93.225 E4.30631
G1 X84.950 Y94.166 E4.36755
G1 X84.950 Y94.721 E4.39306
G1 X84.009 Y93.780 E4.45430
G1 X84.009 Y94.334 E4.47982
G1 X84.950 Y95.276 E4.54106
G1 X84.950 Y95.830 E4.56658
G1 X84.009 Y94.889 E4.62782
G1 X84.009 Y95.444 E4.65334
G1 X84.950 Y96.385 E4.71458
G1 X84.950 Y96.939 E4.74010
G1 X84.009 Y95.998 E4.80134
G1 X84.009 Y96.553 E4.82685
G1 X84.950 Y97.494 E4.88809
G1 X84.950 Y98.048 E4.91361
G1 X84.009 Y97.107 E4.97485
G1 X84.009 Y97.662 E5.00037
G1 X84.950 Y98.603 E5.06161
G1 X84.950 Y99.158 E5.08713
G1 X84.009 Y98.216 E5.14837
G1 X84.009 Y98.771 E5.17389
G1 X84.950 Y99.712 E5.23513
G1 X84.950 Y100.267 E5.26064
G1 X84.009 Y99.326 E5.32188
G1 X84.009 Y99.880 E5.34740
G1 X84.950 Y100.821 E5.40864
G1 X84.950 Y101.376 E5.43416
G1 X84.009 Y100.435 E5.49540
G1 X84.009 Y100.989 E5.52092
G1 X84.950 Y101.930 E5.58216
G1 X84.950 Y102.485 E5.60768
G1 X84.009 Y101.544 E5.66892
G1 X84.009 Y102.098 E5.69443
G1 X84.940 Y103.029 E5.75501
G1 X84.924 Y103.568 E5.77980
G1 X84.009 Y102.653 E5.83933
G1 X84.009 Y103.208 E5.86485
G1 X84.908 Y104.106 E5.92333
G1 X84.889 Y104.642 E5.94798
G1 X84.009 Y103.762 E6.00521
G1 X84.009 Y104.317 E6.03073
G1 X84.862 Y105.169 E6.08620
G1 X84.009 Y107.089 F7800.000
G1 X84.213 Y107.293 E6.09945 F540.000
G1 X84.767 Y107.293 E6.12496
G1 X84.009 Y106.535 E6.17430
G1 X84.009 Y105.980 E6.19982
G1 X85.322 Y107.293 E6.28524
G1 X85.801 Y107.218 E6.30756
G1 X84.009 Y105.426 E6.42416
G1 X84.009 Y104.871 E6.44968
G1 X86.016 Y106.878 E6.58025
G1 X86.230 Y106.538 E6.59874
G1 X85.550 Y105.858 E6.64299
G1 X85.764 Y105.517 E6.66149
G1 X86.445 Y106.198 E6.70577
G1 X86.660 Y105.858 E6.72427
G1 X85.979 Y105.177 E6.76858
G1 X86.193 Y104.837 E6.78709
G1 X86.874 Y105.518 E6.83144
G1 X87.089 Y105.178 E6.84994
G1 X86.407 Y104.496 E6.89432
G1 X86.621 Y104.156 E6.91282
G1 X87.304 Y104.838 E6.95724
G1 X87.518 Y104.498 E6.97574
G1 X86.835 Y103.815 E7.02018
G1 X87.049 Y103.475 E7.03869
G1 X87.733 Y104.158 E7.08317
G1 X87.948 Y103.819 E7.10167
G1 X87.263 Y103.134 E7.14619
G1 X87.478 Y102.794 E7.16470
G1 X88.162 Y103.479 E7.20925
G1 X88.377 Y103.139 E7.22774
G1 X87.692 Y102.454 E7.27233
G1 X87.906 Y102.113 E7.29084
G1 X88.591 Y102.799 E7.33546
G1 X88.806 Y102.459 E7.35395
G1 X88.120 Y101.773 E7.39861
G1 X88.334 Y101.432 E7.41711
G1 X89.021 Y102.119 E7.46180
G1 X89.235 Y101.779 E7.48030
G1 X88.548 Y101.092 E7.52502
G1 X88.762 Y100.751 E7.54353
G1 X89.450 Y101.439 E7.58828
G1 X89.665 Y101.099 E7.60678
G1 X88.976 Y100.411 E7.65157
G1 X89.191 Y100.071 E7.67008
G1 X89.879 Y100.759 E7.71490
G1 X90.094 Y100.419 E7.73340
G1 X89.405 Y99.730 E7.77826
G1 X89.619 Y99.390 E7.79676
G1 X90.309 Y100.080 E7.84165
G1 X90.523 Y99.740 E7.86015
G1 X89.833 Y99.049 E7.90508
G1 X90.047 Y98.709 E7.92358
G1 X90.738 Y99.400 E7.96854
G1 X90.953 Y99.060 E7.98704
G1 X90.261 Y98.368 E8.03203
G1 X90.475 Y98.028 E8.05054
G1 X91.167 Y98.720 E8.09557
G1 X91.382 Y98.380 E8.11407
G1 X90.690 Y97.688 E8.15913
G1 X90.904 Y97.347 E8.17764
G1 X91.597 Y98.040 E8.22273
G1 X91.811 Y97.700 E8.24123
G1 X91.118 Y97.007 E8.28636
G1 X91.332 Y96.666 E8.30487
G1 X92.026 Y97.360 E8.35003
G1 X92.241 Y97.020 E8.36853
G1 X91.546 Y96.326 E8.41373
G1 X91.760 Y95.985 E8.43223
G1 X92.455 Y96.680 E8.47746
G1 X92.670 Y96.341 E8.49596
G1 X91.974 Y95.645 E8.54123
G1 X92.189 Y95.305 E8.55974
G1 X92.885 Y96.001 E8.60504
G1 X93.099 Y95.661 E8.62353
G1 X92.403 Y94.964 E8.66887
G1 X92.617 Y94.624 E8.68737
G1 X93.314 Y95.321 E8.73274
G1 X93.529 Y94.981 E8.75124
G1 X92.831 Y94.283 E8.79664
G1 X93.045 Y93.943 E8.81515
G1 X93.743 Y94.641 E8.86059
G1 X93.958 Y94.301 E8.87909
G1 X93.259 Y93.602 E8.92456
G1 X93.473 Y93.262 E8.94306
G1 X95.532 Y95.321 E9.07704
G1 X95.532 Y94.766 E9.10256
G1 X93.687 Y92.921 E9.22260
G1 X94.219 Y92.899 E9.24711
G1 X95.532 Y94.212 E9.33253
G1 X95.532 Y93.657 E9.35805
G1 X94.774 Y92.899 E9.40739
G1 X95.329 Y92.899 E9.43290
G1 X95.532 Y93.103 E9.44615
G1 X94.675 Y95.019 F7800.000
G1 X95.532 Y95.875 E9.50191 F540.000
G1 X95.532 Y96.430 E9.52743
G1 X94.649 Y95.547 E9.58488
G1 X94.623 Y96.075 E9.60923
G1 X95.532 Y96.985 E9.66839
G1 X95.532 Y97.539 E9.69391
G1 X94.597 Y96.604 E9.75476
G1 X94.578 Y97.140 E9.77944
G1 X95.532 Y98.094 E9.84151
G1 X95.532 Y98.648 E9.86703
G1 X94.569 Y97.685 E9.92970
G1 X94.569 Y98.240 E9.95522
G1 X95.532 Y99.203 E10.01789
G1 X95.532 Y99.757 E10.04341
G1 X94.569 Y98.794 E10.10608
G1 X94.569 Y99.349 E10.13160
G1 X95.532 Y100.312 E10.19427
G1 X95.532 Y100.866 E10.21979
G1 X94.569 Y99.903 E10.28246
G1 X94.569 Y100.458 E10.30798
G1 X95.532 Y101.421 E10.37065
G1 X95.532 Y101.976 E10.39617
G1 X94.569 Y101.013 E10.45884
G1 X94.569 Y101.567 E10.48436
G1 X95.532 Y102.530 E10.54703
G1 X95.532 Y103.085 E10.57254
G1 X94.569 Y102.122 E10.63522
G1 X94.569 Y102.676 E10.66073
G1 X95.532 Y103.639 E10.72341
G1 X95.532 Y104.194 E10.74892
G1 X94.569 Y103.231 E10.81160
G1 X94.569 Y103.785 E10.83711
G1 X95.532 Y104.748 E10.89979
G1 X95.532 Y105.303 E10.92530
G1 X94.569 Y104.340 E10.98798
G1 X94.569 Y104.894 E11.01349
G1 X95.532 Y105.858 E11.07616
G1 X95.532 Y106.412 E11.10168
G1 X94.569 Y105.449 E11.16435
G1 X94.569 Y106.004 E11.18987
G1 X95.532 Y106.967 E11.25254
G1 X95.304 Y107.293 E11.27087
G1 X94.569 Y106.558 E11.31869
G1 X94.569 Y107.113 E11.34421
G1 X94.749 Y107.293 E11.35594
M106 S255
G92 E0
G1 Z0.600 F7800.000
G1 X115.411 Y107.744 F7800.000
G1 X115.410 Y98.255 E2.84327 F600.000
G1 X115.320 Y97.203 E3.15975
G1 X115.216 Y96.677 E3.32027
G1 X115.108 Y96.316 E3.43318
G1 X114.788 Y95.526 E3.68879
G1 X114.313 Y94.854 E3.93515
G1 X113.993 Y94.497 E4.07883
G1 X113.782 Y94.296 E4.16632
G1 X113.022 Y93.785 E4.44068
G1 X112.657 Y93.607 E4.56244
G1 X112.159 Y93.424 E4.72145
G1 X111.576 Y93.262 E4.90265
G1 X111.164 Y93.187 E5.02802
G1 X110.034 Y93.097 E5.36785
G1 X108.949 Y93.182 E5.69389
G1 X108.506 Y93.262 E5.82878
G1 X107.989 Y93.406 E5.98947
G1 X107.471 Y93.597 E6.15493
G1 X107.151 Y93.750 E6.26144
G1 X106.391 Y94.270 E6.53726
G1 X106.177 Y94.476 E6.62627
G1 X105.903 Y94.786 E6.75029
G1 X105.447 Y95.433 E6.98748
G1 X105.141 Y96.193 E7.23305
G1 X105.026 Y96.587 E7.35604
G1 X104.934 Y97.045 E7.49584
G1 X104.848 Y98.101 E7.81325
G1 X104.845 Y107.744 E10.70287
G92 E0
G1 X103.810 Y98.022 F7800.000
G1 X103.810 Y98.022 F7800.000
G1 X99.902 Y97.729 F7800.000
G1 X99.945 Y96.582 F7800.000
G1 X99.999 Y95.909 F7800.000
G1 X100.100 Y95.084 F7800.000
G1 X100.100 Y95.084 F7800.000
G1 X100.129 Y94.844 F7800.000
G1 X100.185 Y94.458 F7800.000
G1 X98.175 Y92.448 F7800.000
G1 X95.983 Y91.352 F7800.000
G1 X93.489 Y91.352 F7800.000
G1 X92.278 Y91.686 F7800.000
G1 X88.770 Y93.624 F7800.000
G1 X87.593 Y92.448 F7800.000
G1 X85.401 Y92.448 F7800.000
G1 X84.480 Y92.448 F7800.000
G1 X84.480 Y102.597 E3.04120 F600.000
G1 X84.430 Y105.281 E3.84543
G1 X84.816 Y106.486 E4.22466
G1 X85.005 Y106.518 E4.28197
G1 X85.304 Y106.545 E4.37217
G1 X86.127 Y105.822 E4.70041
G1 X93.404 Y94.277 E8.78972
G1 X94.127 Y93.603 E9.08590
G1 X94.526 Y93.631 E9.20579
G1 X94.759 Y93.673 E9.27644
G1 X95.111 Y94.825 E9.63746
G1 X95.051 Y97.721 E10.50543
G1 X95.051 Y107.744 E13.50886
G92 E0
G1 Z0.900 F7800.000
G1 X115.411 Y107.744 F7800.000
G1 X115.410 Y98.255 E2.84327 F600.000
G1 X115.320 Y97.203 E3.15975
G1 X115.216 Y96.677 E3.32027
G1 X115.108 Y96.316 E3.43318
G1 X114.788 Y95.526 E3.68879
G1 X114.313 Y94.854 E3.93515
G1 X113.993 Y94.497 E4.07883
G1 X113.782 Y94.296 E4.16632
G1 X113.022 Y93.785 E4.44068
G1 X112.657 Y93.607 E4.56244
G1 X112.159 Y93.424 E4.72145
G1 X111.576 Y93.262 E4.90265
G1 X111.164 Y93.187 E5.02802
G1 X110.034 Y93.097 E5.36784
G1 X108.949 Y93.182 E5.69389
G1 X108.506 Y93.262 E5.82878
G1 X107.989 Y93.406 E5.98947
G1 X107.471 Y93.597 E6.15493
G1 X107.151 Y93.750 E6.26144
G1 X106.391 Y94.270 E6.53726
G1 X106.177 Y94.476 E6.62627
G1 X105.903 Y94.786 E6.75029
G1 X105.447 Y95.433 E6.98748
G1 X105.141 Y96.193 E7.23305
G1 X105.026 Y96.587 E7.35604
G1 X104.934 Y97.045 E7.49584
G1 X104.848 Y98.101 E7.81325
G1 X104.845 Y107.744 E10.70287
G92 E0
G1 X103.810 Y98.022 F7800.000
G1 X103.810 Y98.022 F7800.000
G1 X99.902 Y97.729 F7800.000
G1 X99.945 Y96.582 F7800.000
G1 X99.999 Y95.909 F7800.000
G1 X100.129 Y94.844 F7800.000
G1 X100.185 Y94.458 F7800.000
G1 X98.175 Y92.448 F7800.000
G1 X95.983 Y91.352 F7800.000
G1 X93.489 Y91.352 F7800.000
G1 X92.278 Y91.686 F7800.000
G1 X88.770 Y93.624 F7800.000
G1 X87.593 Y92.448 F7800.000
G1 X85.401 Y92.448 F7800.000
G1 X84.480 Y92.448 F7800.000
G1 X84.480 Y102.597 E3.04120 F600.000
G1 X84.430 Y105.281 E3.84543
G1 X84.816 Y106.486 E4.22466
G1 X85.005 Y106.518 E4.28197
G1 X85.304 Y106.545 E4.37217
G1 X86.127 Y105.822 E4.70041
G1 X93.404 Y94.277 E8.78972
G1 X94.127 Y93.603 E9.08590
G1 X94.526 Y93.631 E9.20579
G1 X94.759 Y93.673 E9.27644
G1 X95.111 Y94.825 E9.63746
G1 X95.051 Y97.721 E10.50543
G1 X95.051 Y107.744 E13.50886
G92 E0
G1 Z1.200 F7800.000
G1 X115.411 Y107.744 F7800.000
G1 X115.410 Y98.255 E2.84327 F600.000
G1 X115.320 Y97.203 E3.15975
G1 X115.216 Y96.677 E3.32027
G1 X115.108 Y96.316 E3.43318
G1 X114.788 Y95.526 E3.68879
G1 X114.313 Y94.854 E3.93515
G1 X113.993 Y94.497 E4.07883
G1 X113.782 Y94.296 E4.16632
G1 X113.022 Y93.785 E4.44068
G1 X112.657 Y93.607 E4.56244
G1 X112.159 Y93.424 E4.72145
G1 X111.576 Y93.262 E4.90265
G1 X111.164 Y93.187 E5.02802
G1 X110.034 Y93.097 E5.36785
G1 X108.949 Y93.182 E5.69389
G1 X108.506 Y93.262 E5.82878
G1 X107.989 Y93.406 E5.98947
G1 X107.471 Y93.597 E6.15493
G1 X107.151 Y93.750 E6.26144
G1 X106.391 Y94.270 E6.53726
G1 X106.177 Y94.476 E6.62627
G1 X105.903 Y94.786 E6.75029
G1 X105.447 Y95.433 E6.98748
G1 X105.141 Y96.193 E7.23305
G1 X105.026 Y96.587 E7.35604
G1 X104.934 Y97.045 E7.49584
G1 X104.848 Y98.101 E7.81325
G1 X104.845 Y107.744 E10.70287
G92 E0
G1 X103.810 Y98.022 F7800.000
G1 X103.810 Y98.022 F7800.000
G1 X99.902 Y97.729 F7800.000
G1 X99.945 Y96.582 F7800.000
G1 X99.999 Y95.909 F7800.000
