; generated by Slic3r 1.2.9 on 2016-03-11 at 01:28:04

; external perimeters extrusion width = 1.54mm
; perimeters extrusion width = 2.62mm
; infill extrusion width = 6.27mm
; solid infill extrusion width = 2.62mm
; top infill extrusion width = 2.62mm

M107
M104 S30 ; set temperature
G28 ; home all axes
G1 Z5 F5000 ; lift nozzle
M302
M92 E10000
M500
M501
G1 E100
M109 S30 ; wait for temperature to be reached
G21 ; set units to millimeters
G90 ; use absolute coordinates
M82 ; use absolute distances for extrusion
G92 E0
G1 Z0.300 F7800.000
G1 X112.932 Y94.515 F7800.000
G1 X114.258 Y92.577 E0.10626 F378.000
G1 X115.993 Y92.577 E0.18477
G1 X110.490 Y100.376 E0.61668
G1 X115.545 Y107.423 E1.00910
G1 X113.814 Y107.423 E1.08744
G1 X109.579 Y101.251 E1.42613
G1 X105.222 Y107.423 E1.76798
G1 X103.493 Y107.423 E1.84622
G1 X108.686 Y100.299 E2.24513
G1 X103.049 Y92.577 E2.67773
G1 X104.777 Y92.577 E2.75592
G1 X109.031 Y98.666 E3.09202
G1 X109.567 Y99.435 E3.13443 F378.000
G1 X112.802 Y94.706 E3.39367
G1 X115.457 Y93.001 F7800.000
G1 X115.259 Y92.803 E3.40651 F540.000
G1 X115.228 Y93.325 E3.43047
G1 X114.707 Y92.803 E3.46430
G1 X114.264 Y92.913 E3.48522
G1 X115.000 Y93.649 E3.53295
G1 X114.771 Y93.973 E3.55112
G1 X114.039 Y93.241 E3.59858
G1 X113.815 Y93.569 E3.61680
G1 X114.543 Y94.297 E3.66399
G1 X114.314 Y94.621 E3.68216
G1 X113.590 Y93.897 E3.72908
G1 X113.366 Y94.225 E3.74730
G1 X114.086 Y94.944 E3.79396
G1 X113.857 Y95.268 E3.81213
G1 X113.142 Y94.553 E3.85851
G1 X112.917 Y94.881 E3.87673
G1 X113.629 Y95.592 E3.92284
G1 X113.400 Y95.916 E3.94102
G1 X112.693 Y95.209 E3.98686
G1 X112.468 Y95.537 E4.00508
G1 X113.171 Y96.240 E4.05066
G1 X112.943 Y96.564 E4.06883
G1 X112.244 Y95.865 E4.11414
G1 X112.020 Y96.193 E4.13236
G1 X112.714 Y96.888 E4.17739
G1 X112.486 Y97.212 E4.19557
G1 X111.795 Y96.521 E4.24033
G1 X111.571 Y96.849 E4.25855
G1 X112.257 Y97.536 E4.30305
G1 X112.029 Y97.860 E4.32123
G1 X111.346 Y97.177 E4.36546
G1 X111.122 Y97.506 E4.38368
G1 X111.800 Y98.184 E4.42764
G1 X111.571 Y98.508 E4.44581
G1 X110.898 Y97.834 E4.48950
G1 X110.673 Y98.162 E4.50772
G1 X111.343 Y98.831 E4.55114
G1 X111.114 Y99.155 E4.56932
G1 X110.449 Y98.490 E4.61247
G1 X110.224 Y98.818 E4.63069
G1 X110.886 Y99.479 E4.67357
G1 X110.657 Y99.803 E4.69175
G1 X110.000 Y99.146 E4.73436
G1 X109.776 Y99.474 E4.75258
G1 X110.429 Y100.127 E4.79493
G1 X110.200 Y100.451 E4.81310
G1 X106.333 Y96.584 E5.06380
G1 X106.732 Y95.878 F7800.000
G1 X103.657 Y92.803 E5.26318 F540.000
G1 X104.209 Y92.803 E5.28851
G1 X105.452 Y94.046 E5.36908
G1 X104.840 Y94.538 F7800.000
G1 X108.013 Y97.711 E5.57478 F540.000
G1 X107.827 Y98.630 F7800.000
G1 X111.561 Y102.364 E5.81685 F540.000
G1 X111.203 Y103.111 F7800.000
G1 X114.364 Y106.273 E6.02180 F540.000
G1 X113.619 Y106.632 F7800.000
G1 X114.184 Y107.197 E6.05843 F540.000
G1 X114.736 Y107.197 E6.08376
G1 X112.411 Y104.872 E6.23451
G1 X112.962 Y104.318 F7800.000
G1 X108.933 Y100.289 E6.49575 F540.000
G1 X108.700 Y100.608 E6.51388
G1 X109.342 Y101.251 E6.55553
G1 X109.114 Y101.574 E6.57370
G1 X108.467 Y100.928 E6.61562
G1 X108.234 Y101.247 E6.63375
G1 X108.885 Y101.898 E6.67595
G1 X108.656 Y102.222 E6.69413
G1 X108.001 Y101.567 E6.73661
G1 X107.768 Y101.886 E6.75474
G1 X108.428 Y102.546 E6.79750
G1 X108.199 Y102.870 E6.81567
G1 X107.535 Y102.206 E6.85871
G1 X107.302 Y102.525 E6.87684
G1 X107.970 Y103.194 E6.92015
G1 X107.742 Y103.518 E6.93833
G1 X107.069 Y102.845 E6.98192
G1 X106.836 Y103.165 E7.00005
G1 X107.513 Y103.841 E7.04393
G1 X107.285 Y104.165 E7.06210
G1 X106.603 Y103.484 E7.10626
G1 X106.370 Y103.804 E7.12438
G1 X107.056 Y104.489 E7.16882
G1 X106.827 Y104.813 E7.18699
G1 X106.138 Y104.123 E7.23170
G1 X105.905 Y104.443 E7.24983
G1 X106.599 Y105.137 E7.29482
G1 X106.370 Y105.461 E7.31299
G1 X105.672 Y104.762 E7.35826
G1 X105.439 Y105.082 E7.37639
G1 X106.141 Y105.784 E7.42194
G1 X105.913 Y106.108 E7.44011
G1 X105.206 Y105.401 E7.48594
G1 X104.973 Y105.721 E7.50407
G1 X105.684 Y106.432 E7.55018
G1 X105.455 Y106.756 E7.56835
G1 X104.740 Y106.040 E7.61473
G1 X104.507 Y106.360 E7.63286
G1 X105.227 Y107.080 E7.67953
G1 X104.792 Y107.197 E7.70019
G1 X104.274 Y106.680 E7.73374
G1 X104.041 Y106.999 E7.75186
G1 X104.239 Y107.197 E7.76469
G92 E0
G1 X103.050 Y107.648 F7800.000
G1 X95.998 Y108.648 F7800.000
G1 X90.787 Y106.302 F7800.000
G1 X87.082 Y108.344 F7800.000
G1 X85.980 Y107.648 F7800.000
G1 X83.798 Y102.062 F7800.000
G1 X83.798 Y92.577 E0.42917 F378.000
G1 X85.191 Y92.577 E0.49220
G1 X85.191 Y102.512 E0.94174
G1 X85.137 Y104.320 E1.02360 F378.000
G1 X85.082 Y105.392 E1.07215
G1 X85.487 Y105.520 E1.09137
G1 X93.628 Y92.577 E1.78324
G1 X95.773 Y92.577 E1.88029
G1 X95.773 Y107.423 E2.55206
G1 X94.358 Y107.423 E2.61608
G1 X94.358 Y97.618 E3.05975
G1 X94.372 Y96.856 E3.09423
G1 X94.487 Y94.524 E3.19989
G1 X94.083 Y94.395 E3.21909
G1 X85.856 Y107.423 E3.91632
G1 X83.798 Y107.423 E4.00944
G1 X83.798 Y102.293 E4.24159
G1 X84.876 Y105.073 F7800.000
G1 X84.024 Y104.221 E4.29706 F540.000
G1 X84.024 Y103.666 E4.32258
G1 X84.903 Y104.546 E4.37981
G1 X84.922 Y104.010 E4.40446
G1 X84.024 Y103.112 E4.46294
G1 X84.024 Y102.557 E4.48846
G1 X84.938 Y103.472 E4.54799
G1 X84.954 Y102.933 E4.57278
G1 X84.024 Y102.002 E4.63335
G1 X84.024 Y101.448 E4.65887
G1 X84.965 Y102.389 E4.72011
G1 X84.965 Y101.834 E4.74563
G1 X84.024 Y100.893 E4.80687
G1 X84.024 Y100.339 E4.83239
G1 X84.965 Y101.280 E4.89363
G1 X84.965 Y100.725 E4.91915
G1 X84.024 Y99.784 E4.98039
G1 X84.024 Y99.230 E5.00590
G1 X84.965 Y100.171 E5.06714
G1 X84.965 Y99.616 E5.09266
G1 X84.024 Y98.675 E5.15390
G1 X84.024 Y98.120 E5.17942
G1 X84.965 Y99.062 E5.24066
G1 X84.965 Y98.507 E5.26618
G1 X84.024 Y97.566 E5.32742
G1 X84.024 Y97.011 E5.35294
G1 X84.965 Y97.952 E5.41418
G1 X84.965 Y97.398 E5.43969
G1 X84.024 Y96.457 E5.50093
G1 X84.024 Y95.902 E5.52645
G1 X84.965 Y96.843 E5.58769
G1 X84.965 Y96.289 E5.61321
G1 X84.024 Y95.348 E5.67445
G1 X84.024 Y94.793 E5.69997
G1 X84.965 Y95.734 E5.76121
G1 X84.965 Y95.180 E5.78673
G1 X84.024 Y94.238 E5.84797
G1 X84.024 Y93.684 E5.87348
G1 X84.965 Y94.625 E5.93472
G1 X84.965 Y94.070 E5.96024
G1 X84.024 Y93.129 E6.02148
G1 X84.252 Y92.803 E6.03981
G1 X84.965 Y93.516 E6.08620
G92 E0
G1 X93.941 Y93.535 F7800.000
G1 X94.121 Y93.470 F7800.000
G1 X94.778 Y93.572 F7800.000
G1 X94.998 Y93.874 F7800.000
G1 X94.690 Y94.923 F7800.000
G1 X95.547 Y95.779 E0.05576 F540.000
G1 X95.547 Y96.334 E0.08127
G1 X94.664 Y95.451 E0.13873
G1 X94.638 Y95.979 E0.16308
G1 X95.547 Y96.889 E0.22223
G1 X95.547 Y97.443 E0.24775
G1 X94.611 Y96.508 E0.30861
G1 X94.593 Y97.044 E0.33329
G1 X95.547 Y97.998 E0.39536
G1 X95.547 Y98.552 E0.42088
G1 X94.584 Y97.589 E0.48355
G1 X94.584 Y98.144 E0.50906
G1 X95.547 Y99.107 E0.57174
G1 X95.547 Y99.661 E0.59725
G1 X94.584 Y98.698 E0.65993
G1 X94.584 Y99.253 E0.68544
G1 X95.547 Y100.216 E0.74812
G1 X95.547 Y100.770 E0.77363
G1 X94.584 Y99.807 E0.83631
G1 X94.584 Y100.362 E0.86182
G1 X95.547 Y101.325 E0.92450
G1 X95.547 Y101.880 E0.95001
G1 X94.584 Y100.917 E1.01269
G1 X94.584 Y101.471 E1.03820
G1 X95.547 Y102.434 E1.10088
G1 X95.547 Y102.989 E1.12639
G1 X94.584 Y102.026 E1.18906
G1 X94.584 Y102.580 E1.21458
G1 X95.547 Y103.543 E1.27725
G1 X95.547 Y104.098 E1.30277
G1 X94.584 Y103.135 E1.36544
G1 X94.584 Y103.689 E1.39096
G1 X95.547 Y104.652 E1.45363
G1 X95.547 Y105.207 E1.47915
G1 X94.584 Y104.244 E1.54182
G1 X94.584 Y104.798 E1.56734
G1 X95.547 Y105.762 E1.63001
G1 X95.547 Y106.316 E1.65553
G1 X94.584 Y105.353 E1.71820
G1 X94.584 Y105.908 E1.74372
G1 X95.547 Y106.871 E1.80639
G1 X95.318 Y107.197 E1.82472
G1 X94.584 Y106.462 E1.87254
G1 X94.584 Y107.017 E1.89806
G1 X94.764 Y107.197 E1.90979
G92 E0
G1 X85.604 Y106.370 F7800.000
G1 X85.330 Y106.470 F7800.000
G1 X84.828 Y106.392 F7800.000
G1 X84.573 Y106.648 F7800.000
G1 X84.024 Y106.993 F7800.000
G1 X84.227 Y107.197 E0.01325 F540.000
G1 X84.782 Y107.197 E0.03877
G1 X84.024 Y106.439 E0.08810
G1 X84.024 Y105.884 E0.11362
G1 X85.336 Y107.197 E0.19904
G1 X85.815 Y107.122 E0.22136
G1 X84.024 Y105.330 E0.33796
G1 X84.024 Y104.775 E0.36348
G1 X86.030 Y106.782 E0.49405
G1 X86.245 Y106.442 E0.51255
G1 X85.565 Y105.762 E0.55679
G1 X85.779 Y105.421 E0.57530
G1 X86.459 Y106.102 E0.61958
G1 X86.674 Y105.762 E0.63807
G1 X85.993 Y105.081 E0.68239
G1 X86.207 Y104.741 E0.70089
G1 X86.889 Y105.422 E0.74524
G1 X87.103 Y105.082 E0.76374
G1 X86.421 Y104.400 E0.80812
G1 X86.636 Y104.060 E0.82662
G1 X87.318 Y104.742 E0.87104
G1 X87.533 Y104.402 E0.88954
G1 X86.850 Y103.719 E0.93399
G1 X87.064 Y103.379 E0.95249
G1 X87.747 Y104.062 E0.99698
G1 X87.962 Y103.723 E1.01547
G1 X87.278 Y103.038 E1.05999
G1 X87.492 Y102.698 E1.07850
G1 X88.177 Y103.383 E1.12305
G1 X88.391 Y103.043 E1.14155
G1 X87.706 Y102.358 E1.18613
G1 X87.920 Y102.017 E1.20464
G1 X88.606 Y102.703 E1.24926
G1 X88.821 Y102.363 E1.26775
G1 X88.134 Y101.677 E1.31241
G1 X88.349 Y101.336 E1.33091
G1 X89.035 Y102.023 E1.37560
G1 X89.250 Y101.683 E1.39410
G1 X88.563 Y100.996 E1.43882
G1 X88.777 Y100.655 E1.45733
G1 X89.465 Y101.343 E1.50208
G1 X89.679 Y101.003 E1.52058
G1 X88.991 Y100.315 E1.56537
G1 X89.205 Y99.975 E1.58388
G1 X89.894 Y100.663 E1.62870
G1 X90.109 Y100.323 E1.64720
G1 X89.419 Y99.634 E1.69206
G1 X89.633 Y99.294 E1.71056
G1 X90.323 Y99.984 E1.75545
G1 X90.538 Y99.644 E1.77395
G1 X89.848 Y98.953 E1.81888
G1 X90.062 Y98.613 E1.83738
G1 X90.753 Y99.304 E1.88234
G1 X90.967 Y98.964 E1.90084
G1 X90.276 Y98.272 E1.94584
G1 X90.490 Y97.932 E1.96434
G1 X91.182 Y98.624 E2.00937
G1 X91.397 Y98.284 E2.02787
G1 X90.704 Y97.592 E2.07293
G1 X90.918 Y97.251 E2.09144
G1 X91.611 Y97.944 E2.13653
G1 X91.826 Y97.604 E2.15503
G1 X91.132 Y96.911 E2.20016
G1 X91.346 Y96.570 E2.21867
G1 X92.041 Y97.264 E2.26383
G1 X92.255 Y96.924 E2.28233
G1 X91.561 Y96.230 E2.32753
G1 X91.775 Y95.889 E2.34603
G1 X92.470 Y96.584 E2.39127
G1 X92.684 Y96.245 E2.40976
G1 X91.989 Y95.549 E2.45503
G1 X92.203 Y95.209 E2.47354
G1 X92.899 Y95.905 E2.51884
G1 X93.114 Y95.565 E2.53734
G1 X92.417 Y94.868 E2.58267
G1 X92.631 Y94.528 E2.60118
G1 X93.328 Y95.225 E2.64654
G1 X93.543 Y94.885 E2.66504
G1 X92.845 Y94.187 E2.71045
G1 X93.060 Y93.847 E2.72895
G1 X93.758 Y94.545 E2.77439
G1 X93.972 Y94.205 E2.79289
G1 X93.274 Y93.506 E2.83836
G1 X93.488 Y93.166 E2.85686
G1 X95.547 Y95.225 E2.99084
G1 X95.547 Y94.670 E3.01636
G1 X93.702 Y92.826 E3.13640
G1 X94.234 Y92.803 E3.16091
G1 X95.547 Y94.116 E3.24633
G1 X95.547 Y93.561 E3.27185
G1 X94.789 Y92.803 E3.32119
G1 X95.343 Y92.803 E3.34670
G1 X95.547 Y93.007 E3.35995
M106 S255
G92 E0
G1 Z0.600 F7800.000
G1 X115.278 Y92.352 F7800.000
G1 X110.288 Y99.533 E2.62027 F600.000
G1 X110.014 Y99.844 E2.74446
G1 X109.590 Y100.224 E2.91494
G1 X109.583 Y100.459 E2.98522
G1 X110.045 Y100.892 E3.17516
G1 X110.280 Y101.162 E3.28236
G1 X114.831 Y107.648 E5.65652
G1 X112.208 Y102.630 F7800.000
G1 X109.112 Y99.785 E6.91634 F600.000
G1 X108.877 Y99.520 E7.02241
G1 X103.759 Y92.352 E9.66156
G92 E0
G1 X104.201 Y107.648 F7800.000
G1 X108.867 Y101.144 E2.39857 F600.000
G1 X109.146 Y100.838 E2.52286
G1 X112.267 Y98.128 E3.76123
G92 E0
G1 X108.407 Y100.299 F7800.000
G1 X95.998 Y91.352 F7800.000
G1 X88.741 Y93.678 F7800.000
G1 X87.416 Y92.352 F7800.000
G1 X85.416 Y92.352 F7800.000
G1 X84.494 Y92.352 F7800.000
G1 X84.494 Y102.501 E3.04119 F600.000
G1 X84.445 Y105.185 E3.84543
G1 X84.831 Y106.390 E4.22466
G1 X85.019 Y106.422 E4.28197
G1 X85.319 Y106.449 E4.37217
G1 X86.142 Y105.726 E4.70041
G1 X93.418 Y94.181 E8.78972
G1 X94.142 Y93.507 E9.08590
G1 X94.541 Y93.535 E9.20579
G1 X94.773 Y93.577 E9.27644
G1 X95.125 Y94.729 E9.63746
G1 X95.065 Y97.625 E10.50543
G1 X95.065 Y107.648 E13.50886
G92 E0
G1 Z0.900 F7800.000
G1 X115.278 Y92.352 F7800.000
G1 X110.288 Y99.533 E2.62027 F600.000
G1 X110.014 Y99.844 E2.74446
G1 X109.590 Y100.224 E2.91494
G1 X109.583 Y100.459 E2.98522
G1 X110.045 Y100.892 E3.17516
G1 X110.280 Y101.162 E3.28236
G1 X114.831 Y107.648 E5.65652
G1 X112.208 Y102.630 F7800.000
G1 X109.112 Y99.785 E6.91634 F600.000
G1 X108.877 Y99.520 E7.02241
G1 X103.759 Y92.352 E9.66156
G92 E0
G1 X104.201 Y107.648 F7800.000
G1 X108.867 Y101.144 E2.39857 F600.000
G1 X109.146 Y100.838 E2.52286
G1 X112.267 Y98.128 E3.76123
G92 E0
G1 X108.407 Y100.299 F7800.000
G1 X95.998 Y91.352 F7800.000
G1 X88.741 Y93.678 F7800.000
G1 X87.416 Y92.352 F7800.000
G1 X85.416 Y92.352 F7800.000
G1 X84.494 Y92.352 F7800.000
G1 X84.494 Y102.501 E3.04119 F600.000
G1 X84.445 Y105.185 E3.84543
G1 X84.831 Y106.390 E4.22466
G1 X85.019 Y106.422 E4.28197
G1 X85.319 Y106.449 E4.37217
G1 X86.142 Y105.726 E4.70041
G1 X93.418 Y94.181 E8.78972
G1 X94.142 Y93.507 E9.08590
G1 X94.541 Y93.535 E9.20579
G1 X94.773 Y93.577 E9.27644
G1 X95.125 Y94.729 E9.63746
G1 X95.065 Y97.625 E10.50543
G1 X95.065 Y107.648 E13.50886
G92 E0
G1 Z1.200 F7800.000
G1 X115.278 Y92.352 F7800.000
G1 X110.288 Y99.533 E2.62027 F600.000
G1 X110.014 Y99.844 E2.74446
G1 X109.590 Y100.224 E2.91494
G1 X109.583 Y100.459 E2.98522
G1 X110.045 Y100.892 E3.17516
G1 X110.280 Y101.162 E3.28236
G1 X114.831 Y107.648 E5.65652
G1 X112.208 Y102.630 F7800.000
G1 X109.112 Y99.785 E6.91634 F600.000
G1 X108.877 Y99.520 E7.02241
G1 X103.759 Y92.352 E9.66156
G92 E0
G1 X104.201 Y107.648 F7800.000
G1 X108.867 Y101.144 E2.39857 F600.000
G1 X109.146 Y100.838 E2.52286
G1 X112.267 Y98.128 E3.76123
G92 E0
G1 X108.407 Y100.299 F7800.000
G1 X95.998 Y91.352 F7800.000
G1 X88.741 Y93.678 F7800.000
G1 X87.416 Y92.352 F7800.000
G1 X85.416 Y92.352 F7800.000
G1 X84.494 Y92.352 F7800.000
G1 X84.494 Y102.501 E3.04119 F600.000
G1 X84.445 Y105.185 E3.84543
G1 X84.831 Y106.390 E4.22466
G1 X85.019 Y106.422 E4.28197
G1 X85.319 Y106.449 E4.37217
G1 X86.142 Y105.726 E4.70041
G1 X93.418 Y94.181 E8.78972
G1 X94.142 Y93.507 E9.08590
G1 X94.541 Y93.535 E9.20580
G1 X94.773 Y93.577 E9.27644
G1 X95.125 Y94.729 E9.63746
G1 X95.065 Y97.625 E10.50543
G1 X95.065 Y107.648 E13.50886
G92 E0
G1 Z1.500 F7800.000
G1 X115.278 Y92.352 F7800.000
G1 X110.288 Y99.533 E2.62027 F600.000
G1 X110.014 Y99.844 E2.74446
G1 X109.590 Y100.224 E2.91494
G1 X109.583 Y100.459 E2.98522
G1 X110.045 Y100.892 E3.17516
G1 X110.280 Y101.162 E3.28236
G1 X114.831 Y107.648 E5.65652
G1 X112.208 Y102.630 F7800.000
G1 X109.112 Y99.785 E6.91634 F600.000
G1 X108.877 Y99.520 E7.02241
G1 X103.759 Y92.352 E9.66156
G92 E0
G1 X104.201 Y107.648 F7800.000
G1 X108.867 Y101.144 E2.39857 F600.000
G1 X109.146 Y100.838 E2.52286
G1 X112.267 Y98.128 E3.76123
G92 E0
G1 X108.407 Y100.299 F7800.000
G1 X95.998 Y91.352 F7800.000
G1 X88.741 Y93.678 F7800.000
G1 X87.416 Y92.352 F7800.000
G1 X85.416 Y92.352 F7800.000
G1 X84.494 Y92.352 F7800.000
G1 X84.494 Y102.501 E3.04119 F600.000
G1 X84.445 Y105.185 E3.84543
G1 X84.831 Y106.390 E4.22466
G1 X85.019 Y106.422 E4.28197
G1 X85.319 Y106.449 E4.37217
G1 X86.142 Y105.726 E4.70041
G1 X93.418 Y94.181 E8.78972
G1 X94.142 Y93.507 E9.08590
G1 X94.541 Y93.535 E9.20579
G1 X94.773 Y93.577 E9.27644
G1 X95.125 Y94.729 E9.63746
G1 X95.065 Y97.625 E10.50543
G1 X95.065 Y107.648 E13.50886
G92 E0
G1 Z1.800 F7800.000
G1 X115.278 Y92.352 F7800.000
G1 X110.288 Y99.533 E2.62027 F600.000
G1 X110.014 Y99.844 E2.74446
G1 X109.590 Y100.224 E2.91494
G1 X109.583 Y100.459 E2.98522
G1 X110.045 Y100.892 E3.17516
G1 X110.280 Y101.162 E3.28236
G1 X114.831 Y107.648 E5.65652
G1 X112.208 Y102.630 F7800.000
G1 X109.112 Y99.785 E6.91634 F600.000
G1 X108.877 Y99.520 E7.02241
G1 X103.759 Y92.352 E9.66156
G92 E0
G1 X104.201 Y107.648 F7800.000
G1 X108.867 Y101.144 E2.39857 F600.000
G1 X109.146 Y100.838 E2.52286
G1 X112.267 Y98.128 E3.76123
G92 E0
G1 X108.407 Y100.299 F7800.000
G1 X95.998 Y91.352 F7800.000
G1 X88.741 Y93.678 F7800.000
G1 X87.416 Y92.352 F7800.000
G1 X85.416 Y92.352 F7800.000
G1 X84.494 Y92.352 F7800.000
G1 X84.494 Y102.501 E3.04119 F600.000
G1 X84.445 Y105.185 E3.84543
G1 X84.831 Y106.390 E4.22466
G1 X85.019 Y106.422 E4.28197
G1 X85.319 Y106.449 E4.37217
G1 X86.142 Y105.726 E4.70041
G1 X93.418 Y94.181 E8.78972
G1 X94.142 Y93.507 E9.08590
G1 X94.541 Y93.535 E9.20579
G1 X94.773 Y93.577 E9.27644
G1 X95.125 Y94.729 E9.63746
G1 X95.065 Y97.625 E10.50543
G1 X95.065 Y107.648 E13.50886
G92 E0
G1 Z2.100 F7800.000
G1 X115.278 Y92.352 F7800.000
