; generated by Slic3r 1.2.9 on 2016-03-11 at 01:28:06

; external perimeters extrusion width = 1.54mm
; perimeters extrusion width = 2.62mm
; infill extrusion width = 6.27mm
; solid infill extrusion width = 2.62mm
; top infill extrusion width = 2.62mm

M107
M104 S30 ; set temperature
G28 ; home all axes
G1 Z5 F5000 ; lift nozzle
M302
M92 E10000
M500
M501
G1 E100
M109 S30 ; wait for temperature to be reached
G21 ; set units to millimeters
G90 ; use absolute coordinates
M82 ; use absolute distances for extrusion
G92 E0
G1 Z0.300 F7800.000
G1 X106.610 Y106.181 F7800.000
G1 X113.300 Y106.181 E0.30269 F378.000
G1 X103.761 Y93.826 E1.00898
G1 X103.761 Y92.577 E1.06550
G1 X115.480 Y92.577 E1.59578
G1 X115.480 Y93.819 E1.65198
G1 X105.432 Y93.819 E2.10664 F378.000
G1 X114.970 Y106.218 E2.81447
G1 X114.970 Y107.423 E2.86901
G1 X104.553 Y107.423 E3.34037
G1 X104.553 Y106.181 E3.39657
G1 X106.379 Y106.181 E3.47922
G1 X105.304 Y106.407 F7800.000
G1 X106.094 Y107.197 E3.53076 F540.000
G1 X106.650 Y107.197 E3.55641
G1 X105.860 Y106.407 E3.60795
G1 X106.416 Y106.407 E3.63360
G1 X107.206 Y107.197 E3.68514
G1 X107.762 Y107.197 E3.71079
G1 X106.972 Y106.407 E3.76233
G1 X107.528 Y106.407 E3.78798
G1 X108.318 Y107.197 E3.83952
G1 X108.874 Y107.197 E3.86517
G1 X108.084 Y106.407 E3.91671
G1 X108.640 Y106.407 E3.94235
G1 X109.430 Y107.197 E3.99390
G1 X109.986 Y107.197 E4.01954
G1 X109.196 Y106.407 E4.07109
G1 X109.752 Y106.407 E4.09673
G1 X110.542 Y107.197 E4.14827
G1 X111.098 Y107.197 E4.17392
G1 X110.308 Y106.407 E4.22546
G1 X110.864 Y106.407 E4.25111
G1 X111.654 Y107.197 E4.30265
G1 X112.210 Y107.197 E4.32830
G1 X111.420 Y106.407 E4.37984
G1 X111.976 Y106.407 E4.40549
G1 X112.766 Y107.197 E4.45703
G1 X113.322 Y107.197 E4.48267
G1 X112.532 Y106.407 E4.53422
G1 X113.088 Y106.407 E4.55986
G1 X113.878 Y107.197 E4.61141
G1 X114.434 Y107.197 E4.63705
G1 X113.644 Y106.407 E4.68859
G1 X112.642 Y104.849 F7800.000
G1 X114.744 Y106.951 E4.82573 F540.000
G1 X114.715 Y106.367 E4.85273
G1 X110.758 Y102.410 E5.11086
G1 X111.008 Y101.547 F7800.000
G1 X106.992 Y97.531 E5.37287 F540.000
G1 X107.300 Y96.728 F7800.000
G1 X103.987 Y93.415 E5.58904 F540.000
G1 X103.987 Y92.859 E5.61469
G1 X105.447 Y94.318 E5.70993
G1 X105.277 Y93.593 F7800.000
G1 X104.487 Y92.803 E5.76147 F540.000
G1 X105.043 Y92.803 E5.78712
G1 X105.833 Y93.593 E5.83866
G1 X106.389 Y93.593 E5.86430
G1 X105.599 Y92.803 E5.91585
G1 X106.155 Y92.803 E5.94149
G1 X106.945 Y93.593 E5.99303
G1 X107.501 Y93.593 E6.01868
G1 X106.711 Y92.803 E6.07022
G1 X107.267 Y92.803 E6.09587
G1 X108.057 Y93.593 E6.14741
G1 X108.613 Y93.593 E6.17306
G1 X107.823 Y92.803 E6.22460
G1 X108.379 Y92.803 E6.25024
G1 X109.169 Y93.593 E6.30179
G1 X109.725 Y93.593 E6.32743
G1 X108.935 Y92.803 E6.37897
G1 X109.491 Y92.803 E6.40462
G1 X110.281 Y93.593 E6.45616
G1 X110.837 Y93.593 E6.48181
G1 X110.047 Y92.803 E6.53335
G1 X110.603 Y92.803 E6.55900
G1 X111.393 Y93.593 E6.61054
G1 X111.949 Y93.593 E6.63618
G1 X111.159 Y92.803 E6.68773
G1 X111.715 Y92.803 E6.71337
G1 X112.505 Y93.593 E6.76491
G1 X113.061 Y93.593 E6.79056
G1 X112.271 Y92.803 E6.84210
G1 X112.826 Y92.803 E6.86775
G1 X113.617 Y93.593 E6.91929
G1 X114.173 Y93.593 E6.94494
G1 X113.382 Y92.803 E6.99648
G1 X113.938 Y92.803 E7.02212
G1 X114.728 Y93.593 E7.07367
G1 X115.254 Y93.563 E7.09794
G1 X114.494 Y92.803 E7.14750
G1 X115.050 Y92.803 E7.17314
G1 X115.254 Y93.007 E7.18642
G92 E0
G1 X109.154 Y99.138 F7800.000
G1 X105.108 Y95.092 E0.26394 F540.000
G1 X108.875 Y99.971 F7800.000
G1 X112.862 Y103.957 E0.52402 F540.000
G92 E0
G1 X105.538 Y107.197 F7800.000
G1 X104.779 Y106.438 E0.04955 F540.000
G1 X104.779 Y106.993 E0.07519
G1 X104.982 Y107.197 E0.08848
G92 E0
G1 X104.328 Y105.956 F7800.000
G1 X98.720 Y107.648 F7800.000
G1 X92.855 Y107.648 F7800.000
G1 X94.260 Y96.823 F7800.000
G1 X94.579 Y95.802 F7800.000
G1 X94.925 Y94.721 F7800.000
G1 X94.903 Y94.662 F7800.000
G1 X93.104 Y94.559 F7800.000
G1 X94.350 Y92.577 E0.10597 F378.000
G1 X96.495 Y92.577 E0.20301
G1 X96.495 Y107.423 E0.87479
G1 X95.080 Y107.423 E0.93881
G1 X95.080 Y97.618 E1.38248
G1 X95.094 Y96.856 E1.41696
G1 X95.210 Y94.524 E1.52262
G1 X94.806 Y94.395 E1.54182
G1 X86.578 Y107.423 E2.23905
G1 X84.520 Y107.423 E2.33217
G1 X84.520 Y92.577 E3.00394
G1 X85.913 Y92.577 E3.06697
G1 X85.913 Y102.512 E3.51651
G1 X85.859 Y104.320 E3.59837 F378.000
G1 X85.804 Y105.392 E3.64692
G1 X86.209 Y105.520 E3.66614
G1 X92.981 Y94.755 E4.24159
G1 X94.663 Y93.535 F7800.000
G1 X94.843 Y93.470 F7800.000
G1 X95.500 Y93.572 F7800.000
G1 X95.720 Y93.874 F7800.000
G1 X95.412 Y94.923 F7800.000
G1 X96.269 Y95.779 E4.29735 F540.000
G1 X96.269 Y96.334 E4.32286
G1 X95.386 Y95.451 E4.38032
G1 X95.360 Y95.979 E4.40467
G1 X96.269 Y96.889 E4.46382
G1 X96.269 Y97.443 E4.48934
G1 X95.334 Y96.508 E4.55020
G1 X95.315 Y97.044 E4.57488
G1 X96.269 Y97.998 E4.63695
G1 X96.269 Y98.552 E4.66246
G1 X95.306 Y97.589 E4.72514
G1 X95.306 Y98.144 E4.75065
G1 X96.269 Y99.107 E4.81333
G1 X96.269 Y99.661 E4.83884
G1 X95.306 Y98.698 E4.90152
G1 X95.306 Y99.253 E4.92703
G1 X96.269 Y100.216 E4.98971
G1 X96.269 Y100.770 E5.01522
G1 X95.306 Y99.807 E5.07790
G1 X95.306 Y100.362 E5.10341
G1 X96.269 Y101.325 E5.16608
G1 X96.269 Y101.880 E5.19160
G1 X95.306 Y100.917 E5.25427
G1 X95.306 Y101.471 E5.27979
G1 X96.269 Y102.434 E5.34246
G1 X96.269 Y102.989 E5.36798
G1 X95.306 Y102.026 E5.43065
G1 X95.306 Y102.580 E5.45617
G1 X96.269 Y103.543 E5.51884
G1 X96.269 Y104.098 E5.54436
G1 X95.306 Y103.135 E5.60703
G1 X95.306 Y103.689 E5.63255
G1 X96.269 Y104.652 E5.69522
G1 X96.269 Y105.207 E5.72074
G1 X95.306 Y104.244 E5.78341
G1 X95.306 Y104.798 E5.80893
G1 X96.269 Y105.762 E5.87160
G1 X96.269 Y106.316 E5.89712
G1 X95.306 Y105.353 E5.95979
G1 X95.306 Y105.908 E5.98531
G1 X96.269 Y106.871 E6.04798
G1 X96.041 Y107.197 E6.06631
G1 X95.306 Y106.462 E6.11413
G1 X95.306 Y107.017 E6.13964
G1 X95.486 Y107.197 E6.15138
G92 E0
G1 X86.327 Y106.370 F7800.000
G1 X86.053 Y106.470 F7800.000
G1 X85.551 Y106.392 F7800.000
G1 X85.295 Y106.043 F7800.000
G1 X85.599 Y105.073 F7800.000
G1 X84.746 Y104.221 E0.05547 F540.000
G1 X84.746 Y103.666 E0.08099
G1 X85.626 Y104.546 E0.13822
G1 X85.645 Y104.010 E0.16287
G1 X84.746 Y103.112 E0.22135
G1 X84.746 Y102.557 E0.24687
G1 X85.661 Y103.472 E0.30640
G1 X85.677 Y102.933 E0.33119
G1 X84.746 Y102.002 E0.39176
G1 X84.746 Y101.448 E0.41728
G1 X85.687 Y102.389 E0.47852
G1 X85.687 Y101.834 E0.50404
G1 X84.746 Y100.893 E0.56528
G1 X84.746 Y100.339 E0.59080
G1 X85.687 Y101.280 E0.65204
G1 X85.687 Y100.725 E0.67756
G1 X84.746 Y99.784 E0.73880
G1 X84.746 Y99.230 E0.76431
G1 X85.687 Y100.171 E0.82555
G1 X85.687 Y99.616 E0.85107
G1 X84.746 Y98.675 E0.91231
G1 X84.746 Y98.120 E0.93783
G1 X85.687 Y99.062 E0.99907
G1 X85.687 Y98.507 E1.02459
G1 X84.746 Y97.566 E1.08583
G1 X84.746 Y97.011 E1.11135
G1 X85.687 Y97.952 E1.17259
G1 X85.687 Y97.398 E1.19810
G1 X84.746 Y96.457 E1.25934
G1 X84.746 Y95.902 E1.28486
G1 X85.687 Y96.843 E1.34610
G1 X85.687 Y96.289 E1.37162
G1 X84.746 Y95.348 E1.43286
G1 X84.746 Y94.793 E1.45838
G1 X85.687 Y95.734 E1.51962
G1 X85.687 Y95.180 E1.54514
G1 X84.746 Y94.238 E1.60638
G1 X84.746 Y93.684 E1.63189
G1 X85.687 Y94.625 E1.69314
G1 X85.687 Y94.070 E1.71865
G1 X84.746 Y93.129 E1.77989
G1 X84.974 Y92.803 E1.79822
G1 X85.687 Y93.516 E1.84461
G92 E0
G1 X94.663 Y93.535 F7800.000
G1 X94.843 Y93.470 F7800.000
G1 X95.500 Y93.572 F7800.000
G1 X95.720 Y93.352 F7800.000
G1 X96.269 Y93.007 F7800.000
G1 X96.066 Y92.803 E0.01325 F540.000
G1 X95.511 Y92.803 E0.03877
G1 X96.269 Y93.561 E0.08810
G1 X96.269 Y94.116 E0.11362
G1 X94.956 Y92.803 E0.19905
G1 X94.424 Y92.826 E0.22355
G1 X96.269 Y94.670 E0.34359
G1 X96.269 Y95.225 E0.36911
G1 X94.210 Y93.166 E0.50309
G1 X93.996 Y93.506 E0.52160
G1 X94.695 Y94.205 E0.56707
G1 X94.480 Y94.545 E0.58557
G1 X93.782 Y93.847 E0.63100
G1 X93.568 Y94.187 E0.64951
G1 X94.266 Y94.885 E0.69491
G1 X94.051 Y95.225 E0.71341
G1 X93.354 Y94.528 E0.75878
G1 X93.140 Y94.868 E0.77728
G1 X93.836 Y95.565 E0.82262
G1 X93.622 Y95.905 E0.84112
G1 X92.926 Y95.209 E0.88642
G1 X92.711 Y95.549 E0.90492
G1 X93.407 Y96.245 E0.95019
G1 X93.192 Y96.584 E0.96869
G1 X92.497 Y95.889 E1.01392
G1 X92.283 Y96.230 E1.03243
G1 X92.978 Y96.924 E1.07762
G1 X92.763 Y97.264 E1.09612
G1 X92.069 Y96.570 E1.14129
G1 X91.855 Y96.911 E1.15979
G1 X92.548 Y97.604 E1.20492
G1 X92.334 Y97.944 E1.22342
G1 X91.641 Y97.251 E1.26852
G1 X91.427 Y97.592 E1.28702
G1 X92.119 Y98.284 E1.33208
G1 X91.904 Y98.624 E1.35058
G1 X91.212 Y97.932 E1.39561
G1 X90.998 Y98.272 E1.41412
G1 X91.690 Y98.964 E1.45911
G1 X91.475 Y99.304 E1.47761
G1 X90.784 Y98.613 E1.52257
G1 X90.570 Y98.953 E1.54108
G1 X91.260 Y99.644 E1.58600
G1 X91.046 Y99.984 E1.60450
G1 X90.356 Y99.294 E1.64939
G1 X90.142 Y99.634 E1.66790
G1 X90.831 Y100.323 E1.71275
G1 X90.616 Y100.663 E1.73125
G1 X89.928 Y99.975 E1.77608
G1 X89.713 Y100.315 E1.79458
G1 X90.402 Y101.003 E1.83937
G1 X90.187 Y101.343 E1.85787
G1 X89.499 Y100.655 E1.90263
G1 X89.285 Y100.996 E1.92113
G1 X89.972 Y101.683 E1.96585
G1 X89.758 Y102.023 E1.98435
G1 X89.071 Y101.336 E2.02904
G1 X88.857 Y101.677 E2.04754
G1 X89.543 Y102.363 E2.09220
G1 X89.328 Y102.703 E2.11070
G1 X88.643 Y102.017 E2.15532
G1 X88.429 Y102.358 E2.17382
G1 X89.114 Y103.043 E2.21841
G1 X88.899 Y103.383 E2.23691
G1 X88.215 Y102.698 E2.28146
G1 X88.000 Y103.038 E2.29996
G1 X88.685 Y103.723 E2.34448
G1 X88.470 Y104.062 E2.36298
G1 X87.786 Y103.379 E2.40746
G1 X87.572 Y103.719 E2.42597
G1 X88.255 Y104.402 E2.47042
G1 X88.041 Y104.742 E2.48891
G1 X87.358 Y104.060 E2.53333
G1 X87.144 Y104.400 E2.55183
G1 X87.826 Y105.082 E2.59622
G1 X87.611 Y105.422 E2.61471
G1 X86.930 Y104.741 E2.65906
G1 X86.716 Y105.081 E2.67757
G1 X87.397 Y105.762 E2.72188
G1 X87.182 Y106.102 E2.74038
G1 X86.501 Y105.421 E2.78466
G1 X86.287 Y105.762 E2.80316
G1 X86.967 Y106.442 E2.84741
G1 X86.753 Y106.782 E2.86591
G1 X84.746 Y104.775 E2.99648
G1 X84.746 Y105.330 E3.02199
G1 X86.538 Y107.122 E3.13859
G1 X86.059 Y107.197 E3.16091
G1 X84.746 Y105.884 E3.24634
G1 X84.746 Y106.439 E3.27185
G1 X85.504 Y107.197 E3.32119
G1 X84.950 Y107.197 E3.34671
G1 X84.746 Y106.993 E3.35995
M106 S255
G92 E0
G1 Z0.600 F7800.000
G1 X115.705 Y93.198 F7800.000
G1 X105.889 Y93.198 E2.94133 F600.000
G1 X104.789 Y93.556 E3.28802
G1 X105.185 Y94.586 E3.61865
G1 X113.535 Y105.421 E7.71765
G1 X113.928 Y106.453 E8.04874
G1 X112.842 Y106.802 E8.39055
G1 X104.328 Y106.802 E10.94174
G92 E0
G1 X100.128 Y93.760 F7800.000
G1 X96.720 Y91.352 F7800.000
G1 X89.464 Y93.678 F7800.000
G1 X86.915 Y102.515 F7800.000
G1 X86.138 Y102.515 F7800.000
G1 X85.217 Y92.352 F7800.000
G1 X85.217 Y102.501 E3.04119 F600.000
G1 X85.167 Y105.185 E3.84543
G1 X85.553 Y106.390 E4.22466
G1 X85.742 Y106.422 E4.28197
G1 X86.041 Y106.449 E4.37217
G1 X86.864 Y105.726 E4.70041
G1 X94.141 Y94.181 E8.78972
G1 X94.864 Y93.507 E9.08590
G1 X95.263 Y93.535 E9.20579
G1 X95.496 Y93.577 E9.27644
G1 X95.848 Y94.729 E9.63746
G1 X95.788 Y97.625 E10.50543
G1 X95.788 Y107.648 E13.50886
G92 E0
G1 Z0.900 F7800.000
G1 X115.705 Y93.198 F7800.000
G1 X105.889 Y93.198 E2.94133 F600.000
G1 X104.789 Y93.556 E3.28802
G1 X105.185 Y94.586 E3.61865
G1 X113.535 Y105.421 E7.71765
G1 X113.928 Y106.453 E8.04874
G1 X112.842 Y106.802 E8.39055
G1 X104.328 Y106.802 E10.94174
G92 E0
G1 X100.128 Y93.760 F7800.000
G1 X96.720 Y91.352 F7800.000
G1 X89.464 Y93.678 F7800.000
G1 X86.915 Y102.515 F7800.000
G1 X86.138 Y102.515 F7800.000
G1 X85.217 Y92.352 F7800.000
G1 X85.217 Y102.501 E3.04119 F600.000
G1 X85.167 Y105.185 E3.84543
G1 X85.553 Y106.390 E4.22466
G1 X85.742 Y106.422 E4.28197
G1 X86.041 Y106.449 E4.37217
G1 X86.864 Y105.726 E4.70041
G1 X94.141 Y94.181 E8.78972
G1 X94.864 Y93.507 E9.08590
G1 X95.263 Y93.535 E9.20579
G1 X95.496 Y93.577 E9.27644
G1 X95.848 Y94.729 E9.63746
G1 X95.788 Y97.625 E10.50543
G1 X95.788 Y107.648 E13.50886
G92 E0
G1 Z1.200 F7800.000
G1 X115.705 Y93.198 F7800.000
G1 X105.889 Y93.198 E2.94133 F600.000
G1 X104.789 Y93.556 E3.28802
G1 X105.185 Y94.586 E3.61865
G1 X113.535 Y105.421 E7.71765
G1 X113.928 Y106.453 E8.04874
G1 X112.842 Y106.802 E8.39055
G1 X104.328 Y106.802 E10.94174
G92 E0
G1 X100.128 Y93.760 F7800.000
G1 X96.720 Y91.352 F7800.000
G1 X89.464 Y93.678 F7800.000
G1 X86.915 Y102.515 F7800.000
G1 X86.138 Y102.515 F7800.000
G1 X85.217 Y92.352 F7800.000
G1 X85.217 Y102.501 E3.04119 F600.000
G1 X85.167 Y105.185 E3.84543
G1 X85.553 Y106.390 E4.22466
G1 X85.742 Y106.422 E4.28197
G1 X86.041 Y106.449 E4.37217
G1 X86.864 Y105.726 E4.70041
G1 X94.141 Y94.181 E8.78972
G1 X94.864 Y93.507 E9.08590
G1 X95.264 Y93.535 E9.20580
G1 X95.496 Y93.577 E9.27644
G1 X95.848 Y94.729 E9.63746
G1 X95.788 Y97.625 E10.50543
G1 X95.788 Y107.648 E13.50886
G92 E0
G1 Z1.500 F7800.000
G1 X115.705 Y93.198 F7800.000
G1 X105.889 Y93.198 E2.94133 F600.000
G1 X104.789 Y93.556 E3.28802
G1 X105.185 Y94.586 E3.61865
G1 X113.535 Y105.421 E7.71765
G1 X113.928 Y106.453 E8.04874
G1 X112.842 Y106.802 E8.39055
G1 X104.328 Y106.802 E10.94174
G92 E0
G1 X100.128 Y93.760 F7800.000
G1 X96.720 Y91.352 F7800.000
G1 X89.464 Y93.678 F7800.000
G1 X86.915 Y102.515 F7800.000
G1 X86.138 Y102.515 F7800.000
G1 X85.217 Y92.352 F7800.000
G1 X85.217 Y102.501 E3.04119 F600.000
G1 X85.167 Y105.185 E3.84543
G1 X85.553 Y106.390 E4.22466
G1 X85.742 Y106.422 E4.28197
G1 X86.041 Y106.449 E4.37217
G1 X86.864 Y105.726 E4.70041
G1 X94.141 Y94.181 E8.78972
G1 X94.864 Y93.507 E9.08590
G1 X95.263 Y93.535 E9.20579
G1 X95.496 Y93.577 E9.27644
G1 X95.848 Y94.729 E9.63746
G1 X95.788 Y97.625 E10.50543
G1 X95.788 Y107.648 E13.50886
G92 E0
G1 Z1.800 F7800.000
G1 X115.705 Y93.198 F7800.000
G1 X105.889 Y93.198 E2.94133 F600.000
G1 X104.789 Y93.556 E3.28802
G1 X105.185 Y94.586 E3.61865
G1 X113.535 Y105.421 E7.71765
G1 X113.928 Y106.453 E8.04874
G1 X112.842 Y106.802 E8.39055
G1 X104.328 Y106.802 E10.94174
G92 E0
G1 X100.128 Y93.760 F7800.000
G1 X96.720 Y91.352 F7800.000
G1 X89.464 Y93.678 F7800.000
G1 X86.915 Y102.515 F7800.000
G1 X86.138 Y102.515 F7800.000
G1 X85.217 Y92.352 F7800.000
G1 X85.217 Y102.501 E3.04119 F600.000
G1 X85.167 Y105.185 E3.84543
G1 X85.553 Y106.390 E4.22466
G1 X85.742 Y106.422 E4.28197
G1 X86.041 Y106.449 E4.37217
G1 X86.864 Y105.726 E4.70041
G1 X94.141 Y94.181 E8.78972
G1 X94.864 Y93.507 E9.08590
G1 X95.263 Y93.535 E9.20579
G1 X95.496 Y93.577 E9.27644
G1 X95.848 Y94.729 E9.63746
G1 X95.788 Y97.625 E10.50543
G1 X95.788 Y107.648 E13.50886
G92 E0
G1 Z2.100 F7800.000
G1 X115.705 Y93.198 F7800.000
G1 X105.889 Y93.198 E2.94133 F600.000
G1 X104.789 Y93.556 E3.28802
G1 X105.185 Y94.586 E3.61865
G1 X113.535 Y105.421 E7.71765
G1 X113.928 Y106.453 E8.04874
G1 X112.842 Y106.802 E8.39055
G1 X104.328 Y106.802 E10.94174
G92 E0
G1 X100.128 Y93.760 F7800.000
G1 X96.720 Y91.352 F7800.000
G1 X89.464 Y93.678 F7800.000
G1 X86.915 Y102.515 F7800.000
G1 X86.138 Y102.515 F7800.000
G1 X85.217 Y92.352 F7800.000
G1 X85.217 Y102.501 E3.04119 F600.000
G1 X85.167 Y105.185 E3.84543
G1 X85.553 Y106.390 E4.22466
G1 X85.742 Y106.422 E4.28197
G1 X86.041 Y106.449 E4.37217
G1 X86.864 Y105.726 E4.70041
G1 X94.141 Y94.181 E8.78972
G1 X94.864 Y93.507 E9.08590
G1 X95.263 Y93.535 E9.20579
G1 X95.496 Y93.577 E9.27644
G1 X95.848 Y94.729 E9.63746
G1 X95.788 Y97.625 E10.50543
G1 X95.788 Y107.648 E13.50886
G92 E0
M107
M104 S0 ; turn off temperature
G28 X0  ; home X axis
M84     ; disable motors

; filament used = 165.9mm (1.3cm3)

; avoid_crossing_perimeters = 1
; bed_shape = 0x0,250x0,250x250,0x250
; bed_temperature = 0
; before_layer_gcode = 
; bridge_acceleration = 0
; bridge_fan_speed = 100
; brim_width = 0
; complete_objects = 0
; cooling = 1
; default_acceleration = 0
; disable_fan_first_layers = 1
; duplicate_distance = 6
; end_gcode = M104 S0 ; turn off temperature\nG28 X0  ; home X axis\nM84     ; disable motors\n
; extruder_clearance_height = 20
; extruder_clearance_radius = 20
; extruder_offset = 0x0
; extrusion_axis = E
; extrusion_multiplier = 3
; fan_always_on = 0
; fan_below_layer_time = 60
; filament_colour = #FFFFFF
; filament_diameter = 3.125
; first_layer_acceleration = 0
; first_layer_bed_temperature = 0
; first_layer_extrusion_width = 150%
; first_layer_speed = 90%
