; generated by Slic3r 1.2.9 on 2016-03-10 at 20:35:54

; external perimeters extrusion width = 1.54mm
; perimeters extrusion width = 2.62mm
; infill extrusion width = 6.27mm
; solid infill extrusion width = 2.62mm
; top infill extrusion width = 2.62mm

M107
M104 S30 ; set temperature
G28 ; home all axes
G1 Z5 F5000 ; lift nozzle
M302
M92 E10000
M500
M501
G1 E100
M109 S30 ; wait for temperature to be reached
G21 ; set units to millimeters
G90 ; use absolute coordinates
M82 ; use absolute distances for extrusion
G92 E0
G1 Z0.300 F7800.000
G1 X118.488 Y129.058 F7800.000
G1 X117.862 Y127.275 E0.08548 F600.000
G1 X117.643 Y125.061 E0.18616
G1 X117.741 Y123.562 E0.25414
G1 X118.034 Y122.196 E0.31737
G1 X118.519 Y120.965 E0.37725
G1 X119.187 Y119.896 E0.43428
G1 X120.025 Y119.011 E0.48941
G1 X121.037 Y118.308 E0.54516
G1 X122.209 Y117.797 E0.60302
G1 X123.526 Y117.489 E0.66422
G1 X124.989 Y117.386 E0.73061
G1 X126.348 Y117.483 E0.79225
G1 X126.441 Y117.490 E0.79648 F600.000
G1 X127.752 Y117.802 E0.85745
G1 X128.925 Y118.319 E0.91545
G1 X129.942 Y119.028 E0.97157
G1 X130.788 Y119.915 E1.02702
G1 X131.464 Y120.983 E1.08423
G1 X131.959 Y122.209 E1.14406
G1 X132.257 Y123.570 E1.20707
G1 X132.357 Y125.065 E1.27489
G1 X132.258 Y126.563 E1.34283
G1 X131.964 Y127.916 E1.40546
G1 X131.476 Y129.124 E1.46444
G1 X130.806 Y130.169 E1.52062
G1 X129.964 Y131.032 E1.57514
G1 X128.949 Y131.716 E1.63056
G1 X127.776 Y132.214 E1.68820
G1 X126.464 Y132.514 E1.74911
G1 X125.014 Y132.614 E1.81485
G1 X122.851 Y132.390 E1.91329
G1 X121.046 Y131.725 E2.00030
G1 X119.587 Y130.621 E2.08308
G1 X118.605 Y129.255 E2.15924
G1 X119.953 Y128.438 F7800.000
G1 X119.459 Y126.890 E2.23276 F600.000
G1 X119.296 Y125.065 E2.31568
G1 X119.461 Y123.242 E2.39848
G1 X119.960 Y121.676 E2.47288
G1 X120.798 Y120.372 E2.54304
G1 X121.941 Y119.394 E2.61109
G1 X123.343 Y118.808 E2.67984
G1 X124.900 Y118.625 E2.75079
G1 X124.989 Y118.615 E2.75484 F600.000
G1 X126.673 Y118.801 E2.83150
G1 X128.089 Y119.368 E2.90051
G1 X129.223 Y120.317 E2.96744
G1 X130.045 Y121.605 E3.03660
G1 X130.533 Y123.190 E3.11163
G1 X130.694 Y125.065 E3.19681
G1 X130.532 Y126.868 E3.27871
G1 X130.039 Y128.408 E3.35187
G1 X129.211 Y129.678 E3.42047
G1 X128.077 Y130.623 E3.48729
G1 X126.672 Y131.188 E3.55579
G1 X125.012 Y131.374 E3.63139
G1 X123.339 Y131.191 E3.70754
G1 X121.926 Y130.634 E3.77628
G1 X120.784 Y129.701 E3.84296
G1 X120.080 Y128.631 E3.90095
G1 X119.767 Y128.673 F7800.000
G1 X118.067 Y126.973 E4.01126 F600.000
G1 X118.007 Y126.360 E4.03955
G1 X119.498 Y127.851 E4.13632
G1 X119.239 Y127.039 E4.17546
G1 X117.946 Y125.746 E4.25932
G1 X117.886 Y125.133 E4.28761
G1 X119.183 Y126.430 E4.37180
G1 X119.129 Y125.823 E4.39978
G1 X117.895 Y124.589 E4.47982
G1 X117.929 Y124.070 E4.50370
G1 X119.075 Y125.215 E4.57803
G1 X119.109 Y124.697 E4.60187
G1 X117.963 Y123.551 E4.67625
G1 X118.057 Y123.092 E4.69774
G1 X119.155 Y124.190 E4.76899
G1 X119.201 Y123.683 E4.79235
G1 X118.155 Y122.636 E4.86025
G1 X118.255 Y122.184 E4.88152
G1 X119.262 Y123.191 E4.94686
G1 X119.396 Y122.771 E4.96705
G1 X118.411 Y121.787 E5.03091
G1 X118.568 Y121.391 E5.05047
G1 X119.529 Y122.352 E5.11284
G1 X119.663 Y121.932 E5.13304
G1 X118.728 Y120.998 E5.19368
G1 X118.941 Y120.658 E5.21209
G1 X119.819 Y121.535 E5.26905
G1 X120.035 Y121.199 E5.28741
G1 X119.153 Y120.317 E5.34461
G1 X119.370 Y119.981 E5.36297
G1 X120.251 Y120.862 E5.42014
G1 X120.468 Y120.525 E5.43850
G1 X119.640 Y119.697 E5.49222
G1 X119.916 Y119.421 E5.51017
G1 X120.699 Y120.203 E5.56093
G1 X120.997 Y119.948 E5.57893
G1 X120.193 Y119.144 E5.63109
G1 X120.511 Y118.910 E5.64924
G1 X121.295 Y119.693 E5.70009
G1 X121.593 Y119.438 E5.71809
G1 X120.837 Y118.683 E5.76710
G1 X121.174 Y118.467 E5.78547
G1 X121.900 Y119.193 E5.83260
G1 X122.290 Y119.030 E5.85199
G1 X121.559 Y118.299 E5.89945
G1 X121.944 Y118.131 E5.91872
G1 X122.680 Y118.867 E5.96650
G1 X123.071 Y118.704 E5.98590
G1 X122.346 Y117.980 E6.03288
G1 X122.795 Y117.875 E6.05400
G1 X123.491 Y118.572 E6.09922
G1 X123.986 Y118.514 E6.12209
G1 X123.243 Y117.770 E6.17034
G1 X123.722 Y117.696 E6.19258
G1 X124.481 Y118.456 E6.24188
G1 X124.976 Y118.398 E6.26474
G1 X124.238 Y117.660 E6.31263
G1 X124.755 Y117.623 E6.33640
G1 X125.574 Y118.443 E6.38957
G1 X126.196 Y118.512 E6.41829
G1 X125.327 Y117.643 E6.47469
G1 X125.923 Y117.685 E6.50210
G1 X126.818 Y118.581 E6.56020
G1 X127.289 Y117.946 F7800.000
G1 X129.523 Y120.179 E6.70515 F600.000
G1 X129.380 Y120.037 F7800.000
G1 X131.751 Y122.408 E6.85902 F600.000
G1 X131.907 Y123.116 E6.89229
G1 X130.273 Y121.482 E6.99831
G1 X130.519 Y122.281 E7.03668
G1 X132.041 Y123.803 E7.13543
G1 X132.080 Y124.396 E7.16268
G1 X130.757 Y123.073 E7.24853
G1 X130.809 Y123.678 E7.27639
G1 X132.120 Y124.988 E7.36143
G1 X132.105 Y125.527 E7.38615
G1 X130.861 Y124.283 E7.46689
G1 X130.913 Y124.888 E7.49475
G1 X132.071 Y126.046 E7.56989
G1 X132.037 Y126.565 E7.59375
G1 X130.883 Y125.411 E7.66864
G1 X130.837 Y125.918 E7.69201
G1 X131.943 Y127.023 E7.76375
G1 X131.844 Y127.478 E7.78508
G1 X130.792 Y126.425 E7.85338
G1 X130.731 Y126.918 E7.87615
G1 X131.742 Y127.928 E7.94174
G1 X131.583 Y128.322 E7.96123
G1 X130.597 Y127.337 E8.02518
G1 X130.463 Y127.756 E8.04537
G1 X131.424 Y128.716 E8.10769
G1 X131.258 Y129.103 E8.12702
G1 X130.329 Y128.175 E8.18728
G1 X130.168 Y128.567 E8.20673
G1 X131.042 Y129.440 E8.26341
G1 X130.826 Y129.777 E8.28178
G1 X129.950 Y128.902 E8.33861
G1 X129.732 Y129.236 E8.35694
G1 X130.596 Y130.100 E8.41301
G1 X130.319 Y130.377 E8.43095
G1 X129.514 Y129.571 E8.48324
G1 X129.270 Y129.880 E8.50131
G1 X130.043 Y130.653 E8.55147
G1 X129.766 Y130.930 E8.56941
G1 X128.968 Y130.132 E8.62122
G1 X128.666 Y130.383 E8.63924
G1 X129.437 Y131.153 E8.68924
G1 X129.106 Y131.376 E8.70752
G1 X128.364 Y130.634 E8.75567
G1 X128.034 Y130.857 E8.77395
G1 X128.757 Y131.580 E8.82085
G1 X128.369 Y131.745 E8.84020
G1 X127.640 Y131.016 E8.88750
G1 X127.246 Y131.174 E8.90700
G1 X127.981 Y131.909 E8.95470
G1 X127.565 Y132.047 E8.97478
G1 X126.851 Y131.333 E9.02111
G1 X126.402 Y131.437 E9.04226
G1 X127.115 Y132.150 E9.08851
G1 X126.665 Y132.253 E9.10970
G1 X125.905 Y131.493 E9.15901
G1 X125.408 Y131.549 E9.18197
G1 X126.172 Y132.313 E9.23158
G1 X125.655 Y132.349 E9.25537
G1 X124.906 Y131.600 E9.30400
G1 X124.284 Y131.531 E9.33267
G1 X125.138 Y132.385 E9.38805
G1 X124.528 Y132.328 E9.41615
G1 X123.663 Y131.463 E9.47227
G1 X122.976 Y131.329 E9.50440
G1 X123.911 Y132.264 E9.56508
G1 X123.294 Y132.200 E9.59354
G1 X122.063 Y130.969 E9.67341
G1 X121.664 Y131.676 F7800.000
G1 X118.607 Y128.619 E9.87185 F600.000
G1 X118.307 Y127.766 F7800.000
G1 X122.541 Y131.999 E10.14655 F600.000
G1 X120.009 Y130.574 F7800.000
G1 X119.655 Y130.220 E10.16953 F600.000
G92 E0
G1 X119.252 Y121.343 F7800.000
G1 X119.233 Y121.331 F7800.000
G1 X119.827 Y120.391 F7800.000
G1 X120.031 Y120.131 F7800.000
G1 X127.735 Y118.944 F7800.000
G1 X126.564 Y117.773 E0.07598 F600.000
G1 X128.176 Y118.279 F7800.000
G1 X131.385 Y121.489 E0.28424 F600.000
G1 X130.406 Y119.956 F7800.000
G1 X129.566 Y119.116 E0.33875 F600.000
M106 S255
G92 E0
G1 Z0.600 F7800.000
G1 X118.471 Y125.047 F7800.000
G1 X118.576 Y123.678 E0.41153 F600.000
G1 X118.696 Y122.973 E0.62586
G1 X118.838 Y122.439 E0.79152
G1 X119.239 Y121.327 E1.14548
G1 X119.827 Y120.391 E1.47685
G1 X120.142 Y119.989 E1.62985
G1 X120.334 Y119.779 E1.71524
G1 X120.527 Y119.596 E1.79480
G1 X121.385 Y118.933 E2.11989
G1 X121.712 Y118.754 E2.23139
G1 X122.425 Y118.449 E2.46387
G1 X123.071 Y118.240 E2.66728
G1 X123.622 Y118.127 E2.83582
G1 X124.989 Y118.002 E3.24709
G1 X126.344 Y118.123 E3.65471
G1 X126.930 Y118.240 E3.83388
G1 X127.540 Y118.433 E4.02549
G1 X128.297 Y118.752 E4.27154
G1 X128.593 Y118.910 E4.37210
G1 X129.469 Y119.580 E4.70268
G1 X129.651 Y119.750 E4.77748
G1 X129.845 Y119.962 E4.86331
G1 X130.180 Y120.390 E5.02625
G1 X130.772 Y121.338 E5.36128
G1 X131.169 Y122.453 E5.71595
G1 X131.339 Y123.145 E5.92930
G1 X131.421 Y123.688 E6.09399
G1 X131.524 Y125.065 E6.50780
G1 X131.419 Y126.445 E6.92234
G1 X131.300 Y127.140 E7.13363
G1 X131.158 Y127.667 E7.29724
G1 X130.760 Y128.754 E7.64415
G1 X130.175 Y129.668 E7.96933
G1 X129.860 Y130.061 E8.12006
G1 X129.663 Y130.273 E8.20700
G1 X129.476 Y130.446 E8.28338
G1 X128.611 Y131.094 E8.60708
G1 X128.295 Y131.261 E8.71417
G1 X127.565 Y131.563 E8.95087
G1 X126.935 Y131.761 E9.14866
G1 X126.369 Y131.873 E9.32170
G1 X125.025 Y131.992 E9.72603
G1 X123.301 Y131.812 E10.24541
G1 X123.077 Y131.773 E10.31348
G1 X121.715 Y131.264 E10.74921
G1 X121.387 Y131.101 E10.85884
G1 X120.351 Y130.287 E11.25389
G1 X120.135 Y130.088 E11.34189
G1 X119.224 Y128.753 E11.82619
G1 X118.688 Y127.162 E12.32904
G1 X118.646 Y126.938 E12.39748
G1 X118.471 Y125.047 E12.96634
G92 E0
G1 Z0.900 F7800.000
G1 X118.576 Y123.678 E0.41153 F600.000
G1 X118.696 Y122.973 E0.62586
G1 X118.838 Y122.439 E0.79152
G1 X119.239 Y121.327 E1.14548
G1 X119.827 Y120.391 E1.47684
G1 X120.142 Y119.989 E1.62985
G1 X120.334 Y119.779 E1.71524
G1 X120.527 Y119.596 E1.79480
G1 X121.385 Y118.933 E2.11989
G1 X121.712 Y118.754 E2.23139
G1 X122.425 Y118.449 E2.46387
G1 X123.071 Y118.240 E2.66728
G1 X123.622 Y118.127 E2.83582
G1 X124.989 Y118.002 E3.24709
G1 X126.344 Y118.123 E3.65471
G1 X126.930 Y118.240 E3.83388
G1 X127.540 Y118.433 E4.02548
G1 X128.297 Y118.752 E4.27154
G1 X128.593 Y118.910 E4.37210
G1 X129.469 Y119.580 E4.70268
G1 X129.651 Y119.750 E4.77748
G1 X129.845 Y119.962 E4.86331
G1 X130.180 Y120.390 E5.02625
G1 X130.772 Y121.338 E5.36128
G1 X131.169 Y122.453 E5.71595
G1 X131.339 Y123.145 E5.92930
G1 X131.421 Y123.688 E6.09399
G1 X131.524 Y125.065 E6.50780
G1 X131.419 Y126.445 E6.92234
G1 X131.300 Y127.140 E7.13363
G1 X131.158 Y127.667 E7.29724
G1 X130.760 Y128.754 E7.64415
G1 X130.175 Y129.668 E7.96933
G1 X129.860 Y130.061 E8.12006
G1 X129.663 Y130.273 E8.20700
G1 X129.476 Y130.446 E8.28338
G1 X128.611 Y131.094 E8.60708
G1 X128.295 Y131.261 E8.71417
G1 X127.565 Y131.563 E8.95087
G1 X126.935 Y131.761 E9.14866
G1 X126.369 Y131.873 E9.32170
G1 X125.025 Y131.992 E9.72603
G1 X123.301 Y131.812 E10.24541
G1 X123.077 Y131.773 E10.31348
G1 X121.715 Y131.264 E10.74921
G1 X121.387 Y131.101 E10.85884
G1 X120.351 Y130.287 E11.25389
G1 X120.135 Y130.088 E11.34189
G1 X119.224 Y128.753 E11.82619
G1 X118.688 Y127.162 E12.32904
G1 X118.646 Y126.938 E12.39748
G1 X118.471 Y125.047 E12.96634
G92 E0
G1 Z1.200 F7800.000
G1 X118.576 Y123.678 E0.41153 F600.000
G1 X118.696 Y122.973 E0.62586
G1 X118.838 Y122.439 E0.79152
G1 X119.239 Y121.327 E1.14548
G1 X119.827 Y120.391 E1.47684
G1 X120.142 Y119.989 E1.62985
G1 X120.334 Y119.779 E1.71524
G1 X120.527 Y119.596 E1.79480
G1 X121.385 Y118.933 E2.11989
G1 X121.712 Y118.754 E2.23139
G1 X122.425 Y118.449 E2.46387
G1 X123.071 Y118.240 E2.66728
G1 X123.622 Y118.127 E2.83582
G1 X124.989 Y118.002 E3.24709
G1 X126.344 Y118.123 E3.65471
G1 X126.930 Y118.240 E3.83388
G1 X127.540 Y118.433 E4.02549
G1 X128.297 Y118.752 E4.27154
G1 X128.593 Y118.910 E4.37210
G1 X129.469 Y119.580 E4.70268
G1 X129.651 Y119.750 E4.77748
G1 X129.845 Y119.962 E4.86331
G1 X130.180 Y120.390 E5.02625
G1 X130.772 Y121.338 E5.36128
G1 X131.169 Y122.453 E5.71595
G1 X131.339 Y123.145 E5.92930
G1 X131.421 Y123.688 E6.09399
G1 X131.524 Y125.065 E6.50780
G1 X131.419 Y126.445 E6.92234
G1 X131.300 Y127.140 E7.13363
G1 X131.158 Y127.667 E7.29724
G1 X130.760 Y128.754 E7.64415
G1 X130.175 Y129.668 E7.96934
G1 X129.860 Y130.061 E8.12006
G1 X129.663 Y130.273 E8.20700
G1 X129.476 Y130.446 E8.28338
G1 X128.611 Y131.094 E8.60708
G1 X128.295 Y131.261 E8.71417
G1 X127.565 Y131.563 E8.95087
G1 X126.935 Y131.761 E9.14866
G1 X126.369 Y131.873 E9.32170
G1 X125.025 Y131.992 E9.72603
G1 X123.301 Y131.812 E10.24541
G1 X123.077 Y131.773 E10.31348
G1 X121.715 Y131.264 E10.74921
G1 X121.387 Y131.101 E10.85884
G1 X120.351 Y130.287 E11.25389
G1 X120.135 Y130.088 E11.34189
G1 X119.224 Y128.753 E11.82619
G1 X118.688 Y127.162 E12.32904
G1 X118.646 Y126.938 E12.39748
G1 X118.471 Y125.047 E12.96634
G92 E0
G1 Z1.500 F7800.000
G1 X118.576 Y123.678 E0.41153 F600.000
G1 X118.696 Y122.973 E0.62586
G1 X118.838 Y122.439 E0.79152
G1 X119.239 Y121.327 E1.14548
G1 X119.827 Y120.391 E1.47684
G1 X120.142 Y119.989 E1.62985
G1 X120.334 Y119.779 E1.71524
G1 X120.527 Y119.596 E1.79480
G1 X121.385 Y118.933 E2.11989
G1 X121.712 Y118.754 E2.23139
G1 X122.425 Y118.449 E2.46387
G1 X123.071 Y118.240 E2.66728
G1 X123.622 Y118.127 E2.83582
G1 X124.989 Y118.002 E3.24709
G1 X126.344 Y118.123 E3.65471
G1 X126.930 Y118.240 E3.83388
G1 X127.540 Y118.433 E4.02548
G1 X128.297 Y118.752 E4.27154
G1 X128.593 Y118.910 E4.37210
G1 X129.469 Y119.580 E4.70268
G1 X129.651 Y119.750 E4.77748
G1 X129.845 Y119.962 E4.86331
G1 X130.180 Y120.390 E5.02625
G1 X130.772 Y121.338 E5.36128
G1 X131.169 Y122.453 E5.71595
G1 X131.339 Y123.145 E5.92930
G1 X131.421 Y123.688 E6.09399
G1 X131.524 Y125.065 E6.50780
G1 X131.419 Y126.445 E6.92234
G1 X131.300 Y127.140 E7.13363
G1 X131.158 Y127.667 E7.29724
G1 X130.760 Y128.754 E7.64415
G1 X130.175 Y129.668 E7.96933
G1 X129.860 Y130.061 E8.12006
G1 X129.663 Y130.273 E8.20700
G1 X129.476 Y130.446 E8.28338
G1 X128.611 Y131.094 E8.60708
G1 X128.295 Y131.261 E8.71417
G1 X127.565 Y131.563 E8.95087
G1 X126.935 Y131.761 E9.14866
G1 X126.369 Y131.873 E9.32170
G1 X125.025 Y131.992 E9.72603
G1 X123.301 Y131.812 E10.24541
G1 X123.077 Y131.773 E10.31348
G1 X121.715 Y131.264 E10.74921
G1 X121.387 Y131.101 E10.85884
G1 X120.351 Y130.287 E11.25389
G1 X120.135 Y130.088 E11.34189
G1 X119.224 Y128.753 E11.82619
G1 X118.688 Y127.162 E12.32904
G1 X118.646 Y126.938 E12.39748
G1 X118.471 Y125.047 E12.96634
G92 E0
G1 Z1.800 F7800.000
G1 X118.576 Y123.678 E0.41153 F600.000
G1 X118.696 Y122.973 E0.62586
G1 X118.838 Y122.439 E0.79152
G1 X119.239 Y121.327 E1.14548
G1 X119.827 Y120.391 E1.47684
G1 X120.142 Y119.989 E1.62985
G1 X120.334 Y119.779 E1.71524
G1 X120.527 Y119.596 E1.79480
G1 X121.385 Y118.933 E2.11989
G1 X121.712 Y118.754 E2.23139
G1 X122.425 Y118.449 E2.46387
G1 X123.071 Y118.240 E2.66728
G1 X123.622 Y118.127 E2.83582
G1 X124.989 Y118.002 E3.24709
G1 X126.344 Y118.123 E3.65471
G1 X126.930 Y118.240 E3.83388
G1 X127.540 Y118.433 E4.02549
G1 X128.297 Y118.752 E4.27154
G1 X128.593 Y118.910 E4.37210
G1 X129.469 Y119.580 E4.70268
G1 X129.651 Y119.750 E4.77748
G1 X129.845 Y119.962 E4.86331
G1 X130.180 Y120.390 E5.02625
G1 X130.772 Y121.338 E5.36128
G1 X131.169 Y122.453 E5.71595
G1 X131.339 Y123.145 E5.92930
G1 X131.421 Y123.688 E6.09399
G1 X131.524 Y125.065 E6.50780
G1 X131.419 Y126.445 E6.92234
G1 X131.300 Y127.140 E7.13363
G1 X131.158 Y127.667 E7.29724
G1 X130.760 Y128.754 E7.64415
G1 X130.175 Y129.668 E7.96934
G1 X129.860 Y130.061 E8.12006
G1 X129.663 Y130.273 E8.20700
G1 X129.476 Y130.446 E8.28338
G1 X128.611 Y131.094 E8.60708
G1 X128.295 Y131.261 E8.71417
G1 X127.565 Y131.563 E8.95087
G1 X126.935 Y131.761 E9.14866
G1 X126.369 Y131.873 E9.32170
G1 X125.025 Y131.992 E9.72603
G1 X123.301 Y131.812 E10.24541
G1 X123.077 Y131.773 E10.31348
G1 X121.715 Y131.264 E10.74921
G1 X121.387 Y131.101 E10.85884
G1 X120.351 Y130.287 E11.25389
G1 X120.135 Y130.088 E11.34189
G1 X119.224 Y128.753 E11.82619
G1 X118.688 Y127.162 E12.32904
G1 X118.646 Y126.938 E12.39748
G1 X118.471 Y125.047 E12.96634
G92 E0
G1 Z2.100 F7800.000
G1 X118.471 Y125.049 F7800.000
G1 X118.582 Y123.645 E0.42219 F600.000
G1 X118.696 Y122.973 E0.62635
G1 X118.838 Y122.439 E0.79201
G1 X119.239 Y121.327 E1.14597
G1 X119.827 Y120.391 E1.47734
G1 X120.142 Y119.989 E1.63035
G1 X120.334 Y119.779 E1.71574
G1 X120.527 Y119.596 E1.79529
G1 X121.385 Y118.933 E2.12038
G1 X121.718 Y118.751 E2.23387
G1 X122.426 Y118.452 E2.46429
G1 X123.116 Y118.232 E2.68129
G1 X123.621 Y118.127 E2.83568
G1 X125.025 Y118.003 E3.25801
G1 X126.344 Y118.123 E3.65493
G1 X126.930 Y118.240 E3.83410
G1 X127.540 Y118.433 E4.02570
G1 X128.297 Y118.752 E4.27176
G1 X128.593 Y118.910 E4.37232
G1 X129.469 Y119.580 E4.70290
G1 X129.651 Y119.750 E4.77770
G1 X129.845 Y119.962 E4.86353
G1 X130.180 Y120.390 E5.02646
G1 X130.772 Y121.338 E5.36150
G1 X131.169 Y122.453 E5.71617
G1 X131.339 Y123.145 E5.92952
G1 X131.421 Y123.688 E6.09421
G1 X131.524 Y125.065 E6.50801
