; generated by Slic3r 1.2.9 on 2016-03-11 at 01:28:08

; external perimeters extrusion width = 1.54mm
; perimeters extrusion width = 2.62mm
; infill extrusion width = 6.27mm
; solid infill extrusion width = 2.62mm
; top infill extrusion width = 2.62mm

M107
M104 S30 ; set temperature
G28 ; home all axes
G1 Z5 F5000 ; lift nozzle
M302
M92 E10000
M500
M501
G1 E100
M109 S30 ; wait for temperature to be reached
G21 ; set units to millimeters
G90 ; use absolute coordinates
M82 ; use absolute distances for extrusion
G92 E0
G1 Z0.300 F7800.000
G1 X96.914 Y103.871 F7800.000
G1 X96.812 Y104.124 E0.01235 F378.000
G1 X96.142 Y105.169 E0.06853
G1 X95.301 Y106.032 E0.12305
G1 X94.285 Y106.716 E0.17847
G1 X93.112 Y107.214 E0.23611
G1 X91.800 Y107.514 E0.29701
G1 X90.350 Y107.614 E0.36276
G1 X88.187 Y107.390 E0.46120
G1 X86.382 Y106.725 E0.54821
G1 X84.923 Y105.621 E0.63099
G1 X83.847 Y104.124 E0.71441
G1 X83.198 Y102.275 E0.80308
G1 X82.979 Y100.061 E0.90376
G1 X83.077 Y98.562 E0.97174
G1 X83.370 Y97.196 E1.03497
G1 X83.855 Y95.965 E1.09485
G1 X84.523 Y94.896 E1.15188
G1 X85.361 Y94.011 E1.20700
G1 X86.373 Y93.308 E1.26276
G1 X87.545 Y92.797 E1.32062
G1 X88.862 Y92.489 E1.38181
G1 X90.325 Y92.386 E1.44821
G1 X91.684 Y92.483 E1.50985
G1 X91.777 Y92.490 E1.51408 F378.000
G1 X93.088 Y92.802 E1.57505
G1 X94.261 Y93.319 E1.63304
G1 X95.278 Y94.028 E1.68916
G1 X96.124 Y94.915 E1.74462
G1 X96.801 Y95.983 E1.80183
G1 X97.295 Y97.209 E1.86166
G1 X97.593 Y98.570 E1.92467
G1 X97.693 Y100.065 E1.99249
G1 X97.594 Y101.563 E2.06042
G1 X97.300 Y102.916 E2.12306
G1 X97.001 Y103.657 E2.15924
G1 X95.454 Y103.163 F7800.000
G1 X95.375 Y103.408 E2.17091 F378.000
G1 X94.548 Y104.678 E2.23951
G1 X93.413 Y105.623 E2.30632
G1 X92.008 Y106.188 E2.37483
G1 X90.348 Y106.374 E2.45043
G1 X88.675 Y106.191 E2.52658
G1 X87.262 Y105.634 E2.59532
G1 X86.121 Y104.701 E2.66199
G1 X85.289 Y103.438 E2.73044
G1 X84.795 Y101.890 E2.80396
G1 X84.632 Y100.065 E2.88688
G1 X84.797 Y98.242 E2.96968
G1 X85.296 Y96.676 E3.04408
G1 X86.134 Y95.372 E3.11424
G1 X87.277 Y94.394 E3.18229
G1 X88.679 Y93.808 E3.25104
G1 X90.180 Y93.632 E3.31945
G1 X90.325 Y93.615 E3.32604 F378.000
G1 X92.009 Y93.801 E3.40270
G1 X93.425 Y94.368 E3.47171
G1 X94.560 Y95.317 E3.53864
G1 X95.381 Y96.605 E3.60780
G1 X95.869 Y98.190 E3.68283
G1 X96.030 Y100.065 E3.76801
G1 X95.868 Y101.868 E3.84991
G1 X95.524 Y102.942 E3.90094
G1 X96.721 Y96.489 F7800.000
G1 X93.512 Y93.279 E4.10920 F540.000
G1 X93.071 Y93.944 F7800.000
G1 X91.900 Y92.773 E4.18518 F540.000
G1 X92.625 Y92.946 F7800.000
G1 X94.859 Y95.179 E4.33013 F540.000
G1 X94.716 Y95.037 F7800.000
G1 X97.088 Y97.408 E4.48400 F540.000
G1 X97.243 Y98.116 E4.51727
G1 X95.609 Y96.482 E4.62330
G1 X95.855 Y97.281 E4.66166
G1 X97.377 Y98.803 E4.76042
G1 X97.416 Y99.396 E4.78767
G1 X96.093 Y98.073 E4.87351
G1 X96.145 Y98.678 E4.90137
G1 X97.456 Y99.988 E4.98641
G1 X97.441 Y100.527 E5.01114
G1 X96.197 Y99.283 E5.09187
G1 X96.249 Y99.888 E5.11973
G1 X97.407 Y101.046 E5.19488
G1 X97.373 Y101.565 E5.21874
G1 X96.219 Y100.411 E5.29362
G1 X96.173 Y100.918 E5.31699
G1 X97.279 Y102.023 E5.38874
G1 X97.180 Y102.478 E5.41006
G1 X96.128 Y101.425 E5.47836
G1 X96.067 Y101.918 E5.50113
G1 X97.078 Y102.928 E5.56672
G1 X96.919 Y103.322 E5.58621
G1 X95.933 Y102.337 E5.65017
G1 X95.799 Y102.756 E5.67035
G1 X96.760 Y103.716 E5.73268
G1 X96.594 Y104.103 E5.75201
G1 X95.665 Y103.175 E5.81227
G1 X95.504 Y103.567 E5.83171
G1 X96.378 Y104.440 E5.88840
G1 X96.162 Y104.777 E5.90677
G1 X95.286 Y103.902 E5.96359
G1 X95.068 Y104.236 E5.98193
G1 X95.932 Y105.100 E6.03799
G1 X95.655 Y105.377 E6.05594
G1 X94.850 Y104.571 E6.10822
G1 X94.606 Y104.880 E6.12629
G1 X95.379 Y105.653 E6.17646
G1 X95.102 Y105.930 E6.19440
G1 X94.304 Y105.132 E6.24620
G1 X94.002 Y105.383 E6.26422
G1 X94.773 Y106.153 E6.31423
G1 X94.442 Y106.376 E6.33251
G1 X93.700 Y105.634 E6.38065
G1 X93.370 Y105.857 E6.39893
G1 X94.093 Y106.580 E6.44583
G1 X93.705 Y106.745 E6.46518
G1 X92.976 Y106.016 E6.51248
G1 X92.582 Y106.174 E6.53199
G1 X93.317 Y106.909 E6.57968
G1 X92.901 Y107.047 E6.59976
G1 X92.187 Y106.333 E6.64609
G1 X91.738 Y106.437 E6.66724
G1 X92.451 Y107.150 E6.71350
G1 X92.001 Y107.253 E6.73468
G1 X91.241 Y106.493 E6.78400
G1 X90.744 Y106.549 E6.80696
G1 X91.508 Y107.313 E6.85656
G1 X90.991 Y107.349 E6.88035
G1 X90.242 Y106.600 E6.92898
G1 X89.620 Y106.531 E6.95766
G1 X90.474 Y107.385 E7.01303
G1 X89.864 Y107.328 E7.04114
G1 X88.999 Y106.463 E7.09725
G1 X88.312 Y106.329 E7.12938
G1 X89.247 Y107.264 E7.19007
G1 X88.630 Y107.200 E7.21852
G1 X87.399 Y105.969 E7.29840
G1 X87.000 Y106.676 F7800.000
G1 X83.943 Y103.619 E7.49683 F540.000
G1 X83.643 Y102.766 F7800.000
G1 X87.877 Y106.999 E7.77154 F540.000
G1 X85.345 Y105.574 F7800.000
G1 X84.991 Y105.220 E7.79452 F540.000
G1 X85.103 Y103.673 F7800.000
G1 X83.404 Y101.973 E7.90483 F540.000
G1 X83.343 Y101.360 E7.93312
G1 X84.834 Y102.851 E8.02990
G1 X84.575 Y102.039 E8.06903
G1 X83.282 Y100.746 E8.15290
G1 X83.222 Y100.133 E8.18119
G1 X84.519 Y101.430 E8.26537
G1 X84.465 Y100.823 E8.29335
G1 X83.231 Y99.589 E8.37340
G1 X83.265 Y99.070 E8.39727
G1 X84.411 Y100.215 E8.47160
G1 X84.445 Y99.697 E8.49544
G1 X83.299 Y98.551 E8.56982
G1 X83.393 Y98.092 E8.59132
G1 X84.491 Y99.190 E8.66256
G1 X84.537 Y98.683 E8.68593
G1 X83.491 Y97.636 E8.75382
G1 X83.591 Y97.184 E8.77509
G1 X84.598 Y98.191 E8.84043
G1 X84.732 Y97.771 E8.86063
G1 X83.748 Y96.787 E8.92448
G1 X83.904 Y96.391 E8.94404
G1 X84.865 Y97.352 E9.00642
G1 X84.999 Y96.932 E9.02661
G1 X84.064 Y95.998 E9.08725
G1 X84.277 Y95.658 E9.10567
G1 X85.155 Y96.535 E9.16262
G1 X85.371 Y96.199 E9.18098
G1 X84.489 Y95.317 E9.23819
G1 X84.706 Y94.981 E9.25654
G1 X85.587 Y95.862 E9.31371
G1 X85.804 Y95.525 E9.33207
G1 X84.976 Y94.697 E9.38580
G1 X85.252 Y94.421 E9.40374
G1 X86.035 Y95.203 E9.45451
G1 X86.333 Y94.948 E9.47251
G1 X85.529 Y94.144 E9.52467
G1 X85.847 Y93.910 E9.54281
G1 X86.631 Y94.693 E9.59366
G1 X86.929 Y94.438 E9.61166
G1 X86.173 Y93.683 E9.66068
G1 X86.510 Y93.467 E9.67904
G1 X87.236 Y94.193 E9.72617
G1 X87.627 Y94.030 E9.74557
G1 X86.895 Y93.299 E9.79302
G1 X87.280 Y93.131 E9.81230
G1 X88.017 Y93.867 E9.86008
G1 X88.407 Y93.704 E9.87947
G1 X87.683 Y92.980 E9.92646
G1 X88.131 Y92.875 E9.94758
G1 X88.828 Y93.572 E9.99280
G1 X89.322 Y93.514 E10.01566
G1 X88.579 Y92.770 E10.06392
G1 X89.058 Y92.696 E10.08615
G1 X89.817 Y93.456 E10.13545
G1 X90.312 Y93.398 E10.15832
G1 X89.574 Y92.660 E10.20621
G1 X90.091 Y92.623 E10.22997
G1 X90.910 Y93.443 E10.28315
G1 X91.532 Y93.512 E10.31187
G1 X90.663 Y92.643 E10.36827
G1 X91.259 Y92.685 E10.39568
G1 X92.154 Y93.581 E10.45377
G1 X94.902 Y94.116 F7800.000
G1 X95.742 Y94.956 E10.50828 F540.000
G92 E0
G1 X97.002 Y95.880 F7800.000
G1 X100.862 Y94.323 F7800.000
G1 X103.257 Y92.352 F7800.000
G1 X105.449 Y92.352 F7800.000
G1 X108.032 Y92.577 F7800.000
G1 X111.632 Y92.577 E0.16289 F378.000
G1 X113.133 Y92.693 E0.23101
G1 X113.234 Y92.700 E0.23559 F378.000
G1 X114.560 Y93.064 E0.29784
G1 X115.624 Y93.663 E0.35308
G1 X116.399 Y94.467 E0.40360
G1 X116.863 Y95.456 E0.45305
G1 X117.020 Y96.650 E0.50753
G1 X116.917 Y97.552 E0.54864
G1 X116.610 Y98.339 E0.58682
G1 X116.100 Y99.016 E0.62518
G1 X115.397 Y99.561 E0.66542
G1 X114.511 Y99.946 E0.70915
G1 X113.392 Y100.177 E0.76086
G1 X113.368 Y100.600 E0.77999
G1 X114.222 Y100.878 E0.82061
G1 X114.892 Y101.267 E0.85566
G1 X115.427 Y101.778 E0.88917
G1 X115.818 Y102.398 E0.92231
G1 X116.054 Y103.110 E0.95626
G1 X116.131 Y103.901 E0.99223
G1 X115.569 Y105.853 E1.08414
G1 X113.889 Y107.019 E1.17664
G1 X110.976 Y107.423 E1.30974
G1 X105.674 Y107.423 E1.54963
G1 X105.674 Y92.577 E2.22140
G1 X107.801 Y92.577 E2.31762
G1 X107.801 Y93.786 F7800.000
G1 X111.540 Y93.786 E2.48682 F378.000
G1 X112.715 Y93.866 E2.54012
G1 X113.683 Y94.113 E2.58532
G1 X114.433 Y94.537 E2.62430
G1 X114.964 Y95.139 E2.66061
G1 X115.278 Y95.902 E2.69797
G1 X115.383 Y96.831 E2.74024
G1 X114.929 Y98.445 E2.81613
G1 X113.558 Y99.420 E2.89225
G1 X111.385 Y99.729 E2.99155
G1 X107.295 Y99.729 E3.17661
G1 X107.295 Y93.786 E3.44553
G1 X107.570 Y93.786 E3.45795 F378.000
G1 X106.520 Y93.352 F7800.000
G1 X106.520 Y93.352 F7800.000
G1 X107.570 Y100.895 F7800.000
G1 X110.998 Y100.895 E3.61308 F378.000
G1 X112.036 Y100.967 E3.66016
G1 X112.907 Y101.188 E3.70082
G1 X113.602 Y101.567 E3.73665
G1 X114.107 Y102.117 E3.77041
G1 X114.407 Y102.825 E3.80522
G1 X114.504 Y103.676 E3.84397
G1 X114.402 Y104.489 E3.88105
G1 X114.087 Y105.154 E3.91434
G1 X113.560 Y105.643 E3.94688
G1 X112.859 Y105.966 E3.98179
G1 X112.004 Y106.153 E4.02141
G1 X110.997 Y106.214 E4.06705
G1 X107.295 Y106.214 E4.23455
G1 X107.295 Y100.895 E4.47523
G1 X107.339 Y100.895 E4.47720 F378.000
G1 X113.158 Y100.912 F7800.000
G1 X113.886 Y101.227 E4.55501 F540.000
G1 X113.218 Y99.839 F7800.000
G1 X113.654 Y99.763 E4.59846 F540.000
G1 X114.075 Y99.589 E4.64306
G1 X114.279 Y99.394 F7800.000
G1 X114.582 Y99.697 E4.66264 F540.000
G1 X114.966 Y99.530 E4.68179
G1 X114.455 Y99.019 E4.71479
G1 X114.777 Y98.790 E4.73286
G1 X115.344 Y99.357 E4.76951
G1 X115.655 Y99.117 E4.78747
G1 X115.099 Y98.561 E4.82337
G1 X115.229 Y98.140 E4.84351
G1 X115.964 Y98.875 E4.89099
G1 X116.201 Y98.561 E4.90898
G1 X115.350 Y97.710 E4.96396
G1 X115.471 Y97.280 E4.98438
G1 X116.432 Y98.241 E5.04647
G1 X116.586 Y97.844 E5.06593
G1 X115.592 Y96.850 E5.13019
G1 X115.556 Y96.263 E5.15708
G1 X116.713 Y97.420 E5.23189
G1 X116.770 Y96.926 E5.25464
G1 X115.435 Y95.591 E5.34094
G1 X116.226 Y94.729 F7800.000
G1 X115.288 Y93.791 E5.40162 F540.000
G1 X114.160 Y93.214 F7800.000
G1 X116.657 Y95.711 E5.56307 F540.000
G1 X116.741 Y96.346 E5.59232
G1 X113.401 Y93.006 E5.80823
G1 X112.739 Y92.895 E5.83889
G1 X113.706 Y93.862 E5.90138
G1 X112.966 Y93.673 E5.93627
G1 X112.142 Y92.849 E5.98953
G1 X111.545 Y92.804 E6.01690
G1 X112.351 Y93.609 E6.06897
G1 X111.760 Y93.569 E6.09607
G1 X110.994 Y92.803 E6.14557
G1 X110.443 Y92.803 E6.17076
G1 X111.200 Y93.560 E6.21971
G1 X110.649 Y93.560 E6.24490
G1 X109.892 Y92.803 E6.29384
G1 X109.341 Y92.803 E6.31903
G1 X110.098 Y93.560 E6.36798
G1 X109.547 Y93.560 E6.39317
G1 X108.790 Y92.803 E6.44212
G1 X108.239 Y92.803 E6.46730
G1 X108.996 Y93.560 E6.51625
G1 X108.445 Y93.560 E6.54144
G1 X107.688 Y92.803 E6.59039
G1 X107.137 Y92.803 E6.61557
G1 X107.894 Y93.560 E6.66452
G1 X107.343 Y93.560 E6.68971
G1 X106.586 Y92.803 E6.73866
G1 X106.035 Y92.803 E6.76385
G1 X107.070 Y93.837 E6.83072
G1 X107.070 Y94.388 E6.85591
G1 X105.900 Y93.219 E6.93149
G1 X105.900 Y93.770 E6.95668
G1 X107.070 Y94.939 E7.03226
G1 X107.070 Y95.490 E7.05745
G1 X105.900 Y94.321 E7.13303
G1 X105.900 Y94.872 E7.15822
G1 X107.070 Y96.041 E7.23381
G1 X107.070 Y96.592 E7.25900
G1 X105.900 Y95.423 E7.33458
G1 X105.900 Y95.974 E7.35977
G1 X107.070 Y97.143 E7.43535
G1 X107.070 Y97.694 E7.46054
G1 X105.900 Y96.525 E7.53612
G1 X105.900 Y97.076 E7.56131
G1 X107.070 Y98.245 E7.63690
G1 X107.070 Y98.796 E7.66208
G1 X105.900 Y97.627 E7.73767
G1 X105.900 Y98.178 E7.76286
G1 X107.070 Y99.347 E7.83844
G1 X107.070 Y99.898 E7.86363
G1 X105.900 Y98.729 E7.93921
G1 X105.900 Y99.280 E7.96440
G1 X107.290 Y100.669 E8.05421
G1 X107.070 Y101.000 F7800.000
G1 X105.900 Y99.831 E8.12980 F540.000
G1 X105.900 Y100.382 E8.15499
G1 X107.070 Y101.551 E8.23057
G1 X107.070 Y102.102 E8.25576
G1 X105.900 Y100.933 E8.33134
G1 X105.900 Y101.484 E8.35653
G1 X107.070 Y102.653 E8.43211
G1 X107.070 Y103.204 E8.45730
G1 X105.900 Y102.035 E8.53289
G1 X105.900 Y102.586 E8.55807
G1 X107.070 Y103.755 E8.63366
G1 X107.070 Y104.306 E8.65885
G1 X105.900 Y103.137 E8.73443
G1 X105.900 Y103.688 E8.75962
G1 X107.070 Y104.857 E8.83520
G1 X107.070 Y105.408 E8.86039
G1 X105.900 Y104.239 E8.93597
G1 X105.900 Y104.790 E8.96116
G1 X107.070 Y105.959 E9.03675
G1 X107.000 Y106.440 E9.05898
G1 X107.757 Y107.197 E9.10793
G1 X108.308 Y107.197 E9.13311
G1 X107.551 Y106.440 E9.18206
G1 X107.070 Y106.510 E9.20429
G1 X105.900 Y105.341 E9.27988
G1 X105.900 Y105.892 E9.30507
G1 X107.206 Y107.197 E9.38947
G1 X106.655 Y107.197 E9.41466
G1 X105.900 Y106.442 E9.46344
G1 X105.900 Y106.993 E9.48863
G1 X106.104 Y107.197 E9.50179
G1 X108.102 Y106.440 F7800.000
G1 X108.859 Y107.197 E9.55074 F540.000
G1 X109.410 Y107.197 E9.57593
G1 X108.653 Y106.440 E9.62487
G1 X109.204 Y106.440 E9.65006
G1 X109.961 Y107.197 E9.69901
G1 X110.512 Y107.197 E9.72420
G1 X109.755 Y106.440 E9.77315
G1 X110.306 Y106.440 E9.79833
G1 X111.060 Y107.194 E9.84707
G1 X111.543 Y107.127 E9.86940
G1 X110.857 Y106.440 E9.91380
G1 X111.380 Y106.412 E9.93776
G1 X112.027 Y107.060 E9.97960
G1 X112.511 Y106.992 E10.00193
G1 X111.900 Y106.381 E10.04146
G1 X112.360 Y106.290 E10.06291
G1 X112.995 Y106.925 E10.10395
G1 X113.479 Y106.858 E10.12628
G1 X112.812 Y106.191 E10.16938
G1 X113.200 Y106.028 E10.18861
G1 X113.928 Y106.756 E10.23566
G1 X114.253 Y106.530 E10.25376
G1 X113.577 Y105.855 E10.29743
G1 X113.881 Y105.608 E10.31533
G1 X114.578 Y106.305 E10.36039
G1 X114.903 Y106.079 E10.37849
G1 X114.167 Y105.342 E10.42611
G1 X114.379 Y105.003 E10.44439
G1 X115.228 Y105.853 E10.49933
G1 X115.449 Y105.523 E10.51749
G1 X114.556 Y104.630 E10.57524
G1 X114.659 Y104.182 E10.59625
G1 X115.572 Y105.095 E10.65530
G1 X115.696 Y104.667 E10.67565
G1 X114.720 Y103.692 E10.73871
G1 X114.675 Y103.096 E10.76605
G1 X115.819 Y104.240 E10.84001
G1 X115.881 Y103.751 E10.86253
G1 X114.501 Y102.371 E10.95173
G1 X114.045 Y101.364 F7800.000
G1 X115.781 Y103.100 E11.06397 F540.000
G1 X112.971 Y100.840 F7800.000
G1 X111.991 Y99.860 E11.12732 F540.000
G1 X112.473 Y99.792 E11.14960
G1 X113.068 Y100.387 E11.18809
G1 X112.376 Y100.796 F7800.000
G1 X111.508 Y99.929 E11.24416 F540.000
G1 X110.983 Y99.955 E11.26819
G1 X111.742 Y100.714 E11.31727
G1 X111.151 Y100.673 E11.34439
G1 X110.432 Y99.955 E11.39082
G1 X109.881 Y99.955 E11.41601
G1 X110.595 Y100.669 E11.46218
G1 X110.044 Y100.669 E11.48737
G1 X109.330 Y99.955 E11.53353
G1 X108.779 Y99.955 E11.55872
G1 X109.493 Y100.669 E11.60489
G1 X108.943 Y100.669 E11.63008
G1 X108.228 Y99.955 E11.67624
G1 X107.677 Y99.955 E11.70143
G1 X108.392 Y100.669 E11.74760
G1 X107.841 Y100.669 E11.77279
G1 X107.126 Y99.955 E11.81896
M106 S255
G92 E0
G1 Z0.600 F7800.000
G1 X83.807 Y100.047 F7800.000
G1 X83.912 Y98.678 E0.41153 F600.000
G1 X84.032 Y97.973 E0.62586
G1 X84.174 Y97.439 E0.79152
G1 X84.575 Y96.327 E1.14548
G1 X85.163 Y95.391 E1.47685
G1 X85.479 Y94.989 E1.62985
G1 X85.670 Y94.779 E1.71524
G1 X85.863 Y94.596 E1.79480
G1 X86.721 Y93.933 E2.11989
G1 X87.048 Y93.754 E2.23139
G1 X87.761 Y93.449 E2.46387
G1 X88.407 Y93.240 E2.66728
G1 X88.958 Y93.127 E2.83582
G1 X90.325 Y93.002 E3.24709
G1 X91.680 Y93.123 E3.65472
G1 X92.266 Y93.240 E3.83388
G1 X92.876 Y93.433 E4.02549
G1 X93.633 Y93.752 E4.27154
G1 X93.929 Y93.910 E4.37210
G1 X94.805 Y94.580 E4.70268
G1 X94.988 Y94.750 E4.77748
G1 X95.181 Y94.962 E4.86331
G1 X95.516 Y95.390 E5.02625
G1 X96.108 Y96.338 E5.36128
G1 X96.505 Y97.453 E5.71595
G1 X96.675 Y98.145 E5.92930
G1 X96.757 Y98.688 E6.09399
G1 X96.860 Y100.065 E6.50780
G1 X96.755 Y101.445 E6.92234
G1 X96.636 Y102.140 E7.13363
G1 X96.494 Y102.667 E7.29724
G1 X96.096 Y103.754 E7.64415
G1 X95.511 Y104.668 E7.96933
G1 X95.196 Y105.061 E8.12006
G1 X94.999 Y105.273 E8.20700
G1 X94.812 Y105.446 E8.28338
G1 X93.947 Y106.094 E8.60708
G1 X93.631 Y106.261 E8.71417
G1 X92.901 Y106.563 E8.95087
G1 X92.272 Y106.761 E9.14866
G1 X91.705 Y106.873 E9.32170
G1 X90.361 Y106.992 E9.72603
G1 X88.637 Y106.812 E10.24541
G1 X88.413 Y106.773 E10.31348
G1 X87.051 Y106.264 E10.74921
G1 X86.723 Y106.101 E10.85884
G1 X85.687 Y105.287 E11.25389
G1 X85.471 Y105.088 E11.34189
G1 X84.560 Y103.753 E11.82619
G1 X84.024 Y102.162 E12.32904
G1 X83.982 Y101.938 E12.39748
G1 X83.807 Y100.047 E12.96634
G92 E0
G1 X97.516 Y102.982 F7800.000
G1 X101.333 Y104.524 F7800.000
G1 X103.257 Y107.648 F7800.000
G1 X105.449 Y107.648 F7800.000
G1 X107.323 Y103.801 F7800.000
G1 X106.485 Y99.504 E1.31181 F600.000
G1 X106.485 Y94.011 E2.95776
G1 X106.558 Y93.461 E3.12413
G1 X107.520 Y93.181 E3.42438
G1 X111.589 Y93.182 E4.64347
G1 X112.885 Y93.283 E5.03309
G1 X113.125 Y93.322 E5.10601
G1 X114.022 Y93.575 E5.38510
G1 X114.303 Y93.691 E5.47618
