; generated by Slic3r 1.2.9 on 2016-03-11 at 01:28:09

; external perimeters extrusion width = 1.54mm
; perimeters extrusion width = 2.62mm
; infill extrusion width = 6.27mm
; solid infill extrusion width = 2.62mm
; top infill extrusion width = 2.62mm

M107
M104 S30 ; set temperature
G28 ; home all axes
G1 Z5 F5000 ; lift nozzle
M302
M92 E10000
M500
M501
G1 E100
M109 S30 ; wait for temperature to be reached
G21 ; set units to millimeters
G90 ; use absolute coordinates
M82 ; use absolute distances for extrusion
G92 E0
G1 Z0.300 F7800.000
G1 X95.524 Y104.884 F7800.000
G1 X95.341 Y105.169 E0.01535 F378.000
G1 X94.500 Y106.032 E0.06987
G1 X93.484 Y106.716 E0.12529
G1 X92.311 Y107.214 E0.18293
G1 X90.999 Y107.514 E0.24384
G1 X89.549 Y107.614 E0.30958
G1 X87.386 Y107.390 E0.40802
G1 X85.581 Y106.725 E0.49503
G1 X84.122 Y105.621 E0.57782
G1 X83.046 Y104.124 E0.66123
G1 X82.397 Y102.275 E0.74991
G1 X82.178 Y100.061 E0.85058
G1 X82.276 Y98.562 E0.91856
G1 X82.569 Y97.196 E0.98179
G1 X83.054 Y95.965 E1.04167
G1 X83.722 Y94.896 E1.09870
G1 X84.560 Y94.011 E1.15383
G1 X85.572 Y93.308 E1.20958
G1 X86.744 Y92.797 E1.26744
G1 X88.061 Y92.489 E1.32864
G1 X89.524 Y92.386 E1.39504
G1 X90.883 Y92.483 E1.45667
G1 X90.976 Y92.490 E1.46090 F378.000
G1 X92.287 Y92.802 E1.52188
G1 X93.460 Y93.319 E1.57987
G1 X94.477 Y94.028 E1.63599
G1 X95.323 Y94.915 E1.69144
G1 X96.000 Y95.983 E1.74865
G1 X96.494 Y97.209 E1.80848
G1 X96.792 Y98.570 E1.87149
G1 X96.892 Y100.065 E1.93931
G1 X96.793 Y101.563 E2.00725
G1 X96.499 Y102.916 E2.06988
G1 X96.011 Y104.124 E2.12886
G1 X95.648 Y104.689 E2.15924
G1 X94.309 Y103.816 F7800.000
G1 X93.747 Y104.678 E2.20581 F378.000
G1 X92.612 Y105.623 E2.27263
G1 X91.207 Y106.188 E2.34113
G1 X89.547 Y106.374 E2.41673
G1 X87.874 Y106.191 E2.49288
G1 X86.461 Y105.634 E2.56162
G1 X85.320 Y104.701 E2.62830
G1 X84.488 Y103.438 E2.69674
G1 X83.994 Y101.890 E2.77026
G1 X83.831 Y100.065 E2.85318
G1 X83.996 Y98.242 E2.93599
G1 X84.495 Y96.676 E3.01038
G1 X85.333 Y95.372 E3.08054
G1 X86.476 Y94.394 E3.14860
G1 X87.878 Y93.808 E3.21734
G1 X89.379 Y93.632 E3.28575
G1 X89.524 Y93.615 E3.29234 F378.000
G1 X91.208 Y93.801 E3.36900
G1 X92.624 Y94.368 E3.43801
G1 X93.759 Y95.317 E3.50495
G1 X94.580 Y96.605 E3.57410
G1 X95.068 Y98.190 E3.64913
G1 X95.229 Y100.065 E3.73431
G1 X95.067 Y101.868 E3.81622
G1 X94.574 Y103.408 E3.88937
G1 X94.435 Y103.622 E3.90094
G1 X96.007 Y100.067 F7800.000
G1 X96.061 Y100.063 F7800.000
G1 X95.956 Y98.688 F7800.000
G1 X96.023 Y98.679 F7800.000
G1 X95.920 Y96.489 F7800.000
G1 X92.711 Y93.279 E4.10920 F540.000
G1 X92.270 Y93.944 F7800.000
G1 X91.099 Y92.773 E4.18518 F540.000
G1 X91.824 Y92.946 F7800.000
G1 X94.058 Y95.179 E4.33013 F540.000
G1 X93.915 Y95.037 F7800.000
G1 X96.287 Y97.408 E4.48400 F540.000
G1 X96.442 Y98.116 E4.51727
G1 X94.808 Y96.482 E4.62330
G1 X95.054 Y97.281 E4.66166
G1 X96.576 Y98.803 E4.76042
G1 X96.615 Y99.396 E4.78767
G1 X95.292 Y98.073 E4.87351
G1 X95.344 Y98.678 E4.90137
G1 X96.655 Y99.988 E4.98641
G1 X96.640 Y100.527 E5.01114
G1 X95.396 Y99.283 E5.09187
G1 X95.448 Y99.888 E5.11973
G1 X96.606 Y101.046 E5.19488
G1 X96.572 Y101.565 E5.21874
G1 X95.418 Y100.411 E5.29362
G1 X95.372 Y100.918 E5.31699
G1 X96.478 Y102.023 E5.38874
G1 X96.379 Y102.478 E5.41006
G1 X95.327 Y101.425 E5.47836
G1 X95.266 Y101.918 E5.50113
G1 X96.277 Y102.928 E5.56672
G1 X96.118 Y103.322 E5.58621
G1 X95.132 Y102.337 E5.65017
G1 X94.998 Y102.756 E5.67035
G1 X95.959 Y103.716 E5.73268
G1 X95.793 Y104.103 E5.75201
G1 X94.864 Y103.175 E5.81227
G1 X94.703 Y103.567 E5.83171
G1 X95.577 Y104.440 E5.88840
G1 X95.361 Y104.777 E5.90677
G1 X94.485 Y103.902 E5.96359
G1 X94.267 Y104.236 E5.98193
G1 X95.131 Y105.100 E6.03799
G1 X94.854 Y105.377 E6.05594
G1 X94.049 Y104.571 E6.10822
G1 X93.805 Y104.880 E6.12629
G1 X94.578 Y105.653 E6.17646
G1 X94.301 Y105.930 E6.19440
G1 X93.503 Y105.132 E6.24620
G1 X93.201 Y105.383 E6.26422
G1 X93.972 Y106.153 E6.31423
G1 X93.641 Y106.376 E6.33251
G1 X92.899 Y105.634 E6.38065
G1 X92.569 Y105.857 E6.39893
G1 X93.292 Y106.580 E6.44583
G1 X92.904 Y106.745 E6.46518
G1 X92.175 Y106.016 E6.51248
G1 X91.781 Y106.174 E6.53199
G1 X92.516 Y106.909 E6.57968
G1 X92.100 Y107.047 E6.59976
G1 X91.386 Y106.333 E6.64609
G1 X90.937 Y106.437 E6.66724
G1 X91.650 Y107.150 E6.71350
G1 X91.200 Y107.253 E6.73468
G1 X90.440 Y106.493 E6.78400
G1 X89.943 Y106.549 E6.80696
G1 X90.707 Y107.313 E6.85656
G1 X90.190 Y107.349 E6.88035
G1 X89.441 Y106.600 E6.92898
G1 X88.819 Y106.531 E6.95766
G1 X89.673 Y107.385 E7.01303
G1 X89.063 Y107.328 E7.04114
G1 X88.198 Y106.463 E7.09725
G1 X87.511 Y106.329 E7.12938
G1 X88.446 Y107.264 E7.19007
G1 X87.829 Y107.200 E7.21852
G1 X86.598 Y105.969 E7.29840
G1 X86.199 Y106.676 F7800.000
G1 X83.142 Y103.619 E7.49683 F540.000
G1 X82.842 Y102.766 F7800.000
G1 X87.076 Y106.999 E7.77154 F540.000
G1 X84.544 Y105.574 F7800.000
G1 X84.190 Y105.220 E7.79452 F540.000
G1 X84.302 Y103.673 F7800.000
G1 X82.603 Y101.973 E7.90483 F540.000
G1 X82.542 Y101.360 E7.93312
G1 X84.033 Y102.851 E8.02990
G1 X83.774 Y102.039 E8.06903
G1 X82.481 Y100.746 E8.15290
G1 X82.421 Y100.133 E8.18119
G1 X83.718 Y101.430 E8.26537
G1 X83.664 Y100.823 E8.29335
G1 X82.430 Y99.589 E8.37340
G1 X82.464 Y99.070 E8.39727
G1 X83.610 Y100.215 E8.47160
G1 X83.644 Y99.697 E8.49545
G1 X82.498 Y98.551 E8.56982
G1 X82.592 Y98.092 E8.59132
G1 X83.690 Y99.190 E8.66256
G1 X83.736 Y98.683 E8.68593
G1 X82.690 Y97.636 E8.75382
G1 X82.790 Y97.184 E8.77509
G1 X83.797 Y98.191 E8.84043
G1 X83.931 Y97.771 E8.86063
G1 X82.947 Y96.787 E8.92448
G1 X83.103 Y96.391 E8.94404
G1 X84.064 Y97.352 E9.00642
G1 X84.198 Y96.932 E9.02661
G1 X83.263 Y95.998 E9.08725
G1 X83.476 Y95.658 E9.10567
G1 X84.354 Y96.535 E9.16262
G1 X84.570 Y96.199 E9.18098
G1 X83.688 Y95.317 E9.23819
G1 X83.905 Y94.981 E9.25654
G1 X84.786 Y95.862 E9.31371
G1 X85.003 Y95.525 E9.33207
G1 X84.175 Y94.697 E9.38580
G1 X84.451 Y94.421 E9.40374
G1 X85.234 Y95.203 E9.45451
G1 X85.532 Y94.948 E9.47251
G1 X84.728 Y94.144 E9.52467
G1 X85.046 Y93.910 E9.54282
G1 X85.830 Y94.693 E9.59366
G1 X86.128 Y94.438 E9.61166
G1 X85.372 Y93.683 E9.66068
G1 X85.709 Y93.467 E9.67904
G1 X86.435 Y94.193 E9.72617
G1 X86.826 Y94.030 E9.74557
G1 X86.094 Y93.299 E9.79302
G1 X86.479 Y93.131 E9.81230
G1 X87.216 Y93.867 E9.86008
G1 X87.606 Y93.704 E9.87947
G1 X86.882 Y92.980 E9.92646
G1 X87.330 Y92.875 E9.94758
G1 X88.027 Y93.572 E9.99280
G1 X88.521 Y93.514 E10.01566
G1 X87.778 Y92.770 E10.06392
G1 X88.257 Y92.696 E10.08615
G1 X89.016 Y93.456 E10.13545
G1 X89.511 Y93.398 E10.15832
G1 X88.773 Y92.660 E10.20621
G1 X89.290 Y92.623 E10.22997
G1 X90.109 Y93.443 E10.28315
G1 X90.731 Y93.512 E10.31187
G1 X89.862 Y92.643 E10.36827
G1 X90.458 Y92.685 E10.39568
G1 X91.353 Y93.581 E10.45377
G1 X94.101 Y94.116 F7800.000
G1 X94.941 Y94.956 E10.50828 F540.000
G92 E0
G1 X97.118 Y100.065 F7800.000
G1 X100.538 Y105.393 F7800.000
G1 X106.429 Y108.211 F7800.000
G1 X109.131 Y108.722 F7800.000
G1 X111.306 Y108.837 F7800.000
G1 X111.411 Y107.840 F7800.000
G1 X116.808 Y103.946 F7800.000
G1 X117.582 Y104.202 E0.03690 F378.000
G1 X117.109 Y105.088 E0.08234
G1 X116.338 Y105.989 E0.13600
G1 X115.382 Y106.694 E0.18979
G1 X114.241 Y107.204 E0.24631
G1 X112.918 Y107.511 E0.30776
G1 X111.416 Y107.614 E0.37590
G1 X109.301 Y107.390 E0.47211
G1 X107.535 Y106.723 E0.55753
G1 X106.102 Y105.616 E0.63948
G1 X105.041 Y104.118 E0.72254
G1 X104.401 Y102.270 E0.81101
G1 X104.186 Y100.061 E0.91146
G1 X104.282 Y98.546 E0.98015
G1 X104.570 Y97.176 E1.04349
G1 X105.048 Y95.954 E1.10286
G1 X105.704 Y94.896 E1.15920
G1 X106.531 Y94.017 E1.21381
G1 X107.531 Y93.314 E1.26913
G1 X108.687 Y92.799 E1.32640
G1 X109.984 Y92.489 E1.38671
G1 X111.422 Y92.386 E1.45195
G1 X112.695 Y92.486 E1.50976
G1 X112.830 Y92.497 E1.51588 F378.000
G1 X114.113 Y92.829 E1.57585
G1 X115.275 Y93.381 E1.63403
G1 X116.294 Y94.143 E1.69161
G1 X117.150 Y95.107 E1.74997
G1 X117.731 Y96.088 E1.80153
G1 X116.427 Y96.737 E1.86743
G1 X115.257 Y95.102 E1.95840
G1 X113.571 Y94.000 E2.04954
G1 X111.526 Y93.635 E2.14356
G1 X109.902 Y93.832 E2.21758
G1 X108.512 Y94.425 E2.28595
G1 X107.364 Y95.414 E2.35452
G1 X106.513 Y96.722 E2.42514
G1 X106.005 Y98.274 E2.49903
G1 X105.838 Y100.064 E2.58034
G1 X105.999 Y101.863 E2.66207
G1 X106.486 Y103.401 E2.73508
G1 X107.306 Y104.672 E2.80353
G1 X108.426 Y105.620 E2.86992
G1 X109.806 Y106.187 E2.93745
G1 X111.428 Y106.374 E3.01133
G1 X112.499 Y106.293 E3.05995
G1 X113.472 Y106.050 E3.10531
G1 X114.348 Y105.642 E3.14903
G1 X115.101 Y105.077 E3.19165
G1 X115.704 Y104.364 E3.23390
G1 X116.054 Y103.697 E3.26795
G1 X116.588 Y103.874 E3.29342
G1 X116.537 Y104.126 F7800.000
G1 X117.099 Y104.688 E3.32939 F540.000
G1 X116.901 Y105.035 E3.34749
G1 X116.031 Y104.166 E3.40316
G1 X115.831 Y104.511 E3.42124
G1 X116.649 Y105.329 E3.47359
G1 X116.397 Y105.623 E3.49111
G1 X115.581 Y104.807 E3.54337
G1 X115.331 Y105.103 E3.56089
G1 X116.126 Y105.898 E3.61180
G1 X115.816 Y106.133 E3.62943
G1 X115.044 Y105.361 E3.67887
G1 X114.732 Y105.595 E3.69651
G1 X115.502 Y106.365 E3.74581
G1 X115.164 Y106.573 E3.76376
G1 X114.420 Y105.828 E3.81143
G1 X114.048 Y106.001 E3.83002
G1 X114.787 Y106.741 E3.87736
G1 X114.410 Y106.909 E3.89607
G1 X113.675 Y106.175 E3.94309
G1 X113.270 Y106.315 E3.96250
G1 X114.000 Y107.044 E4.00918
G1 X113.557 Y107.147 E4.02975
G1 X112.834 Y106.424 E4.07604
G1 X112.386 Y106.522 E4.09678
G1 X113.114 Y107.250 E4.14339
G1 X112.628 Y107.310 E4.16556
G1 X111.879 Y106.561 E4.21353
G1 X111.372 Y106.599 E4.23656
G1 X112.118 Y107.345 E4.28432
G1 X111.607 Y107.380 E4.30749
G1 X110.762 Y106.535 E4.36161
G1 X110.145 Y106.464 E4.38970
G1 X111.017 Y107.335 E4.44551
G1 X110.407 Y107.271 E4.47330
G1 X109.470 Y106.334 E4.53329
G1 X108.543 Y105.953 F7800.000
G1 X109.796 Y107.206 E4.61351 F540.000
G1 X109.069 Y107.024 E4.64746
G1 X104.863 Y102.819 E4.91669
G1 X104.613 Y102.022 E4.95448
G1 X106.435 Y103.845 E5.07117
G1 X106.072 Y102.936 F7800.000
G1 X104.554 Y101.418 E5.16835 F540.000
G1 X104.495 Y100.813 E5.19585
G1 X105.819 Y102.137 E5.28059
G1 X105.732 Y101.505 E5.30947
G1 X104.436 Y100.209 E5.39245
G1 X104.433 Y99.660 E5.41728
G1 X105.678 Y100.906 E5.49701
G1 X105.625 Y100.306 E5.52424
G1 X104.466 Y99.147 E5.59846
G1 X104.498 Y98.634 E5.62173
G1 X105.644 Y99.780 E5.69512
G1 X105.691 Y99.282 E5.71780
G1 X104.577 Y98.168 E5.78911
G1 X104.672 Y97.717 E5.80996
G1 X105.738 Y98.783 E5.87821
G1 X105.786 Y98.286 E5.90082
G1 X104.767 Y97.266 E5.96610
G1 X104.909 Y96.863 E5.98545
G1 X105.921 Y97.875 E6.05022
G1 X106.055 Y97.463 E6.06980
G1 X105.062 Y96.471 E6.13337
G1 X105.216 Y96.078 E6.15243
G1 X106.190 Y97.052 E6.21480
G1 X106.330 Y96.647 E6.23421
G1 X105.415 Y95.732 E6.29279
G1 X105.624 Y95.395 E6.31073
G1 X106.545 Y96.316 E6.36970
G1 X106.760 Y95.986 E6.38755
G1 X105.833 Y95.059 E6.44692
G1 X106.088 Y94.768 E6.46442
G1 X106.975 Y95.656 E6.52121
G1 X107.190 Y95.325 E6.53906
G1 X106.357 Y94.492 E6.59240
G1 X106.630 Y94.219 E6.60986
G1 X107.476 Y95.065 E6.66399
G1 X107.769 Y94.812 E6.68150
G1 X106.930 Y93.973 E6.73519
G1 X107.250 Y93.748 E6.75292
G1 X108.062 Y94.560 E6.80487
G1 X108.355 Y94.307 E6.82238
G1 X107.570 Y93.523 E6.87259
G1 X107.942 Y93.349 E6.89117
G1 X108.714 Y94.121 E6.94058
G1 X109.097 Y93.958 E6.95939
G1 X108.320 Y93.181 E7.00910
G1 X108.698 Y93.013 E7.02781
G1 X109.479 Y93.794 E7.07781
G1 X109.861 Y93.631 E7.09663
G1 X109.137 Y92.907 E7.14299
G1 X109.577 Y92.802 E7.16348
G1 X110.336 Y93.561 E7.21207
G1 X110.823 Y93.502 E7.23426
G1 X110.028 Y92.707 E7.28512
G1 X110.537 Y92.670 E7.30822
G1 X111.309 Y93.443 E7.35765
G1 X111.861 Y93.449 E7.38265
G1 X111.046 Y92.634 E7.43485
G1 X111.590 Y92.632 E7.45949
G1 X112.526 Y93.568 E7.51937
G1 X113.190 Y93.686 E7.54992
G1 X112.183 Y92.679 E7.61440
G1 X112.794 Y92.745 E7.64222
G1 X113.971 Y93.922 E7.71757
G1 X114.406 Y93.266 F7800.000
G1 X117.247 Y96.107 E7.89948 F540.000
G1 X116.883 Y96.288 E7.91790
G1 X115.399 Y94.805 E8.01288
G1 X115.547 Y94.952 F7800.000
G1 X113.530 Y92.935 E8.14201 F540.000
G1 X115.890 Y94.204 F7800.000
G1 X116.390 Y94.704 E8.17399 F540.000
G92 E0
G1 X105.242 Y98.116 F7800.000
G1 X105.204 Y98.112 F7800.000
G1 X105.012 Y100.047 F7800.000
G1 X104.964 Y100.048 F7800.000
G1 X105.152 Y103.653 F7800.000
G1 X108.192 Y106.693 E0.19462 F540.000
G1 X106.533 Y105.580 F7800.000
G1 X106.175 Y105.222 E0.21754 F540.000
M106 S255
G92 E0
G1 Z0.600 F7800.000
G1 X83.006 Y100.047 F7800.000
G1 X83.111 Y98.678 E0.41153 F600.000
G1 X83.231 Y97.973 E0.62586
G1 X83.373 Y97.439 E0.79152
G1 X83.774 Y96.327 E1.14548
G1 X84.362 Y95.391 E1.47685
G1 X84.678 Y94.989 E1.62985
G1 X84.869 Y94.779 E1.71524
G1 X85.062 Y94.596 E1.79480
G1 X85.920 Y93.933 E2.11989
G1 X86.247 Y93.754 E2.23139
G1 X86.960 Y93.449 E2.46387
G1 X87.606 Y93.240 E2.66728
G1 X88.157 Y93.127 E2.83582
G1 X89.524 Y93.002 E3.24709
G1 X90.879 Y93.123 E3.65472
G1 X91.465 Y93.240 E3.83388
G1 X92.075 Y93.433 E4.02549
G1 X92.832 Y93.752 E4.27154
G1 X93.128 Y93.910 E4.37210
G1 X94.004 Y94.580 E4.70268
G1 X94.187 Y94.750 E4.77748
G1 X94.380 Y94.962 E4.86331
G1 X94.715 Y95.390 E5.02625
G1 X95.307 Y96.338 E5.36128
G1 X95.704 Y97.453 E5.71595
G1 X95.874 Y98.145 E5.92930
G1 X95.956 Y98.688 E6.09399
G1 X96.059 Y100.065 E6.50780
G1 X95.954 Y101.445 E6.92234
G1 X95.835 Y102.140 E7.13363
G1 X95.693 Y102.667 E7.29724
G1 X95.295 Y103.754 E7.64415
G1 X94.710 Y104.668 E7.96933
G1 X94.395 Y105.061 E8.12006
G1 X94.198 Y105.273 E8.20700
G1 X94.011 Y105.446 E8.28338
G1 X93.146 Y106.094 E8.60708
G1 X92.830 Y106.261 E8.71417
G1 X92.100 Y106.563 E8.95087
G1 X91.471 Y106.761 E9.14866
G1 X90.904 Y106.873 E9.32170
G1 X89.560 Y106.992 E9.72603
G1 X87.836 Y106.812 E10.24541
G1 X87.612 Y106.773 E10.31348
G1 X86.250 Y106.264 E10.74921
G1 X85.922 Y106.101 E10.85884
G1 X84.886 Y105.287 E11.25389
G1 X84.670 Y105.088 E11.34189
G1 X83.759 Y103.753 E11.82619
G1 X83.223 Y102.162 E12.32904
G1 X83.181 Y101.938 E12.39748
G1 X83.006 Y100.047 E12.96634
G92 E0
G1 X97.017 Y101.595 F7800.000
G1 X101.932 Y106.279 F7800.000
G1 X106.892 Y108.332 F7800.000
G1 X109.131 Y108.722 F7800.000
G1 X111.306 Y108.837 F7800.000
G1 X111.411 Y107.840 F7800.000
G1 X117.032 Y103.783 F7800.000
G1 X116.275 Y104.879 E0.39908 F600.000
G1 X115.812 Y105.424 E0.61327
G1 X115.688 Y105.540 E0.66423
G1 X115.011 Y106.059 E0.91980
G1 X114.618 Y106.278 E1.05466
G1 X114.021 Y106.551 E1.25121
G1 X113.608 Y106.685 E1.38131
G1 X112.823 Y106.874 E1.62348
G1 X112.527 Y106.915 E1.71288
G1 X111.427 Y106.992 E2.04329
G1 X109.766 Y106.811 E2.54418
G1 X109.454 Y106.749 E2.63946
G1 X108.203 Y106.256 E3.04241
G1 X107.886 Y106.095 E3.14884
G1 X106.852 Y105.260 E3.54707
G1 X106.660 Y105.081 E3.62575
G1 X105.833 Y103.857 E4.06830
G1 X105.763 Y103.747 E4.10739
G1 X105.714 Y103.614 E4.14996
G1 X105.210 Y102.094 E4.62983
G1 X105.014 Y100.047 E5.24586
G1 X105.121 Y98.660 E5.66271
G1 X105.235 Y97.996 E5.86470
G1 X105.389 Y97.420 E6.04323
G1 X105.790 Y96.325 E6.39259
G1 X106.371 Y95.408 E6.71790
G1 X106.684 Y95.010 E6.86979
G1 X107.057 Y94.624 E7.03067
G1 X107.901 Y93.966 E7.35122
G1 X108.266 Y93.761 E7.47683
G1 X108.917 Y93.477 E7.68948
G1 X109.617 Y93.246 E7.91035
G1 X110.085 Y93.144 E8.05390
G1 X111.420 Y93.015 E8.45568
G1 X111.668 Y93.029 E8.53032
G1 X112.718 Y93.164 E8.84758
G1 X113.638 Y93.364 E9.12967
G1 X113.891 Y93.440 E9.20884
G1 X114.899 Y94.003 E9.55476
G1 X115.603 Y94.496 E9.81219
G1 X115.812 Y94.666 E9.89306
G1 X116.528 Y95.561 E10.23636
G1 X117.206 Y96.600 E10.60817
G92 E0
G1 Z0.900 F7800.000
G1 X83.006 Y100.047 F7800.000
G1 X83.111 Y98.678 E0.41153 F600.000
G1 X83.231 Y97.973 E0.62586
G1 X83.373 Y97.439 E0.79152
G1 X83.774 Y96.327 E1.14548
G1 X84.362 Y95.391 E1.47684
G1 X84.678 Y94.989 E1.62985
G1 X84.869 Y94.779 E1.71524
G1 X85.062 Y94.596 E1.79480
G1 X85.920 Y93.933 E2.11989
G1 X86.247 Y93.754 E2.23139
G1 X86.960 Y93.449 E2.46387
G1 X87.606 Y93.240 E2.66728
G1 X88.157 Y93.127 E2.83582
G1 X89.524 Y93.002 E3.24709
G1 X90.879 Y93.123 E3.65472
G1 X91.465 Y93.240 E3.83388
G1 X92.075 Y93.433 E4.02549
G1 X92.832 Y93.752 E4.27154
G1 X93.128 Y93.910 E4.37210
G1 X94.004 Y94.580 E4.70268
G1 X94.187 Y94.750 E4.77748
G1 X94.380 Y94.962 E4.86331
G1 X94.715 Y95.390 E5.02625
