; generated by Slic3r 1.2.9 on 2016-03-11 at 01:28:11

; external perimeters extrusion width = 1.54mm
; perimeters extrusion width = 2.62mm
; infill extrusion width = 6.27mm
; solid infill extrusion width = 2.62mm
; top infill extrusion width = 2.62mm

M107
M104 S30 ; set temperature
G28 ; home all axes
G1 Z5 F5000 ; lift nozzle
M302
M92 E10000
M500
M501
G1 E100
M109 S30 ; wait for temperature to be reached
G21 ; set units to millimeters
G90 ; use absolute coordinates
M82 ; use absolute distances for extrusion
G92 E0
G1 Z0.300 F7800.000
G1 X92.328 Y107.368 F7800.000
G1 X91.691 Y107.514 E0.02957 F378.000
G1 X90.242 Y107.614 E0.09531
G1 X88.078 Y107.390 E0.19375
G1 X86.274 Y106.725 E0.28076
G1 X84.815 Y105.621 E0.36355
G1 X83.739 Y104.124 E0.44696
G1 X83.089 Y102.275 E0.53564
G1 X82.871 Y100.061 E0.63631
G1 X82.968 Y98.562 E0.70429
G1 X83.261 Y97.196 E0.76753
G1 X83.747 Y95.965 E0.82740
G1 X84.414 Y94.896 E0.88443
G1 X85.252 Y94.011 E0.93956
G1 X86.264 Y93.308 E0.99531
G1 X87.436 Y92.797 E1.05317
G1 X88.753 Y92.489 E1.11437
G1 X90.217 Y92.386 E1.18077
G1 X91.575 Y92.483 E1.24240
G1 X91.669 Y92.490 E1.24663 F378.000
G1 X92.980 Y92.802 E1.30761
G1 X94.152 Y93.319 E1.36560
G1 X95.170 Y94.028 E1.42172
G1 X96.016 Y94.915 E1.47717
G1 X96.692 Y95.983 E1.53438
G1 X97.187 Y97.209 E1.59421
G1 X97.485 Y98.570 E1.65722
G1 X97.585 Y100.065 E1.72504
G1 X97.486 Y101.563 E1.79298
G1 X97.192 Y102.916 E1.85561
G1 X96.703 Y104.124 E1.91459
G1 X96.033 Y105.169 E1.97077
G1 X95.192 Y106.032 E2.02529
G1 X94.176 Y106.716 E2.08071
G1 X93.004 Y107.214 E2.13835
G1 X92.554 Y107.317 E2.15924
G1 X92.072 Y106.119 F7800.000
G1 X91.900 Y106.188 E2.16763 F378.000
G1 X90.239 Y106.374 E2.24323
G1 X88.567 Y106.191 E2.31937
G1 X87.153 Y105.634 E2.38811
G1 X86.012 Y104.701 E2.45479
G1 X85.181 Y103.438 E2.52323
G1 X84.686 Y101.890 E2.59675
G1 X84.523 Y100.065 E2.67968
G1 X84.688 Y98.242 E2.76248
G1 X85.187 Y96.676 E2.83687
G1 X86.026 Y95.372 E2.90704
G1 X87.168 Y94.394 E2.97509
G1 X88.570 Y93.808 E3.04384
G1 X90.072 Y93.632 E3.11224
G1 X90.216 Y93.615 E3.11884 F378.000
G1 X91.900 Y93.801 E3.19550
G1 X93.316 Y94.368 E3.26451
G1 X94.451 Y95.317 E3.33144
G1 X95.273 Y96.605 E3.40059
G1 X95.761 Y98.190 E3.47563
G1 X95.922 Y100.065 E3.56080
G1 X95.759 Y101.868 E3.64271
G1 X95.267 Y103.408 E3.71587
G1 X94.439 Y104.678 E3.78447
G1 X93.304 Y105.623 E3.85128
G1 X92.286 Y106.033 E3.90094
G1 X87.768 Y106.999 F7800.000
G1 X83.535 Y102.766 E4.17565 F540.000
G1 X83.834 Y103.619 F7800.000
G1 X86.892 Y106.676 E4.37409 F540.000
G1 X87.291 Y105.969 F7800.000
G1 X88.522 Y107.200 E4.45396 F540.000
G1 X89.139 Y107.264 E4.48242
G1 X88.203 Y106.329 E4.54310
G1 X88.891 Y106.463 E4.57523
G1 X89.755 Y107.328 E4.63135
G1 X90.365 Y107.385 E4.65945
G1 X89.512 Y106.531 E4.71483
G1 X90.133 Y106.600 E4.74350
G1 X90.883 Y107.349 E4.79213
G1 X91.400 Y107.313 E4.81592
G1 X90.635 Y106.549 E4.86553
G1 X91.133 Y106.493 E4.88849
G1 X91.892 Y107.253 E4.93780
G1 X92.343 Y107.150 E4.95899
G1 X91.630 Y106.437 E5.00524
G1 X92.079 Y106.333 E5.02639
G1 X92.793 Y107.047 E5.07272
G1 X93.208 Y106.909 E5.09280
G1 X92.473 Y106.174 E5.14050
G1 X92.868 Y106.016 E5.16000
G1 X93.596 Y106.745 E5.20730
G1 X93.985 Y106.580 E5.22665
G1 X93.262 Y105.857 E5.27355
G1 X93.592 Y105.634 E5.29183
G1 X94.334 Y106.376 E5.33997
G1 X94.664 Y106.153 E5.35826
G1 X93.894 Y105.383 E5.40826
G1 X94.195 Y105.132 E5.42628
G1 X94.994 Y105.930 E5.47808
G1 X95.270 Y105.653 E5.49603
G1 X94.497 Y104.880 E5.54619
G1 X94.741 Y104.571 E5.56426
G1 X95.547 Y105.377 E5.61655
G1 X95.823 Y105.100 E5.63449
G1 X94.959 Y104.236 E5.69055
G1 X95.178 Y103.902 E5.70889
G1 X96.053 Y104.777 E5.76572
G1 X96.269 Y104.440 E5.78409
G1 X95.396 Y103.567 E5.84077
G1 X95.557 Y103.175 E5.86022
G1 X96.485 Y104.103 E5.92048
G1 X96.651 Y103.716 E5.93981
G1 X95.691 Y102.756 E6.00213
G1 X95.825 Y102.337 E6.02232
G1 X96.810 Y103.322 E6.08627
G1 X96.969 Y102.928 E6.10576
G1 X95.959 Y101.918 E6.17135
G1 X96.019 Y101.425 E6.19412
G1 X97.072 Y102.478 E6.26242
G1 X97.170 Y102.023 E6.28375
G1 X96.065 Y100.918 E6.35549
G1 X96.111 Y100.411 E6.37886
G1 X97.265 Y101.565 E6.45375
G1 X97.299 Y101.046 E6.47761
G1 X96.141 Y99.888 E6.55275
G1 X96.089 Y99.283 E6.58061
G1 X97.333 Y100.527 E6.66135
G1 X97.347 Y99.988 E6.68607
G1 X96.037 Y98.678 E6.77111
G1 X95.985 Y98.073 E6.79897
G1 X97.308 Y99.396 E6.88481
G1 X97.268 Y98.803 E6.91207
G1 X95.746 Y97.281 E7.01082
G1 X95.500 Y96.482 E7.04919
G1 X97.134 Y98.116 E7.15521
G1 X96.979 Y97.408 E7.18848
G1 X94.608 Y95.037 E7.34235
G1 X94.751 Y95.179 F7800.000
G1 X92.517 Y92.946 E7.48730 F540.000
G1 X91.791 Y92.773 F7800.000
G1 X92.962 Y93.944 E7.56328 F540.000
G1 X93.404 Y93.279 F7800.000
G1 X96.613 Y96.489 E7.77154 F540.000
G1 X95.633 Y94.956 F7800.000
G1 X94.793 Y94.116 E7.82605 F540.000
G1 X92.046 Y93.581 F7800.000
G1 X91.151 Y92.685 E7.88415 F540.000
G1 X90.555 Y92.643 E7.91156
G1 X91.424 Y93.512 E7.96796
G1 X90.802 Y93.443 E7.99668
G1 X89.982 Y92.623 E8.04985
G1 X89.466 Y92.660 E8.07362
G1 X90.204 Y93.398 E8.12151
G1 X89.709 Y93.456 E8.14437
G1 X88.949 Y92.696 E8.19367
G1 X88.470 Y92.770 E8.21591
G1 X89.214 Y93.514 E8.26416
G1 X88.719 Y93.572 E8.28703
G1 X88.022 Y92.875 E8.33225
G1 X87.574 Y92.980 E8.35337
G1 X88.298 Y93.704 E8.40035
G1 X87.908 Y93.867 E8.41975
G1 X87.172 Y93.131 E8.46753
G1 X86.787 Y93.299 E8.48680
G1 X87.518 Y94.030 E8.53426
G1 X87.128 Y94.193 E8.55365
G1 X86.402 Y93.467 E8.60078
G1 X86.065 Y93.683 E8.61915
G1 X86.820 Y94.438 E8.66816
G1 X86.522 Y94.693 E8.68616
G1 X85.739 Y93.910 E8.73701
G1 X85.420 Y94.144 E8.75516
G1 X86.224 Y94.948 E8.80732
G1 X85.926 Y95.203 E8.82532
G1 X85.144 Y94.421 E8.87608
G1 X84.867 Y94.697 E8.89403
G1 X85.695 Y95.525 E8.94775
G1 X85.479 Y95.862 E8.96611
G1 X84.598 Y94.981 E9.02328
G1 X84.381 Y95.317 E9.04164
G1 X85.263 Y96.199 E9.09884
G1 X85.046 Y96.535 E9.11720
G1 X84.168 Y95.658 E9.17416
G1 X83.956 Y95.998 E9.19257
G1 X84.890 Y96.932 E9.25321
G1 X84.757 Y97.352 E9.27341
G1 X83.796 Y96.391 E9.33578
G1 X83.639 Y96.787 E9.35534
G1 X84.623 Y97.771 E9.41920
G1 X84.489 Y98.191 E9.43939
G1 X83.483 Y97.184 E9.50473
G1 X83.382 Y97.636 E9.52600
G1 X84.428 Y98.683 E9.59390
G1 X84.383 Y99.190 E9.61726
G1 X83.285 Y98.092 E9.68851
G1 X83.191 Y98.551 E9.71000
G1 X84.337 Y99.697 E9.78438
G1 X84.302 Y100.215 E9.80822
G1 X83.157 Y99.070 E9.88255
G1 X83.123 Y99.589 E9.90643
G1 X84.356 Y100.823 E9.98647
G1 X84.411 Y101.430 E10.01445
G1 X83.113 Y100.133 E10.09864
G1 X83.174 Y100.746 E10.12693
G1 X84.466 Y102.039 E10.21079
G1 X84.726 Y102.851 E10.24993
G1 X83.234 Y101.360 E10.34670
G1 X83.295 Y101.973 E10.37499
G1 X84.995 Y103.673 E10.48530
G1 X84.883 Y105.220 F7800.000
G1 X85.237 Y105.574 E10.50828 F540.000
G92 E0
G1 X96.904 Y104.228 F7800.000
G1 X100.689 Y105.757 F7800.000
G1 X103.149 Y107.648 F7800.000
G1 X105.341 Y107.648 F7800.000
G1 X105.566 Y101.306 F7800.000
G1 X105.566 Y92.577 E0.39500 F378.000
G1 X117.130 Y92.577 E0.91826
G1 X117.130 Y93.819 E0.97446
G1 X107.187 Y93.819 E1.42437 F378.000
G1 X107.187 Y99.611 E1.68646
G1 X116.036 Y99.611 E2.08687
G1 X116.036 Y100.831 E2.14207
G1 X107.187 Y100.831 E2.54248
G1 X107.187 Y106.181 E2.78457
G1 X116.686 Y106.181 E3.21439
G1 X116.686 Y107.423 E3.27059
G1 X105.566 Y107.423 E3.77376
G1 X105.566 Y101.537 E4.04008
G1 X105.792 Y99.355 F7800.000
G1 X107.042 Y100.605 E4.12014 F540.000
G1 X106.961 Y101.069 E4.14148
G1 X105.792 Y99.900 E4.21633
G1 X105.792 Y100.446 E4.24103
G1 X106.961 Y101.615 E4.31588
G1 X106.961 Y102.161 E4.34059
G1 X105.792 Y100.992 E4.41544
G1 X105.792 Y101.537 E4.44014
G1 X106.961 Y102.706 E4.51499
G1 X106.961 Y103.252 E4.53969
G1 X105.792 Y102.083 E4.61454
G1 X105.792 Y102.628 E4.63925
G1 X106.961 Y103.798 E4.71410
G1 X106.961 Y104.343 E4.73880
G1 X105.792 Y103.174 E4.81365
G1 X105.792 Y103.720 E4.83835
G1 X106.961 Y104.889 E4.91320
G1 X106.961 Y105.434 E4.93791
G1 X105.792 Y104.265 E5.01276
G1 X105.792 Y104.811 E5.03746
G1 X106.961 Y105.980 E5.11231
G1 X106.842 Y106.407 E5.13237
G1 X107.632 Y107.197 E5.18296
G1 X107.087 Y107.197 E5.20766
G1 X105.792 Y105.902 E5.29056
G1 X105.792 Y105.357 E5.31526
G1 X106.961 Y106.526 E5.39011
G1 X107.388 Y106.407 E5.41018
G1 X108.178 Y107.197 E5.46076
G1 X108.724 Y107.197 E5.48546
G1 X107.934 Y106.407 E5.53605
G1 X108.479 Y106.407 E5.56075
G1 X109.269 Y107.197 E5.61134
G1 X109.815 Y107.197 E5.63604
G1 X109.025 Y106.407 E5.68662
G1 X109.570 Y106.407 E5.71133
G1 X110.361 Y107.197 E5.76191
G1 X110.906 Y107.197 E5.78661
G1 X110.116 Y106.407 E5.83720
G1 X110.662 Y106.407 E5.86190
G1 X111.452 Y107.197 E5.91249
G1 X111.997 Y107.197 E5.93719
G1 X111.207 Y106.407 E5.98778
G1 X111.753 Y106.407 E6.01248
G1 X112.543 Y107.197 E6.06306
G1 X113.089 Y107.197 E6.08777
G1 X112.299 Y106.407 E6.13835
G1 X112.844 Y106.407 E6.16305
G1 X113.634 Y107.197 E6.21364
G1 X114.180 Y107.197 E6.23834
G1 X113.390 Y106.407 E6.28893
G1 X113.935 Y106.407 E6.31363
G1 X114.726 Y107.197 E6.36422
G1 X115.271 Y107.197 E6.38892
G1 X114.481 Y106.407 E6.43950
G1 X115.027 Y106.407 E6.46421
G1 X115.817 Y107.197 E6.51479
G1 X115.572 Y106.407 F7800.000
G1 X116.362 Y107.197 E6.56538 F540.000
G1 X116.460 Y106.749 E6.58614
G1 X116.118 Y106.407 E6.60803
G92 E0
G1 X106.412 Y106.648 F7800.000
G1 X106.412 Y106.648 F7800.000
G1 X115.810 Y100.097 F7800.000
G1 X115.550 Y99.837 E0.01665 F540.000
G1 X115.004 Y99.837 E0.04135
G1 X115.772 Y100.605 E0.09053
G1 X115.227 Y100.605 E0.11523
G1 X114.459 Y99.837 E0.16441
G1 X113.913 Y99.837 E0.18911
G1 X114.681 Y100.605 E0.23829
G1 X114.136 Y100.605 E0.26299
G1 X113.367 Y99.837 E0.31217
G1 X112.822 Y99.837 E0.33687
G1 X113.590 Y100.605 E0.38605
G1 X113.044 Y100.605 E0.41075
G1 X112.276 Y99.837 E0.45993
G1 X111.731 Y99.837 E0.48463
G1 X112.499 Y100.605 E0.53381
G1 X111.953 Y100.605 E0.55851
G1 X111.185 Y99.837 E0.60769
G1 X110.639 Y99.837 E0.63239
G1 X111.407 Y100.605 E0.68157
G1 X110.862 Y100.605 E0.70627
G1 X110.094 Y99.837 E0.75544
G1 X109.548 Y99.837 E0.78015
G1 X110.316 Y100.605 E0.82932
G1 X109.770 Y100.605 E0.85403
G1 X109.002 Y99.837 E0.90320
G1 X108.457 Y99.837 E0.92791
G1 X109.225 Y100.605 E0.97708
G1 X108.679 Y100.605 E1.00178
G1 X107.911 Y99.837 E1.05096
G1 X107.365 Y99.837 E1.07566
G1 X108.134 Y100.605 E1.12484
G1 X107.588 Y100.605 E1.14954
G1 X105.792 Y98.809 E1.26454
G1 X105.792 Y98.263 E1.28924
G1 X106.961 Y99.432 E1.36409
G1 X106.961 Y98.887 E1.38879
G1 X105.792 Y97.718 E1.46364
G1 X105.792 Y97.172 E1.48834
G1 X106.961 Y98.341 E1.56320
G1 X106.961 Y97.796 E1.58790
G1 X105.792 Y96.626 E1.66275
G1 X105.792 Y96.081 E1.68745
G1 X106.961 Y97.250 E1.76230
G1 X106.961 Y96.704 E1.78700
G1 X105.792 Y95.535 E1.86186
G1 X105.792 Y94.990 E1.88656
G1 X106.961 Y96.159 E1.96141
G1 X106.961 Y95.613 E1.98611
G1 X105.792 Y94.444 E2.06096
G1 X105.792 Y93.898 E2.08566
G1 X106.961 Y95.067 E2.16052
G1 X106.961 Y94.522 E2.18522
G1 X105.792 Y93.353 E2.26007
G1 X105.810 Y92.825 E2.28397
G1 X106.961 Y93.976 E2.35768
G1 X107.123 Y93.593 F7800.000
G1 X106.333 Y92.803 E2.40826 F540.000
G1 X106.879 Y92.803 E2.43296
G1 X107.669 Y93.593 E2.48355
G1 X108.215 Y93.593 E2.50825
G1 X107.425 Y92.803 E2.55884
G1 X107.970 Y92.803 E2.58354
G1 X108.760 Y93.593 E2.63412
G1 X109.306 Y93.593 E2.65882
G1 X108.516 Y92.803 E2.70941
G1 X109.062 Y92.803 E2.73411
G1 X109.852 Y93.593 E2.78470
G1 X110.397 Y93.593 E2.80940
G1 X109.607 Y92.803 E2.85998
G1 X110.153 Y92.803 E2.88469
G1 X110.943 Y93.593 E2.93527
G1 X111.489 Y93.593 E2.95997
G1 X110.698 Y92.803 E3.01056
G1 X111.244 Y92.803 E3.03526
G1 X112.034 Y93.593 E3.08585
G1 X112.580 Y93.593 E3.11055
G1 X111.790 Y92.803 E3.16113
G1 X112.335 Y92.803 E3.18584
G1 X113.125 Y93.593 E3.23642
G1 X113.671 Y93.593 E3.26112
G1 X112.881 Y92.803 E3.31171
G1 X113.427 Y92.803 E3.33641
G1 X114.217 Y93.593 E3.38700
G1 X114.762 Y93.593 E3.41170
G1 X113.972 Y92.803 E3.46228
G1 X114.518 Y92.803 E3.48699
G1 X115.308 Y93.593 E3.53757
G1 X115.854 Y93.593 E3.56227
G1 X115.064 Y92.803 E3.61286
G1 X115.609 Y92.803 E3.63756
G1 X116.399 Y93.593 E3.68815
G1 X116.904 Y93.552 E3.71107
G1 X116.155 Y92.803 E3.75904
G1 X116.700 Y92.803 E3.78375
G1 X116.904 Y93.007 E3.79678
G1 X106.412 Y93.352 F7800.000
G1 X106.412 Y93.352 F7800.000
G1 X106.376 Y93.387 F7800.000
G1 X106.341 Y93.352 F7800.000
G1 X105.792 Y106.448 F7800.000
G1 X106.541 Y107.197 E3.84475 F540.000
G1 X105.995 Y107.197 E3.86945
G1 X105.792 Y106.993 E3.88249
M106 S255
G92 E0
G1 Z0.600 F7800.000
G1 X83.699 Y100.047 F7800.000
G1 X83.804 Y98.678 E0.41153 F600.000
G1 X83.923 Y97.973 E0.62586
G1 X84.065 Y97.439 E0.79152
G1 X84.466 Y96.327 E1.14548
G1 X85.055 Y95.391 E1.47685
G1 X85.370 Y94.989 E1.62985
G1 X85.562 Y94.779 E1.71524
G1 X85.754 Y94.596 E1.79480
G1 X86.613 Y93.933 E2.11989
G1 X86.939 Y93.754 E2.23139
G1 X87.653 Y93.449 E2.46387
G1 X88.299 Y93.240 E2.66728
G1 X88.850 Y93.127 E2.83582
G1 X90.216 Y93.002 E3.24709
G1 X91.571 Y93.123 E3.65472
G1 X92.158 Y93.240 E3.83388
G1 X92.767 Y93.433 E4.02549
G1 X93.524 Y93.752 E4.27154
G1 X93.820 Y93.910 E4.37210
G1 X94.697 Y94.580 E4.70268
G1 X94.879 Y94.750 E4.77748
G1 X95.072 Y94.962 E4.86331
G1 X95.408 Y95.390 E5.02625
G1 X95.999 Y96.338 E5.36128
G1 X96.396 Y97.453 E5.71595
G1 X96.566 Y98.145 E5.92930
G1 X96.649 Y98.688 E6.09399
G1 X96.752 Y100.065 E6.50780
G1 X96.646 Y101.445 E6.92234
G1 X96.527 Y102.140 E7.13363
G1 X96.386 Y102.667 E7.29724
G1 X95.988 Y103.754 E7.64415
G1 X95.402 Y104.668 E7.96933
G1 X95.088 Y105.061 E8.12006
G1 X94.890 Y105.273 E8.20700
G1 X94.703 Y105.446 E8.28338
G1 X93.839 Y106.094 E8.60708
G1 X93.523 Y106.261 E8.71417
G1 X92.793 Y106.563 E8.95087
G1 X92.163 Y106.761 E9.14866
G1 X91.597 Y106.873 E9.32170
G1 X90.253 Y106.992 E9.72603
G1 X88.529 Y106.812 E10.24541
G1 X88.305 Y106.773 E10.31348
G1 X86.943 Y106.264 E10.74921
G1 X86.615 Y106.101 E10.85884
G1 X85.578 Y105.287 E11.25389
G1 X85.362 Y105.088 E11.34189
G1 X84.452 Y103.753 E11.82619
G1 X83.916 Y102.162 E12.32904
G1 X83.874 Y101.938 E12.39748
G1 X83.699 Y100.047 E12.96634
G92 E0
G1 X97.402 Y97.143 F7800.000
G1 X101.007 Y94.494 F7800.000
G1 X103.149 Y92.352 F7800.000
G1 X117.355 Y91.256 F7800.000
G1 X117.355 Y96.044 F7800.000
G1 X116.261 Y96.715 F7800.000
G1 X110.083 Y96.715 F7800.000
G1 X107.412 Y94.044 F7800.000
G1 X117.355 Y93.198 F7800.000
G1 X107.412 Y93.198 E2.97938 F600.000
G1 X106.457 Y93.468 E3.27683
G1 X106.376 Y94.044 E3.45118
G1 X106.376 Y99.386 E5.05189
G1 X107.247 Y103.706 E6.37226
G1 X106.412 Y106.648 F7800.000
G1 X106.412 Y106.648 F7800.000
G1 X116.911 Y106.802 F7800.000
G1 X107.412 Y106.802 E9.21860 F600.000
G1 X106.457 Y106.532 E9.51604
G1 X106.376 Y105.956 E9.69039
G1 X106.376 Y101.056 E11.15866
G1 X106.545 Y100.221 E11.41390
G1 X116.261 Y100.221 E14.32531
G92 E0
G1 Z0.900 F7800.000
G1 X83.699 Y100.047 F7800.000
G1 X83.804 Y98.678 E0.41153 F600.000
G1 X83.923 Y97.973 E0.62586
G1 X84.065 Y97.439 E0.79152
G1 X84.466 Y96.327 E1.14548
G1 X85.055 Y95.391 E1.47684
G1 X85.370 Y94.989 E1.62985
G1 X85.562 Y94.779 E1.71524
G1 X85.754 Y94.596 E1.79480
G1 X86.613 Y93.933 E2.11989
G1 X86.939 Y93.754 E2.23139
G1 X87.653 Y93.449 E2.46387
G1 X88.299 Y93.240 E2.66728
G1 X88.850 Y93.127 E2.83582
G1 X90.216 Y93.002 E3.24709
G1 X91.571 Y93.123 E3.65472
G1 X92.158 Y93.240 E3.83388
G1 X92.767 Y93.433 E4.02549
G1 X93.524 Y93.752 E4.27154
G1 X93.820 Y93.910 E4.37210
G1 X94.697 Y94.580 E4.70268
G1 X94.879 Y94.750 E4.77748
G1 X95.072 Y94.962 E4.86331
G1 X95.408 Y95.390 E5.02625
G1 X95.999 Y96.338 E5.36128
G1 X96.396 Y97.453 E5.71595
G1 X96.566 Y98.145 E5.92930
G1 X96.649 Y98.688 E6.09399
G1 X96.752 Y100.065 E6.50780
G1 X96.646 Y101.445 E6.92234
G1 X96.527 Y102.140 E7.13363
G1 X96.386 Y102.667 E7.29724
G1 X95.988 Y103.754 E7.64415
G1 X95.402 Y104.668 E7.96933
G1 X95.088 Y105.061 E8.12006
G1 X94.890 Y105.273 E8.20700
G1 X94.703 Y105.446 E8.28338
G1 X93.839 Y106.094 E8.60708
G1 X93.523 Y106.261 E8.71417
G1 X92.793 Y106.563 E8.95087
G1 X92.163 Y106.761 E9.14866
G1 X91.597 Y106.873 E9.32170
G1 X90.253 Y106.992 E9.72603
G1 X88.529 Y106.812 E10.24541
G1 X88.305 Y106.773 E10.31348
G1 X86.943 Y106.264 E10.74921
G1 X86.615 Y106.101 E10.85884
G1 X85.578 Y105.287 E11.25389
G1 X85.362 Y105.088 E11.34189
G1 X84.452 Y103.753 E11.82619
G1 X83.916 Y102.162 E12.32904
