; generated by Slic3r 1.2.9 on 2016-03-11 at 01:28:13

; external perimeters extrusion width = 1.54mm
; perimeters extrusion width = 2.62mm
; infill extrusion width = 6.27mm
; solid infill extrusion width = 2.62mm
; top infill extrusion width = 2.62mm

M107
M104 S30 ; set temperature
G28 ; home all axes
G1 Z5 F5000 ; lift nozzle
M302
M92 E10000
M500
M501
G1 E100
M109 S30 ; wait for temperature to be reached
G21 ; set units to millimeters
G90 ; use absolute coordinates
M82 ; use absolute distances for extrusion
G92 E0
G1 Z0.300 F7800.000
G1 X95.924 Y103.841 F7800.000
G1 X95.809 Y104.124 E0.01382 F378.000
G1 X95.139 Y105.169 E0.07000
G1 X94.298 Y106.032 E0.12452
G1 X93.282 Y106.716 E0.17993
G1 X92.110 Y107.214 E0.23758
G1 X90.797 Y107.514 E0.29848
G1 X89.348 Y107.614 E0.36423
G1 X87.184 Y107.390 E0.46267
G1 X85.380 Y106.725 E0.54968
G1 X83.921 Y105.621 E0.63246
G1 X82.845 Y104.124 E0.71588
G1 X82.195 Y102.275 E0.80455
G1 X81.977 Y100.061 E0.90523
G1 X82.074 Y98.562 E0.97321
G1 X82.367 Y97.196 E1.03644
G1 X82.853 Y95.965 E1.09632
G1 X83.520 Y94.896 E1.15335
G1 X84.358 Y94.011 E1.20847
G1 X85.370 Y93.308 E1.26423
G1 X86.542 Y92.797 E1.32209
G1 X87.859 Y92.489 E1.38328
G1 X89.323 Y92.386 E1.44968
G1 X90.681 Y92.483 E1.51131
G1 X90.775 Y92.490 E1.51555 F378.000
G1 X92.086 Y92.802 E1.57652
G1 X93.258 Y93.319 E1.63451
G1 X94.276 Y94.028 E1.69063
G1 X95.122 Y94.915 E1.74608
G1 X95.798 Y95.983 E1.80330
G1 X96.293 Y97.209 E1.86313
G1 X96.591 Y98.570 E1.92613
G1 X96.691 Y100.065 E1.99396
G1 X96.592 Y101.563 E2.06189
G1 X96.298 Y102.916 E2.12453
G1 X96.010 Y103.627 E2.15924
G1 X94.461 Y103.132 F7800.000
G1 X94.373 Y103.408 E2.17237 F378.000
G1 X93.545 Y104.678 E2.24097
G1 X92.410 Y105.623 E2.30779
G1 X91.006 Y106.188 E2.37629
G1 X89.345 Y106.374 E2.45189
G1 X87.673 Y106.191 E2.52804
G1 X86.259 Y105.634 E2.59678
G1 X85.118 Y104.701 E2.66346
G1 X84.287 Y103.438 E2.73190
G1 X83.792 Y101.890 E2.80542
G1 X83.629 Y100.065 E2.88834
G1 X83.794 Y98.242 E2.97115
G1 X84.293 Y96.676 E3.04554
G1 X85.132 Y95.372 E3.11570
G1 X86.274 Y94.394 E3.18376
G1 X87.676 Y93.808 E3.25250
G1 X89.178 Y93.632 E3.32091
G1 X89.322 Y93.615 E3.32750 F378.000
G1 X91.006 Y93.801 E3.40416
G1 X92.422 Y94.368 E3.47317
G1 X93.557 Y95.317 E3.54011
G1 X94.379 Y96.605 E3.60926
G1 X94.867 Y98.190 E3.68429
G1 X95.028 Y100.065 E3.76947
G1 X94.865 Y101.868 E3.85138
G1 X94.532 Y102.912 E3.90094
G1 X95.719 Y96.489 F7800.000
G1 X92.510 Y93.279 E4.10920 F540.000
G1 X92.068 Y93.944 F7800.000
G1 X90.897 Y92.773 E4.18518 F540.000
G1 X91.623 Y92.946 F7800.000
G1 X93.857 Y95.179 E4.33013 F540.000
G1 X93.714 Y95.037 F7800.000
G1 X96.085 Y97.408 E4.48400 F540.000
G1 X96.240 Y98.116 E4.51727
G1 X94.606 Y96.482 E4.62330
G1 X94.852 Y97.281 E4.66166
G1 X96.374 Y98.803 E4.76042
G1 X96.414 Y99.396 E4.78767
G1 X95.091 Y98.073 E4.87351
G1 X95.143 Y98.678 E4.90137
G1 X96.453 Y99.988 E4.98641
G1 X96.439 Y100.527 E5.01114
G1 X95.195 Y99.283 E5.09187
G1 X95.247 Y99.888 E5.11973
G1 X96.405 Y101.046 E5.19488
G1 X96.371 Y101.565 E5.21874
G1 X95.217 Y100.411 E5.29362
G1 X95.171 Y100.918 E5.31699
G1 X96.276 Y102.023 E5.38874
G1 X96.178 Y102.478 E5.41006
G1 X95.125 Y101.425 E5.47836
G1 X95.065 Y101.918 E5.50113
G1 X96.075 Y102.928 E5.56672
G1 X95.916 Y103.322 E5.58621
G1 X94.931 Y102.337 E5.65017
G1 X94.797 Y102.756 E5.67035
G1 X95.757 Y103.716 E5.73268
G1 X95.591 Y104.103 E5.75201
G1 X94.663 Y103.175 E5.81227
G1 X94.502 Y103.567 E5.83171
G1 X95.375 Y104.440 E5.88840
G1 X95.159 Y104.777 E5.90677
G1 X94.284 Y103.902 E5.96359
G1 X94.065 Y104.236 E5.98193
G1 X94.929 Y105.100 E6.03799
G1 X94.653 Y105.377 E6.05594
G1 X93.847 Y104.571 E6.10822
G1 X93.603 Y104.880 E6.12629
G1 X94.376 Y105.653 E6.17646
G1 X94.100 Y105.930 E6.19440
G1 X93.301 Y105.132 E6.24620
G1 X93.000 Y105.383 E6.26422
G1 X93.770 Y106.153 E6.31423
G1 X93.440 Y106.376 E6.33251
G1 X92.698 Y105.634 E6.38065
G1 X92.368 Y105.857 E6.39893
G1 X93.091 Y106.580 E6.44583
G1 X92.702 Y106.745 E6.46518
G1 X91.974 Y106.016 E6.51248
G1 X91.579 Y106.174 E6.53199
G1 X92.314 Y106.909 E6.57968
G1 X91.899 Y107.047 E6.59976
G1 X91.185 Y106.333 E6.64609
G1 X90.736 Y106.437 E6.66724
G1 X91.449 Y107.150 E6.71350
G1 X90.999 Y107.253 E6.73468
G1 X90.239 Y106.493 E6.78400
G1 X89.741 Y106.549 E6.80696
G1 X90.506 Y107.313 E6.85656
G1 X89.989 Y107.349 E6.88035
G1 X89.239 Y106.600 E6.92898
G1 X88.618 Y106.531 E6.95766
G1 X89.471 Y107.385 E7.01303
G1 X88.861 Y107.328 E7.04114
G1 X87.997 Y106.463 E7.09725
G1 X87.309 Y106.329 E7.12938
G1 X88.245 Y107.264 E7.19007
G1 X87.628 Y107.200 E7.21852
G1 X86.397 Y105.969 E7.29840
G1 X85.998 Y106.676 F7800.000
G1 X82.940 Y103.619 E7.49683 F540.000
G1 X82.641 Y102.766 F7800.000
G1 X86.874 Y106.999 E7.77154 F540.000
G1 X84.343 Y105.574 F7800.000
G1 X83.989 Y105.220 E7.79452 F540.000
G1 X84.101 Y103.673 F7800.000
G1 X82.401 Y101.973 E7.90483 F540.000
G1 X82.340 Y101.360 E7.93312
G1 X83.832 Y102.851 E8.02990
G1 X83.572 Y102.039 E8.06903
G1 X82.280 Y100.746 E8.15290
G1 X82.219 Y100.133 E8.18119
G1 X83.517 Y101.430 E8.26537
G1 X83.462 Y100.823 E8.29335
G1 X82.229 Y99.589 E8.37340
G1 X82.263 Y99.070 E8.39727
G1 X83.408 Y100.215 E8.47160
G1 X83.443 Y99.697 E8.49545
G1 X82.297 Y98.551 E8.56982
G1 X82.391 Y98.092 E8.59132
G1 X83.489 Y99.190 E8.66256
G1 X83.534 Y98.683 E8.68593
G1 X82.488 Y97.636 E8.75382
G1 X82.589 Y97.184 E8.77509
G1 X83.595 Y98.191 E8.84043
G1 X83.729 Y97.771 E8.86063
G1 X82.745 Y96.787 E8.92448
G1 X82.902 Y96.391 E8.94404
G1 X83.863 Y97.352 E9.00642
G1 X83.996 Y96.932 E9.02661
G1 X83.062 Y95.998 E9.08725
G1 X83.274 Y95.658 E9.10567
G1 X84.152 Y96.535 E9.16262
G1 X84.369 Y96.199 E9.18098
G1 X83.487 Y95.317 E9.23819
G1 X83.704 Y94.981 E9.25654
G1 X84.585 Y95.862 E9.31371
G1 X84.801 Y95.525 E9.33207
G1 X83.973 Y94.697 E9.38580
G1 X84.250 Y94.421 E9.40374
G1 X85.032 Y95.203 E9.45451
G1 X85.330 Y94.948 E9.47251
G1 X84.526 Y94.144 E9.52467
G1 X84.845 Y93.910 E9.54282
G1 X85.628 Y94.693 E9.59366
G1 X85.926 Y94.438 E9.61166
G1 X85.171 Y93.683 E9.66068
G1 X85.508 Y93.467 E9.67904
G1 X86.234 Y94.193 E9.72617
G1 X86.624 Y94.030 E9.74557
G1 X85.893 Y93.299 E9.79302
G1 X86.278 Y93.131 E9.81230
G1 X87.014 Y93.867 E9.86008
G1 X87.404 Y93.704 E9.87947
G1 X86.680 Y92.980 E9.92646
G1 X87.128 Y92.875 E9.94758
G1 X87.825 Y93.572 E9.99280
G1 X88.320 Y93.514 E10.01566
G1 X87.576 Y92.770 E10.06392
G1 X88.055 Y92.696 E10.08615
G1 X88.815 Y93.456 E10.13545
G1 X89.310 Y93.398 E10.15832
G1 X88.572 Y92.660 E10.20621
G1 X89.088 Y92.623 E10.22997
G1 X89.908 Y93.443 E10.28315
G1 X90.530 Y93.512 E10.31187
G1 X89.661 Y92.643 E10.36827
G1 X90.257 Y92.685 E10.39568
G1 X91.152 Y93.581 E10.45378
G1 X93.899 Y94.116 F7800.000
G1 X94.739 Y94.956 E10.50828 F540.000
G92 E0
G1 X96.814 Y98.538 F7800.000
G1 X100.335 Y103.814 F7800.000
G1 X108.730 Y108.693 F7800.000
G1 X118.537 Y106.541 F7800.000
G1 X118.428 Y102.515 F7800.000
G1 X113.008 Y102.886 F7800.000
G1 X111.967 Y103.067 F7800.000
G1 X111.773 Y103.073 F7800.000
G1 X111.773 Y100.032 F7800.000
G1 X117.656 Y99.807 F7800.000
G1 X111.998 Y99.807 E0.25604 F378.000
G1 X111.998 Y98.522 E0.31418
G1 X116.566 Y98.522 E0.52088
G1 X116.566 Y95.430 E0.66081
G1 X115.880 Y94.866 E0.70098
G1 X115.152 Y94.436 E0.73923
G1 X114.316 Y94.084 E0.78029
G1 X113.404 Y93.824 E0.82321
G1 X112.448 Y93.668 E0.86705
G1 X111.441 Y93.615 E0.91266
G1 X109.768 Y93.806 E0.98884
G1 X108.337 Y94.387 E1.05874
G1 X107.167 Y95.358 E1.12754
G1 X106.306 Y96.660 E1.19814
G1 X105.793 Y98.231 E1.27293
G1 X105.624 Y100.064 E1.35625
G1 X105.783 Y101.895 E1.43938
G1 X106.266 Y103.443 E1.51278
G1 X107.079 Y104.705 E1.58070
G1 X108.205 Y105.636 E1.64681
G1 X109.615 Y106.191 E1.71540
G1 X111.291 Y106.374 E1.79165
G1 X112.399 Y106.306 E1.84189
G1 X113.383 Y106.102 E1.88736
G1 X114.248 Y105.758 E1.92948
G1 X114.997 Y105.261 E1.97016
G1 X115.629 Y104.600 E2.01153
G1 X116.039 Y103.944 E2.04654
G1 X117.576 Y104.397 E2.11904
G1 X117.077 Y105.266 E2.16435
G1 X116.297 Y106.137 E2.21730
G1 X115.364 Y106.789 E2.26880
G1 X114.245 Y107.245 E2.32349
G1 X112.907 Y107.522 E2.38530
G1 X111.355 Y107.614 E2.45566
G1 X109.172 Y107.393 E2.55493
G1 X107.360 Y106.736 E2.64213
G1 X105.904 Y105.648 E2.72439
G1 X104.835 Y104.161 E2.80727
G1 X104.189 Y102.303 E2.89626
G1 X103.972 Y100.062 E2.99816
G1 X104.071 Y98.552 E3.06662
G1 X104.369 Y97.183 E3.13001
G1 X104.863 Y95.956 E3.18984
G1 X105.542 Y94.893 E3.24693
G1 X106.394 Y94.012 E3.30241
G1 X107.423 Y93.309 E3.35878
G1 X108.615 Y92.797 E3.41749
G1 X109.956 Y92.489 E3.47975
G1 X111.449 Y92.385 E3.54749
G1 X112.663 Y92.454 E3.60249
G1 X114.011 Y92.681 E3.66433 F378.000
G1 X115.190 Y93.048 E3.72022
G1 X116.277 Y93.550 E3.77439
G1 X117.242 Y94.172 E3.82635
G1 X118.024 Y94.857 E3.87338
G1 X118.024 Y99.807 E4.09737
G1 X117.887 Y99.807 E4.10355
G1 X117.798 Y95.656 F7800.000
G1 X115.738 Y93.597 E4.23628 F540.000
G1 X115.223 Y94.180 F7800.000
G1 X113.981 Y92.937 E4.31631 F540.000
G1 X113.299 Y92.805 E4.34795
G1 X114.317 Y93.823 E4.41357
G1 X114.779 Y93.186 F7800.000
G1 X117.798 Y96.206 E4.60812 F540.000
G1 X117.798 Y96.755 E4.63314
G1 X116.792 Y95.749 E4.69797
G1 X116.792 Y96.298 E4.72299
G1 X117.798 Y97.304 E4.78781
G1 X117.798 Y97.853 E4.81283
G1 X116.792 Y96.847 E4.87766
G1 X116.792 Y97.396 E4.90268
G1 X117.798 Y98.402 E4.96751
G1 X117.798 Y98.951 E4.99252
G1 X116.792 Y97.945 E5.05735
G1 X116.792 Y98.494 E5.08237
G1 X117.798 Y99.500 E5.14720
G1 X117.330 Y99.581 E5.16886
G1 X116.496 Y98.748 E5.22254
G1 X115.947 Y98.748 E5.24755
G1 X116.780 Y99.581 E5.30123
G1 X116.231 Y99.581 E5.32625
G1 X115.398 Y98.748 E5.37993
G1 X114.849 Y98.748 E5.40495
G1 X115.682 Y99.581 E5.45863
G1 X115.133 Y99.581 E5.48365
G1 X114.300 Y98.748 E5.53733
G1 X113.751 Y98.748 E5.56235
G1 X114.584 Y99.581 E5.61603
G1 X114.035 Y99.581 E5.64105
G1 X113.202 Y98.748 E5.69473
G1 X112.653 Y98.748 E5.71975
G1 X113.486 Y99.581 E5.77343
G1 X112.937 Y99.581 E5.79845
G1 X112.224 Y98.868 E5.84437
G92 E0
G1 X106.384 Y95.137 F7800.000
G1 X106.384 Y95.137 F7800.000
G1 X112.893 Y93.497 F7800.000
G1 X112.046 Y92.650 E0.05457 F540.000
G1 X111.464 Y92.617 E0.08112
G1 X112.275 Y93.428 E0.13336
G1 X111.696 Y93.398 E0.15978
G1 X110.939 Y92.642 E0.20851
G1 X110.426 Y92.677 E0.23196
G1 X111.176 Y93.427 E0.28026
G1 X110.683 Y93.483 E0.30286
G1 X109.913 Y92.714 E0.35244
G1 X109.467 Y92.817 E0.37331
G1 X110.190 Y93.540 E0.41990
G1 X109.713 Y93.612 E0.44188
G1 X109.020 Y92.919 E0.48649
G1 X108.582 Y93.030 E0.50711
G1 X109.322 Y93.770 E0.55483
G1 X108.932 Y93.929 E0.57403
G1 X108.198 Y93.195 E0.62134
G1 X107.813 Y93.359 E0.64039
G1 X108.541 Y94.087 E0.68729
G1 X108.176 Y94.271 E0.70593
G1 X107.438 Y93.534 E0.75344
G1 X107.112 Y93.756 E0.77144
G1 X107.875 Y94.520 E0.82064
G1 X107.575 Y94.769 E0.83841
G1 X106.786 Y93.979 E0.88929
G1 X106.482 Y94.224 E0.90708
G1 X107.275 Y95.018 E0.95821
G1 X106.986 Y95.278 E0.97592
G1 X106.207 Y94.499 E1.02613
G1 X105.933 Y94.774 E1.04382
G1 X106.768 Y95.609 E1.09763
G1 X106.549 Y95.939 E1.11569
G1 X105.668 Y95.058 E1.17250
G1 X105.454 Y95.393 E1.19061
G1 X106.331 Y96.270 E1.24712
G1 X106.112 Y96.600 E1.26517
G1 X105.240 Y95.728 E1.32138
G1 X105.034 Y96.071 E1.33962
G1 X105.975 Y97.013 E1.40030
G1 X105.840 Y97.427 E1.42014
G1 X104.876 Y96.463 E1.48228
G1 X104.718 Y96.854 E1.50150
G1 X105.705 Y97.841 E1.56510
G1 X105.571 Y98.256 E1.58497
G1 X104.569 Y97.254 E1.64956
G1 X104.471 Y97.705 E1.67059
G1 X105.525 Y98.759 E1.73851
G1 X105.478 Y99.261 E1.76152
G1 X104.373 Y98.156 E1.83277
G1 X104.288 Y98.620 E1.85427
G1 X105.432 Y99.764 E1.92799
G1 X105.410 Y100.291 E1.95201
G1 X104.254 Y99.135 E2.02647
G1 X104.220 Y99.650 E2.04999
G1 X105.462 Y100.892 E2.13001
G1 X105.514 Y101.494 E2.15751
G1 X104.220 Y100.200 E2.24088
G1 X104.279 Y100.808 E2.26871
G1 X105.586 Y102.114 E2.35289
G1 X105.834 Y102.912 E2.39096
G1 X104.338 Y101.416 E2.48736
G1 X104.397 Y102.024 E2.51520
G1 X106.133 Y103.760 E2.62703
G1 X104.932 Y103.657 F7800.000
G1 X107.950 Y106.675 E2.82144 F540.000
G1 X108.345 Y105.972 F7800.000
G1 X109.571 Y107.198 E2.90040 F540.000
G1 X110.182 Y107.260 E2.92838
G1 X109.251 Y106.329 E2.98834
G1 X109.934 Y106.463 E3.02004
G1 X110.793 Y107.322 E3.07538
G1 X111.404 Y107.383 E3.10337
G1 X110.550 Y106.530 E3.15837
G1 X111.167 Y106.597 E3.18662
G1 X111.928 Y107.358 E3.23569
G1 X112.446 Y107.328 E3.25934
G1 X111.690 Y106.571 E3.30809
G1 X112.207 Y106.539 E3.33172
G1 X112.962 Y107.295 E3.38039
G1 X113.418 Y107.201 E3.40156
G1 X112.680 Y106.463 E3.44906
G1 X113.135 Y106.369 E3.47023
G1 X113.873 Y107.106 E3.51775
G1 X114.315 Y106.999 E3.53847
G1 X113.563 Y106.248 E3.58691
G1 X113.956 Y106.091 E3.60618
G1 X114.705 Y106.840 E3.65445
G1 X115.095 Y106.681 E3.67364
G1 X114.342 Y105.929 E3.72213
G1 X114.672 Y105.710 E3.74018
G1 X115.453 Y106.490 E3.79048
G1 X115.776 Y106.265 E3.80845
G1 X115.002 Y105.490 E3.85833
G1 X115.291 Y105.230 E3.87604
G1 X116.096 Y106.036 E3.92792
G1 X116.371 Y105.761 E3.94561
G1 X115.560 Y104.950 E3.99789
G1 X115.820 Y104.661 E4.01560
G1 X116.633 Y105.474 E4.06797
G1 X116.892 Y105.184 E4.08569
G1 X116.032 Y104.323 E4.14115
G1 X116.643 Y104.385 E4.16912
G1 X117.096 Y104.839 E4.19836
G92 E0
G1 X116.333 Y104.936 F7800.000
G1 X116.333 Y104.936 F7800.000
G1 X108.811 Y106.987 F7800.000
G1 X104.640 Y102.816 E0.26878 F540.000
G1 X105.972 Y105.246 F7800.000
G1 X106.322 Y105.596 E0.29135 F540.000
G92 E0
G1 X104.846 Y100.062 F7800.000
G1 X105.001 Y98.064 F7800.000
G1 X105.581 Y96.313 F7800.000
G1 X106.177 Y95.395 F7800.000
G1 X106.384 Y95.137 F7800.000
G1 X113.549 Y93.604 F7800.000
G1 X112.639 Y92.694 E0.05867 F540.000
G1 X117.399 Y94.709 F7800.000
G1 X117.798 Y95.107 E0.08436 F540.000
M106 S255
G92 E0
G1 Z0.600 F7800.000
G1 X82.805 Y100.047 F7800.000
G1 X82.910 Y98.678 E0.41153 F600.000
G1 X83.029 Y97.973 E0.62586
G1 X83.171 Y97.439 E0.79152
G1 X83.572 Y96.327 E1.14548
G1 X84.161 Y95.391 E1.47685
G1 X84.476 Y94.989 E1.62985
G1 X84.668 Y94.779 E1.71524
G1 X84.860 Y94.596 E1.79480
G1 X85.719 Y93.933 E2.11989
G1 X86.045 Y93.754 E2.23139
G1 X86.759 Y93.449 E2.46387
G1 X87.405 Y93.240 E2.66728
G1 X87.956 Y93.127 E2.83582
G1 X89.322 Y93.002 E3.24709
G1 X90.677 Y93.123 E3.65472
G1 X91.264 Y93.240 E3.83388
G1 X91.873 Y93.433 E4.02549
G1 X92.630 Y93.752 E4.27154
G1 X92.926 Y93.910 E4.37210
G1 X93.803 Y94.580 E4.70268
G1 X93.985 Y94.750 E4.77748
G1 X94.178 Y94.962 E4.86331
G1 X94.514 Y95.390 E5.02625
G1 X95.105 Y96.338 E5.36128
G1 X95.502 Y97.453 E5.71595
G1 X95.672 Y98.145 E5.92930
G1 X95.755 Y98.688 E6.09399
G1 X95.858 Y100.065 E6.50780
G1 X95.752 Y101.445 E6.92234
G1 X95.633 Y102.140 E7.13363
G1 X95.492 Y102.667 E7.29724
G1 X95.094 Y103.754 E7.64415
G1 X94.508 Y104.668 E7.96933
G1 X94.194 Y105.061 E8.12006
G1 X93.996 Y105.273 E8.20700
G1 X93.809 Y105.446 E8.28338
G1 X92.945 Y106.094 E8.60708
G1 X92.629 Y106.261 E8.71417
G1 X91.899 Y106.563 E8.95087
G1 X91.269 Y106.761 E9.14866
G1 X90.703 Y106.873 E9.32170
G1 X89.359 Y106.992 E9.72603
G1 X87.635 Y106.812 E10.24541
G1 X87.411 Y106.773 E10.31348
G1 X86.049 Y106.264 E10.74921
G1 X85.721 Y106.101 E10.85884
G1 X84.684 Y105.287 E11.25389
G1 X84.468 Y105.088 E11.34189
G1 X83.558 Y103.753 E11.82619
G1 X83.022 Y102.162 E12.32904
G1 X82.980 Y101.938 E12.39748
G1 X82.805 Y100.047 E12.96634
G92 E0
G1 X96.815 Y101.595 F7800.000
G1 X101.776 Y106.321 F7800.000
G1 X106.742 Y108.343 F7800.000
G1 X109.009 Y108.724 F7800.000
G1 X111.249 Y108.837 F7800.000
G1 X111.350 Y107.840 F7800.000
G1 X117.034 Y104.003 F7800.000
G1 X116.164 Y105.144 E0.42996 F600.000
G1 X115.782 Y105.556 E0.59838
G1 X115.550 Y105.755 E0.68998
G1 X115.009 Y106.138 E0.88840
G1 X114.653 Y106.326 E1.00904
G1 X114.043 Y106.582 E1.20745
G1 X113.495 Y106.740 E1.37825
G1 X112.822 Y106.879 E1.58432
G1 X112.542 Y106.916 E1.66887
G1 X111.368 Y106.991 E2.02148
G1 X111.205 Y106.982 E2.07022
G1 X109.578 Y106.811 E2.56036
G1 X109.354 Y106.772 E2.62851
G1 X107.996 Y106.264 E3.06301
G1 X107.740 Y106.143 E3.14797
G1 X106.642 Y105.289 E3.56478
G1 X106.448 Y105.114 E3.64303
G1 X105.618 Y103.897 E4.08442
G1 X105.550 Y103.789 E4.12265
G1 X105.499 Y103.651 E4.16694
G1 X104.996 Y102.126 E4.64788
G1 X104.807 Y100.156 E5.24100
G1 X104.804 Y99.968 E5.29713
G1 X104.907 Y98.670 E5.68750
