; generated by Slic3r 1.2.9 on 2016-03-11 at 01:28:14

; external perimeters extrusion width = 1.54mm
; perimeters extrusion width = 2.62mm
; infill extrusion width = 6.27mm
; solid infill extrusion width = 2.62mm
; top infill extrusion width = 2.62mm

M107
M104 S30 ; set temperature
G28 ; home all axes
G1 Z5 F5000 ; lift nozzle
M302
M92 E10000
M500
M501
G1 E100
M109 S30 ; wait for temperature to be reached
G21 ; set units to millimeters
G90 ; use absolute coordinates
M82 ; use absolute distances for extrusion
G92 E0
G1 Z0.300 F7800.000
G1 X83.385 Y96.351 F7800.000
G1 X83.538 Y95.965 E0.01881 F378.000
G1 X84.205 Y94.896 E0.07584
G1 X85.043 Y94.011 E0.13097
G1 X86.055 Y93.308 E0.18672
G1 X87.227 Y92.797 E0.24458
G1 X88.544 Y92.489 E0.30578
G1 X90.008 Y92.386 E0.37218
G1 X91.366 Y92.483 E0.43381
G1 X91.460 Y92.490 E0.43804 F378.000
G1 X92.771 Y92.802 E0.49902
G1 X93.943 Y93.319 E0.55701
G1 X94.961 Y94.028 E0.61313
G1 X95.807 Y94.915 E0.66858
G1 X96.483 Y95.983 E0.72579
G1 X96.978 Y97.209 E0.78563
G1 X97.276 Y98.570 E0.84863
G1 X97.376 Y100.065 E0.91646
G1 X97.277 Y101.563 E0.98439
G1 X96.983 Y102.916 E1.04702
G1 X96.494 Y104.124 E1.10600
G1 X95.824 Y105.169 E1.16218
G1 X94.983 Y106.032 E1.21670
G1 X93.967 Y106.716 E1.27212
G1 X92.795 Y107.214 E1.32976
G1 X91.482 Y107.514 E1.39067
G1 X90.033 Y107.614 E1.45642
G1 X87.869 Y107.390 E1.55485
G1 X86.065 Y106.725 E1.64186
G1 X84.606 Y105.621 E1.72465
G1 X83.530 Y104.124 E1.80807
G1 X82.880 Y102.275 E1.89674
G1 X82.662 Y100.061 E1.99741
G1 X82.759 Y98.562 E2.06539
G1 X83.052 Y97.196 E2.12863
G1 X83.300 Y96.566 E2.15924
G1 X84.855 Y97.062 F7800.000
G1 X84.978 Y96.676 E2.17756 F378.000
G1 X85.817 Y95.372 E2.24772
G1 X86.959 Y94.394 E2.31578
G1 X88.361 Y93.808 E2.38452
G1 X89.863 Y93.632 E2.45293
G1 X90.007 Y93.615 E2.45952 F378.000
G1 X91.691 Y93.801 E2.53618
G1 X93.107 Y94.368 E2.60519
G1 X94.242 Y95.317 E2.67213
G1 X95.064 Y96.605 E2.74128
G1 X95.552 Y98.190 E2.81631
G1 X95.713 Y100.065 E2.90149
G1 X95.550 Y101.868 E2.98340
G1 X95.058 Y103.408 E3.05655
G1 X94.230 Y104.678 E3.12515
G1 X93.095 Y105.623 E3.19197
G1 X91.691 Y106.188 E3.26047
G1 X90.030 Y106.374 E3.33608
G1 X88.358 Y106.191 E3.41222
G1 X86.944 Y105.634 E3.48096
G1 X85.803 Y104.701 E3.54764
G1 X84.972 Y103.438 E3.61608
G1 X84.477 Y101.890 E3.68960
G1 X84.314 Y100.065 E3.77253
G1 X84.479 Y98.242 E3.85533
G1 X84.785 Y97.282 E3.90094
G1 X83.326 Y102.766 F7800.000
G1 X87.559 Y106.999 E4.17565 F540.000
G1 X86.683 Y106.676 F7800.000
G1 X83.625 Y103.619 E4.37409 F540.000
G1 X84.786 Y103.673 F7800.000
G1 X83.086 Y101.973 E4.48440 F540.000
G1 X83.025 Y101.360 E4.51269
G1 X84.517 Y102.851 E4.60946
G1 X84.257 Y102.039 E4.64860
G1 X82.965 Y100.746 E4.73246
G1 X82.904 Y100.133 E4.76075
G1 X84.202 Y101.430 E4.84494
G1 X84.147 Y100.823 E4.87292
G1 X82.914 Y99.589 E4.95296
G1 X82.948 Y99.070 E4.97684
G1 X84.093 Y100.215 E5.05117
G1 X84.128 Y99.697 E5.07501
G1 X82.982 Y98.551 E5.14939
G1 X83.076 Y98.092 E5.17088
G1 X84.174 Y99.190 E5.24213
G1 X84.219 Y98.683 E5.26549
G1 X83.173 Y97.636 E5.33339
G1 X83.274 Y97.184 E5.35466
G1 X84.280 Y98.191 E5.42000
G1 X84.414 Y97.771 E5.44019
G1 X83.430 Y96.787 E5.50405
G1 X83.587 Y96.391 E5.52361
G1 X84.548 Y97.352 E5.58598
G1 X84.681 Y96.932 E5.60618
G1 X83.747 Y95.998 E5.66682
G1 X83.959 Y95.658 E5.68523
G1 X84.837 Y96.535 E5.74219
G1 X85.054 Y96.199 E5.76055
G1 X84.172 Y95.317 E5.81776
G1 X84.389 Y94.981 E5.83611
G1 X85.270 Y95.862 E5.89328
G1 X85.486 Y95.525 E5.91164
G1 X84.658 Y94.697 E5.96536
G1 X84.935 Y94.421 E5.98331
G1 X85.717 Y95.203 E6.03408
G1 X86.015 Y94.948 E6.05207
G1 X85.211 Y94.144 E6.10424
G1 X85.530 Y93.910 E6.12238
G1 X86.313 Y94.693 E6.17323
G1 X86.611 Y94.438 E6.19123
G1 X85.856 Y93.683 E6.24024
G1 X86.193 Y93.467 E6.25861
G1 X86.919 Y94.193 E6.30574
G1 X87.309 Y94.030 E6.32513
G1 X86.578 Y93.299 E6.37259
G1 X86.963 Y93.131 E6.39186
G1 X87.699 Y93.867 E6.43964
G1 X88.089 Y93.704 E6.45904
G1 X87.365 Y92.980 E6.50603
G1 X87.813 Y92.875 E6.52714
G1 X88.510 Y93.572 E6.57237
G1 X89.005 Y93.514 E6.59523
G1 X88.261 Y92.770 E6.64349
G1 X88.740 Y92.696 E6.66572
G1 X89.500 Y93.456 E6.71502
G1 X89.995 Y93.398 E6.73788
G1 X89.257 Y92.660 E6.78578
G1 X89.773 Y92.623 E6.80954
G1 X90.593 Y93.443 E6.86272
G1 X91.215 Y93.512 E6.89143
G1 X90.346 Y92.643 E6.94783
G1 X90.942 Y92.685 E6.97525
G1 X91.837 Y93.581 E7.03334
G1 X92.308 Y92.946 F7800.000
G1 X94.542 Y95.179 E7.17829 F540.000
G1 X94.399 Y95.037 F7800.000
G1 X96.770 Y97.408 E7.33216 F540.000
G1 X96.925 Y98.116 E7.36543
G1 X95.291 Y96.482 E7.47145
G1 X95.537 Y97.281 E7.50982
G1 X97.059 Y98.803 E7.60858
G1 X97.099 Y99.396 E7.63583
G1 X95.776 Y98.073 E7.72167
G1 X95.828 Y98.678 E7.74953
G1 X97.138 Y99.988 E7.83457
G1 X97.124 Y100.527 E7.85930
G1 X95.880 Y99.283 E7.94003
G1 X95.932 Y99.888 E7.96789
G1 X97.090 Y101.046 E8.04304
G1 X97.056 Y101.565 E8.06690
G1 X95.902 Y100.411 E8.14178
G1 X95.856 Y100.918 E8.16515
G1 X96.961 Y102.023 E8.23689
G1 X96.863 Y102.478 E8.25822
G1 X95.810 Y101.425 E8.32652
G1 X95.750 Y101.918 E8.34929
G1 X96.760 Y102.928 E8.41488
G1 X96.601 Y103.322 E8.43437
G1 X95.616 Y102.337 E8.49833
G1 X95.482 Y102.756 E8.51851
G1 X96.442 Y103.716 E8.58084
G1 X96.276 Y104.103 E8.60016
G1 X95.348 Y103.175 E8.66042
G1 X95.187 Y103.567 E8.67987
G1 X96.060 Y104.440 E8.73656
G1 X95.844 Y104.777 E8.75492
G1 X94.969 Y103.902 E8.81175
G1 X94.750 Y104.236 E8.83009
G1 X95.614 Y105.100 E8.88615
G1 X95.338 Y105.377 E8.90410
G1 X94.532 Y104.571 E8.95638
G1 X94.288 Y104.880 E8.97445
G1 X95.061 Y105.653 E9.02461
G1 X94.785 Y105.930 E9.04256
G1 X93.986 Y105.132 E9.09436
G1 X93.685 Y105.383 E9.11238
G1 X94.455 Y106.153 E9.16239
G1 X94.125 Y106.376 E9.18067
G1 X93.383 Y105.634 E9.22881
G1 X93.053 Y105.857 E9.24709
G1 X93.776 Y106.580 E9.29399
G1 X93.387 Y106.745 E9.31334
G1 X92.659 Y106.016 E9.36064
G1 X92.264 Y106.174 E9.38015
G1 X92.999 Y106.909 E9.42784
G1 X92.584 Y107.047 E9.44792
G1 X91.870 Y106.333 E9.49425
G1 X91.421 Y106.437 E9.51540
G1 X92.134 Y107.150 E9.56166
G1 X91.684 Y107.253 E9.58284
G1 X90.924 Y106.493 E9.63216
G1 X90.426 Y106.549 E9.65511
G1 X91.191 Y107.313 E9.70472
G1 X90.674 Y107.349 E9.72851
G1 X89.924 Y106.600 E9.77714
G1 X89.303 Y106.531 E9.80582
G1 X90.156 Y107.385 E9.86119
G1 X89.546 Y107.328 E9.88930
G1 X88.682 Y106.463 E9.94541
G1 X87.994 Y106.329 E9.97754
G1 X88.930 Y107.264 E10.03823
G1 X88.313 Y107.200 E10.06668
G1 X87.082 Y105.969 E10.14656
G1 X85.028 Y105.574 F7800.000
G1 X84.674 Y105.220 E10.16954 F540.000
G92 E0
G1 X84.271 Y96.343 F7800.000
G1 X84.251 Y96.331 F7800.000
G1 X84.846 Y95.391 F7800.000
G1 X85.050 Y95.131 F7800.000
G1 X92.753 Y93.944 F7800.000
G1 X91.582 Y92.773 E0.07598 F540.000
G1 X93.195 Y93.279 F7800.000
G1 X96.404 Y96.489 E0.28424 F540.000
G1 X95.424 Y94.956 F7800.000
G1 X94.584 Y94.116 E0.33875 F540.000
G92 E0
G1 X97.193 Y97.143 F7800.000
G1 X105.139 Y91.256 F7800.000
G1 X111.351 Y94.301 F7800.000
G1 X111.351 Y95.307 F7800.000
G1 X115.493 Y99.449 F7800.000
G1 X115.718 Y94.828 F7800.000
G1 X115.718 Y92.577 E0.10187 F378.000
G1 X117.339 Y92.577 E0.17522
G1 X117.339 Y107.423 E0.84699
G1 X115.718 Y107.423 E0.92034
G1 X115.718 Y100.959 E1.21283
G1 X106.985 Y100.959 E1.60799
G1 X106.985 Y107.423 E1.90048
G1 X105.364 Y107.423 E1.97383
G1 X105.364 Y92.577 E2.64560
G1 X106.985 Y92.577 E2.71895
G1 X106.985 Y99.674 E3.04008
G1 X115.718 Y99.674 E3.43524 F378.000
G1 X115.718 Y95.059 E3.64406
G1 X117.113 Y93.007 F7800.000
G1 X116.909 Y92.803 E3.65731 F540.000
G1 X116.355 Y92.803 E3.68283
G1 X117.113 Y93.561 E3.73216
G1 X117.113 Y94.116 E3.75768
G1 X115.944 Y92.947 E3.83376
G1 X115.944 Y93.501 E3.85928
G1 X117.113 Y94.670 E3.93535
G1 X117.113 Y95.225 E3.96087
G1 X115.944 Y94.056 E4.03695
G1 X115.944 Y94.610 E4.06247
G1 X117.113 Y95.779 E4.13854
G1 X117.113 Y96.334 E4.16406
G1 X115.944 Y95.165 E4.24014
G1 X115.944 Y95.719 E4.26566
G1 X117.113 Y96.889 E4.34173
G1 X117.113 Y97.443 E4.36725
G1 X115.944 Y96.274 E4.44333
G1 X115.944 Y96.829 E4.46885
G1 X117.113 Y97.998 E4.54492
G1 X117.113 Y98.552 E4.57044
G1 X115.944 Y97.383 E4.64652
G1 X115.944 Y97.938 E4.67204
G1 X117.113 Y99.107 E4.74811
G1 X117.113 Y99.661 E4.77363
G1 X115.944 Y98.492 E4.84971
G1 X115.944 Y99.047 E4.87523
G1 X117.113 Y100.216 E4.95130
G1 X117.113 Y100.770 E4.97682
G1 X115.944 Y99.601 E5.05290
G1 X115.688 Y99.900 F7800.000
G1 X117.113 Y101.325 E5.14563 F540.000
G1 X117.113 Y101.880 E5.17115
G1 X115.133 Y99.900 E5.29997
G1 X114.579 Y99.900 E5.32549
G1 X115.412 Y100.733 E5.37971
G1 X114.857 Y100.733 E5.40522
G1 X114.024 Y99.900 E5.45944
G1 X113.470 Y99.900 E5.48495
G1 X114.303 Y100.733 E5.53917
G1 X113.748 Y100.733 E5.56468
G1 X112.915 Y99.900 E5.61890
G1 X112.361 Y99.900 E5.64441
G1 X113.194 Y100.733 E5.69863
G1 X112.639 Y100.733 E5.72414
G1 X111.806 Y99.900 E5.77836
G1 X111.251 Y99.900 E5.80387
G1 X112.084 Y100.733 E5.85809
G1 X111.530 Y100.733 E5.88360
G1 X110.697 Y99.900 E5.93782
G1 X110.142 Y99.900 E5.96333
G1 X110.975 Y100.733 E6.01755
G1 X110.421 Y100.733 E6.04306
G1 X109.588 Y99.900 E6.09728
G1 X109.033 Y99.900 E6.12279
G1 X109.866 Y100.733 E6.17701
G1 X109.312 Y100.733 E6.20252
G1 X108.479 Y99.900 E6.25674
G1 X107.924 Y99.900 E6.28225
G1 X108.757 Y100.733 E6.33647
G1 X108.203 Y100.733 E6.36198
G1 X107.369 Y99.900 E6.41620
G1 X106.815 Y99.900 E6.44171
G1 X107.648 Y100.733 E6.49593
G1 X107.093 Y100.733 E6.52144
G1 X105.590 Y99.230 E6.61928
G1 X105.590 Y99.784 E6.64480
G1 X106.759 Y100.953 E6.72088
G1 X106.759 Y101.508 E6.74639
G1 X105.590 Y100.339 E6.82247
G1 X105.590 Y100.893 E6.84799
G1 X106.759 Y102.062 E6.92407
G1 X106.759 Y102.617 E6.94958
G1 X105.590 Y101.448 E7.02566
G1 X105.590 Y102.002 E7.05118
G1 X106.759 Y103.171 E7.12725
G1 X106.759 Y103.726 E7.15277
G1 X105.590 Y102.557 E7.22885
G1 X105.590 Y103.112 E7.25437
G1 X106.759 Y104.281 E7.33044
G1 X106.759 Y104.835 E7.35596
G1 X105.590 Y103.666 E7.43204
G1 X105.590 Y104.221 E7.45756
G1 X106.759 Y105.390 E7.53363
G1 X106.759 Y105.944 E7.55915
G1 X105.590 Y104.775 E7.63523
G1 X105.590 Y105.330 E7.66075
G1 X106.759 Y106.499 E7.73682
G1 X106.759 Y107.053 E7.76234
G1 X105.590 Y105.884 E7.83842
G1 X105.590 Y106.439 E7.86394
G1 X106.348 Y107.197 E7.91327
G1 X105.793 Y107.197 E7.93879
G1 X105.590 Y106.993 E7.95204
G1 X106.759 Y99.844 F7800.000
G1 X105.590 Y98.675 E8.02811 F540.000
G1 X105.590 Y98.120 E8.05363
G1 X106.759 Y99.290 E8.12971
G1 X106.759 Y98.735 E8.15522
G1 X105.590 Y97.566 E8.23130
G1 X105.590 Y97.011 E8.25682
G1 X106.759 Y98.180 E8.33290
G1 X106.759 Y97.626 E8.35841
G1 X105.590 Y96.457 E8.43449
G1 X105.590 Y95.902 E8.46001
G1 X106.759 Y97.071 E8.53609
G1 X106.759 Y96.517 E8.56160
G1 X105.590 Y95.348 E8.63768
G1 X105.590 Y94.793 E8.66320
G1 X106.759 Y95.962 E8.73928
G1 X106.759 Y95.408 E8.76479
G1 X105.590 Y94.238 E8.84087
G1 X105.590 Y93.684 E8.86639
G1 X106.759 Y94.853 E8.94246
G1 X106.759 Y94.298 E8.96798
G1 X105.590 Y93.129 E9.04406
G1 X105.818 Y92.803 E9.06238
G1 X106.759 Y93.744 E9.12361
G1 X106.759 Y93.189 E9.14913
G1 X106.373 Y92.803 E9.17427
G92 E0
G1 X106.210 Y93.352 F7800.000
G1 X106.210 Y93.352 F7800.000
G1 X115.944 Y101.265 F7800.000
G1 X117.113 Y102.434 E0.07608 F540.000
G1 X117.113 Y102.989 E0.10160
G1 X115.944 Y101.820 E0.17767
G1 X115.944 Y102.374 E0.20319
G1 X117.113 Y103.543 E0.27927
G1 X117.113 Y104.098 E0.30479
G1 X115.944 Y102.929 E0.38086
G1 X115.944 Y103.483 E0.40638
G1 X117.113 Y104.652 E0.48246
G1 X117.113 Y105.207 E0.50798
G1 X115.944 Y104.038 E0.58405
G1 X115.944 Y104.592 E0.60957
G1 X117.113 Y105.762 E0.68565
G1 X117.113 Y106.316 E0.71117
G1 X115.944 Y105.147 E0.78724
G1 X115.944 Y105.702 E0.81276
G1 X117.113 Y106.871 E0.88884
G1 X116.885 Y107.197 E0.90716
G1 X115.944 Y106.256 E0.96839
G1 X115.944 Y106.811 E0.99391
G1 X116.330 Y107.197 E1.01905
M106 S255
G92 E0
G1 Z0.600 F7800.000
G1 X83.490 Y100.047 F7800.000
G1 X83.595 Y98.678 E0.41153 F600.000
G1 X83.714 Y97.973 E0.62586
G1 X83.856 Y97.439 E0.79152
G1 X84.257 Y96.327 E1.14548
G1 X84.846 Y95.391 E1.47685
G1 X85.161 Y94.989 E1.62985
G1 X85.353 Y94.779 E1.71524
G1 X85.545 Y94.596 E1.79480
G1 X86.404 Y93.933 E2.11989
G1 X86.730 Y93.754 E2.23139
G1 X87.444 Y93.449 E2.46387
G1 X88.090 Y93.240 E2.66728
G1 X88.641 Y93.127 E2.83582
G1 X90.007 Y93.002 E3.24709
G1 X91.362 Y93.123 E3.65472
G1 X91.949 Y93.240 E3.83388
G1 X92.558 Y93.433 E4.02549
G1 X93.315 Y93.752 E4.27154
G1 X93.611 Y93.910 E4.37210
G1 X94.488 Y94.580 E4.70268
G1 X94.670 Y94.750 E4.77748
G1 X94.863 Y94.962 E4.86331
G1 X95.199 Y95.390 E5.02625
G1 X95.790 Y96.338 E5.36128
G1 X96.187 Y97.453 E5.71595
G1 X96.357 Y98.145 E5.92930
G1 X96.440 Y98.688 E6.09399
G1 X96.543 Y100.065 E6.50780
G1 X96.437 Y101.445 E6.92234
G1 X96.318 Y102.140 E7.13363
G1 X96.177 Y102.667 E7.29724
G1 X95.779 Y103.754 E7.64415
G1 X95.193 Y104.668 E7.96933
G1 X94.879 Y105.061 E8.12006
G1 X94.681 Y105.273 E8.20700
G1 X94.494 Y105.446 E8.28338
G1 X93.630 Y106.094 E8.60708
G1 X93.314 Y106.261 E8.71417
G1 X92.584 Y106.563 E8.95087
G1 X91.954 Y106.761 E9.14866
G1 X91.388 Y106.873 E9.32170
G1 X90.044 Y106.992 E9.72603
G1 X88.320 Y106.812 E10.24541
G1 X88.096 Y106.773 E10.31348
G1 X86.734 Y106.264 E10.74921
G1 X86.406 Y106.101 E10.85884
G1 X85.369 Y105.287 E11.25389
G1 X85.153 Y105.088 E11.34189
G1 X84.243 Y103.753 E11.82619
G1 X83.707 Y102.162 E12.32904
G1 X83.665 Y101.938 E12.39748
G1 X83.490 Y100.047 E12.96634
G92 E0
G1 X95.985 Y94.776 F7800.000
G1 X100.544 Y94.323 F7800.000
G1 X102.947 Y92.352 F7800.000
G1 X105.139 Y92.352 F7800.000
G1 X106.174 Y92.352 F7800.000
G1 X106.174 Y99.449 E2.12659 F600.000
G1 X107.085 Y103.796 E3.45730
G92 E0
G1 X116.493 Y106.648 F7800.000
G1 X116.493 Y106.648 F7800.000
G1 X116.528 Y107.648 F7800.000
G1 X116.528 Y101.184 E1.93691 F600.000
G1 X116.347 Y100.316 E2.20250
G1 X116.528 Y99.449 E2.46808
G1 X116.528 Y92.352 E4.59467
G92 E0
G1 X116.493 Y93.352 F7800.000
G1 X106.210 Y106.648 F7800.000
G1 X106.174 Y107.648 F7800.000
G1 X106.174 Y101.184 E1.93691 F600.000
G1 X106.356 Y100.316 E2.20250
G1 X117.564 Y100.316 E5.56087
G92 E0
G1 Z0.900 F7800.000
G1 X83.490 Y100.047 F7800.000
G1 X83.595 Y98.678 E0.41153 F600.000
G1 X83.714 Y97.973 E0.62586
G1 X83.856 Y97.439 E0.79152
G1 X84.257 Y96.327 E1.14548
G1 X84.846 Y95.391 E1.47684
G1 X85.161 Y94.989 E1.62985
G1 X85.353 Y94.779 E1.71524
G1 X85.545 Y94.596 E1.79480
G1 X86.404 Y93.933 E2.11989
G1 X86.730 Y93.754 E2.23139
G1 X87.444 Y93.449 E2.46387
G1 X88.090 Y93.240 E2.66728
G1 X88.641 Y93.127 E2.83582
G1 X90.007 Y93.002 E3.24709
G1 X91.362 Y93.123 E3.65472
G1 X91.949 Y93.240 E3.83388
G1 X92.558 Y93.433 E4.02549
G1 X93.315 Y93.752 E4.27154
G1 X93.611 Y93.910 E4.37210
G1 X94.488 Y94.580 E4.70268
G1 X94.670 Y94.750 E4.77748
G1 X94.863 Y94.962 E4.86331
G1 X95.199 Y95.390 E5.02625
G1 X95.790 Y96.338 E5.36128
G1 X96.187 Y97.453 E5.71595
G1 X96.357 Y98.145 E5.92930
G1 X96.440 Y98.688 E6.09399
G1 X96.543 Y100.065 E6.50780
G1 X96.437 Y101.445 E6.92234
G1 X96.318 Y102.140 E7.13363
G1 X96.177 Y102.667 E7.29724
G1 X95.779 Y103.754 E7.64415
G1 X95.193 Y104.668 E7.96933
G1 X94.879 Y105.061 E8.12006
G1 X94.681 Y105.273 E8.20700
G1 X94.494 Y105.446 E8.28338
G1 X93.630 Y106.094 E8.60708
G1 X93.314 Y106.261 E8.71417
G1 X92.584 Y106.563 E8.95087
G1 X91.954 Y106.761 E9.14866
G1 X91.388 Y106.873 E9.32170
G1 X90.044 Y106.992 E9.72603
G1 X88.320 Y106.812 E10.24541
G1 X88.096 Y106.773 E10.31348
G1 X86.734 Y106.264 E10.74921
G1 X86.406 Y106.101 E10.85884
G1 X85.369 Y105.287 E11.25389
G1 X85.153 Y105.088 E11.34189
G1 X84.243 Y103.753 E11.82619
G1 X83.707 Y102.162 E12.32904
G1 X83.665 Y101.938 E12.39748
G1 X83.490 Y100.047 E12.96634
G92 E0
G1 X95.985 Y94.776 F7800.000
G1 X100.544 Y94.323 F7800.000
G1 X102.947 Y92.352 F7800.000
G1 X105.139 Y92.352 F7800.000
G1 X106.174 Y92.352 F7800.000
G1 X106.174 Y99.449 E2.12659 F600.000
G1 X107.085 Y103.796 E3.45730
G92 E0
G1 X116.493 Y106.648 F7800.000
G1 X116.493 Y106.648 F7800.000
G1 X116.528 Y107.648 F7800.000
G1 X116.528 Y101.184 E1.93691 F600.000
G1 X116.347 Y100.316 E2.20250
G1 X116.528 Y99.449 E2.46808
G1 X116.528 Y92.352 E4.59467
G92 E0
G1 X116.493 Y93.352 F7800.000
G1 X106.210 Y106.648 F7800.000
G1 X106.174 Y107.648 F7800.000
G1 X106.174 Y101.184 E1.93691 F600.000
