; generated by Slic3r 1.2.9 on 2016-03-11 at 01:28:18

; external perimeters extrusion width = 1.54mm
; perimeters extrusion width = 2.62mm
; infill extrusion width = 6.27mm
; solid infill extrusion width = 2.62mm
; top infill extrusion width = 2.62mm

M107
M104 S30 ; set temperature
G28 ; home all axes
G1 Z5 F5000 ; lift nozzle
M302
M92 E10000
M500
M501
G1 E100
M109 S30 ; wait for temperature to be reached
G21 ; set units to millimeters
G90 ; use absolute coordinates
M82 ; use absolute distances for extrusion
G92 E0
G1 Z0.300 F7800.000
G1 X96.920 Y102.548 F7800.000
G1 X96.840 Y102.916 E0.01701 F378.000
G1 X96.352 Y104.124 E0.07599
G1 X95.682 Y105.169 E0.13217
G1 X94.841 Y106.032 E0.18669
G1 X93.825 Y106.716 E0.24211
G1 X92.652 Y107.214 E0.29975
G1 X91.340 Y107.514 E0.36066
G1 X89.890 Y107.614 E0.42640
G1 X87.727 Y107.390 E0.52484
G1 X85.922 Y106.725 E0.61185
G1 X84.463 Y105.621 E0.69463
G1 X83.387 Y104.124 E0.77805
G1 X82.738 Y102.275 E0.86673
G1 X82.519 Y100.061 E0.96740
G1 X82.617 Y98.562 E1.03538
G1 X82.910 Y97.196 E1.09861
G1 X83.395 Y95.965 E1.15849
G1 X84.063 Y94.896 E1.21552
G1 X84.901 Y94.011 E1.27065
G1 X85.913 Y93.308 E1.32640
G1 X87.085 Y92.797 E1.38426
G1 X88.402 Y92.489 E1.44546
G1 X89.865 Y92.386 E1.51186
G1 X91.224 Y92.483 E1.57349
G1 X91.317 Y92.490 E1.57772 F378.000
G1 X92.628 Y92.802 E1.63870
G1 X93.801 Y93.319 E1.69669
G1 X94.818 Y94.028 E1.75281
G1 X95.664 Y94.915 E1.80826
G1 X96.341 Y95.983 E1.86547
G1 X96.835 Y97.209 E1.92530
G1 X97.133 Y98.570 E1.98831
G1 X97.233 Y100.065 E2.05613
G1 X97.134 Y101.563 E2.12407
G1 X96.969 Y102.323 E2.15924
G1 X95.408 Y101.868 F7800.000
G1 X94.915 Y103.408 E2.23239 F378.000
G1 X94.088 Y104.678 E2.30099
G1 X92.953 Y105.623 E2.36781
G1 X91.548 Y106.188 E2.43631
G1 X89.888 Y106.374 E2.51191
G1 X88.215 Y106.191 E2.58806
G1 X86.802 Y105.634 E2.65680
G1 X85.661 Y104.701 E2.72348
G1 X84.829 Y103.438 E2.79192
G1 X84.335 Y101.890 E2.86544
G1 X84.172 Y100.065 E2.94836
G1 X84.337 Y98.242 E3.03117
G1 X84.836 Y96.676 E3.10556
G1 X85.674 Y95.372 E3.17572
G1 X86.817 Y94.394 E3.24378
G1 X88.219 Y93.808 E3.31252
G1 X89.720 Y93.632 E3.38093
G1 X89.865 Y93.615 E3.38752 F378.000
G1 X91.549 Y93.801 E3.46418
G1 X92.965 Y94.368 E3.53319
G1 X94.100 Y95.317 E3.60013
G1 X94.921 Y96.605 E3.66928
G1 X95.409 Y98.190 E3.74431
G1 X95.570 Y100.065 E3.82949
G1 X95.429 Y101.638 E3.90094
G1 X96.261 Y96.489 F7800.000
G1 X93.052 Y93.279 E4.10920 F540.000
G1 X92.611 Y93.944 F7800.000
G1 X91.440 Y92.773 E4.18518 F540.000
G1 X92.165 Y92.946 F7800.000
G1 X94.399 Y95.179 E4.33013 F540.000
G1 X94.256 Y95.037 F7800.000
G1 X96.628 Y97.408 E4.48400 F540.000
G1 X96.783 Y98.116 E4.51727
G1 X95.149 Y96.482 E4.62330
G1 X95.395 Y97.281 E4.66166
G1 X96.917 Y98.803 E4.76042
G1 X96.956 Y99.396 E4.78767
G1 X95.633 Y98.073 E4.87351
G1 X95.685 Y98.678 E4.90137
G1 X96.996 Y99.988 E4.98641
G1 X96.981 Y100.527 E5.01114
G1 X95.737 Y99.283 E5.09187
G1 X95.789 Y99.888 E5.11973
G1 X96.947 Y101.046 E5.19488
G1 X96.913 Y101.565 E5.21874
G1 X95.759 Y100.411 E5.29362
G1 X95.713 Y100.918 E5.31699
G1 X96.819 Y102.023 E5.38874
G1 X96.720 Y102.478 E5.41006
G1 X95.668 Y101.425 E5.47836
G1 X95.607 Y101.918 E5.50113
G1 X96.618 Y102.928 E5.56672
G1 X96.459 Y103.322 E5.58621
G1 X95.473 Y102.337 E5.65017
G1 X95.339 Y102.756 E5.67035
G1 X96.300 Y103.716 E5.73268
G1 X96.134 Y104.103 E5.75201
G1 X95.205 Y103.175 E5.81227
G1 X95.044 Y103.567 E5.83171
G1 X95.918 Y104.440 E5.88840
G1 X95.702 Y104.777 E5.90677
G1 X94.826 Y103.902 E5.96359
G1 X94.608 Y104.236 E5.98193
G1 X95.472 Y105.100 E6.03799
G1 X95.195 Y105.377 E6.05594
G1 X94.390 Y104.571 E6.10822
G1 X94.146 Y104.880 E6.12629
G1 X94.919 Y105.653 E6.17646
G1 X94.642 Y105.930 E6.19440
G1 X93.844 Y105.132 E6.24620
G1 X93.542 Y105.383 E6.26422
G1 X94.313 Y106.153 E6.31423
G1 X93.982 Y106.376 E6.33251
G1 X93.240 Y105.634 E6.38065
G1 X92.910 Y105.857 E6.39893
G1 X93.633 Y106.580 E6.44583
G1 X93.245 Y106.745 E6.46518
G1 X92.516 Y106.016 E6.51248
G1 X92.122 Y106.174 E6.53199
G1 X92.857 Y106.909 E6.57968
G1 X92.441 Y107.047 E6.59976
G1 X91.727 Y106.333 E6.64609
G1 X91.278 Y106.437 E6.66724
G1 X91.991 Y107.150 E6.71350
G1 X91.541 Y107.253 E6.73468
G1 X90.781 Y106.493 E6.78400
G1 X90.284 Y106.549 E6.80696
G1 X91.048 Y107.313 E6.85656
G1 X90.531 Y107.349 E6.88035
G1 X89.782 Y106.600 E6.92898
G1 X89.160 Y106.531 E6.95766
G1 X90.014 Y107.385 E7.01303
G1 X89.404 Y107.328 E7.04114
G1 X88.539 Y106.463 E7.09725
G1 X87.852 Y106.329 E7.12938
G1 X88.787 Y107.264 E7.19007
G1 X88.170 Y107.200 E7.21852
G1 X86.939 Y105.969 E7.29840
G1 X86.540 Y106.676 F7800.000
G1 X83.483 Y103.619 E7.49683 F540.000
G1 X83.183 Y102.766 F7800.000
G1 X87.417 Y106.999 E7.77154 F540.000
G1 X84.885 Y105.574 F7800.000
G1 X84.531 Y105.220 E7.79452 F540.000
G1 X84.643 Y103.673 F7800.000
G1 X82.944 Y101.973 E7.90483 F540.000
G1 X82.883 Y101.360 E7.93312
G1 X84.374 Y102.851 E8.02989
G1 X84.115 Y102.039 E8.06903
G1 X82.822 Y100.746 E8.15290
G1 X82.762 Y100.133 E8.18119
G1 X84.059 Y101.430 E8.26537
G1 X84.005 Y100.823 E8.29335
G1 X82.771 Y99.589 E8.37340
G1 X82.805 Y99.070 E8.39727
G1 X83.951 Y100.215 E8.47160
G1 X83.985 Y99.697 E8.49544
G1 X82.839 Y98.551 E8.56982
G1 X82.933 Y98.092 E8.59131
G1 X84.031 Y99.190 E8.66256
G1 X84.077 Y98.683 E8.68593
G1 X83.031 Y97.636 E8.75382
G1 X83.131 Y97.184 E8.77509
G1 X84.138 Y98.191 E8.84043
G1 X84.272 Y97.771 E8.86063
G1 X83.288 Y96.787 E8.92448
G1 X83.444 Y96.391 E8.94404
G1 X84.405 Y97.352 E9.00642
G1 X84.539 Y96.932 E9.02661
G1 X83.604 Y95.998 E9.08725
G1 X83.817 Y95.658 E9.10567
G1 X84.695 Y96.535 E9.16262
G1 X84.911 Y96.199 E9.18098
G1 X84.029 Y95.317 E9.23819
G1 X84.246 Y94.981 E9.25654
G1 X85.127 Y95.862 E9.31371
G1 X85.344 Y95.525 E9.33207
G1 X84.516 Y94.697 E9.38580
G1 X84.792 Y94.421 E9.40374
G1 X85.575 Y95.203 E9.45451
G1 X85.873 Y94.948 E9.47251
G1 X85.069 Y94.144 E9.52467
G1 X85.387 Y93.910 E9.54281
G1 X86.171 Y94.693 E9.59366
G1 X86.469 Y94.438 E9.61166
G1 X85.713 Y93.683 E9.66067
G1 X86.050 Y93.467 E9.67904
G1 X86.776 Y94.193 E9.72617
G1 X87.167 Y94.030 E9.74557
G1 X86.435 Y93.299 E9.79302
G1 X86.820 Y93.131 E9.81230
G1 X87.557 Y93.867 E9.86008
G1 X87.947 Y93.704 E9.87947
G1 X87.222 Y92.980 E9.92646
G1 X87.671 Y92.875 E9.94758
G1 X88.368 Y93.572 E9.99280
G1 X88.862 Y93.514 E10.01566
G1 X88.119 Y92.770 E10.06392
G1 X88.598 Y92.696 E10.08615
G1 X89.357 Y93.456 E10.13545
G1 X89.852 Y93.398 E10.15832
G1 X89.114 Y92.660 E10.20621
G1 X89.631 Y92.623 E10.22997
G1 X90.450 Y93.443 E10.28315
G1 X91.072 Y93.512 E10.31187
G1 X90.203 Y92.643 E10.36827
G1 X90.799 Y92.685 E10.39568
G1 X91.694 Y93.581 E10.45377
G1 X94.442 Y94.116 F7800.000
G1 X95.282 Y94.956 E10.50828 F540.000
G92 E0
G1 X97.357 Y98.538 F7800.000
G1 X100.977 Y103.836 F7800.000
G1 X104.989 Y108.744 F7800.000
G1 X109.252 Y107.648 F7800.000
G1 X109.885 Y107.016 F7800.000
G1 X107.060 Y99.984 F7800.000
G1 X105.214 Y101.849 F7800.000
G1 X105.214 Y92.577 E0.41956 F378.000
G1 X106.835 Y92.577 E0.49291
G1 X106.835 Y98.325 E0.75301
G1 X109.085 Y100.044 E0.88113 F378.000
G1 X115.243 Y92.577 E1.31908
G1 X117.220 Y92.577 E1.40854
G1 X110.043 Y101.015 E1.90976
G1 X116.306 Y107.423 E2.31522
G1 X114.497 Y107.423 E2.39710
G1 X106.835 Y99.424 E2.89828
G1 X106.835 Y107.423 E3.26024
G1 X105.214 Y107.423 E3.33359
G1 X105.214 Y102.080 E3.57535
G1 X107.524 Y99.452 F7800.000
G1 X106.643 Y98.664 E3.69131 F540.000
G1 X106.609 Y93.007 F7800.000
G1 X106.406 Y92.803 E3.70472 F540.000
G1 X105.845 Y92.803 E3.73087
G1 X106.609 Y93.568 E3.78125
G1 X106.609 Y94.129 E3.80740
G1 X105.440 Y92.960 E3.88440
G1 X105.440 Y93.521 E3.91055
G1 X106.609 Y94.691 E3.98755
G1 X106.609 Y95.252 E4.01370
G1 X105.440 Y94.083 E4.09070
G1 X105.440 Y94.644 E4.11685
G1 X106.610 Y95.813 E4.19385
G1 X106.610 Y96.375 E4.22000
G1 X105.440 Y95.205 E4.29700
G1 X105.440 Y95.767 E4.32314
G1 X106.610 Y96.936 E4.40015
G1 X106.610 Y97.497 E4.42629
G1 X105.440 Y96.328 E4.50330
G1 X105.440 Y96.889 E4.52944
G1 X106.610 Y98.059 E4.60645
G1 X106.512 Y98.522 E4.62851
G1 X105.440 Y97.451 E4.69908
G1 X105.440 Y98.012 E4.72522
G1 X106.247 Y98.818 E4.77833
G1 X105.440 Y98.573 E4.81757
G1 X106.609 Y99.743 E4.89458
G1 X106.609 Y100.304 E4.92072
G1 X105.440 Y99.135 E4.99773
G1 X105.440 Y99.696 E5.02387
G1 X106.609 Y100.865 E5.10088
G1 X106.609 Y101.427 E5.12702
G1 X105.440 Y100.257 E5.20403
G1 X105.440 Y100.819 E5.23017
G1 X106.609 Y101.988 E5.30718
G1 X106.609 Y102.549 E5.33332
G1 X105.440 Y101.380 E5.41033
G1 X105.440 Y101.941 E5.43647
G1 X106.609 Y103.111 E5.51348
G1 X106.609 Y103.672 E5.53962
G1 X105.440 Y102.503 E5.61662
G1 X105.440 Y103.064 E5.64277
G1 X106.609 Y104.233 E5.71977
G1 X106.609 Y104.795 E5.74592
G1 X105.440 Y103.625 E5.82292
G1 X105.440 Y104.187 E5.84907
G1 X106.609 Y105.356 E5.92607
G1 X106.609 Y105.917 E5.95222
G1 X105.440 Y104.748 E6.02922
G1 X105.440 Y105.309 E6.05537
G1 X106.609 Y106.479 E6.13237
G1 X106.609 Y107.040 E6.15852
G1 X105.440 Y105.871 E6.23552
G1 X105.440 Y106.432 E6.26167
G1 X106.205 Y107.197 E6.31205
G1 X105.644 Y107.197 E6.33820
G1 X105.440 Y106.993 E6.35161
G92 E0
G1 X106.060 Y106.648 F7800.000
G1 X106.060 Y106.648 F7800.000
G1 X108.985 Y100.336 F7800.000
G1 X109.732 Y101.083 E0.04855 F540.000
G1 X109.987 Y100.784 E0.06662
G1 X109.295 Y100.092 E0.11156
G1 X109.546 Y99.789 E0.12965
G1 X110.241 Y100.484 E0.17487
G1 X110.496 Y100.185 E0.19294
G1 X109.796 Y99.485 E0.23844
G1 X110.046 Y99.181 E0.25653
G1 X110.751 Y99.886 E0.30230
G1 X111.005 Y99.586 E0.32037
G1 X110.297 Y98.878 E0.36642
G1 X110.547 Y98.574 E0.38451
G1 X111.260 Y99.287 E0.43084
G1 X111.514 Y98.988 E0.44891
G1 X110.797 Y98.271 E0.49552
G1 X111.048 Y97.967 E0.51360
G1 X111.769 Y98.688 E0.56049
G1 X112.024 Y98.389 E0.57855
G1 X111.298 Y97.663 E0.62572
G1 X111.548 Y97.360 E0.64380
G1 X112.278 Y98.090 E0.69124
G1 X112.533 Y97.790 E0.70931
G1 X111.799 Y97.056 E0.75703
G1 X112.049 Y96.753 E0.77511
G1 X112.787 Y97.491 E0.82311
G1 X113.042 Y97.192 E0.84117
G1 X112.299 Y96.449 E0.88944
G1 X112.550 Y96.145 E0.90753
G1 X113.297 Y96.892 E0.95608
G1 X113.551 Y96.593 E0.97414
G1 X112.800 Y95.842 E1.02297
G1 X113.051 Y95.538 E1.04106
G1 X113.806 Y96.294 E1.09016
G1 X114.061 Y95.994 E1.10822
G1 X113.301 Y95.235 E1.15760
G1 X113.551 Y94.931 E1.17569
G1 X114.315 Y95.695 E1.22535
G1 X114.570 Y95.396 E1.24341
G1 X113.802 Y94.627 E1.29335
G1 X114.052 Y94.324 E1.31143
G1 X114.824 Y95.096 E1.36164
G1 X115.079 Y94.797 E1.37971
G1 X114.302 Y94.020 E1.43020
G1 X114.553 Y93.716 E1.44828
G1 X115.334 Y94.497 E1.49905
G1 X115.588 Y94.198 E1.51711
G1 X114.803 Y93.413 E1.56815
G1 X115.053 Y93.109 E1.58624
G1 X115.843 Y93.899 E1.63756
G1 X116.097 Y93.599 E1.65562
G1 X115.304 Y92.806 E1.70722
G1 X115.855 Y92.803 E1.73256
G1 X116.352 Y93.300 E1.76487
G1 X116.409 Y92.803 E1.78787
G1 X116.607 Y93.001 E1.80073
G92 E0
G1 X106.060 Y93.352 F7800.000
G1 X106.060 Y93.352 F7800.000
G1 X107.679 Y99.583 F7800.000
G1 X115.292 Y107.197 E0.49490 F540.000
G1 X114.738 Y107.197 E0.52036
G1 X113.900 Y106.359 E0.57485
M106 S255
G92 E0
G1 Z0.600 F7800.000
G1 X83.347 Y100.047 F7800.000
G1 X83.452 Y98.678 E0.41153 F600.000
G1 X83.572 Y97.973 E0.62586
G1 X83.714 Y97.439 E0.79152
G1 X84.115 Y96.327 E1.14548
G1 X84.703 Y95.391 E1.47685
G1 X85.019 Y94.989 E1.62985
G1 X85.210 Y94.779 E1.71524
G1 X85.403 Y94.596 E1.79480
G1 X86.261 Y93.933 E2.11989
G1 X86.588 Y93.754 E2.23139
G1 X87.301 Y93.449 E2.46387
G1 X87.947 Y93.240 E2.66728
G1 X88.498 Y93.127 E2.83582
G1 X89.865 Y93.002 E3.24709
G1 X91.220 Y93.123 E3.65472
G1 X91.806 Y93.240 E3.83388
G1 X92.416 Y93.433 E4.02549
G1 X93.173 Y93.752 E4.27154
G1 X93.469 Y93.910 E4.37210
G1 X94.345 Y94.580 E4.70268
G1 X94.528 Y94.750 E4.77748
G1 X94.721 Y94.962 E4.86331
G1 X95.056 Y95.390 E5.02625
G1 X95.648 Y96.338 E5.36128
G1 X96.045 Y97.453 E5.71595
G1 X96.215 Y98.145 E5.92930
G1 X96.297 Y98.688 E6.09399
G1 X96.400 Y100.065 E6.50780
G1 X96.295 Y101.445 E6.92234
G1 X96.176 Y102.140 E7.13363
G1 X96.034 Y102.667 E7.29724
G1 X95.636 Y103.754 E7.64415
G1 X95.051 Y104.668 E7.96933
G1 X94.736 Y105.061 E8.12006
G1 X94.539 Y105.273 E8.20700
G1 X94.352 Y105.446 E8.28338
G1 X93.487 Y106.094 E8.60708
G1 X93.171 Y106.261 E8.71417
G1 X92.441 Y106.563 E8.95087
G1 X91.812 Y106.761 E9.14866
G1 X91.245 Y106.873 E9.32170
G1 X89.901 Y106.992 E9.72603
G1 X88.177 Y106.812 E10.24541
G1 X87.953 Y106.773 E10.31348
G1 X86.591 Y106.264 E10.74921
G1 X86.263 Y106.101 E10.85884
G1 X85.227 Y105.287 E11.25389
G1 X85.011 Y105.088 E11.34189
G1 X84.100 Y103.753 E11.82619
G1 X83.564 Y102.162 E12.32904
G1 X83.522 Y101.938 E12.39748
G1 X83.347 Y100.047 E12.96634
G92 E0
G1 X97.051 Y97.143 F7800.000
G1 X104.989 Y91.256 F7800.000
G1 X110.228 Y93.327 F7800.000
G1 X108.777 Y97.365 F7800.000
G1 X109.049 Y99.734 F7800.000
G1 X116.413 Y92.352 F7800.000
G1 X109.748 Y100.310 E3.11048 F600.000
G1 X109.301 Y100.775 E3.30375
G1 X109.751 Y101.587 E3.58188
G1 X115.614 Y107.648 E6.10884
G92 E0
G1 X106.060 Y106.648 F7800.000
G1 X106.060 Y106.648 F7800.000
G1 X106.957 Y102.575 F7800.000
G1 X106.025 Y98.214 E1.33630 F600.000
G1 X106.025 Y92.352 E3.09283
G1 X106.025 Y107.648 F7800.000
G1 X106.025 Y99.984 E5.38931 F600.000
G1 X106.214 Y99.099 E5.66049
G1 X106.384 Y99.099 E5.71145
G1 X107.571 Y99.495 E6.08643
G1 X108.558 Y100.377 E6.48307
G1 X111.026 Y101.699 E7.32203
G92 E0
G1 Z0.900 F7800.000
G1 X83.347 Y100.047 F7800.000
G1 X83.452 Y98.678 E0.41153 F600.000
G1 X83.572 Y97.973 E0.62586
G1 X83.714 Y97.439 E0.79152
G1 X84.115 Y96.327 E1.14548
G1 X84.703 Y95.391 E1.47684
G1 X85.019 Y94.989 E1.62985
G1 X85.210 Y94.779 E1.71524
G1 X85.403 Y94.596 E1.79480
G1 X86.261 Y93.933 E2.11989
G1 X86.588 Y93.754 E2.23139
G1 X87.301 Y93.449 E2.46387
G1 X87.947 Y93.240 E2.66728
G1 X88.498 Y93.127 E2.83582
G1 X89.865 Y93.002 E3.24709
G1 X91.220 Y93.123 E3.65472
G1 X91.806 Y93.240 E3.83388
G1 X92.416 Y93.433 E4.02549
G1 X93.173 Y93.752 E4.27154
G1 X93.469 Y93.910 E4.37210
G1 X94.345 Y94.580 E4.70268
G1 X94.528 Y94.750 E4.77748
G1 X94.721 Y94.962 E4.86331
G1 X95.056 Y95.390 E5.02625
G1 X95.648 Y96.338 E5.36128
G1 X96.045 Y97.453 E5.71595
G1 X96.215 Y98.145 E5.92930
G1 X96.297 Y98.688 E6.09399
G1 X96.400 Y100.065 E6.50780
G1 X96.295 Y101.445 E6.92234
G1 X96.176 Y102.140 E7.13363
G1 X96.034 Y102.667 E7.29724
G1 X95.636 Y103.754 E7.64415
G1 X95.051 Y104.668 E7.96933
G1 X94.736 Y105.061 E8.12006
G1 X94.539 Y105.273 E8.20700
G1 X94.352 Y105.446 E8.28338
G1 X93.487 Y106.094 E8.60708
G1 X93.171 Y106.261 E8.71417
G1 X92.441 Y106.563 E8.95087
G1 X91.812 Y106.761 E9.14866
G1 X91.245 Y106.873 E9.32170
G1 X89.901 Y106.992 E9.72603
G1 X88.177 Y106.812 E10.24541
G1 X87.953 Y106.773 E10.31348
G1 X86.591 Y106.264 E10.74921
G1 X86.263 Y106.101 E10.85884
G1 X85.227 Y105.287 E11.25389
G1 X85.011 Y105.088 E11.34189
G1 X84.100 Y103.753 E11.82619
G1 X83.564 Y102.162 E12.32904
G1 X83.522 Y101.938 E12.39748
G1 X83.347 Y100.047 E12.96634
G92 E0
G1 X97.051 Y97.143 F7800.000
G1 X104.989 Y91.256 F7800.000
G1 X110.228 Y93.327 F7800.000
G1 X108.777 Y97.365 F7800.000
G1 X109.049 Y99.734 F7800.000
G1 X116.413 Y92.352 F7800.000
G1 X109.748 Y100.310 E3.11048 F600.000
G1 X109.301 Y100.775 E3.30375
G1 X109.751 Y101.587 E3.58188
G1 X115.614 Y107.648 E6.10884
G92 E0
G1 X106.060 Y106.648 F7800.000
G1 X106.060 Y106.648 F7800.000
G1 X106.957 Y102.575 F7800.000
G1 X106.025 Y98.214 E1.33630 F600.000
G1 X106.025 Y92.352 E3.09283
G1 X106.025 Y107.648 F7800.000
G1 X106.025 Y99.984 E5.38931 F600.000
G1 X106.214 Y99.099 E5.66049
G1 X106.384 Y99.099 E5.71145
G1 X107.571 Y99.495 E6.08643
G1 X108.558 Y100.377 E6.48307
G1 X111.026 Y101.699 E7.32203
G92 E0
G1 Z1.200 F7800.000
G1 X83.347 Y100.047 F7800.000
G1 X83.452 Y98.678 E0.41153 F600.000
G1 X83.572 Y97.973 E0.62586
G1 X83.714 Y97.439 E0.79152
G1 X84.115 Y96.327 E1.14548
G1 X84.703 Y95.391 E1.47684
G1 X85.019 Y94.989 E1.62985
G1 X85.210 Y94.779 E1.71524
G1 X85.403 Y94.596 E1.79480
G1 X86.261 Y93.933 E2.11989
G1 X86.588 Y93.754 E2.23139
G1 X87.301 Y93.449 E2.46387
G1 X87.947 Y93.240 E2.66728
G1 X88.498 Y93.127 E2.83582
G1 X89.865 Y93.002 E3.24709
G1 X91.220 Y93.123 E3.65471
G1 X91.806 Y93.240 E3.83388
G1 X92.416 Y93.433 E4.02549
G1 X93.173 Y93.752 E4.27154
G1 X93.469 Y93.910 E4.37210
