; generated by Slic3r 1.2.9 on 2016-03-11 at 01:28:19

; external perimeters extrusion width = 1.54mm
; perimeters extrusion width = 2.62mm
; infill extrusion width = 6.27mm
; solid infill extrusion width = 2.62mm
; top infill extrusion width = 2.62mm

M107
M104 S30 ; set temperature
G28 ; home all axes
G1 Z5 F5000 ; lift nozzle
M302
M92 E10000
M500
M501
G1 E100
M109 S30 ; wait for temperature to be reached
G21 ; set units to millimeters
G90 ; use absolute coordinates
M82 ; use absolute distances for extrusion
G92 E0
G1 Z0.300 F7800.000
G1 X97.963 Y103.750 F7800.000
G1 X97.812 Y104.124 E0.01827 F378.000
G1 X97.142 Y105.169 E0.07445
G1 X96.301 Y106.032 E0.12897
G1 X95.285 Y106.716 E0.18438
G1 X94.112 Y107.214 E0.24203
G1 X92.800 Y107.514 E0.30293
G1 X91.350 Y107.614 E0.36868
G1 X89.187 Y107.390 E0.46712
G1 X87.382 Y106.725 E0.55413
G1 X85.923 Y105.621 E0.63691
G1 X84.847 Y104.124 E0.72033
G1 X84.198 Y102.275 E0.80900
G1 X83.979 Y100.061 E0.90968
G1 X84.077 Y98.562 E0.97766
G1 X84.370 Y97.196 E1.04089
G1 X84.855 Y95.965 E1.10077
G1 X85.523 Y94.896 E1.15780
G1 X86.361 Y94.011 E1.21292
G1 X87.373 Y93.308 E1.26868
G1 X88.545 Y92.797 E1.32654
G1 X89.862 Y92.489 E1.38773
G1 X91.325 Y92.386 E1.45413
G1 X92.684 Y92.483 E1.51576
G1 X92.777 Y92.490 E1.52000 F378.000
G1 X94.088 Y92.802 E1.58097
G1 X95.261 Y93.319 E1.63896
G1 X96.278 Y94.028 E1.69508
G1 X97.124 Y94.915 E1.75053
G1 X97.801 Y95.983 E1.80775
G1 X98.295 Y97.209 E1.86758
G1 X98.593 Y98.570 E1.93058
G1 X98.693 Y100.065 E1.99841
G1 X98.594 Y101.563 E2.06634
G1 X98.300 Y102.916 E2.12898
G1 X98.050 Y103.536 E2.15924
G1 X96.494 Y103.038 F7800.000
G1 X96.375 Y103.408 E2.17681 F378.000
G1 X95.548 Y104.678 E2.24541
G1 X94.413 Y105.623 E2.31223
G1 X93.008 Y106.188 E2.38073
G1 X91.348 Y106.374 E2.45633
G1 X89.675 Y106.191 E2.53248
G1 X88.262 Y105.634 E2.60122
G1 X87.121 Y104.701 E2.66790
G1 X86.289 Y103.438 E2.73634
G1 X85.795 Y101.890 E2.80986
G1 X85.632 Y100.065 E2.89278
G1 X85.797 Y98.242 E2.97559
G1 X86.296 Y96.676 E3.04998
G1 X87.134 Y95.372 E3.12014
G1 X88.277 Y94.394 E3.18820
G1 X89.679 Y93.808 E3.25694
G1 X91.180 Y93.632 E3.32535
G1 X91.325 Y93.615 E3.33194 F378.000
G1 X93.009 Y93.801 E3.40860
G1 X94.425 Y94.368 E3.47761
G1 X95.560 Y95.317 E3.54454
G1 X96.381 Y96.605 E3.61370
G1 X96.869 Y98.190 E3.68873
G1 X97.030 Y100.065 E3.77391
G1 X96.868 Y101.868 E3.85582
G1 X96.564 Y102.818 E3.90094
G1 X97.721 Y96.489 F7800.000
G1 X94.512 Y93.279 E4.10920 F540.000
G1 X94.071 Y93.944 F7800.000
G1 X92.900 Y92.773 E4.18518 F540.000
G1 X93.625 Y92.946 F7800.000
G1 X95.859 Y95.179 E4.33013 F540.000
G1 X95.716 Y95.037 F7800.000
G1 X98.088 Y97.408 E4.48400 F540.000
G1 X98.243 Y98.116 E4.51727
G1 X96.609 Y96.482 E4.62330
G1 X96.855 Y97.281 E4.66166
G1 X98.377 Y98.803 E4.76042
G1 X98.416 Y99.396 E4.78767
G1 X97.093 Y98.073 E4.87351
G1 X97.145 Y98.678 E4.90137
G1 X98.456 Y99.988 E4.98641
G1 X98.441 Y100.527 E5.01114
G1 X97.197 Y99.283 E5.09187
G1 X97.249 Y99.888 E5.11973
G1 X98.407 Y101.046 E5.19488
G1 X98.373 Y101.565 E5.21874
G1 X97.219 Y100.411 E5.29362
G1 X97.173 Y100.918 E5.31699
G1 X98.279 Y102.023 E5.38874
G1 X98.180 Y102.478 E5.41006
G1 X97.128 Y101.425 E5.47836
G1 X97.067 Y101.918 E5.50113
G1 X98.078 Y102.928 E5.56672
G1 X97.919 Y103.322 E5.58621
G1 X96.933 Y102.337 E5.65017
G1 X96.799 Y102.756 E5.67035
G1 X97.760 Y103.716 E5.73268
G1 X97.594 Y104.103 E5.75201
G1 X96.665 Y103.175 E5.81227
G1 X96.504 Y103.567 E5.83171
G1 X97.378 Y104.440 E5.88840
G1 X97.162 Y104.777 E5.90677
G1 X96.286 Y103.902 E5.96359
G1 X96.068 Y104.236 E5.98193
G1 X96.932 Y105.100 E6.03799
G1 X96.655 Y105.377 E6.05594
G1 X95.850 Y104.571 E6.10822
G1 X95.606 Y104.880 E6.12629
G1 X96.379 Y105.653 E6.17646
G1 X96.102 Y105.930 E6.19440
G1 X95.304 Y105.132 E6.24620
G1 X95.002 Y105.383 E6.26422
G1 X95.773 Y106.153 E6.31423
G1 X95.442 Y106.376 E6.33251
G1 X94.700 Y105.634 E6.38065
G1 X94.370 Y105.857 E6.39893
G1 X95.093 Y106.580 E6.44583
G1 X94.705 Y106.745 E6.46518
G1 X93.976 Y106.016 E6.51248
G1 X93.582 Y106.174 E6.53199
G1 X94.317 Y106.909 E6.57968
G1 X93.901 Y107.047 E6.59976
G1 X93.187 Y106.333 E6.64609
G1 X92.738 Y106.437 E6.66724
G1 X93.451 Y107.150 E6.71350
G1 X93.001 Y107.253 E6.73468
G1 X92.241 Y106.493 E6.78400
G1 X91.744 Y106.549 E6.80696
G1 X92.508 Y107.313 E6.85656
G1 X91.991 Y107.349 E6.88035
G1 X91.242 Y106.600 E6.92898
G1 X90.620 Y106.531 E6.95766
G1 X91.474 Y107.385 E7.01303
G1 X90.864 Y107.328 E7.04114
G1 X89.999 Y106.463 E7.09725
G1 X89.312 Y106.329 E7.12938
G1 X90.247 Y107.264 E7.19007
G1 X89.630 Y107.200 E7.21852
G1 X88.399 Y105.969 E7.29840
G1 X88.000 Y106.676 F7800.000
G1 X84.943 Y103.619 E7.49683 F540.000
G1 X84.643 Y102.766 F7800.000
G1 X88.877 Y106.999 E7.77154 F540.000
G1 X86.345 Y105.574 F7800.000
G1 X85.991 Y105.220 E7.79452 F540.000
G1 X86.103 Y103.673 F7800.000
G1 X84.404 Y101.973 E7.90483 F540.000
G1 X84.343 Y101.360 E7.93312
G1 X85.834 Y102.851 E8.02990
G1 X85.575 Y102.039 E8.06903
G1 X84.282 Y100.746 E8.15290
G1 X84.222 Y100.133 E8.18119
G1 X85.519 Y101.430 E8.26537
G1 X85.465 Y100.823 E8.29335
G1 X84.231 Y99.589 E8.37340
G1 X84.265 Y99.070 E8.39727
G1 X85.411 Y100.215 E8.47160
G1 X85.445 Y99.697 E8.49545
G1 X84.299 Y98.551 E8.56982
G1 X84.393 Y98.092 E8.59132
G1 X85.491 Y99.190 E8.66256
G1 X85.537 Y98.683 E8.68593
G1 X84.491 Y97.636 E8.75382
G1 X84.591 Y97.184 E8.77509
G1 X85.598 Y98.191 E8.84043
G1 X85.732 Y97.771 E8.86063
G1 X84.748 Y96.787 E8.92448
G1 X84.904 Y96.391 E8.94404
G1 X85.865 Y97.352 E9.00642
G1 X85.999 Y96.932 E9.02661
G1 X85.064 Y95.998 E9.08725
G1 X85.277 Y95.658 E9.10567
G1 X86.155 Y96.535 E9.16262
G1 X86.371 Y96.199 E9.18098
G1 X85.489 Y95.317 E9.23819
G1 X85.706 Y94.981 E9.25654
G1 X86.587 Y95.862 E9.31371
G1 X86.804 Y95.525 E9.33207
G1 X85.976 Y94.697 E9.38580
G1 X86.252 Y94.421 E9.40374
G1 X87.035 Y95.203 E9.45451
G1 X87.333 Y94.948 E9.47251
G1 X86.529 Y94.144 E9.52467
G1 X86.847 Y93.910 E9.54282
G1 X87.631 Y94.693 E9.59366
G1 X87.929 Y94.438 E9.61166
G1 X87.173 Y93.683 E9.66068
G1 X87.510 Y93.467 E9.67904
G1 X88.236 Y94.193 E9.72617
G1 X88.627 Y94.030 E9.74557
G1 X87.895 Y93.299 E9.79302
G1 X88.280 Y93.131 E9.81230
G1 X89.017 Y93.867 E9.86008
G1 X89.407 Y93.704 E9.87947
G1 X88.683 Y92.980 E9.92646
G1 X89.131 Y92.875 E9.94758
G1 X89.828 Y93.572 E9.99280
G1 X90.322 Y93.514 E10.01566
G1 X89.579 Y92.770 E10.06392
G1 X90.058 Y92.696 E10.08615
G1 X90.817 Y93.456 E10.13545
G1 X91.312 Y93.398 E10.15832
G1 X90.574 Y92.660 E10.20621
G1 X91.091 Y92.623 E10.22997
G1 X91.910 Y93.443 E10.28315
G1 X92.532 Y93.512 E10.31187
G1 X91.663 Y92.643 E10.36827
G1 X92.259 Y92.685 E10.39568
G1 X93.154 Y93.581 E10.45377
G1 X95.902 Y94.116 F7800.000
G1 X96.742 Y94.956 E10.50828 F540.000
G92 E0
G1 X98.002 Y95.880 F7800.000
G1 X101.862 Y94.323 F7800.000
G1 X104.261 Y92.352 F7800.000
G1 X106.453 Y92.352 F7800.000
G1 X106.678 Y94.042 F7800.000
G1 X106.678 Y92.577 E0.06628 F378.000
G1 X116.021 Y92.577 E0.48904
G1 X116.021 Y93.819 E0.54524
G1 X108.299 Y93.819 E0.89465 F378.000
G1 X108.299 Y107.423 E1.51023
G1 X106.678 Y107.423 E1.58357
G1 X106.678 Y94.273 E2.17862
G1 X115.795 Y93.007 F7800.000
G1 X115.592 Y92.803 E2.19195 F540.000
G1 X115.034 Y92.803 E2.21778
G1 X115.795 Y93.565 E2.26765
G1 X115.266 Y93.593 E2.29220
G1 X114.476 Y92.803 E2.34393
G1 X113.918 Y92.803 E2.36977
G1 X114.708 Y93.593 E2.42150
G1 X114.150 Y93.593 E2.44734
G1 X113.360 Y92.803 E2.49907
G1 X112.802 Y92.803 E2.52490
G1 X113.592 Y93.593 E2.57663
G1 X113.034 Y93.593 E2.60247
G1 X112.244 Y92.803 E2.65420
G1 X111.686 Y92.803 E2.68004
G1 X112.476 Y93.593 E2.73177
G1 X111.918 Y93.593 E2.75760
G1 X111.128 Y92.803 E2.80933
G1 X110.570 Y92.803 E2.83517
G1 X111.360 Y93.593 E2.88690
G1 X110.802 Y93.593 E2.91274
G1 X110.012 Y92.803 E2.96447
G1 X109.454 Y92.803 E2.99030
G1 X110.244 Y93.593 E3.04203
G1 X109.686 Y93.593 E3.06787
G1 X108.896 Y92.803 E3.11960
G1 X108.338 Y92.803 E3.14544
G1 X109.128 Y93.593 E3.19717
G1 X108.570 Y93.593 E3.22300
G1 X107.780 Y92.803 E3.27473
G1 X107.222 Y92.803 E3.30057
G1 X108.073 Y93.655 E3.35633
G1 X108.073 Y94.213 E3.38216
G1 X106.904 Y93.043 E3.45871
G1 X106.904 Y93.601 E3.48455
G1 X108.073 Y94.771 E3.56110
G1 X108.073 Y95.329 E3.58693
G1 X106.904 Y94.159 E3.66348
G1 X106.904 Y94.717 E3.68931
G1 X108.073 Y95.887 E3.76586
G1 X108.073 Y96.445 E3.79170
G1 X106.904 Y95.275 E3.86824
G1 X106.904 Y95.833 E3.89408
G1 X108.073 Y97.003 E3.97063
G1 X108.073 Y97.561 E3.99646
G1 X106.904 Y96.391 E4.07301
G1 X106.904 Y96.949 E4.09885
G1 X108.073 Y98.119 E4.17539
G1 X108.073 Y98.677 E4.20123
G1 X106.904 Y97.507 E4.27778
G1 X106.904 Y98.065 E4.30361
G1 X108.073 Y99.235 E4.38016
G1 X108.073 Y99.793 E4.40599
G1 X106.904 Y98.623 E4.48254
G1 X106.904 Y99.181 E4.50838
G1 X108.073 Y100.351 E4.58493
G1 X108.073 Y100.909 E4.61076
G1 X106.904 Y99.739 E4.68731
G1 X106.904 Y100.297 E4.71314
G1 X108.073 Y101.467 E4.78969
G1 X108.073 Y102.025 E4.81553
G1 X106.904 Y100.855 E4.89207
G1 X106.904 Y101.413 E4.91791
G1 X108.073 Y102.583 E4.99446
G1 X108.073 Y103.141 E5.02029
G1 X106.904 Y101.971 E5.09684
G1 X106.904 Y102.529 E5.12267
G1 X108.073 Y103.699 E5.19922
G1 X108.073 Y104.257 E5.22506
G1 X106.904 Y103.087 E5.30161
G1 X106.904 Y103.645 E5.32744
G1 X108.073 Y104.815 E5.40399
G1 X108.073 Y105.373 E5.42982
G1 X106.904 Y104.203 E5.50637
G1 X106.904 Y104.761 E5.53221
G1 X108.073 Y105.931 E5.60875
G1 X108.073 Y106.489 E5.63459
G1 X106.904 Y105.319 E5.71114
G1 X106.904 Y105.877 E5.73697
G1 X108.073 Y107.047 E5.81352
G1 X107.666 Y107.197 E5.83363
G1 X106.904 Y106.435 E5.88350
G1 X106.904 Y106.993 E5.90933
G1 X107.108 Y107.197 E5.92266
M106 S255
G92 E0
G1 Z0.600 F7800.000
G1 X84.807 Y100.047 F7800.000
G1 X84.912 Y98.678 E0.41153 F600.000
G1 X85.032 Y97.973 E0.62586
G1 X85.174 Y97.439 E0.79152
G1 X85.575 Y96.327 E1.14548
G1 X86.163 Y95.391 E1.47685
G1 X86.479 Y94.989 E1.62985
G1 X86.670 Y94.779 E1.71524
G1 X86.863 Y94.596 E1.79480
G1 X87.721 Y93.933 E2.11989
G1 X88.048 Y93.754 E2.23139
G1 X88.761 Y93.449 E2.46387
G1 X89.407 Y93.240 E2.66728
G1 X89.958 Y93.127 E2.83582
G1 X91.325 Y93.002 E3.24709
G1 X92.680 Y93.123 E3.65472
G1 X93.266 Y93.240 E3.83388
G1 X93.876 Y93.433 E4.02549
G1 X94.633 Y93.752 E4.27154
G1 X94.929 Y93.910 E4.37210
G1 X95.805 Y94.580 E4.70268
G1 X95.988 Y94.750 E4.77748
G1 X96.181 Y94.962 E4.86331
G1 X96.516 Y95.390 E5.02625
G1 X97.108 Y96.338 E5.36128
G1 X97.505 Y97.453 E5.71595
G1 X97.675 Y98.145 E5.92930
G1 X97.757 Y98.688 E6.09399
G1 X97.860 Y100.065 E6.50780
G1 X97.755 Y101.445 E6.92234
G1 X97.636 Y102.140 E7.13363
G1 X97.494 Y102.667 E7.29724
G1 X97.096 Y103.754 E7.64415
G1 X96.511 Y104.668 E7.96933
G1 X96.196 Y105.061 E8.12006
G1 X95.999 Y105.273 E8.20700
G1 X95.812 Y105.446 E8.28338
G1 X94.947 Y106.094 E8.60708
G1 X94.631 Y106.261 E8.71417
G1 X93.901 Y106.563 E8.95087
G1 X93.272 Y106.761 E9.14866
G1 X92.705 Y106.873 E9.32170
G1 X91.361 Y106.992 E9.72603
G1 X89.637 Y106.812 E10.24541
G1 X89.413 Y106.773 E10.31348
G1 X88.051 Y106.264 E10.74921
G1 X87.723 Y106.101 E10.85884
G1 X86.687 Y105.287 E11.25389
G1 X86.471 Y105.088 E11.34189
G1 X85.560 Y103.753 E11.82619
G1 X85.024 Y102.162 E12.32904
G1 X84.982 Y101.938 E12.39748
G1 X84.807 Y100.047 E12.96634
G92 E0
G1 X97.319 Y105.310 F7800.000
G1 X101.798 Y105.757 F7800.000
G1 X104.261 Y107.648 F7800.000
G1 X106.453 Y107.648 F7800.000
G1 X107.489 Y107.648 F7800.000
G1 X107.489 Y94.044 E4.07639 F600.000
G1 X107.569 Y93.468 E4.25074
G1 X108.524 Y93.198 E4.54819
G1 X116.246 Y93.198 E6.86205
G92 E0
G1 Z0.900 F7800.000
G1 X84.807 Y100.047 F7800.000
G1 X84.912 Y98.678 E0.41153 F600.000
G1 X85.032 Y97.973 E0.62586
G1 X85.174 Y97.439 E0.79152
G1 X85.575 Y96.327 E1.14548
G1 X86.163 Y95.391 E1.47684
G1 X86.479 Y94.989 E1.62985
G1 X86.670 Y94.779 E1.71524
G1 X86.863 Y94.596 E1.79480
G1 X87.721 Y93.933 E2.11989
G1 X88.048 Y93.754 E2.23139
G1 X88.761 Y93.449 E2.46387
G1 X89.407 Y93.240 E2.66728
G1 X89.958 Y93.127 E2.83582
G1 X91.325 Y93.002 E3.24709
G1 X92.680 Y93.123 E3.65472
G1 X93.266 Y93.240 E3.83388
G1 X93.876 Y93.433 E4.02549
G1 X94.633 Y93.752 E4.27154
G1 X94.929 Y93.910 E4.37210
G1 X95.805 Y94.580 E4.70268
G1 X95.988 Y94.750 E4.77748
G1 X96.181 Y94.962 E4.86331
G1 X96.516 Y95.390 E5.02625
G1 X97.108 Y96.338 E5.36128
G1 X97.505 Y97.453 E5.71595
G1 X97.675 Y98.145 E5.92930
G1 X97.757 Y98.688 E6.09399
G1 X97.860 Y100.065 E6.50780
G1 X97.755 Y101.445 E6.92234
G1 X97.636 Y102.140 E7.13363
G1 X97.494 Y102.667 E7.29724
G1 X97.096 Y103.754 E7.64415
G1 X96.511 Y104.668 E7.96933
G1 X96.196 Y105.061 E8.12006
G1 X95.999 Y105.273 E8.20700
G1 X95.812 Y105.446 E8.28338
G1 X94.947 Y106.094 E8.60708
G1 X94.631 Y106.261 E8.71417
G1 X93.901 Y106.563 E8.95087
G1 X93.272 Y106.761 E9.14866
G1 X92.705 Y106.873 E9.32170
G1 X91.361 Y106.992 E9.72603
G1 X89.637 Y106.812 E10.24541
G1 X89.413 Y106.773 E10.31348
G1 X88.051 Y106.264 E10.74921
G1 X87.723 Y106.101 E10.85884
G1 X86.687 Y105.287 E11.25389
G1 X86.471 Y105.088 E11.34189
G1 X85.560 Y103.753 E11.82619
G1 X85.024 Y102.162 E12.32904
G1 X84.982 Y101.938 E12.39748
G1 X84.807 Y100.047 E12.96634
G92 E0
G1 X97.319 Y105.310 F7800.000
G1 X101.798 Y105.757 F7800.000
G1 X104.261 Y107.648 F7800.000
G1 X106.453 Y107.648 F7800.000
G1 X107.489 Y107.648 F7800.000
G1 X107.489 Y94.044 E4.07639 F600.000
G1 X107.569 Y93.468 E4.25074
G1 X108.524 Y93.198 E4.54819
G1 X116.246 Y93.198 E6.86205
G92 E0
G1 Z1.200 F7800.000
G1 X84.807 Y100.047 F7800.000
G1 X84.912 Y98.678 E0.41153 F600.000
G1 X85.032 Y97.973 E0.62586
G1 X85.174 Y97.439 E0.79152
G1 X85.575 Y96.327 E1.14548
G1 X86.163 Y95.391 E1.47684
G1 X86.479 Y94.989 E1.62985
G1 X86.670 Y94.779 E1.71524
G1 X86.863 Y94.596 E1.79480
G1 X87.721 Y93.933 E2.11989
G1 X88.048 Y93.754 E2.23139
G1 X88.761 Y93.449 E2.46387
G1 X89.407 Y93.240 E2.66728
G1 X89.958 Y93.127 E2.83582
G1 X91.325 Y93.002 E3.24709
G1 X92.680 Y93.123 E3.65471
G1 X93.266 Y93.240 E3.83388
G1 X93.876 Y93.433 E4.02549
G1 X94.633 Y93.752 E4.27154
G1 X94.929 Y93.910 E4.37210
G1 X95.805 Y94.580 E4.70268
G1 X95.988 Y94.750 E4.77748
G1 X96.181 Y94.962 E4.86331
G1 X96.516 Y95.390 E5.02625
G1 X97.108 Y96.338 E5.36128
G1 X97.505 Y97.453 E5.71595
G1 X97.675 Y98.145 E5.92930
G1 X97.757 Y98.688 E6.09399
G1 X97.860 Y100.065 E6.50780
G1 X97.755 Y101.445 E6.92234
G1 X97.636 Y102.140 E7.13363
G1 X97.494 Y102.667 E7.29724
G1 X97.096 Y103.754 E7.64415
G1 X96.511 Y104.668 E7.96934
G1 X96.196 Y105.061 E8.12006
G1 X95.999 Y105.273 E8.20700
G1 X95.812 Y105.446 E8.28338
G1 X94.947 Y106.094 E8.60708
G1 X94.631 Y106.261 E8.71417
G1 X93.901 Y106.563 E8.95087
G1 X93.272 Y106.761 E9.14866
G1 X92.705 Y106.873 E9.32170
G1 X91.361 Y106.992 E9.72603
G1 X89.637 Y106.812 E10.24541
G1 X89.413 Y106.773 E10.31348
G1 X88.051 Y106.264 E10.74921
G1 X87.723 Y106.101 E10.85884
G1 X86.687 Y105.287 E11.25389
G1 X86.471 Y105.088 E11.34189
G1 X85.560 Y103.753 E11.82619
G1 X85.024 Y102.162 E12.32904
G1 X84.982 Y101.938 E12.39748
G1 X84.807 Y100.047 E12.96634
G92 E0
G1 X97.319 Y105.310 F7800.000
G1 X101.798 Y105.757 F7800.000
G1 X104.261 Y107.648 F7800.000
G1 X106.453 Y107.648 F7800.000
G1 X107.489 Y107.648 F7800.000
G1 X107.489 Y94.044 E4.07639 F600.000
G1 X107.569 Y93.468 E4.25074
G1 X108.524 Y93.198 E4.54819
G1 X116.246 Y93.198 E6.86205
G92 E0
G1 Z1.500 F7800.000
G1 X84.807 Y100.047 F7800.000
G1 X84.912 Y98.678 E0.41153 F600.000
G1 X85.032 Y97.973 E0.62586
G1 X85.174 Y97.439 E0.79152
G1 X85.575 Y96.327 E1.14548
G1 X86.163 Y95.391 E1.47684
G1 X86.479 Y94.989 E1.62985
G1 X86.670 Y94.779 E1.71524
G1 X86.863 Y94.596 E1.79480
G1 X87.721 Y93.933 E2.11989
G1 X88.048 Y93.754 E2.23139
G1 X88.761 Y93.449 E2.46387
G1 X89.407 Y93.240 E2.66728
G1 X89.958 Y93.127 E2.83582
G1 X91.325 Y93.002 E3.24709
G1 X92.680 Y93.123 E3.65472
G1 X93.266 Y93.240 E3.83388
G1 X93.876 Y93.433 E4.02549
G1 X94.633 Y93.752 E4.27154
G1 X94.929 Y93.910 E4.37210
G1 X95.805 Y94.580 E4.70268
G1 X95.988 Y94.750 E4.77748
G1 X96.181 Y94.962 E4.86331
G1 X96.516 Y95.390 E5.02625
G1 X97.108 Y96.338 E5.36128
G1 X97.505 Y97.453 E5.71595
G1 X97.675 Y98.145 E5.92930
G1 X97.757 Y98.688 E6.09399
G1 X97.860 Y100.065 E6.50780
G1 X97.755 Y101.445 E6.92234
G1 X97.636 Y102.140 E7.13363
G1 X97.494 Y102.667 E7.29724
G1 X97.096 Y103.754 E7.64415
