; generated by Slic3r 1.2.9 on 2016-03-11 at 01:28:24

; external perimeters extrusion width = 1.54mm
; perimeters extrusion width = 2.62mm
; infill extrusion width = 6.27mm
; solid infill extrusion width = 2.62mm
; top infill extrusion width = 2.62mm

M107
M104 S30 ; set temperature
G28 ; home all axes
G1 Z5 F5000 ; lift nozzle
M302
M92 E10000
M500
M501
G1 E100
M109 S30 ; wait for temperature to be reached
G21 ; set units to millimeters
G90 ; use absolute coordinates
M82 ; use absolute distances for extrusion
G92 E0
G1 Z0.300 F7800.000
G1 X82.328 Y105.520 F7800.000
G1 X81.897 Y104.291 E0.05894 F378.000
G1 X81.678 Y102.077 E0.15961
G1 X81.776 Y100.578 E0.22759
G1 X82.069 Y99.212 E0.29082
G1 X82.554 Y97.981 E0.35070
G1 X83.222 Y96.912 E0.40773
G1 X84.060 Y96.027 E0.46286
G1 X85.072 Y95.324 E0.51861
G1 X86.244 Y94.813 E0.57647
G1 X87.561 Y94.505 E0.63767
G1 X89.024 Y94.402 E0.70407
G1 X90.383 Y94.499 E0.76570
G1 X90.476 Y94.506 E0.76993 F378.000
G1 X91.787 Y94.818 E0.83091
G1 X92.960 Y95.335 E0.88890
G1 X93.977 Y96.044 E0.94502
G1 X94.823 Y96.931 E1.00047
G1 X95.500 Y97.999 E1.05768
G1 X95.994 Y99.225 E1.11751
G1 X96.292 Y100.586 E1.18052
G1 X96.392 Y102.081 E1.24834
G1 X96.293 Y103.579 E1.31628
G1 X95.999 Y104.932 E1.37891
G1 X95.511 Y106.140 E1.43789
G1 X94.841 Y107.185 E1.49407
G1 X94.000 Y108.048 E1.54859
G1 X92.984 Y108.732 E1.60401
G1 X91.811 Y109.230 E1.66165
G1 X90.499 Y109.530 E1.72256
G1 X89.049 Y109.630 E1.78830
G1 X86.886 Y109.406 E1.88674
G1 X85.081 Y108.741 E1.97375
G1 X83.622 Y107.637 E2.05653
G1 X82.546 Y106.140 E2.13995
G1 X82.405 Y105.738 E2.15924
G1 X83.924 Y105.253 F7800.000
G1 X83.494 Y103.906 E2.22322 F378.000
G1 X83.331 Y102.081 E2.30614
G1 X83.496 Y100.258 E2.38894
G1 X83.995 Y98.692 E2.46334
G1 X84.833 Y97.388 E2.53350
G1 X85.976 Y96.410 E2.60155
G1 X87.378 Y95.824 E2.67030
G1 X88.935 Y95.641 E2.74125
G1 X89.024 Y95.631 E2.74530 F378.000
G1 X90.708 Y95.817 E2.82196
G1 X92.124 Y96.384 E2.89097
G1 X93.259 Y97.333 E2.95790
G1 X94.080 Y98.621 E3.02706
G1 X94.568 Y100.206 E3.10209
G1 X94.729 Y102.081 E3.18727
G1 X94.567 Y103.884 E3.26918
G1 X94.074 Y105.424 E3.34233
G1 X93.247 Y106.694 E3.41093
G1 X92.112 Y107.639 E3.47775
G1 X90.707 Y108.204 E3.54625
G1 X89.047 Y108.390 E3.62185
G1 X87.374 Y108.207 E3.69800
G1 X85.961 Y107.650 E3.76674
G1 X84.820 Y106.717 E3.83342
G1 X83.999 Y105.471 E3.90094
G1 X83.802 Y105.689 F7800.000
G1 X82.103 Y103.989 E4.01126 F540.000
G1 X82.042 Y103.376 E4.03955
G1 X83.533 Y104.867 E4.13632
G1 X83.274 Y104.055 E4.17546
G1 X81.981 Y102.762 E4.25932
G1 X81.921 Y102.149 E4.28761
G1 X83.218 Y103.446 E4.37180
G1 X83.164 Y102.839 E4.39977
G1 X81.930 Y101.605 E4.47982
G1 X81.964 Y101.086 E4.50370
G1 X83.110 Y102.231 E4.57803
G1 X83.144 Y101.713 E4.60187
G1 X81.998 Y100.567 E4.67625
G1 X82.092 Y100.108 E4.69774
G1 X83.190 Y101.206 E4.76899
G1 X83.236 Y100.699 E4.79235
G1 X82.190 Y99.652 E4.86025
G1 X82.290 Y99.200 E4.88152
G1 X83.297 Y100.207 E4.94686
G1 X83.431 Y99.787 E4.96705
G1 X82.447 Y98.803 E5.03091
G1 X82.603 Y98.407 E5.05047
G1 X83.564 Y99.368 E5.11284
G1 X83.698 Y98.948 E5.13304
G1 X82.763 Y98.014 E5.19368
G1 X82.976 Y97.674 E5.21209
G1 X83.854 Y98.551 E5.26905
G1 X84.070 Y98.215 E5.28741
G1 X83.188 Y97.333 E5.34461
G1 X83.405 Y96.997 E5.36297
G1 X84.286 Y97.878 E5.42014
G1 X84.503 Y97.541 E5.43850
G1 X83.675 Y96.714 E5.49222
G1 X83.951 Y96.437 E5.51017
G1 X84.734 Y97.219 E5.56093
G1 X85.032 Y96.964 E5.57893
G1 X84.228 Y96.160 E5.63109
G1 X84.546 Y95.926 E5.64924
G1 X85.330 Y96.709 E5.70009
G1 X85.628 Y96.454 E5.71809
G1 X84.872 Y95.699 E5.76710
G1 X85.209 Y95.483 E5.78547
G1 X85.935 Y96.209 E5.83260
G1 X86.326 Y96.046 E5.85199
G1 X85.594 Y95.315 E5.89945
G1 X85.979 Y95.147 E5.91872
G1 X86.716 Y95.883 E5.96650
G1 X87.106 Y95.720 E5.98590
G1 X86.382 Y94.996 E6.03288
G1 X86.830 Y94.891 E6.05400
G1 X87.526 Y95.588 E6.09922
G1 X88.021 Y95.530 E6.12209
G1 X87.278 Y94.786 E6.17034
G1 X87.757 Y94.712 E6.19258
G1 X88.516 Y95.472 E6.24188
G1 X89.011 Y95.414 E6.26474
G1 X88.273 Y94.676 E6.31263
G1 X88.790 Y94.639 E6.33640
G1 X89.609 Y95.459 E6.38957
G1 X90.231 Y95.528 E6.41829
G1 X89.362 Y94.659 E6.47469
G1 X89.958 Y94.701 E6.50210
G1 X90.853 Y95.597 E6.56020
G1 X91.324 Y94.962 F7800.000
G1 X93.558 Y97.195 E6.70515 F540.000
G1 X93.415 Y97.053 F7800.000
G1 X95.787 Y99.424 E6.85902 F540.000
G1 X95.942 Y100.132 E6.89229
G1 X94.308 Y98.498 E6.99831
G1 X94.554 Y99.297 E7.03668
G1 X96.076 Y100.819 E7.13543
G1 X96.115 Y101.412 E7.16268
G1 X94.792 Y100.089 E7.24853
G1 X94.844 Y100.694 E7.27639
G1 X96.155 Y102.004 E7.36143
G1 X96.140 Y102.543 E7.38615
G1 X94.896 Y101.299 E7.46689
G1 X94.948 Y101.904 E7.49475
G1 X96.106 Y103.062 E7.56989
G1 X96.072 Y103.581 E7.59375
G1 X94.918 Y102.427 E7.66864
G1 X94.872 Y102.934 E7.69201
G1 X95.978 Y104.039 E7.76375
G1 X95.879 Y104.494 E7.78508
G1 X94.827 Y103.441 E7.85338
G1 X94.766 Y103.934 E7.87615
G1 X95.777 Y104.944 E7.94174
G1 X95.618 Y105.338 E7.96123
G1 X94.632 Y104.353 E8.02518
G1 X94.498 Y104.772 E8.04537
G1 X95.459 Y105.732 E8.10769
G1 X95.293 Y106.119 E8.12702
G1 X94.364 Y105.191 E8.18728
G1 X94.203 Y105.583 E8.20673
G1 X95.077 Y106.456 E8.26341
G1 X94.861 Y106.793 E8.28178
G1 X93.985 Y105.918 E8.33861
G1 X93.767 Y106.252 E8.35694
G1 X94.631 Y107.116 E8.41301
G1 X94.354 Y107.393 E8.43095
G1 X93.549 Y106.587 E8.48324
G1 X93.305 Y106.896 E8.50131
G1 X94.078 Y107.669 E8.55147
G1 X93.801 Y107.946 E8.56941
G1 X93.003 Y107.148 E8.62122
G1 X92.701 Y107.399 E8.63924
G1 X93.472 Y108.169 E8.68924
G1 X93.141 Y108.392 E8.70752
G1 X92.399 Y107.650 E8.75567
G1 X92.069 Y107.873 E8.77395
G1 X92.792 Y108.596 E8.82085
G1 X92.404 Y108.761 E8.84020
G1 X91.675 Y108.032 E8.88750
G1 X91.281 Y108.190 E8.90700
G1 X92.016 Y108.925 E8.95470
G1 X91.600 Y109.063 E8.97478
G1 X90.886 Y108.349 E9.02111
G1 X90.437 Y108.453 E9.04225
G1 X91.150 Y109.166 E9.08851
G1 X90.700 Y109.269 E9.10970
G1 X89.940 Y108.509 E9.15901
G1 X89.443 Y108.565 E9.18197
G1 X90.207 Y109.329 E9.23158
G1 X89.690 Y109.365 E9.25537
G1 X88.941 Y108.616 E9.30399
G1 X88.319 Y108.547 E9.33267
G1 X89.173 Y109.401 E9.38805
G1 X88.563 Y109.344 E9.41615
G1 X87.698 Y108.479 E9.47227
G1 X87.011 Y108.345 E9.50440
G1 X87.946 Y109.280 E9.56508
G1 X87.329 Y109.216 E9.59354
G1 X86.098 Y107.985 E9.67341
G1 X85.699 Y108.692 F7800.000
G1 X82.642 Y105.635 E9.87184 F540.000
G1 X82.342 Y104.782 F7800.000
G1 X86.576 Y109.015 E10.14655 F540.000
G1 X84.044 Y107.590 F7800.000
G1 X83.690 Y107.236 E10.16953 F540.000
G92 E0
G1 X83.287 Y98.359 F7800.000
G1 X83.268 Y98.347 F7800.000
G1 X83.862 Y97.407 F7800.000
G1 X84.067 Y97.147 F7800.000
G1 X91.770 Y95.960 F7800.000
G1 X90.599 Y94.789 E0.07598 F540.000
G1 X92.211 Y95.295 F7800.000
G1 X95.420 Y98.505 E0.28424 F540.000
G1 X94.441 Y96.972 F7800.000
G1 X93.601 Y96.132 E0.33875 F540.000
G92 E0
G1 X96.516 Y100.554 F7800.000
G1 X99.996 Y100.322 F7800.000
G1 X99.996 Y100.367 F7800.000
G1 X103.473 Y100.581 F7800.000
G1 X118.252 Y101.282 F7800.000
G1 X118.322 Y102.063 E0.03546 F378.000
G1 X118.223 Y103.562 E0.10346
G1 X117.929 Y104.919 E0.16626
G1 X117.441 Y106.130 E0.22538
G1 X116.770 Y107.179 E0.28168
G1 X115.929 Y108.044 E0.33629
G1 X114.913 Y108.730 E0.39176
G1 X113.741 Y109.229 E0.44942
G1 X112.429 Y109.530 E0.51033
G1 X110.979 Y109.630 E0.57607
G1 X108.815 Y109.406 E0.67451
G1 X107.011 Y108.738 E0.76155
G1 X105.553 Y107.631 E0.84442
G1 X104.476 Y106.131 E0.92799
G1 X103.827 Y104.276 E1.01689
G1 X103.608 Y102.055 E1.11789
G1 X103.697 Y100.611 E1.18336
G1 X103.964 Y99.290 E1.24435
G1 X104.406 Y98.094 E1.30202
G1 X105.013 Y97.048 E1.35677
G1 X105.776 Y96.169 E1.40942
G1 X106.697 Y95.456 E1.46212
G1 X107.763 Y94.918 E1.51615
G1 X108.961 Y94.566 E1.57264
G1 X110.444 Y94.383 E1.64028
G1 X110.978 Y92.960 E1.70903
G1 X111.534 Y91.961 E1.76078
G1 X112.161 Y91.243 E1.80390
G1 X112.882 Y90.760 E1.84316
G1 X113.728 Y90.468 E1.88367
G1 X114.714 Y90.369 E1.92849
G1 X115.267 Y90.393 E1.95353
G1 X115.940 Y90.473 E1.98420 F378.000
G1 X116.413 Y90.567 E2.00605
G1 X116.413 Y91.566 E2.05124
G1 X115.811 Y91.486 E2.07874
G1 X115.384 Y91.470 E2.09808
G1 X114.649 Y91.541 E2.13150
G1 X113.988 Y91.762 E2.16301
G1 X113.416 Y92.132 E2.19384
G1 X112.931 Y92.661 E2.22634
G1 X112.521 Y93.357 E2.26287
G1 X112.093 Y94.442 E2.31565
G1 X114.105 Y94.939 E2.40942
G1 X115.560 Y95.730 E2.48438
G1 X116.742 Y96.886 E2.55921
G1 X117.617 Y98.354 E2.63651
G1 X118.145 Y100.076 E2.71804
G1 X118.232 Y101.052 E2.76235
G1 X116.585 Y101.193 F7800.000
G1 X116.659 Y102.059 E2.80170 F378.000
G1 X116.497 Y103.869 E2.88391
G1 X116.004 Y105.414 E2.95729
G1 X115.177 Y106.688 E3.02603
G1 X114.042 Y107.636 E3.09295
G1 X112.637 Y108.203 E3.16149
G1 X110.977 Y108.390 E3.23711
G1 X109.304 Y108.206 E3.31326
G1 X107.890 Y107.647 E3.38204
G1 X106.749 Y106.711 E3.44882
G1 X105.918 Y105.443 E3.51743
G1 X105.424 Y103.890 E3.59117
G1 X105.261 Y102.059 E3.67437
G1 X105.425 Y100.230 E3.75744
G1 X105.924 Y98.659 E3.83206
G1 X106.763 Y97.350 E3.90239
G1 X107.905 Y96.369 E3.97054
G1 X109.307 Y95.781 E4.03933
G1 X110.809 Y95.604 E4.10775
G1 X110.954 Y95.587 E4.11435 F378.000
G1 X112.638 Y95.774 E4.19102
G1 X114.054 Y96.343 E4.26007
G1 X115.189 Y97.295 E4.32710
G1 X116.010 Y98.588 E4.39642
G1 X116.498 Y100.178 E4.47167
G1 X116.565 Y100.963 E4.50732
G1 X117.738 Y99.614 F7800.000
G1 X115.706 Y97.583 E4.63801 F540.000
G1 X116.876 Y97.656 F7800.000
G1 X114.910 Y95.690 E4.76446 F540.000
G1 X114.271 Y96.147 F7800.000
G1 X113.060 Y94.936 E4.84238 F540.000
G1 X113.788 Y95.116 E4.87649
G1 X117.496 Y98.824 E5.11503
G1 X116.325 Y98.750 F7800.000
G1 X117.935 Y100.360 E5.21861 F540.000
G1 X117.989 Y100.962 E5.24609
G1 X116.568 Y99.541 E5.33751
G1 X116.739 Y100.260 E5.37116
G1 X118.043 Y101.564 E5.45501
G1 X118.094 Y102.163 E5.48236
G1 X116.791 Y100.860 E5.56619
G1 X116.842 Y101.459 E5.59356
G1 X118.060 Y102.677 E5.67191
G1 X118.026 Y103.192 E5.69536
G1 X116.880 Y102.046 E5.76907
G1 X116.835 Y102.549 E5.79204
G1 X117.980 Y103.693 E5.86565
G1 X117.882 Y104.143 E5.88661
G1 X116.790 Y103.052 E5.95684
G1 X116.745 Y103.555 E5.97981
G1 X117.784 Y104.594 E6.04665
G1 X117.668 Y105.026 E6.06701
G1 X116.663 Y104.021 E6.13166
G1 X116.531 Y104.437 E6.15151
G1 X117.511 Y105.417 E6.21455
G1 X117.354 Y105.808 E6.23371
G1 X116.398 Y104.853 E6.29515
G1 X116.266 Y105.268 E6.31499
G1 X117.178 Y106.180 E6.37363
G1 X116.964 Y106.514 E6.39169
G1 X116.090 Y105.640 E6.44792
G1 X115.874 Y105.972 E6.46595
G1 X116.750 Y106.849 E6.52232
G1 X116.513 Y107.160 E6.54011
G1 X115.658 Y106.305 E6.59511
G1 X115.442 Y106.637 E6.61313
G1 X116.239 Y107.434 E6.66439
G1 X115.965 Y107.708 E6.68202
G1 X115.187 Y106.930 E6.73205
G1 X114.888 Y107.180 E6.74975
G1 X115.684 Y107.975 E6.80092
G1 X115.357 Y108.196 E6.81888
G1 X114.590 Y107.429 E6.86822
G1 X114.291 Y107.679 E6.88592
G1 X115.030 Y108.417 E6.93342
G1 X114.677 Y108.613 E6.95176
G1 X113.953 Y107.889 E6.99832
G1 X113.563 Y108.047 E7.01748
G1 X114.293 Y108.777 E7.06442
G1 X113.908 Y108.940 E7.08343
G1 X113.172 Y108.204 E7.13076
G1 X112.782 Y108.362 E7.14991
G1 X113.491 Y109.071 E7.19552
G1 X113.045 Y109.173 E7.21633
G1 X112.328 Y108.457 E7.26243
G1 X111.836 Y108.512 E7.28497
G1 X112.599 Y109.276 E7.33407
G1 X112.106 Y109.331 E7.35662
G1 X111.343 Y108.568 E7.40571
G1 X110.839 Y108.612 E7.42872
G1 X111.594 Y109.367 E7.47725
G1 X111.081 Y109.402 E7.50063
G1 X110.223 Y108.544 E7.55581
G1 X109.607 Y108.476 E7.58400
G1 X110.472 Y109.341 E7.63965
G1 X109.860 Y109.278 E7.66762
G1 X108.917 Y108.335 E7.72829
G1 X108.010 Y107.976 F7800.000
G1 X109.249 Y109.214 E7.80795 F540.000
G1 X108.498 Y109.011 E7.84334
G1 X104.281 Y104.795 E8.11453
G1 X104.035 Y104.001 E8.15237
G1 X105.769 Y105.735 E8.26389
G1 X105.475 Y104.893 F7800.000
G1 X103.975 Y103.393 E8.36038 F540.000
G1 X103.915 Y102.785 E8.38817
G1 X105.220 Y104.089 E8.47206
G1 X105.152 Y103.473 E8.50023
G1 X103.856 Y102.177 E8.58362
G1 X103.856 Y101.629 E8.60854
G1 X105.098 Y102.871 E8.68846
G1 X105.045 Y102.270 E8.71594
G1 X103.888 Y101.112 E8.79037
G1 X103.919 Y100.596 E8.81390
G1 X105.069 Y101.746 E8.88784
G1 X105.114 Y101.243 E8.91080
G1 X104.008 Y100.137 E8.98194
G1 X104.100 Y99.681 E9.00311
G1 X105.160 Y100.740 E9.07125
G1 X105.207 Y100.240 E9.09411
G1 X104.201 Y99.233 E9.15887
G1 X104.349 Y98.833 E9.17827
G1 X105.340 Y99.824 E9.24201
G1 X105.472 Y99.407 E9.26186
G1 X104.497 Y98.433 E9.32457
G1 X104.660 Y98.047 E9.34360
G1 X105.604 Y98.991 E9.40433
G1 X105.742 Y98.582 E9.42399
G1 X104.861 Y97.700 E9.48069
G1 X105.062 Y97.354 E9.49893
G1 X105.956 Y98.248 E9.55645
G1 X106.170 Y97.914 E9.57449
G1 X105.285 Y97.028 E9.63145
G1 X105.540 Y96.735 E9.64912
G1 X106.384 Y97.579 E9.70345
G1 X106.598 Y97.245 E9.72150
G1 X105.800 Y96.447 E9.77283
G1 X106.080 Y96.178 E9.79047
G1 X106.889 Y96.988 E9.84252
G1 X107.184 Y96.735 E9.86020
G1 X106.389 Y95.939 E9.91136
G1 X106.697 Y95.700 E9.92913
G1 X107.479 Y96.481 E9.97938
G1 X107.774 Y96.228 E9.99706
G1 X107.047 Y95.501 E10.04381
G1 X107.411 Y95.317 E10.06237
G1 X108.144 Y96.051 E10.10954
G1 X108.531 Y95.889 E10.12858
G1 X107.776 Y95.133 E10.17716
G1 X108.196 Y95.006 E10.19714
G1 X108.917 Y95.727 E10.24351
G1 X109.303 Y95.565 E10.26256
G1 X108.620 Y94.881 E10.30652
G1 X109.059 Y94.772 E10.32709
G1 X109.792 Y95.505 E10.37423
G1 X110.282 Y95.447 E10.39669
G1 X109.546 Y94.712 E10.44400
G1 X110.034 Y94.651 E10.46635
G1 X110.772 Y95.389 E10.51382
G1 X111.321 Y95.391 E10.53880
G1 X110.522 Y94.591 E10.59022
G1 X110.715 Y94.236 E10.60860
G1 X111.938 Y95.459 E10.68726
G1 X112.555 Y95.528 E10.71549
G1 X111.604 Y94.576 E10.77671
G1 X111.916 Y94.340 E10.79451
G1 X111.014 Y93.439 E10.85250
G1 X111.164 Y93.040 E10.87187
G1 X112.071 Y93.947 E10.93024
G1 X112.226 Y93.554 E10.94945
G1 X111.356 Y92.684 E11.00542
G1 X111.552 Y92.332 E11.02375
G1 X112.399 Y93.179 E11.07818
G1 X112.602 Y92.834 E11.09639
G1 X111.761 Y91.993 E11.15044
G1 X112.017 Y91.701 E11.16811
G1 X112.817 Y92.501 E11.21956
G1 X113.079 Y92.215 E11.23720
G1 X112.273 Y91.408 E11.28908
G1 X112.597 Y91.185 E11.30700
G1 X113.353 Y91.941 E11.35561
G1 X113.686 Y91.725 E11.37364
G1 X112.926 Y90.965 E11.42256
G1 X113.330 Y90.821 E11.44208
G1 X114.038 Y91.530 E11.48765
G1 X114.449 Y91.392 E11.50735
G1 X113.743 Y90.686 E11.55277
G1 X114.241 Y90.636 E11.57554
G1 X114.902 Y91.297 E11.61805
G1 X115.402 Y91.248 E11.64088
G1 X114.754 Y90.601 E11.68253
G1 X115.341 Y90.640 E11.70927
G1 X115.969 Y91.268 E11.74967
G1 X115.978 Y90.729 E11.77419
G1 X116.187 Y90.938 E11.78764
G92 E0
G1 X112.195 Y92.382 F7800.000
G1 X111.795 Y93.085 F7800.000
G1 X113.355 Y95.779 F7800.000
G1 X112.332 Y94.756 E0.06582 F540.000
G1 X111.761 Y94.734 E0.09180
G1 X110.865 Y93.838 E0.14943
G1 X105.217 Y98.327 F7800.000
G1 X104.772 Y99.519 F7800.000
G1 X104.630 Y100.067 F7800.000
G1 X104.535 Y100.721 F7800.000
G1 X104.435 Y102.040 F7800.000
G1 X104.385 Y102.041 F7800.000
G1 X104.577 Y105.639 F7800.000
G1 X107.628 Y108.690 E0.34568 F540.000
G1 X105.976 Y107.586 F7800.000
G1 X105.621 Y107.231 E0.36848 F540.000
M106 S255
G92 E0
G1 Z0.600 F7800.000
G1 X82.506 Y102.063 F7800.000
G1 X82.611 Y100.694 E0.41153 F600.000
G1 X82.731 Y99.989 E0.62586
G1 X82.873 Y99.455 E0.79152
G1 X83.274 Y98.343 E1.14548
G1 X83.862 Y97.407 E1.47685
G1 X84.178 Y97.005 E1.62985
G1 X84.369 Y96.795 E1.71524
G1 X84.562 Y96.612 E1.79480
G1 X85.420 Y95.949 E2.11989
G1 X85.747 Y95.770 E2.23139
G1 X86.460 Y95.465 E2.46387
G1 X87.106 Y95.256 E2.66728
G1 X87.657 Y95.143 E2.83582
G1 X89.024 Y95.018 E3.24709
G1 X90.379 Y95.139 E3.65472
G1 X90.965 Y95.256 E3.83388
G1 X91.575 Y95.449 E4.02549
G1 X92.332 Y95.768 E4.27154
G1 X92.628 Y95.926 E4.37210
G1 X93.504 Y96.596 E4.70268
G1 X93.686 Y96.766 E4.77748
G1 X93.880 Y96.978 E4.86331
G1 X94.215 Y97.406 E5.02625
G1 X94.807 Y98.354 E5.36128
G1 X95.204 Y99.469 E5.71595
G1 X95.374 Y100.161 E5.92930
G1 X95.456 Y100.704 E6.09399
G1 X95.559 Y102.081 E6.50780
G1 X95.454 Y103.461 E6.92234
G1 X95.335 Y104.156 E7.13363
G1 X95.193 Y104.683 E7.29724
G1 X94.795 Y105.770 E7.64415
G1 X94.210 Y106.684 E7.96933
G1 X93.895 Y107.077 E8.12006
G1 X93.698 Y107.289 E8.20700
G1 X93.511 Y107.462 E8.28338
G1 X92.646 Y108.110 E8.60708
G1 X92.330 Y108.277 E8.71417
