; generated by Slic3r 1.2.9 on 2016-03-11 at 01:28:29

; external perimeters extrusion width = 1.54mm
; perimeters extrusion width = 2.62mm
; infill extrusion width = 6.27mm
; solid infill extrusion width = 2.62mm
; top infill extrusion width = 2.62mm

M107
M104 S30 ; set temperature
G28 ; home all axes
G1 Z5 F5000 ; lift nozzle
M302
M92 E10000
M500
M501
G1 E100
M109 S30 ; wait for temperature to be reached
G21 ; set units to millimeters
G90 ; use absolute coordinates
M82 ; use absolute distances for extrusion
G92 E0
G1 Z0.300 F7800.000
G1 X97.001 Y97.538 F7800.000
G1 X97.227 Y98.570 E0.04778 F378.000
G1 X97.327 Y100.065 E0.11561
G1 X97.228 Y101.563 E0.18354
G1 X96.934 Y102.916 E0.24617
G1 X96.445 Y104.124 E0.30515
G1 X95.775 Y105.169 E0.36133
G1 X94.934 Y106.032 E0.41585
G1 X93.918 Y106.716 E0.47127
G1 X92.746 Y107.214 E0.52891
G1 X91.433 Y107.514 E0.58982
G1 X89.984 Y107.614 E0.65557
G1 X87.820 Y107.390 E0.75400
G1 X86.016 Y106.725 E0.84101
G1 X84.557 Y105.621 E0.92380
G1 X83.481 Y104.124 E1.00722
G1 X82.831 Y102.275 E1.09589
G1 X82.613 Y100.061 E1.19656
G1 X82.710 Y98.562 E1.26454
G1 X83.003 Y97.196 E1.32778
G1 X83.489 Y95.965 E1.38765
G1 X84.156 Y94.896 E1.44468
G1 X84.994 Y94.011 E1.49981
G1 X86.006 Y93.308 E1.55556
G1 X87.178 Y92.797 E1.61342
G1 X88.495 Y92.489 E1.67462
G1 X89.959 Y92.386 E1.74102
G1 X91.317 Y92.483 E1.80265
G1 X91.411 Y92.490 E1.80688 F378.000
G1 X92.722 Y92.802 E1.86786
G1 X93.894 Y93.319 E1.92585
G1 X94.912 Y94.028 E1.98197
G1 X95.758 Y94.915 E2.03742
G1 X96.434 Y95.983 E2.09463
G1 X96.929 Y97.209 E2.15446
G1 X96.951 Y97.312 E2.15924
G1 X95.381 Y97.796 F7800.000
G1 X95.503 Y98.190 E2.17790 F378.000
G1 X95.664 Y100.065 E2.26307
G1 X95.501 Y101.868 E2.34498
G1 X95.009 Y103.408 E2.41814
G1 X94.181 Y104.678 E2.48674
G1 X93.046 Y105.623 E2.55355
G1 X91.642 Y106.188 E2.62206
G1 X89.981 Y106.374 E2.69766
G1 X88.309 Y106.191 E2.77381
G1 X86.895 Y105.634 E2.84255
G1 X85.754 Y104.701 E2.90922
G1 X84.923 Y103.438 E2.97767
G1 X84.428 Y101.890 E3.05119
G1 X84.265 Y100.065 E3.13411
G1 X84.430 Y98.242 E3.21691
G1 X84.929 Y96.676 E3.29131
G1 X85.768 Y95.372 E3.36147
G1 X86.910 Y94.394 E3.42952
G1 X88.312 Y93.808 E3.49827
G1 X89.814 Y93.632 E3.56668
G1 X89.958 Y93.615 E3.57327 F378.000
G1 X91.642 Y93.801 E3.64993
G1 X93.058 Y94.368 E3.71894
G1 X94.193 Y95.317 E3.78587
G1 X95.015 Y96.605 E3.85503
G1 X95.314 Y97.575 E3.90094
G1 X96.355 Y96.489 F7800.000
G1 X93.146 Y93.279 E4.10920 F540.000
G1 X92.704 Y93.944 F7800.000
G1 X91.533 Y92.773 E4.18518 F540.000
G1 X92.259 Y92.946 F7800.000
G1 X94.493 Y95.179 E4.33013 F540.000
G1 X94.350 Y95.037 F7800.000
G1 X96.721 Y97.408 E4.48400 F540.000
G1 X96.876 Y98.116 E4.51727
G1 X95.242 Y96.482 E4.62330
G1 X95.488 Y97.281 E4.66166
G1 X97.010 Y98.803 E4.76042
G1 X97.050 Y99.396 E4.78767
G1 X95.727 Y98.073 E4.87351
G1 X95.779 Y98.678 E4.90138
G1 X97.089 Y99.988 E4.98641
G1 X97.075 Y100.527 E5.01114
G1 X95.831 Y99.283 E5.09187
G1 X95.883 Y99.888 E5.11973
G1 X97.041 Y101.046 E5.19488
G1 X97.007 Y101.565 E5.21874
G1 X95.853 Y100.411 E5.29362
G1 X95.807 Y100.918 E5.31699
G1 X96.912 Y102.023 E5.38874
G1 X96.814 Y102.478 E5.41006
G1 X95.761 Y101.425 E5.47836
G1 X95.701 Y101.918 E5.50113
G1 X96.711 Y102.928 E5.56672
G1 X96.552 Y103.322 E5.58621
G1 X95.567 Y102.337 E5.65017
G1 X95.433 Y102.756 E5.67036
G1 X96.393 Y103.716 E5.73268
G1 X96.227 Y104.103 E5.75201
G1 X95.299 Y103.175 E5.81227
G1 X95.138 Y103.567 E5.83171
G1 X96.011 Y104.440 E5.88840
G1 X95.795 Y104.777 E5.90677
G1 X94.920 Y103.902 E5.96359
G1 X94.701 Y104.236 E5.98193
G1 X95.565 Y105.100 E6.03800
G1 X95.289 Y105.377 E6.05594
G1 X94.483 Y104.571 E6.10822
G1 X94.239 Y104.880 E6.12629
G1 X95.012 Y105.653 E6.17646
G1 X94.736 Y105.930 E6.19440
G1 X93.937 Y105.132 E6.24620
G1 X93.636 Y105.383 E6.26422
G1 X94.406 Y106.153 E6.31423
G1 X94.076 Y106.376 E6.33251
G1 X93.334 Y105.634 E6.38066
G1 X93.004 Y105.857 E6.39893
G1 X93.727 Y106.580 E6.44583
G1 X93.338 Y106.745 E6.46518
G1 X92.610 Y106.016 E6.51248
G1 X92.215 Y106.174 E6.53199
G1 X92.950 Y106.909 E6.57968
G1 X92.535 Y107.047 E6.59976
G1 X91.821 Y106.333 E6.64609
G1 X91.372 Y106.437 E6.66724
G1 X92.085 Y107.150 E6.71350
G1 X91.635 Y107.253 E6.73468
G1 X90.875 Y106.493 E6.78400
G1 X90.377 Y106.549 E6.80696
G1 X91.142 Y107.313 E6.85656
G1 X90.625 Y107.349 E6.88035
G1 X89.875 Y106.600 E6.92898
G1 X89.254 Y106.531 E6.95766
G1 X90.107 Y107.385 E7.01303
G1 X89.497 Y107.328 E7.04114
G1 X88.633 Y106.463 E7.09725
G1 X87.945 Y106.329 E7.12939
G1 X88.881 Y107.264 E7.19007
G1 X88.264 Y107.200 E7.21852
G1 X87.033 Y105.969 E7.29840
G1 X86.634 Y106.676 F7800.000
G1 X83.576 Y103.619 E7.49683 F540.000
G1 X83.277 Y102.766 F7800.000
G1 X87.510 Y106.999 E7.77154 F540.000
G1 X84.979 Y105.574 F7800.000
G1 X84.625 Y105.220 E7.79452 F540.000
G1 X84.737 Y103.673 F7800.000
G1 X83.037 Y101.973 E7.90483 F540.000
G1 X82.976 Y101.360 E7.93312
G1 X84.468 Y102.851 E8.02990
G1 X84.208 Y102.039 E8.06903
G1 X82.916 Y100.746 E8.15290
G1 X82.855 Y100.133 E8.18119
G1 X84.153 Y101.430 E8.26537
G1 X84.098 Y100.823 E8.29335
G1 X82.865 Y99.589 E8.37340
G1 X82.899 Y99.070 E8.39727
G1 X84.044 Y100.215 E8.47160
G1 X84.079 Y99.697 E8.49545
G1 X82.933 Y98.551 E8.56982
G1 X83.027 Y98.092 E8.59132
G1 X84.125 Y99.190 E8.66256
G1 X84.170 Y98.683 E8.68593
G1 X83.124 Y97.636 E8.75382
G1 X83.225 Y97.184 E8.77509
G1 X84.231 Y98.191 E8.84043
G1 X84.365 Y97.771 E8.86063
G1 X83.381 Y96.787 E8.92448
G1 X83.538 Y96.391 E8.94404
G1 X84.499 Y97.352 E9.00642
G1 X84.632 Y96.932 E9.02661
G1 X83.698 Y95.998 E9.08725
G1 X83.910 Y95.658 E9.10567
G1 X84.788 Y96.535 E9.16262
G1 X85.005 Y96.199 E9.18099
G1 X84.123 Y95.317 E9.23819
G1 X84.340 Y94.981 E9.25654
G1 X85.221 Y95.862 E9.31371
G1 X85.437 Y95.525 E9.33208
G1 X84.609 Y94.697 E9.38580
G1 X84.886 Y94.421 E9.40374
G1 X85.668 Y95.203 E9.45451
G1 X85.966 Y94.948 E9.47251
G1 X85.162 Y94.144 E9.52467
G1 X85.481 Y93.910 E9.54282
G1 X86.264 Y94.693 E9.59367
G1 X86.562 Y94.438 E9.61166
G1 X85.807 Y93.683 E9.66068
G1 X86.144 Y93.467 E9.67904
G1 X86.870 Y94.193 E9.72617
G1 X87.260 Y94.030 E9.74557
G1 X86.529 Y93.299 E9.79302
G1 X86.914 Y93.131 E9.81230
G1 X87.650 Y93.867 E9.86008
G1 X88.040 Y93.704 E9.87947
G1 X87.316 Y92.980 E9.92646
G1 X87.764 Y92.875 E9.94758
G1 X88.461 Y93.572 E9.99280
G1 X88.956 Y93.514 E10.01566
G1 X88.212 Y92.770 E10.06392
G1 X88.691 Y92.696 E10.08615
G1 X89.451 Y93.456 E10.13545
G1 X89.946 Y93.398 E10.15832
G1 X89.208 Y92.660 E10.20621
G1 X89.724 Y92.623 E10.22997
G1 X90.544 Y93.443 E10.28315
G1 X91.166 Y93.512 E10.31187
G1 X90.297 Y92.643 E10.36827
G1 X90.893 Y92.685 E10.39568
G1 X91.788 Y93.581 E10.45378
G1 X94.535 Y94.116 F7800.000
G1 X95.375 Y94.956 E10.50829 F540.000
G92 E0
G1 X97.144 Y97.143 F7800.000
G1 X101.040 Y95.571 F7800.000
G1 X100.982 Y94.751 F7800.000
G1 X105.304 Y95.826 F7800.000
G1 X109.908 Y93.740 F7800.000
G1 X108.825 Y94.122 E0.05195 F378.000
G1 X107.954 Y94.765 E0.10097
G1 X107.322 Y95.657 E0.15039
G1 X106.949 Y96.771 E0.20359
G1 X106.827 Y98.090 E0.26351
G1 X106.827 Y107.423 E0.68583
G1 X105.206 Y107.423 E0.75918
G1 X105.206 Y97.934 E1.18853
G1 X105.290 Y96.818 E1.23920
G1 X105.537 Y95.824 E1.28555
G1 X105.947 Y94.941 E1.32959
G1 X106.504 Y94.179 E1.37232
G1 X107.195 Y93.548 E1.41467
G1 X108.023 Y93.046 E1.45849
G1 X108.975 Y92.680 E1.50462
G1 X110.035 Y92.459 E1.55362
G1 X111.205 Y92.385 E1.60665
G1 X112.297 Y92.455 E1.65614
G1 X112.421 Y92.462 E1.66177 F378.000
G1 X113.518 Y92.692 E1.71250
G1 X114.499 Y93.072 E1.76010
G1 X115.349 Y93.594 E1.80525
G1 X116.059 Y94.249 E1.84892
G1 X116.630 Y95.038 E1.89301
G1 X117.049 Y95.951 E1.93848
G1 X117.302 Y96.978 E1.98633
G1 X117.388 Y98.129 E2.03858
G1 X117.388 Y107.423 E2.45911
G1 X115.777 Y107.423 E2.53201
G1 X115.777 Y98.230 E2.94798
G1 X115.646 Y96.869 E3.00984
G1 X115.243 Y95.719 E3.06500
G1 X114.565 Y94.800 E3.11667
G1 X113.644 Y94.138 E3.16802
G1 X112.517 Y93.744 E3.22203
G1 X111.193 Y93.615 E3.28221
G1 X110.138 Y93.718 E3.33017
G1 X112.699 Y93.535 F7800.000
G1 X111.820 Y92.656 E3.38641 F540.000
G1 X111.237 Y92.619 E3.41281
G1 X112.085 Y93.467 E3.46704
G1 X111.480 Y93.408 E3.49452
G1 X110.711 Y92.638 E3.54377
G1 X110.198 Y92.671 E3.56703
G1 X110.947 Y93.419 E3.61496
G1 X110.450 Y93.468 E3.63755
G1 X109.722 Y92.740 E3.68413
G1 X109.271 Y92.834 E3.70500
G1 X109.953 Y93.516 E3.74866
G1 X109.544 Y93.653 E3.76817
G1 X108.840 Y92.949 E3.81324
G1 X108.446 Y93.100 E3.83234
G1 X109.141 Y93.795 E3.87681
G1 X108.743 Y93.942 E3.89602
G1 X108.055 Y93.255 E3.94002
G1 X107.716 Y93.461 E3.95798
G1 X108.429 Y94.174 E4.00364
G1 X108.116 Y94.406 E4.02128
G1 X107.376 Y93.667 E4.06859
G1 X107.079 Y93.915 E4.08612
G1 X107.805 Y94.641 E4.13260
G1 X107.579 Y94.960 E4.15030
G1 X106.802 Y94.183 E4.20003
G1 X106.536 Y94.463 E4.21749
G1 X107.353 Y95.279 E4.26974
G1 X107.127 Y95.599 E4.28744
G1 X106.306 Y94.778 E4.33997
G1 X106.089 Y95.107 E4.35779
G1 X106.990 Y96.007 E4.41541
G1 X106.853 Y96.415 E4.43491
G1 X105.916 Y95.479 E4.49483
G1 X105.745 Y95.853 E4.51343
G1 X106.723 Y96.832 E4.57608
G1 X106.677 Y97.331 E4.59877
G1 X105.636 Y96.289 E4.66541
G1 X105.527 Y96.726 E4.68578
G1 X106.631 Y97.830 E4.75643
G1 X106.601 Y98.345 E4.77979
G1 X105.480 Y97.224 E4.85154
G1 X105.442 Y97.732 E4.87457
G1 X106.601 Y98.891 E4.94875
G1 X106.601 Y99.436 E4.97343
G1 X105.432 Y98.267 E5.04825
G1 X105.432 Y98.812 E5.07294
G1 X106.601 Y99.982 E5.14775
G1 X106.601 Y100.527 E5.17244
G1 X105.432 Y99.358 E5.24726
G1 X105.432 Y99.903 E5.27194
G1 X106.601 Y101.072 E5.34676
G1 X106.601 Y101.618 E5.37144
G1 X105.432 Y100.449 E5.44626
G1 X105.432 Y100.994 E5.47094
G1 X106.601 Y102.163 E5.54576
G1 X106.601 Y102.709 E5.57044
G1 X105.432 Y101.539 E5.64526
G1 X105.432 Y102.085 E5.66994
G1 X106.601 Y103.254 E5.74476
G1 X106.601 Y103.799 E5.76944
G1 X105.432 Y102.630 E5.84426
G1 X105.432 Y103.176 E5.86894
G1 X106.601 Y104.345 E5.94376
G1 X106.601 Y104.890 E5.96844
G1 X105.432 Y103.721 E6.04326
G1 X105.432 Y104.266 E6.06794
G1 X106.601 Y105.436 E6.14276
G1 X106.601 Y105.981 E6.16744
G1 X105.432 Y104.812 E6.24226
G1 X105.432 Y105.357 E6.26694
G1 X106.601 Y106.526 E6.34176
G1 X106.601 Y107.072 E6.36645
G1 X105.432 Y105.903 E6.44127
G1 X105.432 Y106.448 E6.46595
G1 X106.181 Y107.197 E6.51388
G1 X105.635 Y107.197 E6.53856
G1 X105.432 Y106.993 E6.55159
G92 E0
G1 X106.052 Y106.648 F7800.000
G1 X106.052 Y106.648 F7800.000
G1 X116.003 Y106.656 F7800.000
G1 X116.543 Y107.197 E0.03459 F540.000
G1 X117.089 Y107.197 E0.05928
G1 X116.003 Y106.111 E0.12877
G1 X116.003 Y105.566 E0.15346
G1 X117.162 Y106.725 E0.22764
G1 X117.162 Y106.179 E0.25232
G1 X116.003 Y105.020 E0.32650
G1 X116.003 Y104.475 E0.35118
G1 X117.162 Y105.634 E0.42536
G1 X117.162 Y105.089 E0.45004
G1 X116.003 Y103.929 E0.52422
G1 X116.003 Y103.384 E0.54890
G1 X117.162 Y104.543 E0.62308
G1 X117.162 Y103.998 E0.64776
G1 X116.003 Y102.839 E0.72194
G1 X116.003 Y102.293 E0.74662
G1 X117.162 Y103.452 E0.82080
G1 X117.162 Y102.907 E0.84548
G1 X116.003 Y101.748 E0.91966
G1 X116.003 Y101.202 E0.94434
G1 X117.162 Y102.362 E1.01852
G1 X117.162 Y101.816 E1.04320
G1 X116.003 Y100.657 E1.11738
G1 X116.003 Y100.112 E1.14207
G1 X117.162 Y101.271 E1.21624
G1 X117.162 Y100.725 E1.24093
G1 X116.003 Y99.566 E1.31511
G1 X116.003 Y99.021 E1.33979
G1 X117.162 Y100.180 E1.41397
G1 X117.162 Y99.635 E1.43865
G1 X116.003 Y98.475 E1.51283
G1 X115.981 Y97.908 E1.53851
G1 X117.162 Y99.089 E1.61408
G1 X117.162 Y98.544 E1.63876
G1 X115.923 Y97.305 E1.71805
G1 X115.857 Y96.694 E1.74587
G1 X117.144 Y97.980 E1.82823
G1 X117.100 Y97.391 E1.85496
G1 X115.564 Y95.855 E1.95329
G1 X115.983 Y94.638 F7800.000
G1 X115.378 Y94.033 E1.99201 F540.000
G1 X113.933 Y93.133 F7800.000
G1 X116.758 Y95.958 E2.17284 F540.000
G1 X116.987 Y96.732 E2.20934
G1 X113.111 Y92.857 E2.45737
G1 X112.421 Y92.712 E2.48926
G1 X113.536 Y93.827 E2.56062
M106 S255
G92 E0
G1 Z0.600 F7800.000
G1 X83.441 Y100.047 F7800.000
G1 X83.546 Y98.678 E0.41153 F600.000
G1 X83.665 Y97.973 E0.62586
G1 X83.807 Y97.439 E0.79152
G1 X84.208 Y96.327 E1.14548
G1 X84.797 Y95.391 E1.47685
G1 X85.112 Y94.989 E1.62985
G1 X85.304 Y94.779 E1.71524
G1 X85.496 Y94.596 E1.79480
G1 X86.355 Y93.933 E2.11989
G1 X86.681 Y93.754 E2.23139
G1 X87.395 Y93.449 E2.46387
G1 X88.041 Y93.240 E2.66728
G1 X88.592 Y93.127 E2.83582
G1 X89.958 Y93.002 E3.24709
G1 X91.313 Y93.123 E3.65472
G1 X91.900 Y93.240 E3.83388
G1 X92.509 Y93.433 E4.02549
G1 X93.266 Y93.752 E4.27154
G1 X93.562 Y93.910 E4.37210
G1 X94.439 Y94.580 E4.70268
G1 X94.621 Y94.750 E4.77748
G1 X94.814 Y94.962 E4.86331
G1 X95.150 Y95.390 E5.02625
G1 X95.741 Y96.338 E5.36128
G1 X96.138 Y97.453 E5.71595
G1 X96.308 Y98.145 E5.92930
G1 X96.391 Y98.688 E6.09399
G1 X96.494 Y100.065 E6.50780
G1 X96.388 Y101.445 E6.92234
G1 X96.269 Y102.140 E7.13363
G1 X96.128 Y102.667 E7.29724
G1 X95.730 Y103.754 E7.64415
G1 X95.144 Y104.668 E7.96933
G1 X94.830 Y105.061 E8.12006
G1 X94.632 Y105.273 E8.20700
G1 X94.445 Y105.446 E8.28338
G1 X93.581 Y106.094 E8.60708
G1 X93.265 Y106.261 E8.71417
G1 X92.535 Y106.563 E8.95087
G1 X91.905 Y106.761 E9.14866
G1 X91.339 Y106.873 E9.32170
G1 X89.995 Y106.992 E9.72603
G1 X88.271 Y106.812 E10.24541
G1 X88.047 Y106.773 E10.31348
G1 X86.685 Y106.264 E10.74921
G1 X86.357 Y106.101 E10.85884
G1 X85.320 Y105.287 E11.25389
G1 X85.104 Y105.088 E11.34189
G1 X84.194 Y103.753 E11.82619
G1 X83.658 Y102.162 E12.32904
G1 X83.616 Y101.938 E12.39748
G1 X83.441 Y100.047 E12.96634
G92 E0
G1 X97.149 Y102.982 F7800.000
G1 X104.981 Y108.744 F7800.000
G1 X111.302 Y105.590 F7800.000
G1 X113.360 Y107.648 F7800.000
G1 X115.552 Y107.648 F7800.000
G1 X116.582 Y107.648 F7800.000
G1 X116.581 Y98.159 E2.84325 F600.000
G1 X116.491 Y97.107 E3.15975
G1 X116.387 Y96.581 E3.32028
G1 X116.279 Y96.220 E3.43319
G1 X115.959 Y95.430 E3.68879
G1 X115.484 Y94.758 E3.93514
G1 X115.164 Y94.401 E4.07880
G1 X114.953 Y94.200 E4.16631
G1 X114.193 Y93.689 E4.44066
G1 X113.828 Y93.511 E4.56242
G1 X113.330 Y93.328 E4.72147
G1 X112.747 Y93.166 E4.90264
G1 X112.335 Y93.091 E5.02801
G1 X111.205 Y93.001 E5.36783
G1 X110.120 Y93.086 E5.69391
G1 X109.677 Y93.166 E5.82881
G1 X109.160 Y93.310 E5.98949
G1 X108.642 Y93.501 E6.15493
G1 X108.322 Y93.654 E6.26143
G1 X107.562 Y94.174 E6.53725
G1 X107.348 Y94.380 E6.62624
G1 X107.074 Y94.690 E6.75028
G1 X106.618 Y95.337 E6.98749
G1 X106.312 Y96.097 E7.23307
G1 X106.197 Y96.491 E7.35605
G1 X106.105 Y96.949 E7.49583
G1 X106.019 Y98.005 E7.81328
G1 X106.016 Y107.648 E10.70287
G92 E0
G1 Z0.900 F7800.000
G1 X83.441 Y100.047 F7800.000
G1 X83.546 Y98.678 E0.41153 F600.000
G1 X83.665 Y97.973 E0.62586
G1 X83.807 Y97.439 E0.79152
G1 X84.208 Y96.327 E1.14548
G1 X84.797 Y95.391 E1.47684
G1 X85.112 Y94.989 E1.62985
G1 X85.304 Y94.779 E1.71524
G1 X85.496 Y94.596 E1.79480
G1 X86.355 Y93.933 E2.11989
G1 X86.681 Y93.754 E2.23139
G1 X87.395 Y93.449 E2.46387
G1 X88.041 Y93.240 E2.66728
G1 X88.592 Y93.127 E2.83582
G1 X89.958 Y93.002 E3.24709
G1 X91.313 Y93.123 E3.65472
G1 X91.900 Y93.240 E3.83388
G1 X92.509 Y93.433 E4.02549
G1 X93.266 Y93.752 E4.27154
G1 X93.562 Y93.910 E4.37210
G1 X94.439 Y94.580 E4.70268
G1 X94.621 Y94.750 E4.77748
G1 X94.814 Y94.962 E4.86331
G1 X95.150 Y95.390 E5.02625
G1 X95.741 Y96.338 E5.36128
G1 X96.138 Y97.453 E5.71595
G1 X96.308 Y98.145 E5.92930
G1 X96.391 Y98.688 E6.09399
G1 X96.494 Y100.065 E6.50780
G1 X96.388 Y101.445 E6.92234
G1 X96.269 Y102.140 E7.13363
G1 X96.128 Y102.667 E7.29724
G1 X95.730 Y103.754 E7.64415
G1 X95.144 Y104.668 E7.96933
G1 X94.830 Y105.061 E8.12006
G1 X94.632 Y105.273 E8.20700
G1 X94.445 Y105.446 E8.28338
G1 X93.581 Y106.094 E8.60708
G1 X93.265 Y106.261 E8.71417
G1 X92.535 Y106.563 E8.95087
G1 X91.905 Y106.761 E9.14866
G1 X91.339 Y106.873 E9.32170
G1 X89.995 Y106.992 E9.72603
G1 X88.271 Y106.812 E10.24541
G1 X88.047 Y106.773 E10.31348
G1 X86.685 Y106.264 E10.74921
G1 X86.357 Y106.101 E10.85884
G1 X85.320 Y105.287 E11.25389
G1 X85.104 Y105.088 E11.34189
G1 X84.194 Y103.753 E11.82619
G1 X83.658 Y102.162 E12.32904
G1 X83.616 Y101.938 E12.39748
G1 X83.441 Y100.047 E12.96634
G92 E0
G1 X97.149 Y102.982 F7800.000
G1 X104.981 Y108.744 F7800.000
G1 X111.302 Y105.590 F7800.000
G1 X113.360 Y107.648 F7800.000
