; generated by Slic3r 1.2.9 on 2016-03-11 at 01:28:30

; external perimeters extrusion width = 1.54mm
; perimeters extrusion width = 2.62mm
; infill extrusion width = 6.27mm
; solid infill extrusion width = 2.62mm
; top infill extrusion width = 2.62mm

M107
M104 S30 ; set temperature
G28 ; home all axes
G1 Z5 F5000 ; lift nozzle
M302
M92 E10000
M500
M501
G1 E100
M109 S30 ; wait for temperature to be reached
G21 ; set units to millimeters
G90 ; use absolute coordinates
M82 ; use absolute distances for extrusion
G92 E0
G1 Z0.300 F7800.000
G1 X82.461 Y99.790 F7800.000
G1 X82.541 Y98.562 E0.05566 F378.000
G1 X82.834 Y97.196 E0.11889
G1 X83.319 Y95.965 E0.17877
G1 X83.987 Y94.896 E0.23580
G1 X84.825 Y94.011 E0.29093
G1 X85.837 Y93.308 E0.34668
G1 X87.009 Y92.797 E0.40454
G1 X88.326 Y92.489 E0.46573
G1 X89.789 Y92.386 E0.53213
G1 X91.148 Y92.483 E0.59377
G1 X91.241 Y92.490 E0.59800 F378.000
G1 X92.552 Y92.802 E0.65897
G1 X93.725 Y93.319 E0.71697
G1 X94.742 Y94.028 E0.77309
G1 X95.588 Y94.915 E0.82854
G1 X96.265 Y95.983 E0.88575
G1 X96.759 Y97.209 E0.94558
G1 X97.057 Y98.570 E1.00859
G1 X97.157 Y100.065 E1.07641
G1 X97.058 Y101.563 E1.14434
G1 X96.764 Y102.916 E1.20698
G1 X96.276 Y104.124 E1.26596
G1 X95.606 Y105.169 E1.32214
G1 X94.765 Y106.032 E1.37666
G1 X93.749 Y106.716 E1.43207
G1 X92.576 Y107.214 E1.48972
G1 X91.264 Y107.514 E1.55062
G1 X89.814 Y107.614 E1.61637
G1 X87.651 Y107.390 E1.71481
G1 X85.846 Y106.725 E1.80182
G1 X84.387 Y105.621 E1.88460
G1 X83.311 Y104.124 E1.96802
G1 X82.662 Y102.275 E2.05669
G1 X82.446 Y100.020 E2.15921
G1 X84.096 Y100.065 F7800.000
G1 X84.261 Y98.242 E2.24202 F378.000
G1 X84.760 Y96.676 E2.31641
G1 X85.598 Y95.372 E2.38657
G1 X86.741 Y94.394 E2.45462
G1 X88.143 Y93.808 E2.52337
G1 X89.644 Y93.632 E2.59178
G1 X89.789 Y93.615 E2.59837 F378.000
G1 X91.473 Y93.801 E2.67503
G1 X92.889 Y94.368 E2.74404
G1 X94.024 Y95.317 E2.81097
G1 X94.845 Y96.605 E2.88013
G1 X95.333 Y98.190 E2.95516
G1 X95.494 Y100.065 E3.04034
G1 X95.332 Y101.868 E3.12225
G1 X94.839 Y103.408 E3.19540
G1 X94.012 Y104.678 E3.26400
G1 X92.877 Y105.623 E3.33082
G1 X91.472 Y106.188 E3.39932
G1 X89.812 Y106.374 E3.47492
G1 X88.139 Y106.191 E3.55107
G1 X86.726 Y105.634 E3.61981
G1 X85.585 Y104.701 E3.68649
G1 X84.753 Y103.438 E3.75493
G1 X84.259 Y101.890 E3.82845
G1 X84.116 Y100.295 E3.90092
G1 X83.107 Y102.766 F7800.000
G1 X87.341 Y106.999 E4.17563 F540.000
G1 X86.464 Y106.676 F7800.000
G1 X83.407 Y103.619 E4.37406 F540.000
G1 X84.567 Y103.673 F7800.000
G1 X82.868 Y101.973 E4.48438 F540.000
G1 X82.807 Y101.360 E4.51267
G1 X84.298 Y102.851 E4.60944
G1 X84.039 Y102.039 E4.64857
G1 X82.746 Y100.746 E4.73244
G1 X82.686 Y100.133 E4.76073
G1 X83.983 Y101.430 E4.84491
G1 X83.929 Y100.823 E4.87289
G1 X82.695 Y99.589 E4.95294
G1 X82.729 Y99.070 E4.97681
G1 X83.875 Y100.215 E5.05114
G1 X83.909 Y99.697 E5.07499
G1 X82.763 Y98.551 E5.14936
G1 X82.857 Y98.092 E5.17086
G1 X83.955 Y99.190 E5.24210
G1 X84.001 Y98.683 E5.26547
G1 X82.955 Y97.636 E5.33336
G1 X83.055 Y97.184 E5.35464
G1 X84.062 Y98.191 E5.41997
G1 X84.196 Y97.771 E5.44017
G1 X83.212 Y96.787 E5.50402
G1 X83.368 Y96.391 E5.52359
G1 X84.329 Y97.352 E5.58596
G1 X84.463 Y96.932 E5.60616
G1 X83.528 Y95.998 E5.66679
G1 X83.741 Y95.658 E5.68521
G1 X84.619 Y96.535 E5.74216
G1 X84.835 Y96.199 E5.76053
G1 X83.953 Y95.317 E5.81773
G1 X84.170 Y94.981 E5.83609
G1 X85.051 Y95.862 E5.89325
G1 X85.268 Y95.525 E5.91162
G1 X84.440 Y94.697 E5.96534
G1 X84.716 Y94.421 E5.98328
G1 X85.499 Y95.203 E6.03405
G1 X85.797 Y94.948 E6.05205
G1 X84.993 Y94.144 E6.10421
G1 X85.311 Y93.910 E6.12236
G1 X86.095 Y94.693 E6.17321
G1 X86.393 Y94.438 E6.19120
G1 X85.637 Y93.683 E6.24022
G1 X85.974 Y93.467 E6.25858
G1 X86.700 Y94.193 E6.30571
G1 X87.091 Y94.030 E6.32511
G1 X86.359 Y93.299 E6.37256
G1 X86.744 Y93.131 E6.39184
G1 X87.481 Y93.867 E6.43962
G1 X87.871 Y93.704 E6.45901
G1 X87.147 Y92.980 E6.50600
G1 X87.595 Y92.875 E6.52712
G1 X88.292 Y93.572 E6.57234
G1 X88.786 Y93.514 E6.59521
G1 X88.043 Y92.770 E6.64346
G1 X88.522 Y92.696 E6.66569
G1 X89.281 Y93.456 E6.71499
G1 X89.776 Y93.398 E6.73786
G1 X89.038 Y92.660 E6.78575
G1 X89.555 Y92.623 E6.80951
G1 X90.374 Y93.443 E6.86269
G1 X90.996 Y93.512 E6.89141
G1 X90.127 Y92.643 E6.94781
G1 X90.723 Y92.685 E6.97522
G1 X91.618 Y93.581 E7.03332
G1 X92.089 Y92.946 F7800.000
G1 X94.323 Y95.179 E7.17826 F540.000
G1 X94.180 Y95.037 F7800.000
G1 X96.552 Y97.408 E7.33214 F540.000
G1 X96.707 Y98.116 E7.36540
G1 X95.073 Y96.482 E7.47143
G1 X95.319 Y97.281 E7.50980
G1 X96.841 Y98.803 E7.60855
G1 X96.880 Y99.396 E7.63580
G1 X95.557 Y98.073 E7.72165
G1 X95.609 Y98.678 E7.74951
G1 X96.920 Y99.988 E7.83455
G1 X96.905 Y100.527 E7.85927
G1 X95.661 Y99.283 E7.94000
G1 X95.713 Y99.888 E7.96787
G1 X96.871 Y101.046 E8.04301
G1 X96.837 Y101.565 E8.06687
G1 X95.683 Y100.411 E8.14176
G1 X95.637 Y100.918 E8.16513
G1 X96.743 Y102.023 E8.23687
G1 X96.644 Y102.478 E8.25820
G1 X95.592 Y101.425 E8.32649
G1 X95.531 Y101.918 E8.34927
G1 X96.542 Y102.928 E8.41485
G1 X96.383 Y103.322 E8.43435
G1 X95.397 Y102.337 E8.49830
G1 X95.263 Y102.756 E8.51849
G1 X96.224 Y103.716 E8.58081
G1 X96.058 Y104.103 E8.60014
G1 X95.129 Y103.175 E8.66040
G1 X94.968 Y103.567 E8.67985
G1 X95.842 Y104.440 E8.73653
G1 X95.626 Y104.777 E8.75490
G1 X94.750 Y103.902 E8.81172
G1 X94.532 Y104.236 E8.83006
G1 X95.396 Y105.100 E8.88613
G1 X95.119 Y105.377 E8.90407
G1 X94.314 Y104.571 E8.95636
G1 X94.070 Y104.880 E8.97442
G1 X94.843 Y105.653 E9.02459
G1 X94.566 Y105.930 E9.04253
G1 X93.768 Y105.132 E9.09434
G1 X93.466 Y105.383 E9.11235
G1 X94.237 Y106.153 E9.16236
G1 X93.906 Y106.376 E9.18064
G1 X93.164 Y105.634 E9.22879
G1 X92.834 Y105.857 E9.24706
G1 X93.557 Y106.580 E9.29396
G1 X93.169 Y106.745 E9.31332
G1 X92.440 Y106.016 E9.36062
G1 X92.046 Y106.174 E9.38012
G1 X92.781 Y106.909 E9.42782
G1 X92.365 Y107.047 E9.44790
G1 X91.651 Y106.333 E9.49423
G1 X91.202 Y106.437 E9.51537
G1 X91.915 Y107.150 E9.56163
G1 X91.465 Y107.253 E9.58282
G1 X90.705 Y106.493 E9.63213
G1 X90.208 Y106.549 E9.65509
G1 X90.972 Y107.313 E9.70469
G1 X90.455 Y107.349 E9.72849
G1 X89.706 Y106.600 E9.77711
G1 X89.084 Y106.531 E9.80579
G1 X89.938 Y107.385 E9.86117
G1 X89.328 Y107.328 E9.88927
G1 X88.463 Y106.463 E9.94539
G1 X87.776 Y106.329 E9.97752
G1 X88.711 Y107.264 E10.03820
G1 X88.094 Y107.200 E10.06666
G1 X86.863 Y105.969 E10.14653
G1 X84.809 Y105.574 F7800.000
G1 X84.455 Y105.220 E10.16951 F540.000
G92 E0
G1 X84.052 Y96.343 F7800.000
G1 X84.033 Y96.331 F7800.000
G1 X84.627 Y95.391 F7800.000
G1 X84.832 Y95.131 F7800.000
G1 X92.535 Y93.944 F7800.000
G1 X91.364 Y92.773 E0.07598 F540.000
G1 X92.976 Y93.279 F7800.000
G1 X96.185 Y96.489 E0.28424 F540.000
G1 X95.206 Y94.956 F7800.000
G1 X94.366 Y94.116 E0.33875 F540.000
G92 E0
G1 X96.466 Y95.880 F7800.000
G1 X101.688 Y95.242 F7800.000
G1 X107.940 Y91.752 F7800.000
G1 X109.414 Y92.352 F7800.000
G1 X109.247 Y93.361 F7800.000
G1 X109.566 Y92.577 E0.03830 F378.000
G1 X111.410 Y92.577 E0.12175
G1 X117.107 Y106.586 E0.80605
G1 X117.448 Y107.423 E0.84696 F378.000
G1 X115.756 Y107.423 E0.92351
G1 X111.618 Y96.800 E1.43936
G1 X110.696 Y94.056 E1.57037
G1 X110.301 Y94.056 E1.58825
G1 X109.378 Y96.800 E1.71927
G1 X105.218 Y107.423 E2.23549
G1 X103.527 Y107.423 E2.31201
G1 X109.160 Y93.575 E2.98848
G1 X110.101 Y94.008 F7800.000
G1 X109.461 Y93.368 E3.02963 F540.000
G1 X109.303 Y93.757 E3.04875
G1 X109.964 Y94.418 E3.09122
G1 X109.826 Y94.828 E3.11088
G1 X109.144 Y94.147 E3.15468
G1 X108.986 Y94.536 E3.17379
G1 X109.688 Y95.238 E3.21891
G1 X109.550 Y95.648 E3.23857
G1 X108.828 Y94.926 E3.28500
G1 X108.669 Y95.315 E3.30412
G1 X109.412 Y96.058 E3.35187
G1 X109.274 Y96.468 E3.37153
G1 X108.511 Y95.704 E3.42061
G1 X108.352 Y96.094 E3.43972
G1 X109.132 Y96.874 E3.48986
G1 X108.978 Y97.268 E3.50908
G1 X108.194 Y96.483 E3.55949
G1 X108.036 Y96.873 E3.57860
G1 X108.824 Y97.661 E3.62929
G1 X108.670 Y98.055 E3.64851
G1 X107.877 Y97.262 E3.69946
G1 X107.719 Y97.652 E3.71858
G1 X108.516 Y98.449 E3.76981
G1 X108.362 Y98.842 E3.78902
G1 X107.560 Y98.041 E3.84053
G1 X107.402 Y98.431 E3.85964
G1 X108.207 Y99.236 E3.91142
G1 X108.053 Y99.630 E3.93063
G1 X107.244 Y98.820 E3.98268
G1 X107.085 Y99.209 E4.00179
G1 X107.899 Y100.023 E4.05412
G1 X107.745 Y100.417 E4.07333
G1 X106.927 Y99.599 E4.12593
G1 X106.768 Y99.988 E4.14504
G1 X107.591 Y100.811 E4.19791
G1 X107.437 Y101.204 E4.21713
G1 X106.610 Y100.378 E4.27027
G1 X106.451 Y100.767 E4.28938
G1 X107.282 Y101.598 E4.34279
G1 X107.128 Y101.992 E4.36201
G1 X106.293 Y101.157 E4.41570
G1 X106.135 Y101.546 E4.43481
G1 X106.974 Y102.385 E4.48877
G1 X106.820 Y102.779 E4.50798
G1 X105.976 Y101.935 E4.56222
G1 X105.818 Y102.325 E4.58133
G1 X106.666 Y103.173 E4.63583
G1 X106.512 Y103.566 E4.65505
G1 X105.659 Y102.714 E4.70983
G1 X105.501 Y103.104 E4.72894
G1 X106.357 Y103.960 E4.78399
G1 X106.203 Y104.354 E4.80321
G1 X105.343 Y103.493 E4.85853
G1 X105.184 Y103.883 E4.87764
G1 X106.049 Y104.747 E4.93324
G1 X105.895 Y105.141 E4.95246
G1 X105.026 Y104.272 E5.00832
G1 X104.867 Y104.661 E5.02744
G1 X105.741 Y105.535 E5.08358
G1 X105.587 Y105.928 E5.10280
G1 X104.709 Y105.051 E5.15921
G1 X104.551 Y105.440 E5.17832
G1 X105.432 Y106.322 E5.23501
G1 X105.278 Y106.716 E5.25423
G1 X104.392 Y105.830 E5.31119
G1 X104.234 Y106.219 E5.33030
G1 X105.124 Y107.110 E5.38753
G1 X104.664 Y107.197 E5.40883
G1 X104.075 Y106.609 E5.44665
G1 X103.917 Y106.998 E5.46577
G1 X104.116 Y107.197 E5.47855
G92 E0
G1 X104.956 Y105.966 F7800.000
G1 X104.956 Y105.966 F7800.000
G1 X114.410 Y103.247 F7800.000
G1 X116.190 Y105.027 E0.11444 F540.000
G1 X116.565 Y105.951 F7800.000
G1 X114.759 Y104.145 E0.23054 F540.000
G1 X115.109 Y105.042 F7800.000
G1 X116.941 Y106.874 E0.34831 F540.000
G1 X116.716 Y107.197 E0.36620
G1 X115.459 Y105.939 E0.44704
G1 X115.808 Y106.837 F7800.000
G1 X116.168 Y107.197 E0.47019 F540.000
G1 X115.814 Y104.104 F7800.000
G1 X114.060 Y102.350 E0.58296 F540.000
G1 X113.711 Y101.452 F7800.000
G1 X115.439 Y103.180 E0.69406 F540.000
G1 X115.063 Y102.257 F7800.000
G1 X113.361 Y100.555 E0.80350 F540.000
G1 X114.312 Y100.410 F7800.000
G1 X112.662 Y98.760 E0.90960 F540.000
G1 X113.561 Y98.563 F7800.000
G1 X111.962 Y96.965 E1.01237 F540.000
G1 X112.810 Y96.717 F7800.000
G1 X111.380 Y95.286 E1.10430 F540.000
G1 X112.059 Y94.870 F7800.000
G1 X109.992 Y92.803 E1.23717 F540.000
G1 X109.620 Y92.978 E1.25588
G1 X110.471 Y93.830 E1.31060
G1 X111.103 Y94.461 F7800.000
G1 X112.434 Y95.793 E1.39621 F540.000
G1 X111.657 Y96.111 F7800.000
G1 X113.186 Y97.640 E1.49447 F540.000
G1 X112.312 Y97.862 F7800.000
G1 X113.937 Y99.487 E1.59890 F540.000
G1 X113.011 Y99.657 F7800.000
G1 X114.688 Y101.334 E1.70667 F540.000
G1 X111.683 Y93.946 F7800.000
G1 X110.540 Y92.803 E1.78018 F540.000
G1 X111.088 Y92.803 E1.80508
G1 X111.308 Y93.023 E1.81922
M106 S255
G92 E0
G1 Z0.600 F7800.000
G1 X83.271 Y100.047 F7800.000
G1 X83.376 Y98.678 E0.41153 F600.000
G1 X83.496 Y97.973 E0.62586
G1 X83.638 Y97.439 E0.79152
G1 X84.039 Y96.327 E1.14548
G1 X84.627 Y95.391 E1.47685
G1 X84.943 Y94.989 E1.62985
G1 X85.134 Y94.779 E1.71524
G1 X85.327 Y94.596 E1.79480
G1 X86.185 Y93.933 E2.11989
G1 X86.512 Y93.754 E2.23139
G1 X87.225 Y93.449 E2.46387
G1 X87.871 Y93.240 E2.66728
G1 X88.422 Y93.127 E2.83582
G1 X89.789 Y93.002 E3.24709
G1 X91.144 Y93.123 E3.65472
G1 X91.730 Y93.240 E3.83388
G1 X92.340 Y93.433 E4.02549
G1 X93.097 Y93.752 E4.27154
G1 X93.393 Y93.910 E4.37210
G1 X94.269 Y94.580 E4.70268
G1 X94.452 Y94.750 E4.77748
G1 X94.645 Y94.962 E4.86331
G1 X94.980 Y95.390 E5.02625
G1 X95.572 Y96.338 E5.36128
G1 X95.969 Y97.453 E5.71595
G1 X96.139 Y98.145 E5.92930
G1 X96.221 Y98.688 E6.09399
G1 X96.324 Y100.065 E6.50780
G1 X96.219 Y101.445 E6.92234
G1 X96.100 Y102.140 E7.13363
G1 X95.958 Y102.667 E7.29724
G1 X95.560 Y103.754 E7.64415
G1 X94.975 Y104.668 E7.96933
G1 X94.660 Y105.061 E8.12006
G1 X94.463 Y105.273 E8.20700
G1 X94.276 Y105.446 E8.28338
G1 X93.411 Y106.094 E8.60708
G1 X93.095 Y106.261 E8.71417
G1 X92.365 Y106.563 E8.95087
G1 X91.736 Y106.761 E9.14866
G1 X91.169 Y106.873 E9.32170
G1 X89.825 Y106.992 E9.72603
G1 X88.101 Y106.812 E10.24541
G1 X87.877 Y106.773 E10.31348
G1 X86.515 Y106.264 E10.74921
G1 X86.187 Y106.101 E10.85884
G1 X85.151 Y105.287 E11.25389
G1 X84.935 Y105.088 E11.34189
G1 X84.024 Y103.753 E11.82619
G1 X83.488 Y102.162 E12.32904
G1 X83.446 Y101.938 E12.39748
G1 X83.271 Y100.047 E12.96634
G92 E0
G1 X96.980 Y102.982 F7800.000
G1 X103.192 Y108.744 F7800.000
G1 X110.490 Y105.761 F7800.000
G1 X114.104 Y108.232 F7800.000
G1 X115.602 Y107.648 F7800.000
G1 X116.689 Y107.648 F7800.000
G1 X112.276 Y96.562 E3.57549 F600.000
G1 X111.330 Y94.013 E4.39000
G1 X110.890 Y93.349 E4.62869
G1 X110.463 Y93.316 E4.75724
G1 X110.088 Y93.353 E4.87012
G1 X109.657 Y94.010 E5.10552
G1 X108.712 Y96.558 E5.91986
G1 X104.285 Y107.648 E9.49798
G92 E0
G1 Z0.900 F7800.000
G1 X83.271 Y100.047 F7800.000
G1 X83.376 Y98.678 E0.41153 F600.000
G1 X83.496 Y97.973 E0.62586
G1 X83.638 Y97.439 E0.79152
G1 X84.039 Y96.327 E1.14548
G1 X84.627 Y95.391 E1.47684
G1 X84.943 Y94.989 E1.62985
G1 X85.134 Y94.779 E1.71524
G1 X85.327 Y94.596 E1.79480
G1 X86.185 Y93.933 E2.11989
G1 X86.512 Y93.754 E2.23139
G1 X87.225 Y93.449 E2.46387
G1 X87.871 Y93.240 E2.66728
G1 X88.422 Y93.127 E2.83582
G1 X89.789 Y93.002 E3.24709
G1 X91.144 Y93.123 E3.65472
G1 X91.730 Y93.240 E3.83388
G1 X92.340 Y93.433 E4.02549
G1 X93.097 Y93.752 E4.27154
G1 X93.393 Y93.910 E4.37210
G1 X94.269 Y94.580 E4.70268
G1 X94.452 Y94.750 E4.77748
G1 X94.645 Y94.962 E4.86331
G1 X94.980 Y95.390 E5.02625
G1 X95.572 Y96.338 E5.36128
G1 X95.969 Y97.453 E5.71595
G1 X96.139 Y98.145 E5.92930
G1 X96.221 Y98.688 E6.09399
G1 X96.324 Y100.065 E6.50780
G1 X96.219 Y101.445 E6.92234
G1 X96.100 Y102.140 E7.13363
G1 X95.958 Y102.667 E7.29724
G1 X95.560 Y103.754 E7.64415
G1 X94.975 Y104.668 E7.96933
G1 X94.660 Y105.061 E8.12006
G1 X94.463 Y105.273 E8.20700
G1 X94.276 Y105.446 E8.28338
G1 X93.411 Y106.094 E8.60708
G1 X93.095 Y106.261 E8.71417
G1 X92.365 Y106.563 E8.95087
G1 X91.736 Y106.761 E9.14866
G1 X91.169 Y106.873 E9.32170
G1 X89.825 Y106.992 E9.72603
G1 X88.101 Y106.812 E10.24541
G1 X87.877 Y106.773 E10.31348
G1 X86.515 Y106.264 E10.74921
G1 X86.187 Y106.101 E10.85884
G1 X85.151 Y105.287 E11.25389
G1 X84.935 Y105.088 E11.34189
G1 X84.024 Y103.753 E11.82619
G1 X83.488 Y102.162 E12.32904
G1 X83.446 Y101.938 E12.39748
G1 X83.271 Y100.047 E12.96634
G92 E0
G1 X96.980 Y102.982 F7800.000
G1 X103.192 Y108.744 F7800.000
G1 X110.490 Y105.761 F7800.000
G1 X114.104 Y108.232 F7800.000
G1 X115.602 Y107.648 F7800.000
G1 X116.689 Y107.648 F7800.000
G1 X112.276 Y96.562 E3.57549 F600.000
G1 X111.330 Y94.013 E4.39000
G1 X110.890 Y93.349 E4.62869
G1 X110.463 Y93.316 E4.75724
G1 X110.088 Y93.353 E4.87012
G1 X109.657 Y94.010 E5.10552
G1 X108.712 Y96.558 E5.91986
G1 X104.285 Y107.648 E9.49798
G92 E0
G1 Z1.200 F7800.000
G1 X83.271 Y100.047 F7800.000
G1 X83.376 Y98.678 E0.41153 F600.000
G1 X83.496 Y97.973 E0.62586
G1 X83.638 Y97.439 E0.79152
G1 X84.039 Y96.327 E1.14548
G1 X84.627 Y95.391 E1.47684
G1 X84.943 Y94.989 E1.62985
G1 X85.134 Y94.779 E1.71524
G1 X85.327 Y94.596 E1.79480
G1 X86.185 Y93.933 E2.11989
G1 X86.512 Y93.754 E2.23139
G1 X87.225 Y93.449 E2.46387
G1 X87.871 Y93.240 E2.66728
G1 X88.422 Y93.127 E2.83582
G1 X89.789 Y93.002 E3.24709
G1 X91.144 Y93.123 E3.65471
G1 X91.730 Y93.240 E3.83388
G1 X92.340 Y93.433 E4.02549
G1 X93.097 Y93.752 E4.27154
G1 X93.393 Y93.910 E4.37210
G1 X94.269 Y94.580 E4.70268
G1 X94.452 Y94.750 E4.77748
G1 X94.645 Y94.962 E4.86331
G1 X94.980 Y95.390 E5.02625
G1 X95.572 Y96.338 E5.36128
G1 X95.969 Y97.453 E5.71595
G1 X96.139 Y98.145 E5.92930
G1 X96.221 Y98.688 E6.09399
G1 X96.324 Y100.065 E6.50780
G1 X96.219 Y101.445 E6.92234
G1 X96.100 Y102.140 E7.13363
G1 X95.958 Y102.667 E7.29724
G1 X95.560 Y103.754 E7.64415
G1 X94.975 Y104.668 E7.96934
G1 X94.660 Y105.061 E8.12006
G1 X94.463 Y105.273 E8.20700
G1 X94.276 Y105.446 E8.28338
G1 X93.411 Y106.094 E8.60708
G1 X93.095 Y106.261 E8.71417
G1 X92.365 Y106.563 E8.95087
G1 X91.736 Y106.761 E9.14866
G1 X91.169 Y106.873 E9.32170
G1 X89.825 Y106.992 E9.72603
G1 X88.101 Y106.812 E10.24541
