; generated by Slic3r 1.2.9 on 2016-03-11 at 01:28:31

; external perimeters extrusion width = 1.54mm
; perimeters extrusion width = 2.62mm
; infill extrusion width = 6.27mm
; solid infill extrusion width = 2.62mm
; top infill extrusion width = 2.62mm

M107
M104 S30 ; set temperature
G28 ; home all axes
G1 Z5 F5000 ; lift nozzle
M302
M92 E10000
M500
M501
G1 E100
M109 S30 ; wait for temperature to be reached
G21 ; set units to millimeters
G90 ; use absolute coordinates
M82 ; use absolute distances for extrusion
G92 E0
G1 Z0.300 F7800.000
G1 X79.654 Y97.500 F7800.000
G1 X79.719 Y97.196 E0.01408 F378.000
G1 X80.205 Y95.965 E0.07396
G1 X80.872 Y94.896 E0.13099
G1 X81.710 Y94.011 E0.18611
G1 X82.722 Y93.308 E0.24187
G1 X83.894 Y92.797 E0.29973
G1 X85.211 Y92.489 E0.36092
G1 X86.675 Y92.386 E0.42732
G1 X88.033 Y92.483 E0.48895
G1 X88.127 Y92.490 E0.49319 F378.000
G1 X89.438 Y92.802 E0.55416
G1 X90.610 Y93.319 E0.61215
G1 X91.628 Y94.028 E0.66827
G1 X92.474 Y94.915 E0.72372
G1 X93.150 Y95.983 E0.78094
G1 X93.645 Y97.209 E0.84077
G1 X93.943 Y98.570 E0.90377
G1 X94.043 Y100.065 E0.97160
G1 X93.944 Y101.563 E1.03953
G1 X93.650 Y102.916 E1.10217
G1 X93.161 Y104.124 E1.16114
G1 X92.491 Y105.169 E1.21732
G1 X91.650 Y106.032 E1.27185
G1 X90.634 Y106.716 E1.32726
G1 X89.462 Y107.214 E1.38491
G1 X88.149 Y107.514 E1.44581
G1 X86.700 Y107.614 E1.51156
G1 X84.536 Y107.390 E1.60999
G1 X82.732 Y106.725 E1.69701
G1 X81.273 Y105.621 E1.77979
G1 X80.197 Y104.124 E1.86321
G1 X79.547 Y102.275 E1.95188
G1 X79.329 Y100.061 E2.05255
G1 X79.426 Y98.562 E2.12054
G1 X79.606 Y97.726 E2.15924
G1 X81.154 Y98.219 F7800.000
G1 X81.645 Y96.676 E2.23252 F378.000
G1 X82.484 Y95.372 E2.30268
G1 X83.626 Y94.394 E2.37073
G1 X85.028 Y93.808 E2.43948
G1 X86.530 Y93.632 E2.50789
G1 X86.674 Y93.615 E2.51448 F378.000
G1 X88.358 Y93.801 E2.59114
G1 X89.774 Y94.368 E2.66015
G1 X90.909 Y95.317 E2.72708
G1 X91.731 Y96.605 E2.79624
G1 X92.219 Y98.190 E2.87127
G1 X92.380 Y100.065 E2.95645
G1 X92.217 Y101.868 E3.03835
G1 X91.725 Y103.408 E3.11151
G1 X90.897 Y104.678 E3.18011
G1 X89.762 Y105.623 E3.24693
G1 X88.358 Y106.188 E3.31543
G1 X86.697 Y106.374 E3.39103
G1 X85.025 Y106.191 E3.46718
G1 X83.611 Y105.634 E3.53592
G1 X82.470 Y104.701 E3.60260
G1 X81.639 Y103.438 E3.67104
G1 X81.144 Y101.890 E3.74456
G1 X80.981 Y100.065 E3.82748
G1 X81.127 Y98.448 E3.90094
G1 X79.993 Y102.766 F7800.000
G1 X84.226 Y106.999 E4.17565 F540.000
G1 X83.350 Y106.676 F7800.000
G1 X80.292 Y103.619 E4.37409 F540.000
G1 X81.453 Y103.673 F7800.000
G1 X79.753 Y101.973 E4.48440 F540.000
G1 X79.692 Y101.360 E4.51269
G1 X81.184 Y102.851 E4.60946
G1 X80.924 Y102.039 E4.64860
G1 X79.632 Y100.746 E4.73246
G1 X79.571 Y100.133 E4.76075
G1 X80.869 Y101.430 E4.84494
G1 X80.814 Y100.823 E4.87292
G1 X79.581 Y99.589 E4.95296
G1 X79.615 Y99.070 E4.97684
G1 X80.760 Y100.215 E5.05117
G1 X80.795 Y99.697 E5.07501
G1 X79.649 Y98.551 E5.14939
G1 X79.743 Y98.092 E5.17088
G1 X80.841 Y99.190 E5.24213
G1 X80.886 Y98.683 E5.26549
G1 X79.840 Y97.636 E5.33339
G1 X79.941 Y97.184 E5.35466
G1 X80.947 Y98.191 E5.42000
G1 X81.081 Y97.771 E5.44019
G1 X80.097 Y96.787 E5.50405
G1 X80.254 Y96.391 E5.52361
G1 X81.215 Y97.352 E5.58598
G1 X81.348 Y96.932 E5.60618
G1 X80.414 Y95.998 E5.66682
G1 X80.626 Y95.658 E5.68523
G1 X81.504 Y96.535 E5.74219
G1 X81.721 Y96.199 E5.76055
G1 X80.839 Y95.317 E5.81776
G1 X81.056 Y94.981 E5.83611
G1 X81.937 Y95.862 E5.89328
G1 X82.153 Y95.525 E5.91164
G1 X81.325 Y94.697 E5.96536
G1 X81.602 Y94.421 E5.98331
G1 X82.384 Y95.203 E6.03408
G1 X82.682 Y94.948 E6.05207
G1 X81.878 Y94.144 E6.10424
G1 X82.197 Y93.910 E6.12238
G1 X82.980 Y94.693 E6.17323
G1 X83.278 Y94.438 E6.19123
G1 X82.523 Y93.683 E6.24024
G1 X82.860 Y93.467 E6.25861
G1 X83.586 Y94.193 E6.30574
G1 X83.976 Y94.030 E6.32513
G1 X83.245 Y93.299 E6.37259
G1 X83.630 Y93.131 E6.39186
G1 X84.366 Y93.867 E6.43964
G1 X84.756 Y93.704 E6.45904
G1 X84.032 Y92.980 E6.50603
G1 X84.480 Y92.875 E6.52714
G1 X85.177 Y93.572 E6.57237
G1 X85.672 Y93.514 E6.59523
G1 X84.928 Y92.770 E6.64349
G1 X85.407 Y92.696 E6.66572
G1 X86.167 Y93.456 E6.71502
G1 X86.662 Y93.398 E6.73788
G1 X85.924 Y92.660 E6.78577
G1 X86.440 Y92.623 E6.80954
G1 X87.260 Y93.443 E6.86272
G1 X87.882 Y93.512 E6.89143
G1 X87.013 Y92.643 E6.94783
G1 X87.609 Y92.685 E6.97525
G1 X88.504 Y93.581 E7.03334
G1 X88.975 Y92.946 F7800.000
G1 X91.209 Y95.179 E7.17829 F540.000
G1 X91.066 Y95.037 F7800.000
G1 X93.437 Y97.408 E7.33216 F540.000
G1 X93.592 Y98.116 E7.36543
G1 X91.958 Y96.482 E7.47145
G1 X92.204 Y97.281 E7.50982
G1 X93.726 Y98.803 E7.60858
G1 X93.766 Y99.396 E7.63583
G1 X92.443 Y98.073 E7.72167
G1 X92.495 Y98.678 E7.74953
G1 X93.805 Y99.988 E7.83457
G1 X93.791 Y100.527 E7.85930
G1 X92.547 Y99.283 E7.94003
G1 X92.599 Y99.888 E7.96789
G1 X93.757 Y101.046 E8.04304
G1 X93.723 Y101.565 E8.06690
G1 X92.569 Y100.411 E8.14178
G1 X92.523 Y100.918 E8.16515
G1 X93.628 Y102.023 E8.23689
G1 X93.530 Y102.478 E8.25822
G1 X92.477 Y101.425 E8.32652
G1 X92.417 Y101.918 E8.34929
G1 X93.427 Y102.928 E8.41488
G1 X93.268 Y103.322 E8.43437
G1 X92.283 Y102.337 E8.49833
G1 X92.149 Y102.756 E8.51851
G1 X93.109 Y103.716 E8.58084
G1 X92.943 Y104.103 E8.60016
G1 X92.015 Y103.175 E8.66042
G1 X91.854 Y103.567 E8.67987
G1 X92.727 Y104.440 E8.73656
G1 X92.511 Y104.777 E8.75492
G1 X91.636 Y103.902 E8.81175
G1 X91.417 Y104.236 E8.83009
G1 X92.281 Y105.100 E8.88615
G1 X92.005 Y105.377 E8.90410
G1 X91.199 Y104.571 E8.95638
G1 X90.955 Y104.880 E8.97445
G1 X91.728 Y105.653 E9.02461
G1 X91.452 Y105.930 E9.04256
G1 X90.653 Y105.132 E9.09436
G1 X90.352 Y105.383 E9.11238
G1 X91.122 Y106.153 E9.16239
G1 X90.792 Y106.376 E9.18067
G1 X90.050 Y105.634 E9.22881
G1 X89.720 Y105.857 E9.24709
G1 X90.443 Y106.580 E9.29399
G1 X90.054 Y106.745 E9.31334
G1 X89.326 Y106.016 E9.36064
G1 X88.931 Y106.174 E9.38015
G1 X89.666 Y106.909 E9.42784
G1 X89.251 Y107.047 E9.44792
G1 X88.537 Y106.333 E9.49425
G1 X88.088 Y106.437 E9.51540
G1 X88.801 Y107.150 E9.56165
G1 X88.350 Y107.253 E9.58284
G1 X87.591 Y106.493 E9.63216
G1 X87.093 Y106.549 E9.65511
G1 X87.858 Y107.313 E9.70472
G1 X87.341 Y107.349 E9.72851
G1 X86.591 Y106.600 E9.77714
G1 X85.970 Y106.531 E9.80582
G1 X86.823 Y107.385 E9.86119
G1 X86.213 Y107.328 E9.88930
G1 X85.349 Y106.463 E9.94541
G1 X84.661 Y106.329 E9.97754
G1 X85.597 Y107.264 E10.03823
G1 X84.980 Y107.200 E10.06668
G1 X83.749 Y105.969 E10.14656
G1 X81.695 Y105.574 F7800.000
G1 X81.341 Y105.220 E10.16954 F540.000
G92 E0
G1 X80.938 Y96.343 F7800.000
G1 X80.918 Y96.331 F7800.000
G1 X81.513 Y95.391 F7800.000
G1 X81.717 Y95.131 F7800.000
G1 X89.420 Y93.944 F7800.000
G1 X88.249 Y92.773 E0.07598 F540.000
G1 X89.862 Y93.279 F7800.000
G1 X93.071 Y96.489 E0.28424 F540.000
G1 X92.091 Y94.956 F7800.000
G1 X91.251 Y94.116 E0.33875 F540.000
G92 E0
G1 X94.268 Y100.065 F7800.000
G1 X96.805 Y105.619 F7800.000
G1 X97.148 Y106.784 F7800.000
G1 X100.079 Y108.744 F7800.000
G1 X105.873 Y106.621 F7800.000
G1 X105.876 Y102.830 F7800.000
G1 X107.983 Y102.237 F7800.000
G1 X111.319 Y107.423 F7800.000
G1 X109.677 Y107.423 E0.07433 F378.000
G1 X107.196 Y98.555 E0.49100
G1 X106.710 Y96.725 E0.57669
G1 X106.108 Y94.129 E0.69728
G1 X105.670 Y94.129 E0.71708
G1 X105.086 Y96.649 E0.83416
G1 X104.770 Y97.872 E0.89132
G1 X102.067 Y107.423 E1.34046
G1 X100.380 Y107.423 E1.41679
G1 X104.756 Y92.577 E2.11714
G1 X106.889 Y92.577 E2.21363
G1 X108.286 Y97.654 E2.45191
G1 X109.808 Y103.285 E2.71585 F378.000
G1 X110.284 Y105.383 E2.81317
G1 X110.724 Y105.381 E2.83307
G1 X111.283 Y102.891 E2.94853
G1 X111.482 Y102.128 E2.98423
G1 X114.089 Y92.577 E3.43222
G1 X116.221 Y92.577 E3.52868
G1 X120.596 Y107.423 E4.22902
G1 X118.910 Y107.423 E4.30532
G1 X116.324 Y98.109 E4.74270
G1 X115.903 Y96.535 E4.81643
G1 X115.328 Y94.108 E4.92928
G1 X114.893 Y94.115 E4.94896
G1 X114.311 Y96.596 E5.06428
G1 X113.936 Y98.068 E5.13301
G1 X111.381 Y107.201 E5.56211
G1 X109.696 Y106.559 F7800.000
G1 X110.333 Y107.197 E5.60355 F540.000
G1 X110.887 Y107.197 E5.62899
G1 X109.481 Y105.791 E5.72038
G1 X109.825 Y104.474 F7800.000
G1 X108.835 Y103.484 E5.78468 F540.000
G1 X109.476 Y103.017 F7800.000
G1 X108.405 Y101.947 E5.85425 F540.000
G1 X108.190 Y101.178 E5.89093
G1 X109.271 Y102.259 E5.96116
G1 X109.066 Y101.500 F7800.000
G1 X107.975 Y100.409 E6.03205 F540.000
G1 X107.760 Y99.640 E6.06873
G1 X108.861 Y100.741 E6.14028
G1 X108.656 Y99.983 E6.17639
G1 X107.545 Y98.871 E6.24859
G1 X107.336 Y98.108 E6.28495
G1 X108.451 Y99.224 E6.35745
G1 X108.246 Y98.465 E6.39355
G1 X107.136 Y97.355 E6.46573
G1 X106.936 Y96.601 E6.50155
G1 X108.041 Y97.706 E6.57335
G1 X107.830 Y96.942 E6.60977
G1 X106.767 Y95.878 E6.67886
G1 X106.600 Y95.157 E6.71287
G1 X107.620 Y96.178 E6.77917
G1 X107.410 Y95.413 E6.81558
G1 X106.432 Y94.436 E6.87908
G1 X105.899 Y93.903 F7800.000
G1 X104.881 Y92.884 E6.94525 F540.000
G1 X104.754 Y93.312 E6.96573
G1 X105.477 Y94.034 E7.01267
G1 X105.373 Y94.484 E7.03388
G1 X104.628 Y93.740 E7.08224
G1 X104.502 Y94.167 E7.10272
G1 X105.268 Y94.934 E7.15250
G1 X105.164 Y95.383 E7.17371
G1 X104.376 Y94.595 E7.22491
G1 X104.250 Y95.023 E7.24539
G1 X105.060 Y95.833 E7.29802
G1 X104.956 Y96.282 E7.31922
G1 X104.124 Y95.450 E7.37326
G1 X103.998 Y95.878 E7.39375
G1 X104.850 Y96.730 E7.44911
G1 X104.736 Y97.170 E7.46999
G1 X103.872 Y96.306 E7.52615
G1 X103.746 Y96.733 E7.54664
G1 X104.623 Y97.610 E7.60360
G1 X104.505 Y98.047 E7.62437
G1 X103.620 Y97.161 E7.68192
G1 X103.494 Y97.589 E7.70240
G1 X104.383 Y98.478 E7.76021
G1 X104.261 Y98.910 E7.78081
G1 X103.368 Y98.016 E7.83887
G1 X103.242 Y98.444 E7.85936
G1 X104.139 Y99.341 E7.91767
G1 X104.017 Y99.773 E7.93827
G1 X103.116 Y98.872 E7.99684
G1 X102.989 Y99.299 E8.01733
G1 X103.895 Y100.205 E8.07615
G1 X103.773 Y100.636 E8.09676
G1 X102.863 Y99.727 E8.15583
G1 X102.737 Y100.155 E8.17632
G1 X103.650 Y101.068 E8.23565
G1 X103.528 Y101.499 E8.25626
G1 X102.611 Y100.582 E8.31584
G1 X102.485 Y101.010 E8.33633
G1 X103.406 Y101.931 E8.39617
G1 X103.284 Y102.363 E8.41678
G1 X102.359 Y101.438 E8.47687
G1 X102.233 Y101.865 E8.49736
G1 X103.162 Y102.794 E8.55771
G1 X103.040 Y103.226 E8.57832
G1 X102.107 Y102.293 E8.63892
G1 X101.981 Y102.721 E8.65941
G1 X102.918 Y103.657 E8.72027
G1 X102.795 Y104.089 E8.74088
G1 X101.855 Y103.148 E8.80200
G1 X101.729 Y103.576 E8.82248
G1 X102.673 Y104.521 E8.88385
G1 X102.551 Y104.952 E8.90446
G1 X101.603 Y104.004 E8.96609
G1 X101.477 Y104.431 E8.98657
G1 X102.429 Y105.384 E9.04845
G1 X102.307 Y105.815 E9.06906
G1 X101.351 Y104.859 E9.13120
G1 X101.225 Y105.287 E9.15168
G1 X102.185 Y106.247 E9.21407
G1 X102.063 Y106.679 E9.23468
G1 X101.098 Y105.714 E9.29733
G1 X100.972 Y106.142 E9.31781
G1 X101.940 Y107.110 E9.38071
G1 X101.474 Y107.197 E9.40253
G1 X100.846 Y106.570 E9.44329
G1 X100.720 Y106.997 E9.46378
G1 X100.920 Y107.197 E9.47675
G92 E0
G1 X101.481 Y106.648 F7800.000
G1 X101.481 Y106.648 F7800.000
G1 X109.051 Y104.253 F7800.000
G1 X109.988 Y105.190 E0.06089 F540.000
G1 X109.266 Y105.022 E0.09496
G1 X111.227 Y106.983 E0.22243
G1 X111.348 Y106.551 E0.24307
G1 X110.405 Y105.608 E0.30434
G1 X110.901 Y105.550 E0.32726
G1 X111.469 Y106.118 E0.36419
G1 X111.590 Y105.685 E0.38484
G1 X111.003 Y105.097 E0.42303
G1 X111.104 Y104.645 E0.44432
G1 X111.711 Y105.253 E0.48377
G1 X111.832 Y104.820 E0.50442
G1 X111.206 Y104.193 E0.54513
G1 X111.307 Y103.741 E0.56642
G1 X111.953 Y104.387 E0.60840
G1 X112.074 Y103.954 E0.62904
G1 X111.409 Y103.289 E0.67228
G1 X111.512 Y102.838 E0.69353
G1 X112.195 Y103.522 E0.73794
G1 X112.316 Y103.089 E0.75859
G1 X111.627 Y102.399 E0.80342
G1 X111.743 Y101.961 E0.82422
G1 X112.437 Y102.656 E0.86936
G1 X112.558 Y102.224 E0.89000
G1 X111.861 Y101.526 E0.93530
G1 X111.980 Y101.091 E0.95602
G1 X112.679 Y101.791 E1.00146
G1 X112.801 Y101.358 E1.02210
G1 X112.099 Y100.656 E1.06770
G1 X112.218 Y100.221 E1.08841
G1 X112.922 Y100.925 E1.13416
G1 X113.043 Y100.493 E1.15480
G1 X112.336 Y99.786 E1.20069
G1 X112.455 Y99.351 E1.22141
G1 X113.164 Y100.060 E1.26745
G1 X113.285 Y99.627 E1.28810
G1 X112.574 Y98.916 E1.33429
G1 X112.692 Y98.481 E1.35501
G1 X113.406 Y99.195 E1.40135
G1 X113.527 Y98.762 E1.42199
G1 X112.811 Y98.046 E1.46848
G1 X112.930 Y97.611 E1.48920
G1 X113.648 Y98.329 E1.53584
G1 X113.765 Y97.893 E1.55659
G1 X113.049 Y97.176 E1.60316
G1 X113.167 Y96.741 E1.62388
G1 X113.878 Y97.452 E1.67004
G1 X113.990 Y97.010 E1.69096
G1 X113.286 Y96.306 E1.73672
G1 X113.405 Y95.871 E1.75744
G1 X114.102 Y96.569 E1.80275
G1 X114.207 Y96.120 E1.82392
G1 X113.523 Y95.436 E1.86836
G1 X113.642 Y95.001 E1.88908
G1 X114.313 Y95.672 E1.93265
G1 X114.418 Y95.223 E1.95381
G1 X113.761 Y94.566 E1.99651
G1 X113.880 Y94.131 E2.01723
G1 X114.523 Y94.775 E2.05905
G1 X114.629 Y94.326 E2.08022
G1 X113.998 Y93.696 E2.12117
G1 X114.117 Y93.261 E2.14188
G1 X114.748 Y93.892 E2.18291
G1 X115.294 Y93.884 E2.20797
G1 X114.236 Y92.826 E2.27671
G1 X114.766 Y92.803 E2.30112
G1 X116.550 Y94.586 E2.41700
G1 X116.781 Y95.371 E2.45460
G1 X115.602 Y94.192 E2.53124
G1 X115.774 Y94.918 F7800.000
G1 X117.013 Y96.157 E2.61173 F540.000
G1 X117.244 Y96.942 E2.64933
G1 X115.946 Y95.644 E2.73368
G1 X116.118 Y96.369 E2.76795
G1 X117.475 Y97.727 E2.85616
G1 X117.707 Y98.512 E2.89377
G1 X116.319 Y97.124 E2.98393
G1 X116.521 Y97.880 E3.01985
G1 X117.938 Y99.297 E3.11194
G1 X118.169 Y100.082 E3.14954
G1 X116.733 Y98.646 E3.24289
G1 X116.946 Y99.412 E3.27945
G1 X118.401 Y100.867 E3.37400
G1 X118.632 Y101.652 E3.41161
G1 X117.159 Y100.179 E3.50736
G1 X117.371 Y100.945 E3.54392
G1 X118.864 Y102.438 E3.64087
G1 X119.095 Y103.223 E3.67848
G1 X117.584 Y101.712 E3.77664
G1 X117.797 Y102.479 E3.81319
G1 X119.326 Y104.008 E3.91255
G1 X119.558 Y104.793 E3.95016
G1 X118.010 Y103.245 E4.05072
G1 X118.223 Y104.012 E4.08727
G1 X119.789 Y105.578 E4.18904
G1 X120.021 Y106.363 E4.22664
G1 X118.436 Y104.779 E4.32961
G1 X118.649 Y105.545 E4.36616
G1 X120.252 Y107.148 E4.47033
G1 X119.747 Y107.197 E4.49364
G1 X118.862 Y106.312 E4.55116
G92 E0
G1 X110.869 Y106.156 F7800.000
G1 X110.545 Y106.402 F7800.000
G1 X110.449 Y106.403 F7800.000
G1 X110.126 Y106.158 F7800.000
G1 X109.662 Y103.757 F7800.000
G1 X108.620 Y102.715 E0.06770 F540.000
G1 X107.199 Y94.649 F7800.000
G1 X105.353 Y92.803 E0.18767 F540.000
G1 X105.907 Y92.803 E0.21312
G1 X106.989 Y93.885 E0.28343
G1 X106.778 Y93.121 E0.31985
G1 X106.460 Y92.803 E0.34052
G92 E0
G1 X106.298 Y93.353 F7800.000
G1 X106.298 Y93.353 F7800.000
G1 X116.087 Y93.016 F7800.000
G1 X115.874 Y92.803 E0.01385 F540.000
G1 X115.320 Y92.803 E0.03929
G1 X116.318 Y93.801 E0.10416
M106 S255
G92 E0
G1 Z0.600 F7800.000
G1 X80.157 Y100.047 F7800.000
G1 X80.262 Y98.678 E0.41153 F600.000
G1 X80.381 Y97.973 E0.62586
G1 X80.523 Y97.439 E0.79152
G1 X80.924 Y96.327 E1.14548
G1 X81.513 Y95.391 E1.47685
G1 X81.828 Y94.989 E1.62985
G1 X82.020 Y94.779 E1.71524
G1 X82.212 Y94.596 E1.79480
G1 X83.071 Y93.933 E2.11989
G1 X83.397 Y93.754 E2.23139
G1 X84.111 Y93.449 E2.46387
G1 X84.757 Y93.240 E2.66728
G1 X85.308 Y93.127 E2.83582
G1 X86.674 Y93.002 E3.24709
G1 X88.029 Y93.123 E3.65472
G1 X88.616 Y93.240 E3.83388
G1 X89.225 Y93.433 E4.02549
G1 X89.982 Y93.752 E4.27154
G1 X90.278 Y93.910 E4.37210
G1 X91.155 Y94.580 E4.70268
G1 X91.337 Y94.750 E4.77748
G1 X91.530 Y94.962 E4.86331
G1 X91.866 Y95.390 E5.02625
G1 X92.457 Y96.338 E5.36128
G1 X92.854 Y97.453 E5.71595
G1 X93.024 Y98.145 E5.92930
G1 X93.107 Y98.688 E6.09399
G1 X93.210 Y100.065 E6.50780
G1 X93.104 Y101.445 E6.92234
G1 X92.985 Y102.140 E7.13363
G1 X92.844 Y102.667 E7.29724
G1 X92.446 Y103.754 E7.64415
G1 X91.860 Y104.668 E7.96933
G1 X91.546 Y105.061 E8.12006
G1 X91.348 Y105.273 E8.20700
G1 X91.161 Y105.446 E8.28338
G1 X90.297 Y106.094 E8.60708
G1 X89.981 Y106.261 E8.71417
G1 X89.251 Y106.563 E8.95087
G1 X88.621 Y106.761 E9.14866
G1 X88.055 Y106.873 E9.32170
G1 X86.711 Y106.992 E9.72603
G1 X84.987 Y106.812 E10.24541
G1 X84.763 Y106.773 E10.31348
G1 X83.401 Y106.264 E10.74921
G1 X83.073 Y106.101 E10.85884
G1 X82.036 Y105.287 E11.25389
G1 X81.820 Y105.088 E11.34189
G1 X80.910 Y103.753 E11.82619
G1 X80.374 Y102.162 E12.32904
G1 X80.332 Y101.938 E12.39748
G1 X80.157 Y100.047 E12.96634
G92 E0
G1 X93.865 Y102.982 F7800.000
