; generated by Slic3r 1.2.9 on 2016-03-11 at 01:28:32

; external perimeters extrusion width = 1.54mm
; perimeters extrusion width = 2.62mm
; infill extrusion width = 6.27mm
; solid infill extrusion width = 2.62mm
; top infill extrusion width = 2.62mm

M107
M104 S30 ; set temperature
G28 ; home all axes
G1 Z5 F5000 ; lift nozzle
M302
M92 E10000
M500
M501
G1 E100
M109 S30 ; wait for temperature to be reached
G21 ; set units to millimeters
G90 ; use absolute coordinates
M82 ; use absolute distances for extrusion
G92 E0
G1 Z0.300 F7800.000
G1 X91.742 Y107.447 F7800.000
G1 X91.448 Y107.514 E0.01367 F378.000
G1 X89.998 Y107.614 E0.07941
G1 X87.835 Y107.390 E0.17785
G1 X86.030 Y106.725 E0.26486
G1 X84.571 Y105.621 E0.34764
G1 X83.495 Y104.124 E0.43106
G1 X82.846 Y102.275 E0.51974
G1 X82.627 Y100.061 E0.62041
G1 X82.725 Y98.562 E0.68839
G1 X83.018 Y97.196 E0.75162
G1 X83.503 Y95.965 E0.81150
G1 X84.171 Y94.896 E0.86853
G1 X85.009 Y94.011 E0.92366
G1 X86.021 Y93.308 E0.97941
G1 X87.193 Y92.797 E1.03727
G1 X88.510 Y92.489 E1.09847
G1 X89.973 Y92.386 E1.16487
G1 X91.332 Y92.483 E1.22650
G1 X91.425 Y92.490 E1.23073 F378.000
G1 X92.736 Y92.802 E1.29170
G1 X93.909 Y93.319 E1.34970
G1 X94.926 Y94.028 E1.40582
G1 X95.772 Y94.915 E1.46127
G1 X96.449 Y95.983 E1.51848
G1 X96.943 Y97.209 E1.57831
G1 X97.241 Y98.570 E1.64132
G1 X97.341 Y100.065 E1.70914
G1 X97.242 Y101.563 E1.77708
G1 X96.948 Y102.916 E1.83971
G1 X96.460 Y104.124 E1.89869
G1 X95.790 Y105.169 E1.95487
G1 X94.949 Y106.032 E2.00939
G1 X93.933 Y106.716 E2.06481
G1 X92.760 Y107.214 E2.12245
G1 X91.968 Y107.395 E2.15924
G1 X91.656 Y106.188 F7800.000
G1 X89.996 Y106.374 E2.23484 F378.000
G1 X88.323 Y106.191 E2.31098
G1 X86.910 Y105.634 E2.37972
G1 X85.769 Y104.701 E2.44640
G1 X84.937 Y103.438 E2.51484
G1 X84.443 Y101.890 E2.58836
G1 X84.280 Y100.065 E2.67129
G1 X84.445 Y98.242 E2.75409
G1 X84.944 Y96.676 E2.82848
G1 X85.782 Y95.372 E2.89865
G1 X86.925 Y94.394 E2.96670
G1 X88.327 Y93.808 E3.03545
G1 X89.828 Y93.632 E3.10385
G1 X89.973 Y93.615 E3.11045 F378.000
G1 X91.657 Y93.801 E3.18711
G1 X93.073 Y94.368 E3.25612
G1 X94.208 Y95.317 E3.32305
G1 X95.029 Y96.605 E3.39220
G1 X95.517 Y98.190 E3.46724
G1 X95.678 Y100.065 E3.55241
G1 X95.516 Y101.868 E3.63432
G1 X95.023 Y103.408 E3.70748
G1 X94.196 Y104.678 E3.77608
G1 X93.061 Y105.623 E3.84289
G1 X91.871 Y106.102 E3.90094
G1 X87.525 Y106.999 F7800.000
G1 X83.291 Y102.766 E4.17565 F540.000
G1 X83.591 Y103.619 F7800.000
G1 X86.648 Y106.676 E4.37409 F540.000
G1 X87.047 Y105.969 F7800.000
G1 X88.278 Y107.200 E4.45396 F540.000
G1 X88.895 Y107.264 E4.48242
G1 X87.960 Y106.329 E4.54310
G1 X88.647 Y106.463 E4.57523
G1 X89.512 Y107.328 E4.63135
G1 X90.122 Y107.385 E4.65945
G1 X89.268 Y106.531 E4.71483
G1 X89.890 Y106.600 E4.74350
G1 X90.639 Y107.349 E4.79213
G1 X91.156 Y107.313 E4.81592
G1 X90.392 Y106.549 E4.86553
G1 X90.889 Y106.493 E4.88849
G1 X91.649 Y107.253 E4.93780
G1 X92.099 Y107.150 E4.95899
G1 X91.386 Y106.437 E5.00524
G1 X91.835 Y106.333 E5.02639
G1 X92.549 Y107.047 E5.07272
G1 X92.965 Y106.909 E5.09280
G1 X92.230 Y106.174 E5.14050
G1 X92.624 Y106.016 E5.16000
G1 X93.353 Y106.745 E5.20730
G1 X93.741 Y106.580 E5.22665
G1 X93.018 Y105.857 E5.27355
G1 X93.348 Y105.634 E5.29183
G1 X94.090 Y106.376 E5.33997
G1 X94.421 Y106.153 E5.35826
G1 X93.650 Y105.383 E5.40826
G1 X93.952 Y105.132 E5.42628
G1 X94.750 Y105.930 E5.47809
G1 X95.027 Y105.653 E5.49603
G1 X94.254 Y104.880 E5.54619
G1 X94.498 Y104.571 E5.56426
G1 X95.303 Y105.377 E5.61655
G1 X95.580 Y105.100 E5.63449
G1 X94.716 Y104.236 E5.69055
G1 X94.934 Y103.902 E5.70889
G1 X95.810 Y104.777 E5.76572
G1 X96.026 Y104.440 E5.78409
G1 X95.152 Y103.567 E5.84077
G1 X95.313 Y103.175 E5.86022
G1 X96.242 Y104.103 E5.92048
G1 X96.408 Y103.716 E5.93981
G1 X95.447 Y102.756 E6.00213
G1 X95.581 Y102.337 E6.02232
G1 X96.567 Y103.322 E6.08627
G1 X96.726 Y102.928 E6.10576
G1 X95.715 Y101.918 E6.17135
G1 X95.776 Y101.425 E6.19412
G1 X96.828 Y102.478 E6.26242
G1 X96.927 Y102.023 E6.28375
G1 X95.821 Y100.918 E6.35549
G1 X95.867 Y100.411 E6.37886
G1 X97.021 Y101.565 E6.45375
G1 X97.055 Y101.046 E6.47761
G1 X95.897 Y99.888 E6.55275
G1 X95.845 Y99.283 E6.58061
G1 X97.089 Y100.527 E6.66135
G1 X97.104 Y99.988 E6.68607
G1 X95.793 Y98.678 E6.77111
G1 X95.741 Y98.073 E6.79897
G1 X97.064 Y99.396 E6.88482
G1 X97.025 Y98.803 E6.91207
G1 X95.503 Y97.281 E7.01082
G1 X95.257 Y96.482 E7.04919
G1 X96.891 Y98.116 E7.15521
G1 X96.736 Y97.408 E7.18848
G1 X94.364 Y95.037 E7.34235
G1 X94.507 Y95.179 F7800.000
G1 X92.273 Y92.946 E7.48730 F540.000
G1 X91.548 Y92.773 F7800.000
G1 X92.719 Y93.944 E7.56328 F540.000
G1 X93.160 Y93.279 F7800.000
G1 X96.369 Y96.489 E7.77154 F540.000
G1 X95.390 Y94.956 F7800.000
G1 X94.550 Y94.116 E7.82605 F540.000
G1 X91.802 Y93.581 F7800.000
G1 X90.907 Y92.685 E7.88415 F540.000
G1 X90.311 Y92.643 E7.91156
G1 X91.180 Y93.512 E7.96796
G1 X90.558 Y93.443 E7.99668
G1 X89.739 Y92.623 E8.04985
G1 X89.222 Y92.660 E8.07362
G1 X89.960 Y93.398 E8.12151
G1 X89.465 Y93.456 E8.14437
G1 X88.706 Y92.696 E8.19367
G1 X88.227 Y92.770 E8.21591
G1 X88.970 Y93.514 E8.26416
G1 X88.476 Y93.572 E8.28703
G1 X87.779 Y92.875 E8.33225
G1 X87.331 Y92.980 E8.35337
G1 X88.055 Y93.704 E8.40035
G1 X87.665 Y93.867 E8.41975
G1 X86.928 Y93.131 E8.46753
G1 X86.543 Y93.299 E8.48680
G1 X87.275 Y94.030 E8.53426
G1 X86.884 Y94.193 E8.55365
G1 X86.158 Y93.467 E8.60078
G1 X85.821 Y93.683 E8.61915
G1 X86.577 Y94.438 E8.66816
G1 X86.279 Y94.693 E8.68616
G1 X85.495 Y93.910 E8.73701
G1 X85.177 Y94.144 E8.75516
G1 X85.981 Y94.948 E8.80732
G1 X85.683 Y95.203 E8.82532
G1 X84.900 Y94.421 E8.87608
G1 X84.624 Y94.697 E8.89403
G1 X85.452 Y95.525 E8.94775
G1 X85.235 Y95.862 E8.96611
G1 X84.354 Y94.981 E9.02328
G1 X84.137 Y95.317 E9.04164
G1 X85.019 Y96.199 E9.09884
G1 X84.803 Y96.535 E9.11720
G1 X83.925 Y95.658 E9.17416
G1 X83.712 Y95.998 E9.19257
G1 X84.647 Y96.932 E9.25321
G1 X84.513 Y97.352 E9.27341
G1 X83.552 Y96.391 E9.33578
G1 X83.396 Y96.787 E9.35534
G1 X84.380 Y97.771 E9.41920
G1 X84.246 Y98.191 E9.43939
G1 X83.239 Y97.184 E9.50473
G1 X83.139 Y97.636 E9.52600
G1 X84.185 Y98.683 E9.59390
G1 X84.139 Y99.190 E9.61726
G1 X83.041 Y98.092 E9.68851
G1 X82.947 Y98.551 E9.71000
G1 X84.093 Y99.697 E9.78438
G1 X84.059 Y100.215 E9.80822
G1 X82.913 Y99.070 E9.88255
G1 X82.879 Y99.589 E9.90643
G1 X84.113 Y100.823 E9.98648
G1 X84.167 Y101.430 E10.01445
G1 X82.870 Y100.133 E10.09864
G1 X82.930 Y100.746 E10.12693
G1 X84.223 Y102.039 E10.21079
G1 X84.482 Y102.851 E10.24993
G1 X82.991 Y101.360 E10.34670
G1 X83.052 Y101.973 E10.37499
G1 X84.751 Y103.673 E10.48531
G1 X84.639 Y105.220 F7800.000
G1 X84.993 Y105.574 E10.50829 F540.000
G92 E0
G1 X97.567 Y100.065 F7800.000
G1 X101.925 Y97.560 F7800.000
G1 X101.006 Y95.591 F7800.000
G1 X100.525 Y94.726 F7800.000
G1 X103.777 Y92.352 F7800.000
G1 X107.363 Y94.603 F7800.000
G1 X110.202 Y98.666 E0.22427 F378.000
G1 X110.738 Y99.435 E0.26668 F378.000
G1 X115.429 Y92.577 E0.64263
G1 X117.164 Y92.577 E0.72115
G1 X111.661 Y100.376 E1.15305
G1 X116.716 Y107.423 E1.54547
G1 X114.985 Y107.423 E1.62381
G1 X110.750 Y101.251 E1.96250
G1 X106.393 Y107.423 E2.30436
G1 X104.664 Y107.423 E2.38259
G1 X109.857 Y100.299 E2.78151
G1 X104.220 Y92.577 E3.21411
G1 X105.948 Y92.577 E3.29229
G1 X107.231 Y94.414 E3.39367
G1 X106.623 Y94.046 F7800.000
G1 X105.381 Y92.803 E3.47425 F540.000
G1 X104.828 Y92.803 E3.49958
G1 X107.904 Y95.878 E3.69896
G1 X107.504 Y96.584 F7800.000
G1 X111.371 Y100.451 E3.94965 F540.000
G1 X111.600 Y100.127 E3.96783
G1 X110.947 Y99.474 E4.01017
G1 X111.171 Y99.146 E4.02839
G1 X111.828 Y99.803 E4.07101
G1 X112.057 Y99.479 E4.08918
G1 X111.395 Y98.818 E4.13206
G1 X111.620 Y98.490 E4.15029
G1 X112.285 Y99.155 E4.19344
G1 X112.514 Y98.831 E4.21161
G1 X111.844 Y98.162 E4.25503
G1 X112.069 Y97.834 E4.27325
G1 X112.743 Y98.508 E4.31694
G1 X112.971 Y98.184 E4.33512
G1 X112.293 Y97.506 E4.37908
G1 X112.517 Y97.177 E4.39730
G1 X113.200 Y97.860 E4.44153
G1 X113.428 Y97.536 E4.45970
G1 X112.742 Y96.849 E4.50420
G1 X112.966 Y96.521 E4.52242
G1 X113.657 Y97.212 E4.56719
G1 X113.885 Y96.888 E4.58536
G1 X113.191 Y96.193 E4.63040
G1 X113.415 Y95.865 E4.64862
G1 X114.114 Y96.564 E4.69392
G1 X114.343 Y96.240 E4.71210
G1 X113.639 Y95.537 E4.75767
G1 X113.864 Y95.209 E4.77589
G1 X114.571 Y95.916 E4.82174
G1 X114.800 Y95.592 E4.83991
G1 X114.088 Y94.881 E4.88602
G1 X114.313 Y94.553 E4.90424
G1 X115.028 Y95.268 E4.95063
G1 X115.257 Y94.944 E4.96880
G1 X114.537 Y94.225 E5.01545
G1 X114.762 Y93.897 E5.03367
G1 X115.485 Y94.621 E5.08059
G1 X115.714 Y94.297 E5.09877
G1 X114.986 Y93.569 E5.14596
G1 X115.210 Y93.241 E5.16418
G1 X115.942 Y93.973 E5.21163
G1 X116.171 Y93.649 E5.22981
G1 X115.435 Y92.913 E5.27754
G1 X115.878 Y92.803 E5.29845
G1 X116.400 Y93.325 E5.33228
G1 X116.430 Y92.803 E5.35625
G1 X116.628 Y93.001 E5.36908
G92 E0
G1 X109.184 Y97.711 F7800.000
G1 X106.011 Y94.538 E0.20569 F540.000
G1 X108.998 Y98.630 F7800.000
G1 X112.732 Y102.364 E0.44777 F540.000
G1 X112.374 Y103.111 F7800.000
G1 X115.535 Y106.273 E0.65272 F540.000
G1 X114.790 Y106.632 F7800.000
G1 X115.355 Y107.197 E0.68935 F540.000
G1 X115.907 Y107.197 E0.71468
G1 X113.582 Y104.872 E0.86543
G1 X114.134 Y104.318 F7800.000
G1 X110.104 Y100.289 E1.12667 F540.000
G1 X109.871 Y100.608 E1.14480
G1 X110.513 Y101.251 E1.18645
G1 X110.285 Y101.574 E1.20462
G1 X109.638 Y100.928 E1.24654
G1 X109.405 Y101.247 E1.26467
G1 X110.056 Y101.898 E1.30687
G1 X109.827 Y102.222 E1.32505
G1 X109.172 Y101.567 E1.36753
G1 X108.939 Y101.886 E1.38565
G1 X109.599 Y102.546 E1.42842
G1 X109.370 Y102.870 E1.44659
G1 X108.706 Y102.206 E1.48963
G1 X108.473 Y102.525 E1.50775
G1 X109.142 Y103.194 E1.55107
G1 X108.913 Y103.518 E1.56925
G1 X108.240 Y102.845 E1.61284
G1 X108.007 Y103.165 E1.63097
G1 X108.684 Y103.841 E1.67485
G1 X108.456 Y104.165 E1.69302
G1 X107.775 Y103.484 E1.73717
G1 X107.542 Y103.804 E1.75530
G1 X108.227 Y104.489 E1.79974
G1 X107.998 Y104.813 E1.81791
G1 X107.309 Y104.123 E1.86262
G1 X107.076 Y104.443 E1.88075
G1 X107.770 Y105.137 E1.92574
G1 X107.541 Y105.461 E1.94391
G1 X106.843 Y104.762 E1.98918
G1 X106.610 Y105.082 E2.00731
G1 X107.312 Y105.784 E2.05286
G1 X107.084 Y106.108 E2.07103
G1 X106.377 Y105.401 E2.11686
G1 X106.144 Y105.721 E2.13499
G1 X106.855 Y106.432 E2.18109
G1 X106.627 Y106.756 E2.19927
G1 X105.911 Y106.040 E2.24565
G1 X105.678 Y106.360 E2.26378
G1 X106.398 Y107.080 E2.31044
G1 X105.963 Y107.197 E2.33111
G1 X105.445 Y106.680 E2.36465
G1 X105.212 Y106.999 E2.38278
G1 X105.410 Y107.197 E2.39561
M106 S255
G92 E0
G1 Z0.600 F7800.000
G1 X83.455 Y100.047 F7800.000
G1 X83.560 Y98.678 E0.41153 F600.000
G1 X83.680 Y97.973 E0.62586
G1 X83.822 Y97.439 E0.79152
G1 X84.223 Y96.327 E1.14548
G1 X84.811 Y95.391 E1.47685
G1 X85.127 Y94.989 E1.62985
G1 X85.318 Y94.779 E1.71524
G1 X85.511 Y94.596 E1.79480
G1 X86.369 Y93.933 E2.11989
G1 X86.696 Y93.754 E2.23139
G1 X87.409 Y93.449 E2.46387
G1 X88.055 Y93.240 E2.66728
G1 X88.606 Y93.127 E2.83582
G1 X89.973 Y93.002 E3.24709
G1 X91.328 Y93.123 E3.65472
G1 X91.914 Y93.240 E3.83388
G1 X92.524 Y93.433 E4.02549
G1 X93.281 Y93.752 E4.27154
G1 X93.577 Y93.910 E4.37210
G1 X94.453 Y94.580 E4.70268
G1 X94.636 Y94.750 E4.77748
G1 X94.829 Y94.962 E4.86331
G1 X95.164 Y95.390 E5.02625
G1 X95.756 Y96.338 E5.36128
G1 X96.153 Y97.453 E5.71595
G1 X96.323 Y98.145 E5.92930
G1 X96.405 Y98.688 E6.09399
G1 X96.508 Y100.065 E6.50780
G1 X96.403 Y101.445 E6.92234
G1 X96.284 Y102.140 E7.13363
G1 X96.142 Y102.667 E7.29724
G1 X95.744 Y103.754 E7.64415
G1 X95.159 Y104.668 E7.96933
G1 X94.844 Y105.061 E8.12006
G1 X94.647 Y105.273 E8.20700
G1 X94.460 Y105.446 E8.28338
G1 X93.595 Y106.094 E8.60708
G1 X93.279 Y106.261 E8.71417
G1 X92.549 Y106.563 E8.95087
G1 X91.920 Y106.761 E9.14866
G1 X91.353 Y106.873 E9.32170
G1 X90.009 Y106.992 E9.72603
G1 X88.285 Y106.812 E10.24541
G1 X88.061 Y106.773 E10.31348
G1 X86.699 Y106.264 E10.74921
G1 X86.371 Y106.101 E10.85884
G1 X85.335 Y105.287 E11.25389
G1 X85.119 Y105.088 E11.34189
G1 X84.208 Y103.753 E11.82619
G1 X83.672 Y102.162 E12.32904
G1 X83.630 Y101.938 E12.39748
G1 X83.455 Y100.047 E12.96634
G92 E0
G1 X97.159 Y97.143 F7800.000
G1 X103.777 Y91.256 F7800.000
G1 X110.709 Y93.379 F7800.000
G1 X110.726 Y96.808 F7800.000
G1 X110.736 Y99.039 F7800.000
G1 X116.449 Y92.352 F7800.000
G1 X111.459 Y99.533 E2.62027 F600.000
G1 X111.185 Y99.844 E2.74446
G1 X110.762 Y100.224 E2.91494
G1 X110.754 Y100.459 E2.98522
G1 X111.217 Y100.892 E3.17516
G1 X111.451 Y101.162 E3.28236
G1 X116.002 Y107.648 E5.65652
G1 X113.379 Y102.630 F7800.000
G1 X110.283 Y99.785 E6.91634 F600.000
G1 X110.048 Y99.520 E7.02241
G1 X104.930 Y92.352 E9.66156
G92 E0
G1 X105.372 Y107.648 F7800.000
G1 X110.038 Y101.144 E2.39857 F600.000
G1 X110.318 Y100.838 E2.52286
G1 X113.438 Y98.128 E3.76123
G92 E0
G1 Z0.900 F7800.000
G1 X83.455 Y100.047 F7800.000
G1 X83.560 Y98.678 E0.41153 F600.000
G1 X83.680 Y97.973 E0.62586
G1 X83.822 Y97.439 E0.79152
G1 X84.223 Y96.327 E1.14548
G1 X84.811 Y95.391 E1.47684
G1 X85.127 Y94.989 E1.62985
G1 X85.318 Y94.779 E1.71524
G1 X85.511 Y94.596 E1.79480
G1 X86.369 Y93.933 E2.11989
G1 X86.696 Y93.754 E2.23139
G1 X87.409 Y93.449 E2.46387
G1 X88.055 Y93.240 E2.66728
G1 X88.606 Y93.127 E2.83582
G1 X89.973 Y93.002 E3.24709
G1 X91.328 Y93.123 E3.65472
G1 X91.914 Y93.240 E3.83388
G1 X92.524 Y93.433 E4.02549
G1 X93.281 Y93.752 E4.27154
G1 X93.577 Y93.910 E4.37210
G1 X94.453 Y94.580 E4.70268
G1 X94.636 Y94.750 E4.77748
G1 X94.829 Y94.962 E4.86331
G1 X95.164 Y95.390 E5.02625
G1 X95.756 Y96.338 E5.36128
G1 X96.153 Y97.453 E5.71595
G1 X96.323 Y98.145 E5.92930
G1 X96.405 Y98.688 E6.09399
G1 X96.508 Y100.065 E6.50780
G1 X96.403 Y101.445 E6.92234
G1 X96.284 Y102.140 E7.13363
G1 X96.142 Y102.667 E7.29724
G1 X95.744 Y103.754 E7.64415
G1 X95.159 Y104.668 E7.96933
G1 X94.844 Y105.061 E8.12006
G1 X94.647 Y105.273 E8.20700
G1 X94.460 Y105.446 E8.28338
G1 X93.595 Y106.094 E8.60708
G1 X93.279 Y106.261 E8.71417
G1 X92.549 Y106.563 E8.95087
G1 X91.920 Y106.761 E9.14866
G1 X91.353 Y106.873 E9.32170
G1 X90.009 Y106.992 E9.72603
G1 X88.285 Y106.812 E10.24541
G1 X88.061 Y106.773 E10.31348
G1 X86.699 Y106.264 E10.74921
G1 X86.371 Y106.101 E10.85884
G1 X85.335 Y105.287 E11.25389
G1 X85.119 Y105.088 E11.34189
G1 X84.208 Y103.753 E11.82619
G1 X83.672 Y102.162 E12.32904
G1 X83.630 Y101.938 E12.39748
G1 X83.455 Y100.047 E12.96634
G92 E0
G1 X97.159 Y97.143 F7800.000
G1 X103.777 Y91.256 F7800.000
G1 X110.709 Y93.379 F7800.000
G1 X110.718 Y95.352 F7800.000
G1 X110.736 Y99.039 F7800.000
G1 X116.449 Y92.352 F7800.000
G1 X111.459 Y99.533 E2.62027 F600.000
G1 X111.185 Y99.844 E2.74446
G1 X110.762 Y100.224 E2.91494
G1 X110.754 Y100.459 E2.98522
G1 X111.217 Y100.892 E3.17516
G1 X111.451 Y101.162 E3.28236
G1 X116.002 Y107.648 E5.65652
G1 X113.379 Y102.630 F7800.000
G1 X110.283 Y99.785 E6.91634 F600.000
G1 X110.048 Y99.520 E7.02241
G1 X104.930 Y92.352 E9.66156
G92 E0
G1 X105.372 Y107.648 F7800.000
G1 X110.038 Y101.144 E2.39857 F600.000
G1 X110.318 Y100.838 E2.52286
G1 X113.438 Y98.128 E3.76123
G92 E0
G1 Z1.200 F7800.000
G1 X83.455 Y100.047 F7800.000
G1 X83.560 Y98.678 E0.41153 F600.000
G1 X83.680 Y97.973 E0.62586
G1 X83.822 Y97.439 E0.79152
G1 X84.223 Y96.327 E1.14548
G1 X84.811 Y95.391 E1.47684
G1 X85.127 Y94.989 E1.62985
G1 X85.318 Y94.779 E1.71524
G1 X85.511 Y94.596 E1.79480
G1 X86.369 Y93.933 E2.11989
G1 X86.696 Y93.754 E2.23139
G1 X87.409 Y93.449 E2.46387
G1 X88.055 Y93.240 E2.66728
G1 X88.606 Y93.127 E2.83582
G1 X89.973 Y93.002 E3.24709
G1 X91.328 Y93.123 E3.65471
G1 X91.914 Y93.240 E3.83388
G1 X92.524 Y93.433 E4.02549
G1 X93.281 Y93.752 E4.27154
G1 X93.577 Y93.910 E4.37210
G1 X94.453 Y94.580 E4.70268
G1 X94.636 Y94.750 E4.77748
G1 X94.829 Y94.962 E4.86331
G1 X95.164 Y95.390 E5.02625
G1 X95.756 Y96.338 E5.36128
G1 X96.153 Y97.453 E5.71595
G1 X96.323 Y98.145 E5.92930
G1 X96.405 Y98.688 E6.09399
G1 X96.508 Y100.065 E6.50780
G1 X96.403 Y101.445 E6.92234
G1 X96.284 Y102.140 E7.13363
G1 X96.142 Y102.667 E7.29724
G1 X95.744 Y103.754 E7.64415
G1 X95.159 Y104.668 E7.96934
G1 X94.844 Y105.061 E8.12006
G1 X94.647 Y105.273 E8.20700
G1 X94.460 Y105.446 E8.28338
G1 X93.595 Y106.094 E8.60708
