; generated by Slic3r 1.2.9 on 2016-03-11 at 01:28:33

; external perimeters extrusion width = 1.54mm
; perimeters extrusion width = 2.62mm
; infill extrusion width = 6.27mm
; solid infill extrusion width = 2.62mm
; top infill extrusion width = 2.62mm

M107
M104 S30 ; set temperature
G28 ; home all axes
G1 Z5 F5000 ; lift nozzle
M302
M92 E10000
M500
M501
G1 E100
M109 S30 ; wait for temperature to be reached
G21 ; set units to millimeters
G90 ; use absolute coordinates
M82 ; use absolute distances for extrusion
G92 E0
G1 Z0.300 F7800.000
G1 X83.467 Y96.085 F7800.000
G1 X83.514 Y95.965 E0.00584 F378.000
G1 X84.182 Y94.896 E0.06287
G1 X85.020 Y94.011 E0.11799
G1 X86.032 Y93.308 E0.17375
G1 X87.204 Y92.797 E0.23161
G1 X88.521 Y92.489 E0.29280
G1 X89.984 Y92.386 E0.35920
G1 X91.343 Y92.483 E0.42083
G1 X91.436 Y92.490 E0.42507 F378.000
G1 X92.747 Y92.802 E0.48604
G1 X93.920 Y93.319 E0.54403
G1 X94.937 Y94.028 E0.60015
G1 X95.783 Y94.915 E0.65560
G1 X96.460 Y95.983 E0.71282
G1 X96.954 Y97.209 E0.77265
G1 X97.252 Y98.570 E0.83565
G1 X97.352 Y100.065 E0.90348
G1 X97.253 Y101.563 E0.97141
G1 X96.959 Y102.916 E1.03405
G1 X96.471 Y104.124 E1.09302
G1 X95.801 Y105.169 E1.14920
G1 X94.960 Y106.032 E1.20373
G1 X93.944 Y106.716 E1.25914
G1 X92.771 Y107.214 E1.31679
G1 X91.459 Y107.514 E1.37769
G1 X90.009 Y107.614 E1.44344
G1 X87.846 Y107.390 E1.54187
G1 X86.041 Y106.725 E1.62889
G1 X84.582 Y105.621 E1.71167
G1 X83.506 Y104.124 E1.79509
G1 X82.857 Y102.275 E1.88376
G1 X82.638 Y100.061 E1.98443
G1 X82.736 Y98.562 E2.05242
G1 X83.029 Y97.196 E2.11565
G1 X83.382 Y96.300 E2.15924
G1 X84.919 Y96.789 F7800.000
G1 X84.955 Y96.676 E2.16461 F378.000
G1 X85.793 Y95.372 E2.23478
G1 X86.936 Y94.394 E2.30283
G1 X88.338 Y93.808 E2.37157
G1 X89.839 Y93.632 E2.43998
G1 X89.984 Y93.615 E2.44658 F378.000
G1 X91.668 Y93.801 E2.52324
G1 X93.084 Y94.368 E2.59225
G1 X94.219 Y95.317 E2.65918
G1 X95.040 Y96.605 E2.72833
G1 X95.528 Y98.190 E2.80336
G1 X95.689 Y100.065 E2.88854
G1 X95.527 Y101.868 E2.97045
G1 X95.034 Y103.408 E3.04361
G1 X94.207 Y104.678 E3.11220
G1 X93.072 Y105.623 E3.17902
G1 X91.667 Y106.188 E3.24753
G1 X90.007 Y106.374 E3.32313
G1 X88.334 Y106.191 E3.39927
G1 X86.921 Y105.634 E3.46801
G1 X85.780 Y104.701 E3.53469
G1 X84.948 Y103.438 E3.60313
G1 X84.454 Y101.890 E3.67665
G1 X84.291 Y100.065 E3.75958
G1 X84.456 Y98.242 E3.84238
G1 X84.849 Y97.009 E3.90094
G1 X83.302 Y102.766 F7800.000
G1 X87.536 Y106.999 E4.17565 F540.000
G1 X86.659 Y106.676 F7800.000
G1 X83.602 Y103.619 E4.37409 F540.000
G1 X84.762 Y103.673 F7800.000
G1 X83.063 Y101.973 E4.48440 F540.000
G1 X83.002 Y101.360 E4.51269
G1 X84.493 Y102.851 E4.60946
G1 X84.234 Y102.039 E4.64860
G1 X82.941 Y100.746 E4.73246
G1 X82.881 Y100.133 E4.76075
G1 X84.178 Y101.430 E4.84494
G1 X84.124 Y100.823 E4.87292
G1 X82.890 Y99.589 E4.95296
G1 X82.924 Y99.070 E4.97684
G1 X84.070 Y100.215 E5.05117
G1 X84.104 Y99.697 E5.07501
G1 X82.958 Y98.551 E5.14939
G1 X83.052 Y98.092 E5.17088
G1 X84.150 Y99.190 E5.24213
G1 X84.196 Y98.683 E5.26549
G1 X83.150 Y97.636 E5.33339
G1 X83.250 Y97.184 E5.35466
G1 X84.257 Y98.191 E5.42000
G1 X84.391 Y97.771 E5.44019
G1 X83.407 Y96.787 E5.50405
G1 X83.563 Y96.391 E5.52361
G1 X84.524 Y97.352 E5.58598
G1 X84.658 Y96.932 E5.60618
G1 X83.723 Y95.998 E5.66682
G1 X83.936 Y95.658 E5.68523
G1 X84.814 Y96.535 E5.74219
G1 X85.030 Y96.199 E5.76055
G1 X84.148 Y95.317 E5.81776
G1 X84.365 Y94.981 E5.83611
G1 X85.246 Y95.862 E5.89328
G1 X85.463 Y95.525 E5.91164
G1 X84.635 Y94.697 E5.96536
G1 X84.911 Y94.421 E5.98331
G1 X85.694 Y95.203 E6.03408
G1 X85.992 Y94.948 E6.05207
G1 X85.188 Y94.144 E6.10424
G1 X85.506 Y93.910 E6.12238
G1 X86.290 Y94.693 E6.17323
G1 X86.588 Y94.438 E6.19123
G1 X85.832 Y93.683 E6.24024
G1 X86.169 Y93.467 E6.25861
G1 X86.895 Y94.193 E6.30574
G1 X87.286 Y94.030 E6.32513
G1 X86.554 Y93.299 E6.37259
G1 X86.939 Y93.131 E6.39187
G1 X87.676 Y93.867 E6.43964
G1 X88.066 Y93.704 E6.45904
G1 X87.342 Y92.980 E6.50603
G1 X87.790 Y92.875 E6.52715
G1 X88.487 Y93.572 E6.57237
G1 X88.981 Y93.514 E6.59523
G1 X88.238 Y92.770 E6.64349
G1 X88.717 Y92.696 E6.66572
G1 X89.476 Y93.456 E6.71502
G1 X89.971 Y93.398 E6.73788
G1 X89.233 Y92.660 E6.78578
G1 X89.750 Y92.623 E6.80954
G1 X90.569 Y93.443 E6.86272
G1 X91.191 Y93.512 E6.89143
G1 X90.322 Y92.643 E6.94783
G1 X90.918 Y92.685 E6.97525
G1 X91.813 Y93.581 E7.03334
G1 X92.284 Y92.946 F7800.000
G1 X94.518 Y95.179 E7.17829 F540.000
G1 X94.375 Y95.037 F7800.000
G1 X96.747 Y97.408 E7.33216 F540.000
G1 X96.902 Y98.116 E7.36543
G1 X95.268 Y96.482 E7.47146
G1 X95.514 Y97.281 E7.50982
G1 X97.036 Y98.803 E7.60858
G1 X97.075 Y99.396 E7.63583
G1 X95.752 Y98.073 E7.72167
G1 X95.804 Y98.678 E7.74953
G1 X97.115 Y99.988 E7.83457
G1 X97.100 Y100.527 E7.85930
G1 X95.856 Y99.283 E7.94003
G1 X95.908 Y99.888 E7.96789
G1 X97.066 Y101.046 E8.04304
G1 X97.032 Y101.565 E8.06690
G1 X95.878 Y100.411 E8.14178
G1 X95.832 Y100.918 E8.16515
G1 X96.938 Y102.023 E8.23690
G1 X96.839 Y102.478 E8.25822
G1 X95.787 Y101.425 E8.32652
G1 X95.726 Y101.918 E8.34929
G1 X96.737 Y102.928 E8.41488
G1 X96.578 Y103.322 E8.43437
G1 X95.592 Y102.337 E8.49833
G1 X95.458 Y102.756 E8.51851
G1 X96.419 Y103.716 E8.58084
G1 X96.253 Y104.103 E8.60017
G1 X95.324 Y103.175 E8.66043
G1 X95.163 Y103.567 E8.67987
G1 X96.037 Y104.440 E8.73656
G1 X95.821 Y104.777 E8.75492
G1 X94.945 Y103.902 E8.81175
G1 X94.727 Y104.236 E8.83009
G1 X95.591 Y105.100 E8.88615
G1 X95.314 Y105.377 E8.90410
G1 X94.509 Y104.571 E8.95638
G1 X94.265 Y104.880 E8.97445
G1 X95.038 Y105.653 E9.02461
G1 X94.761 Y105.930 E9.04256
G1 X93.963 Y105.132 E9.09436
G1 X93.661 Y105.383 E9.11238
G1 X94.432 Y106.153 E9.16239
G1 X94.101 Y106.376 E9.18067
G1 X93.359 Y105.634 E9.22881
G1 X93.029 Y105.857 E9.24709
G1 X93.752 Y106.580 E9.29399
G1 X93.364 Y106.745 E9.31334
G1 X92.635 Y106.016 E9.36064
G1 X92.241 Y106.174 E9.38015
G1 X92.976 Y106.909 E9.42784
G1 X92.560 Y107.047 E9.44792
G1 X91.846 Y106.333 E9.49425
G1 X91.397 Y106.437 E9.51540
G1 X92.110 Y107.150 E9.56166
G1 X91.660 Y107.253 E9.58284
G1 X90.900 Y106.493 E9.63216
G1 X90.403 Y106.549 E9.65512
G1 X91.167 Y107.313 E9.70472
G1 X90.650 Y107.349 E9.72851
G1 X89.901 Y106.600 E9.77714
G1 X89.279 Y106.531 E9.80582
G1 X90.133 Y107.385 E9.86119
G1 X89.523 Y107.328 E9.88930
G1 X88.658 Y106.463 E9.94541
G1 X87.971 Y106.329 E9.97754
G1 X88.906 Y107.264 E10.03823
G1 X88.289 Y107.200 E10.06668
G1 X87.058 Y105.969 E10.14656
G1 X85.004 Y105.574 F7800.000
G1 X84.650 Y105.220 E10.16954 F540.000
G92 E0
G1 X84.247 Y96.343 F7800.000
G1 X84.228 Y96.331 F7800.000
G1 X84.822 Y95.391 F7800.000
G1 X85.027 Y95.131 F7800.000
G1 X92.730 Y93.944 F7800.000
G1 X91.559 Y92.773 E0.07598 F540.000
G1 X93.171 Y93.279 F7800.000
G1 X96.380 Y96.489 E0.28424 F540.000
G1 X95.401 Y94.956 F7800.000
G1 X94.561 Y94.116 E0.33875 F540.000
G92 E0
G1 X97.170 Y97.143 F7800.000
G1 X102.788 Y95.912 F7800.000
G1 X103.447 Y96.843 F7800.000
G1 X109.643 Y98.692 F7800.000
G1 X111.479 Y95.026 F7800.000
G1 X111.479 Y98.759 E0.16894 F378.000
G1 X117.170 Y107.423 E0.63798 F378.000
G1 X115.433 Y107.423 E0.71658
G1 X110.696 Y99.942 E1.11724
G1 X105.931 Y107.423 E1.51857
G1 X104.194 Y107.423 E1.59718
G1 X109.868 Y98.759 E2.06582
G1 X109.868 Y92.577 E2.34556
G1 X111.479 Y92.577 E2.41846
G1 X111.479 Y94.795 E2.51881
G1 X111.253 Y93.007 F7800.000
G1 X111.050 Y92.803 E2.53207 F540.000
G1 X110.495 Y92.803 E2.55765
G1 X111.253 Y93.562 E2.60708
G1 X111.253 Y94.117 E2.63266
G1 X110.094 Y92.958 E2.70817
G1 X110.094 Y93.513 E2.73374
G1 X111.253 Y94.672 E2.80925
G1 X111.253 Y95.227 E2.83483
G1 X110.094 Y94.068 E2.91034
G1 X110.094 Y94.623 E2.93591
G1 X111.253 Y95.782 E3.01143
G1 X111.253 Y96.338 E3.03700
G1 X110.094 Y95.179 E3.11251
G1 X110.094 Y95.734 E3.13809
G1 X111.253 Y96.893 E3.21360
G1 X111.253 Y97.448 E3.23917
G1 X110.094 Y96.289 E3.31468
G1 X110.094 Y96.844 E3.34026
G1 X111.253 Y98.003 E3.41577
G1 X111.253 Y98.558 E3.44134
G1 X110.094 Y97.399 E3.51685
G1 X110.094 Y97.955 E3.54243
G1 X111.599 Y99.459 E3.64045
G1 X111.131 Y100.102 F7800.000
G1 X113.725 Y102.695 E3.80941 F540.000
G1 X113.049 Y103.129 F7800.000
G1 X115.850 Y105.931 E3.99194 F540.000
G1 X114.966 Y106.157 F7800.000
G1 X116.006 Y107.197 E4.05968 F540.000
G1 X116.561 Y107.197 E4.08525
G1 X114.007 Y104.643 E4.25162
G1 X114.788 Y104.313 F7800.000
G1 X112.090 Y101.616 E4.42736 F540.000
G1 X112.662 Y101.077 F7800.000
G1 X110.094 Y98.510 E4.59463 F540.000
G1 X109.977 Y98.948 E4.61552
G1 X110.662 Y99.633 E4.66013
G1 X110.446 Y99.972 E4.67866
G1 X109.758 Y99.283 E4.72352
G1 X109.538 Y99.619 E4.74199
G1 X110.230 Y100.311 E4.78709
G1 X110.014 Y100.650 E4.80561
G1 X109.318 Y99.954 E4.85095
G1 X109.098 Y100.290 E4.86942
G1 X109.798 Y100.989 E4.91500
G1 X109.582 Y101.328 E4.93352
G1 X108.879 Y100.625 E4.97934
G1 X108.659 Y100.961 E4.99782
G1 X109.366 Y101.668 E5.04388
G1 X109.150 Y102.007 E5.06240
G1 X108.439 Y101.296 E5.10870
G1 X108.220 Y101.632 E5.12717
G1 X108.934 Y102.346 E5.17371
G1 X108.718 Y102.685 E5.19224
G1 X108.000 Y101.967 E5.23902
G1 X107.780 Y102.302 E5.25749
G1 X108.502 Y103.024 E5.30451
G1 X108.286 Y103.363 E5.32304
G1 X107.560 Y102.638 E5.37030
G1 X107.341 Y102.973 E5.38877
G1 X108.070 Y103.703 E5.43627
G1 X107.854 Y104.042 E5.45480
G1 X107.121 Y103.309 E5.50254
G1 X106.901 Y103.644 E5.52101
G1 X107.638 Y104.381 E5.56899
G1 X107.422 Y104.720 E5.58752
G1 X106.682 Y103.980 E5.63574
G1 X106.462 Y104.315 E5.65421
G1 X107.206 Y105.059 E5.70268
G1 X106.990 Y105.398 E5.72120
G1 X106.242 Y104.651 E5.76990
G1 X106.022 Y104.986 E5.78838
G1 X106.774 Y105.738 E5.83732
G1 X106.558 Y106.077 E5.85584
G1 X105.803 Y105.322 E5.90503
G1 X105.583 Y105.657 E5.92350
G1 X106.342 Y106.416 E5.97293
G1 X106.126 Y106.755 E5.99145
G1 X105.363 Y105.993 E6.04112
G1 X105.143 Y106.328 E6.05959
G1 X105.910 Y107.094 E6.10950
G1 X105.457 Y107.197 E6.13086
G1 X104.924 Y106.664 E6.16562
G1 X104.704 Y106.999 E6.18409
G1 X104.902 Y107.197 E6.19699
M106 S255
G92 E0
G1 Z0.600 F7800.000
G1 X83.466 Y100.047 F7800.000
G1 X83.571 Y98.678 E0.41153 F600.000
G1 X83.691 Y97.973 E0.62586
G1 X83.833 Y97.439 E0.79152
G1 X84.234 Y96.327 E1.14548
G1 X84.822 Y95.391 E1.47685
G1 X85.138 Y94.989 E1.62985
G1 X85.329 Y94.779 E1.71524
G1 X85.522 Y94.596 E1.79480
G1 X86.380 Y93.933 E2.11989
G1 X86.707 Y93.754 E2.23139
G1 X87.420 Y93.449 E2.46387
G1 X88.066 Y93.240 E2.66728
G1 X88.617 Y93.127 E2.83582
G1 X89.984 Y93.002 E3.24709
G1 X91.339 Y93.123 E3.65472
G1 X91.925 Y93.240 E3.83388
G1 X92.535 Y93.433 E4.02549
G1 X93.292 Y93.752 E4.27154
G1 X93.588 Y93.910 E4.37210
G1 X94.464 Y94.580 E4.70268
G1 X94.647 Y94.750 E4.77748
G1 X94.840 Y94.962 E4.86331
G1 X95.175 Y95.390 E5.02625
G1 X95.767 Y96.338 E5.36128
G1 X96.164 Y97.453 E5.71595
G1 X96.334 Y98.145 E5.92930
G1 X96.416 Y98.688 E6.09399
G1 X96.519 Y100.065 E6.50780
G1 X96.414 Y101.445 E6.92234
G1 X96.295 Y102.140 E7.13363
G1 X96.153 Y102.667 E7.29724
G1 X95.755 Y103.754 E7.64415
G1 X95.170 Y104.668 E7.96933
G1 X94.855 Y105.061 E8.12006
G1 X94.658 Y105.273 E8.20700
G1 X94.471 Y105.446 E8.28338
G1 X93.606 Y106.094 E8.60708
G1 X93.290 Y106.261 E8.71417
G1 X92.560 Y106.563 E8.95087
G1 X91.931 Y106.761 E9.14866
G1 X91.364 Y106.873 E9.32170
G1 X90.020 Y106.992 E9.72603
G1 X88.296 Y106.812 E10.24541
G1 X88.072 Y106.773 E10.31348
G1 X86.710 Y106.264 E10.74921
G1 X86.382 Y106.101 E10.85884
G1 X85.346 Y105.287 E11.25389
G1 X85.130 Y105.088 E11.34189
G1 X84.219 Y103.753 E11.82619
G1 X83.683 Y102.162 E12.32904
G1 X83.641 Y101.938 E12.39748
G1 X83.466 Y100.047 E12.96634
G92 E0
G1 X96.661 Y95.880 F7800.000
G1 X102.788 Y95.912 F7800.000
G1 X107.451 Y92.352 F7800.000
G1 X109.643 Y92.352 F7800.000
G1 X110.674 Y92.352 F7800.000
G1 X110.674 Y99.209 E2.05473 F600.000
G1 X110.801 Y99.286 E2.09907
G1 X111.439 Y99.891 E2.36271
G1 X116.442 Y107.648 E5.12860
G1 X110.643 Y98.582 F7800.000
G1 X110.643 Y98.582 F7800.000
G1 X104.921 Y107.648 F7800.000
G1 X109.938 Y99.880 E7.89969 F600.000
G1 X110.551 Y99.287 E8.15525
G1 X111.704 Y98.560 E8.56368
G92 E0
G1 Z0.900 F7800.000
G1 X83.466 Y100.047 F7800.000
G1 X83.571 Y98.678 E0.41153 F600.000
G1 X83.691 Y97.973 E0.62586
G1 X83.833 Y97.439 E0.79152
G1 X84.234 Y96.327 E1.14548
G1 X84.822 Y95.391 E1.47684
G1 X85.138 Y94.989 E1.62985
G1 X85.329 Y94.779 E1.71524
G1 X85.522 Y94.596 E1.79480
G1 X86.380 Y93.933 E2.11989
G1 X86.707 Y93.754 E2.23139
G1 X87.420 Y93.449 E2.46387
G1 X88.066 Y93.240 E2.66728
G1 X88.617 Y93.127 E2.83582
G1 X89.984 Y93.002 E3.24709
G1 X91.339 Y93.123 E3.65472
G1 X91.925 Y93.240 E3.83388
G1 X92.535 Y93.433 E4.02549
G1 X93.292 Y93.752 E4.27154
G1 X93.588 Y93.910 E4.37210
G1 X94.464 Y94.580 E4.70268
G1 X94.647 Y94.750 E4.77748
G1 X94.840 Y94.962 E4.86331
G1 X95.175 Y95.390 E5.02625
G1 X95.767 Y96.338 E5.36128
G1 X96.164 Y97.453 E5.71595
G1 X96.334 Y98.145 E5.92930
G1 X96.416 Y98.688 E6.09399
G1 X96.519 Y100.065 E6.50780
G1 X96.414 Y101.445 E6.92234
G1 X96.295 Y102.140 E7.13363
G1 X96.153 Y102.667 E7.29724
G1 X95.755 Y103.754 E7.64415
G1 X95.170 Y104.668 E7.96933
G1 X94.855 Y105.061 E8.12006
G1 X94.658 Y105.273 E8.20700
G1 X94.471 Y105.446 E8.28338
G1 X93.606 Y106.094 E8.60708
G1 X93.290 Y106.261 E8.71417
G1 X92.560 Y106.563 E8.95087
G1 X91.931 Y106.761 E9.14866
G1 X91.364 Y106.873 E9.32170
G1 X90.020 Y106.992 E9.72603
G1 X88.296 Y106.812 E10.24541
G1 X88.072 Y106.773 E10.31348
G1 X86.710 Y106.264 E10.74921
G1 X86.382 Y106.101 E10.85884
G1 X85.346 Y105.287 E11.25389
G1 X85.130 Y105.088 E11.34189
G1 X84.219 Y103.753 E11.82619
G1 X83.683 Y102.162 E12.32904
G1 X83.641 Y101.938 E12.39748
G1 X83.466 Y100.047 E12.96634
G92 E0
G1 X96.661 Y95.880 F7800.000
G1 X102.788 Y95.912 F7800.000
G1 X107.451 Y92.352 F7800.000
G1 X109.643 Y92.352 F7800.000
G1 X110.674 Y92.352 F7800.000
G1 X110.674 Y99.209 E2.05473 F600.000
G1 X110.801 Y99.286 E2.09907
G1 X111.439 Y99.891 E2.36271
G1 X116.442 Y107.648 E5.12860
G1 X110.643 Y98.582 F7800.000
G1 X110.643 Y98.582 F7800.000
G1 X104.921 Y107.648 F7800.000
G1 X109.938 Y99.880 E7.89969 F600.000
G1 X110.551 Y99.287 E8.15525
G1 X111.704 Y98.560 E8.56368
G92 E0
G1 Z1.200 F7800.000
G1 X83.466 Y100.047 F7800.000
G1 X83.571 Y98.678 E0.41153 F600.000
G1 X83.691 Y97.973 E0.62586
G1 X83.833 Y97.439 E0.79152
G1 X84.234 Y96.327 E1.14548
G1 X84.822 Y95.391 E1.47684
G1 X85.138 Y94.989 E1.62985
G1 X85.329 Y94.779 E1.71524
G1 X85.522 Y94.596 E1.79480
G1 X86.380 Y93.933 E2.11989
G1 X86.707 Y93.754 E2.23139
G1 X87.420 Y93.449 E2.46387
G1 X88.066 Y93.240 E2.66728
G1 X88.617 Y93.127 E2.83582
G1 X89.984 Y93.002 E3.24709
G1 X91.339 Y93.123 E3.65471
G1 X91.925 Y93.240 E3.83388
G1 X92.535 Y93.433 E4.02549
G1 X93.292 Y93.752 E4.27154
G1 X93.588 Y93.910 E4.37210
G1 X94.464 Y94.580 E4.70268
G1 X94.647 Y94.750 E4.77748
G1 X94.840 Y94.962 E4.86331
G1 X95.175 Y95.390 E5.02625
G1 X95.767 Y96.338 E5.36128
G1 X96.164 Y97.453 E5.71595
G1 X96.334 Y98.145 E5.92930
G1 X96.416 Y98.688 E6.09399
G1 X96.519 Y100.065 E6.50780
G1 X96.414 Y101.445 E6.92234
G1 X96.295 Y102.140 E7.13363
G1 X96.153 Y102.667 E7.29724
G1 X95.755 Y103.754 E7.64415
G1 X95.170 Y104.668 E7.96934
G1 X94.855 Y105.061 E8.12006
G1 X94.658 Y105.273 E8.20700
G1 X94.471 Y105.446 E8.28338
G1 X93.606 Y106.094 E8.60708
G1 X93.290 Y106.261 E8.71417
G1 X92.560 Y106.563 E8.95087
G1 X91.931 Y106.761 E9.14866
G1 X91.364 Y106.873 E9.32170
G1 X90.020 Y106.992 E9.72603
G1 X88.296 Y106.812 E10.24541
G1 X88.072 Y106.773 E10.31348
G1 X86.710 Y106.264 E10.74921
G1 X86.382 Y106.101 E10.85884
G1 X85.346 Y105.287 E11.25389
G1 X85.130 Y105.088 E11.34189
G1 X84.219 Y103.753 E11.82619
G1 X83.683 Y102.162 E12.32904
G1 X83.641 Y101.938 E12.39748
G1 X83.466 Y100.047 E12.96634
G92 E0
G1 X96.661 Y95.880 F7800.000
G1 X102.788 Y95.912 F7800.000
G1 X107.451 Y92.352 F7800.000
G1 X109.643 Y92.352 F7800.000
G1 X110.674 Y92.352 F7800.000
G1 X110.674 Y99.209 E2.05473 F600.000
G1 X110.801 Y99.286 E2.09907
G1 X111.439 Y99.891 E2.36271
G1 X116.442 Y107.648 E5.12860
G1 X110.643 Y98.582 F7800.000
G1 X110.643 Y98.582 F7800.000
G1 X104.921 Y107.648 F7800.000
G1 X109.938 Y99.880 E7.89969 F600.000
G1 X110.551 Y99.287 E8.15525
G1 X111.704 Y98.560 E8.56368
G92 E0
G1 Z1.500 F7800.000
G1 X83.466 Y100.047 F7800.000
