; generated by Slic3r 1.2.9 on 2016-03-11 at 01:28:34

; external perimeters extrusion width = 1.54mm
; perimeters extrusion width = 2.62mm
; infill extrusion width = 6.27mm
; solid infill extrusion width = 2.62mm
; top infill extrusion width = 2.62mm

M107
M104 S30 ; set temperature
G28 ; home all axes
G1 Z5 F5000 ; lift nozzle
M302
M92 E10000
M500
M501
G1 E100
M109 S30 ; wait for temperature to be reached
G21 ; set units to millimeters
G90 ; use absolute coordinates
M82 ; use absolute distances for extrusion
G92 E0
G1 Z0.300 F7800.000
G1 X83.451 Y101.089 F7800.000
G1 X83.350 Y100.061 E0.04674 F378.000
G1 X83.447 Y98.562 E0.11472
G1 X83.740 Y97.196 E0.17796
G1 X84.226 Y95.965 E0.23783
G1 X84.893 Y94.896 E0.29486
G1 X85.731 Y94.011 E0.34999
G1 X86.743 Y93.308 E0.40574
G1 X87.915 Y92.797 E0.46360
G1 X89.232 Y92.489 E0.52480
G1 X90.696 Y92.386 E0.59120
G1 X92.054 Y92.483 E0.65283
G1 X92.148 Y92.490 E0.65706 F378.000
G1 X93.459 Y92.802 E0.71804
G1 X94.631 Y93.319 E0.77603
G1 X95.649 Y94.028 E0.83215
G1 X96.495 Y94.915 E0.88760
G1 X97.171 Y95.983 E0.94481
G1 X97.666 Y97.209 E1.00465
G1 X97.964 Y98.570 E1.06765
G1 X98.064 Y100.065 E1.13547
G1 X97.965 Y101.563 E1.20341
G1 X97.671 Y102.916 E1.26604
G1 X97.182 Y104.124 E1.32502
G1 X96.512 Y105.169 E1.38120
G1 X95.671 Y106.032 E1.43572
G1 X94.655 Y106.716 E1.49114
G1 X93.483 Y107.214 E1.54878
G1 X92.170 Y107.514 E1.60969
G1 X90.721 Y107.614 E1.67544
G1 X88.557 Y107.390 E1.77387
G1 X86.753 Y106.725 E1.86088
G1 X85.294 Y105.621 E1.94367
G1 X84.218 Y104.124 E2.02708
G1 X83.568 Y102.275 E2.11576
G1 X83.474 Y101.319 E2.15924
G1 X85.101 Y101.174 F7800.000
G1 X85.002 Y100.065 E2.20961 F378.000
G1 X85.167 Y98.242 E2.29241
G1 X85.666 Y96.676 E2.36681
G1 X86.505 Y95.372 E2.43697
G1 X87.647 Y94.394 E2.50502
G1 X89.049 Y93.808 E2.57377
G1 X90.551 Y93.632 E2.64218
G1 X90.695 Y93.615 E2.64877 F378.000
G1 X92.379 Y93.801 E2.72543
G1 X93.795 Y94.368 E2.79444
G1 X94.930 Y95.317 E2.86137
G1 X95.752 Y96.605 E2.93053
G1 X96.240 Y98.190 E3.00556
G1 X96.401 Y100.065 E3.09074
G1 X96.238 Y101.868 E3.17264
G1 X95.746 Y103.408 E3.24580
G1 X94.918 Y104.678 E3.31440
G1 X93.783 Y105.623 E3.38122
G1 X92.379 Y106.188 E3.44972
G1 X90.718 Y106.374 E3.52532
G1 X89.046 Y106.191 E3.60147
G1 X87.632 Y105.634 E3.67021
G1 X86.491 Y104.701 E3.73689
G1 X85.660 Y103.438 E3.80533
G1 X85.165 Y101.890 E3.87885
G1 X85.122 Y101.404 E3.90094
G1 X84.014 Y102.766 F7800.000
G1 X88.247 Y106.999 E4.17565 F540.000
G1 X87.371 Y106.676 F7800.000
G1 X84.313 Y103.619 E4.37409 F540.000
G1 X85.474 Y103.673 F7800.000
G1 X83.774 Y101.973 E4.48440 F540.000
G1 X83.713 Y101.360 E4.51269
G1 X85.205 Y102.851 E4.60946
G1 X84.945 Y102.039 E4.64860
G1 X83.653 Y100.746 E4.73246
G1 X83.592 Y100.133 E4.76075
G1 X84.890 Y101.430 E4.84494
G1 X84.835 Y100.823 E4.87292
G1 X83.602 Y99.589 E4.95296
G1 X83.636 Y99.070 E4.97684
G1 X84.781 Y100.215 E5.05117
G1 X84.816 Y99.697 E5.07501
G1 X83.670 Y98.551 E5.14939
G1 X83.764 Y98.092 E5.17088
G1 X84.862 Y99.190 E5.24213
G1 X84.907 Y98.683 E5.26549
G1 X83.861 Y97.636 E5.33339
G1 X83.962 Y97.184 E5.35466
G1 X84.968 Y98.191 E5.42000
G1 X85.102 Y97.771 E5.44019
G1 X84.118 Y96.787 E5.50405
G1 X84.275 Y96.391 E5.52361
G1 X85.236 Y97.352 E5.58598
G1 X85.369 Y96.932 E5.60618
G1 X84.435 Y95.998 E5.66682
G1 X84.647 Y95.658 E5.68523
G1 X85.525 Y96.535 E5.74219
G1 X85.742 Y96.199 E5.76055
G1 X84.860 Y95.317 E5.81776
G1 X85.077 Y94.981 E5.83611
G1 X85.958 Y95.862 E5.89328
G1 X86.174 Y95.525 E5.91164
G1 X85.346 Y94.697 E5.96536
G1 X85.623 Y94.421 E5.98331
G1 X86.405 Y95.203 E6.03408
G1 X86.703 Y94.948 E6.05207
G1 X85.899 Y94.144 E6.10424
G1 X86.218 Y93.910 E6.12238
G1 X87.001 Y94.693 E6.17323
G1 X87.299 Y94.438 E6.19123
G1 X86.544 Y93.683 E6.24024
G1 X86.881 Y93.467 E6.25861
G1 X87.607 Y94.193 E6.30574
G1 X87.997 Y94.030 E6.32513
G1 X87.266 Y93.299 E6.37259
G1 X87.651 Y93.131 E6.39187
G1 X88.387 Y93.867 E6.43964
G1 X88.777 Y93.704 E6.45904
G1 X88.053 Y92.980 E6.50603
G1 X88.501 Y92.875 E6.52715
G1 X89.198 Y93.572 E6.57237
G1 X89.693 Y93.514 E6.59523
G1 X88.949 Y92.770 E6.64349
G1 X89.428 Y92.696 E6.66572
G1 X90.188 Y93.456 E6.71502
G1 X90.683 Y93.398 E6.73788
G1 X89.945 Y92.660 E6.78578
G1 X90.461 Y92.623 E6.80954
G1 X91.281 Y93.443 E6.86272
G1 X91.903 Y93.512 E6.89144
G1 X91.034 Y92.643 E6.94783
G1 X91.630 Y92.685 E6.97525
G1 X92.525 Y93.581 E7.03334
G1 X92.996 Y92.946 F7800.000
G1 X95.230 Y95.179 E7.17829 F540.000
G1 X95.087 Y95.037 F7800.000
G1 X97.458 Y97.408 E7.33216 F540.000
G1 X97.613 Y98.116 E7.36543
G1 X95.979 Y96.482 E7.47146
G1 X96.225 Y97.281 E7.50982
G1 X97.747 Y98.803 E7.60858
G1 X97.787 Y99.396 E7.63583
G1 X96.464 Y98.073 E7.72167
G1 X96.516 Y98.678 E7.74953
G1 X97.826 Y99.988 E7.83457
G1 X97.812 Y100.527 E7.85930
G1 X96.568 Y99.283 E7.94003
G1 X96.620 Y99.888 E7.96789
G1 X97.778 Y101.046 E8.04304
G1 X97.744 Y101.565 E8.06690
G1 X96.590 Y100.411 E8.14178
G1 X96.544 Y100.918 E8.16515
G1 X97.649 Y102.023 E8.23690
G1 X97.551 Y102.478 E8.25822
G1 X96.498 Y101.425 E8.32652
G1 X96.438 Y101.918 E8.34929
G1 X97.448 Y102.928 E8.41488
G1 X97.289 Y103.322 E8.43437
G1 X96.304 Y102.337 E8.49833
G1 X96.170 Y102.756 E8.51851
G1 X97.130 Y103.716 E8.58084
G1 X96.964 Y104.103 E8.60017
G1 X96.036 Y103.175 E8.66043
G1 X95.875 Y103.567 E8.67987
G1 X96.748 Y104.440 E8.73656
G1 X96.532 Y104.777 E8.75493
G1 X95.657 Y103.902 E8.81175
G1 X95.438 Y104.236 E8.83009
G1 X96.302 Y105.100 E8.88615
G1 X96.026 Y105.377 E8.90410
G1 X95.220 Y104.571 E8.95638
G1 X94.976 Y104.880 E8.97445
G1 X95.749 Y105.653 E9.02461
G1 X95.473 Y105.930 E9.04256
G1 X94.674 Y105.132 E9.09436
G1 X94.373 Y105.383 E9.11238
G1 X95.143 Y106.153 E9.16239
G1 X94.813 Y106.376 E9.18067
G1 X94.071 Y105.634 E9.22881
G1 X93.741 Y105.857 E9.24709
G1 X94.464 Y106.580 E9.29399
G1 X94.075 Y106.745 E9.31334
G1 X93.347 Y106.016 E9.36064
G1 X92.952 Y106.174 E9.38015
G1 X93.687 Y106.909 E9.42784
G1 X93.272 Y107.047 E9.44792
G1 X92.558 Y106.333 E9.49425
G1 X92.109 Y106.437 E9.51540
G1 X92.822 Y107.150 E9.56166
G1 X92.371 Y107.253 E9.58284
G1 X91.612 Y106.493 E9.63216
G1 X91.114 Y106.549 E9.65512
G1 X91.879 Y107.313 E9.70472
G1 X91.362 Y107.349 E9.72851
G1 X90.612 Y106.600 E9.77714
G1 X89.991 Y106.531 E9.80582
G1 X90.844 Y107.385 E9.86119
G1 X90.234 Y107.328 E9.88930
G1 X89.370 Y106.463 E9.94541
G1 X88.682 Y106.329 E9.97754
G1 X89.618 Y107.264 E10.03823
G1 X89.001 Y107.200 E10.06668
G1 X87.770 Y105.969 E10.14656
G1 X85.716 Y105.574 F7800.000
G1 X85.362 Y105.220 E10.16954 F540.000
G92 E0
G1 X84.959 Y96.343 F7800.000
G1 X84.939 Y96.331 F7800.000
G1 X85.534 Y95.391 F7800.000
G1 X85.738 Y95.131 F7800.000
G1 X93.441 Y93.944 F7800.000
G1 X92.270 Y92.773 E0.07598 F540.000
G1 X93.883 Y93.279 F7800.000
G1 X97.092 Y96.489 E0.28424 F540.000
G1 X96.112 Y94.956 F7800.000
G1 X95.272 Y94.116 E0.33875 F540.000
G92 E0
G1 X98.289 Y100.065 F7800.000
G1 X100.814 Y94.056 F7800.000
G1 X102.515 Y92.352 F7800.000
G1 X117.876 Y92.352 F7800.000
G1 X116.876 Y96.044 F7800.000
G1 X114.978 Y97.942 F7800.000
G1 X107.060 Y94.044 F7800.000
G1 X113.537 Y104.972 F7800.000
G1 X104.932 Y93.826 E0.63714 F378.000
G1 X104.932 Y92.577 E0.69367
G1 X116.651 Y92.577 E1.22395
G1 X116.651 Y93.819 E1.28014
G1 X106.603 Y93.819 E1.73481 F378.000
G1 X116.141 Y106.218 E2.44263
G1 X116.141 Y107.423 E2.49718
G1 X105.724 Y107.423 E2.96854
G1 X105.724 Y106.181 E3.02474
G1 X114.471 Y106.181 E3.42053
G1 X113.678 Y105.154 E3.47922
G1 X113.813 Y104.849 F7800.000
G1 X115.915 Y106.951 E3.61636 F540.000
G1 X115.886 Y106.367 E3.64336
G1 X111.929 Y102.410 E3.90149
G1 X112.179 Y101.547 F7800.000
G1 X108.163 Y97.531 E4.16350 F540.000
G1 X108.472 Y96.728 F7800.000
G1 X105.158 Y93.415 E4.37967 F540.000
G1 X105.158 Y92.859 E4.40532
G1 X106.618 Y94.318 E4.50056
G1 X106.448 Y93.593 F7800.000
G1 X105.658 Y92.803 E4.55210 F540.000
G1 X106.214 Y92.803 E4.57774
G1 X107.004 Y93.593 E4.62929
G1 X107.560 Y93.593 E4.65493
G1 X106.770 Y92.803 E4.70648
G1 X107.326 Y92.803 E4.73212
G1 X108.116 Y93.593 E4.78366
G1 X108.672 Y93.593 E4.80931
G1 X107.882 Y92.803 E4.86085
G1 X108.438 Y92.803 E4.88650
G1 X109.228 Y93.593 E4.93804
G1 X109.784 Y93.593 E4.96369
G1 X108.994 Y92.803 E5.01523
G1 X109.550 Y92.803 E5.04087
G1 X110.340 Y93.593 E5.09242
G1 X110.896 Y93.593 E5.11806
G1 X110.106 Y92.803 E5.16960
G1 X110.662 Y92.803 E5.19525
G1 X111.452 Y93.593 E5.24679
G1 X112.008 Y93.593 E5.27244
G1 X111.218 Y92.803 E5.32398
G1 X111.774 Y92.803 E5.34963
G1 X112.564 Y93.593 E5.40117
G1 X113.120 Y93.593 E5.42681
G1 X112.330 Y92.803 E5.47836
G1 X112.886 Y92.803 E5.50400
G1 X113.676 Y93.593 E5.55555
G1 X114.232 Y93.593 E5.58119
G1 X113.442 Y92.803 E5.63273
G1 X113.998 Y92.803 E5.65838
G1 X114.788 Y93.593 E5.70992
G1 X115.344 Y93.593 E5.73557
G1 X114.554 Y92.803 E5.78711
G1 X115.109 Y92.803 E5.81276
G1 X115.900 Y93.593 E5.86430
G1 X116.425 Y93.563 E5.88858
G1 X115.665 Y92.803 E5.93813
G1 X116.221 Y92.803 E5.96377
G1 X116.425 Y93.007 E5.97706
G92 E0
G1 X110.325 Y99.138 F7800.000
G1 X106.279 Y95.092 E0.26395 F540.000
G1 X110.046 Y99.971 F7800.000
G1 X114.033 Y103.957 E0.52402 F540.000
G1 X115.605 Y107.197 F7800.000
G1 X114.815 Y106.407 E0.57556 F540.000
G1 X114.259 Y106.407 E0.60121
G1 X115.049 Y107.197 E0.65275
G1 X114.493 Y107.197 E0.67839
G1 X113.703 Y106.407 E0.72994
G1 X113.147 Y106.407 E0.75558
G1 X113.937 Y107.197 E0.80713
G1 X113.381 Y107.197 E0.83277
G1 X112.591 Y106.407 E0.88431
G1 X112.035 Y106.407 E0.90996
G1 X112.825 Y107.197 E0.96150
G1 X112.269 Y107.197 E0.98715
G1 X111.479 Y106.407 E1.03869
G1 X110.923 Y106.407 E1.06434
G1 X111.713 Y107.197 E1.11588
G1 X111.157 Y107.197 E1.14153
G1 X110.367 Y106.407 E1.19307
G1 X109.811 Y106.407 E1.21871
G1 X110.601 Y107.197 E1.27026
G1 X110.045 Y107.197 E1.29590
G1 X109.255 Y106.407 E1.34745
G1 X108.699 Y106.407 E1.37309
G1 X109.489 Y107.197 E1.42463
G1 X108.933 Y107.197 E1.45028
G1 X108.143 Y106.407 E1.50182
G1 X107.587 Y106.407 E1.52747
G1 X108.377 Y107.197 E1.57901
G1 X107.821 Y107.197 E1.60466
G1 X107.031 Y106.407 E1.65620
G1 X106.475 Y106.407 F7800.000
G1 X107.265 Y107.197 E1.70774 F540.000
G1 X106.709 Y107.197 E1.73339
G1 X105.950 Y106.438 E1.78294
G1 X105.950 Y106.993 E1.80858
G1 X106.153 Y107.197 E1.82186
M106 S255
G92 E0
G1 Z0.600 F7800.000
G1 X84.178 Y100.047 F7800.000
G1 X84.283 Y98.678 E0.41153 F600.000
G1 X84.402 Y97.973 E0.62586
G1 X84.544 Y97.439 E0.79152
G1 X84.945 Y96.327 E1.14548
G1 X85.534 Y95.391 E1.47685
G1 X85.849 Y94.989 E1.62985
G1 X86.041 Y94.779 E1.71524
G1 X86.233 Y94.596 E1.79480
G1 X87.092 Y93.933 E2.11989
G1 X87.418 Y93.754 E2.23139
G1 X88.132 Y93.449 E2.46387
G1 X88.778 Y93.240 E2.66728
G1 X89.329 Y93.127 E2.83582
G1 X90.695 Y93.002 E3.24709
G1 X92.050 Y93.123 E3.65472
G1 X92.637 Y93.240 E3.83388
G1 X93.246 Y93.433 E4.02549
G1 X94.003 Y93.752 E4.27154
G1 X94.299 Y93.910 E4.37210
G1 X95.176 Y94.580 E4.70268
G1 X95.358 Y94.750 E4.77748
G1 X95.551 Y94.962 E4.86331
G1 X95.887 Y95.390 E5.02625
G1 X96.478 Y96.338 E5.36128
G1 X96.875 Y97.453 E5.71595
G1 X97.045 Y98.145 E5.92930
G1 X97.128 Y98.688 E6.09399
G1 X97.231 Y100.065 E6.50780
G1 X97.125 Y101.445 E6.92234
G1 X97.006 Y102.140 E7.13363
G1 X96.865 Y102.667 E7.29724
G1 X96.467 Y103.754 E7.64415
G1 X95.881 Y104.668 E7.96933
G1 X95.567 Y105.061 E8.12006
G1 X95.369 Y105.273 E8.20700
G1 X95.182 Y105.446 E8.28338
G1 X94.318 Y106.094 E8.60708
G1 X94.002 Y106.261 E8.71417
G1 X93.272 Y106.563 E8.95087
G1 X92.642 Y106.761 E9.14866
G1 X92.076 Y106.873 E9.32170
G1 X90.732 Y106.992 E9.72603
G1 X89.008 Y106.812 E10.24541
G1 X88.784 Y106.773 E10.31348
G1 X87.422 Y106.264 E10.74921
G1 X87.094 Y106.101 E10.85884
G1 X86.057 Y105.287 E11.25389
G1 X85.841 Y105.088 E11.34189
G1 X84.931 Y103.753 E11.82619
G1 X84.395 Y102.162 E12.32904
G1 X84.353 Y101.938 E12.39748
G1 X84.178 Y100.047 E12.96634
G92 E0
G1 X97.881 Y97.143 F7800.000
G1 X104.707 Y91.256 F7800.000
G1 X117.645 Y91.391 F7800.000
G1 X116.876 Y96.044 F7800.000
G1 X114.978 Y97.942 F7800.000
G1 X107.060 Y94.044 F7800.000
G1 X116.876 Y93.198 F7800.000
G1 X107.060 Y93.198 E2.94133 F600.000
G1 X105.960 Y93.556 E3.28802
G1 X106.356 Y94.586 E3.61865
G1 X114.706 Y105.421 E7.71765
G1 X115.099 Y106.453 E8.04874
G1 X114.013 Y106.802 E8.39055
G1 X105.499 Y106.802 E10.94174
G92 E0
G1 Z0.900 F7800.000
G1 X84.178 Y100.047 F7800.000
G1 X84.283 Y98.678 E0.41153 F600.000
G1 X84.402 Y97.973 E0.62586
G1 X84.544 Y97.439 E0.79152
G1 X84.945 Y96.327 E1.14548
G1 X85.534 Y95.391 E1.47684
G1 X85.849 Y94.989 E1.62985
G1 X86.041 Y94.779 E1.71524
G1 X86.233 Y94.596 E1.79480
G1 X87.092 Y93.933 E2.11989
G1 X87.418 Y93.754 E2.23139
G1 X88.132 Y93.449 E2.46387
G1 X88.778 Y93.240 E2.66728
G1 X89.329 Y93.127 E2.83582
G1 X90.695 Y93.002 E3.24709
G1 X92.050 Y93.123 E3.65472
G1 X92.637 Y93.240 E3.83388
G1 X93.246 Y93.433 E4.02549
G1 X94.003 Y93.752 E4.27154
G1 X94.299 Y93.910 E4.37210
G1 X95.176 Y94.580 E4.70268
G1 X95.358 Y94.750 E4.77748
G1 X95.551 Y94.962 E4.86331
G1 X95.887 Y95.390 E5.02625
G1 X96.478 Y96.338 E5.36128
G1 X96.875 Y97.453 E5.71595
G1 X97.045 Y98.145 E5.92930
G1 X97.128 Y98.688 E6.09399
G1 X97.231 Y100.065 E6.50780
G1 X97.125 Y101.445 E6.92234
G1 X97.006 Y102.140 E7.13363
G1 X96.865 Y102.667 E7.29724
G1 X96.467 Y103.754 E7.64415
G1 X95.881 Y104.668 E7.96933
G1 X95.567 Y105.061 E8.12006
G1 X95.369 Y105.273 E8.20700
G1 X95.182 Y105.446 E8.28338
G1 X94.318 Y106.094 E8.60708
G1 X94.002 Y106.261 E8.71417
G1 X93.272 Y106.563 E8.95087
G1 X92.642 Y106.761 E9.14866
G1 X92.076 Y106.873 E9.32170
G1 X90.732 Y106.992 E9.72603
G1 X89.008 Y106.812 E10.24541
G1 X88.784 Y106.773 E10.31348
G1 X87.422 Y106.264 E10.74921
G1 X87.094 Y106.101 E10.85884
G1 X86.057 Y105.287 E11.25389
G1 X85.841 Y105.088 E11.34189
G1 X84.931 Y103.753 E11.82619
G1 X84.395 Y102.162 E12.32904
G1 X84.353 Y101.938 E12.39748
G1 X84.178 Y100.047 E12.96634
G92 E0
G1 X97.881 Y97.143 F7800.000
G1 X104.707 Y91.256 F7800.000
G1 X117.645 Y91.391 F7800.000
G1 X116.876 Y96.044 F7800.000
G1 X114.978 Y97.942 F7800.000
G1 X107.060 Y94.044 F7800.000
G1 X116.876 Y93.198 F7800.000
G1 X107.060 Y93.198 E2.94133 F600.000
G1 X105.960 Y93.556 E3.28802
G1 X106.356 Y94.586 E3.61865
G1 X114.706 Y105.421 E7.71765
G1 X115.099 Y106.453 E8.04874
G1 X114.013 Y106.802 E8.39055
G1 X105.499 Y106.802 E10.94174
G92 E0
G1 Z1.200 F7800.000
G1 X84.178 Y100.047 F7800.000
G1 X84.283 Y98.678 E0.41153 F600.000
G1 X84.402 Y97.973 E0.62586
G1 X84.544 Y97.439 E0.79152
G1 X84.945 Y96.327 E1.14548
G1 X85.534 Y95.391 E1.47684
G1 X85.849 Y94.989 E1.62985
G1 X86.041 Y94.779 E1.71524
G1 X86.233 Y94.596 E1.79480
G1 X87.092 Y93.933 E2.11989
G1 X87.418 Y93.754 E2.23139
G1 X88.132 Y93.449 E2.46387
G1 X88.778 Y93.240 E2.66728
G1 X89.329 Y93.127 E2.83582
G1 X90.695 Y93.002 E3.24709
G1 X92.050 Y93.123 E3.65471
G1 X92.637 Y93.240 E3.83388
G1 X93.246 Y93.433 E4.02549
G1 X94.003 Y93.752 E4.27154
G1 X94.299 Y93.910 E4.37210
G1 X95.176 Y94.580 E4.70268
G1 X95.358 Y94.750 E4.77748
G1 X95.551 Y94.962 E4.86331
G1 X95.887 Y95.390 E5.02625
G1 X96.478 Y96.338 E5.36128
G1 X96.875 Y97.453 E5.71595
G1 X97.045 Y98.145 E5.92930
G1 X97.128 Y98.688 E6.09399
G1 X97.231 Y100.065 E6.50780
G1 X97.125 Y101.445 E6.92234
G1 X97.006 Y102.140 E7.13363
G1 X96.865 Y102.667 E7.29724
G1 X96.467 Y103.754 E7.64415
G1 X95.881 Y104.668 E7.96934
G1 X95.567 Y105.061 E8.12006
G1 X95.369 Y105.273 E8.20700
G1 X95.182 Y105.446 E8.28338
G1 X94.318 Y106.094 E8.60708
G1 X94.002 Y106.261 E8.71417
G1 X93.272 Y106.563 E8.95087
G1 X92.642 Y106.761 E9.14866
G1 X92.076 Y106.873 E9.32170
G1 X90.732 Y106.992 E9.72603
G1 X89.008 Y106.812 E10.24541
G1 X88.784 Y106.773 E10.31348
G1 X87.422 Y106.264 E10.74921
G1 X87.094 Y106.101 E10.85884
G1 X86.057 Y105.287 E11.25389
G1 X85.841 Y105.088 E11.34189
G1 X84.931 Y103.753 E11.82619
G1 X84.395 Y102.162 E12.32904
G1 X84.353 Y101.938 E12.39748
G1 X84.178 Y100.047 E12.96634
G92 E0
G1 X97.881 Y97.143 F7800.000
G1 X104.707 Y91.256 F7800.000
G1 X117.645 Y91.391 F7800.000
G1 X116.876 Y96.044 F7800.000
G1 X114.978 Y97.942 F7800.000
G1 X107.060 Y94.044 F7800.000
G1 X116.876 Y93.198 F7800.000
G1 X107.060 Y93.198 E2.94133 F600.000
G1 X105.960 Y93.556 E3.28802
G1 X106.356 Y94.586 E3.61865
G1 X114.706 Y105.421 E7.71765
