; generated by Slic3r 1.2.9 on 2016-03-10 at 20:36:04

; external perimeters extrusion width = 1.54mm
; perimeters extrusion width = 2.62mm
; infill extrusion width = 6.27mm
; solid infill extrusion width = 2.62mm
; top infill extrusion width = 2.62mm

M107
M104 S30 ; set temperature
G28 ; home all axes
G1 Z5 F5000 ; lift nozzle
M302
M92 E10000
M500
M501
G1 E100
M109 S30 ; wait for temperature to be reached
G21 ; set units to millimeters
G90 ; use absolute coordinates
M82 ; use absolute distances for extrusion
G92 E0
G1 Z0.300 F7800.000
G1 X124.902 Y132.423 F7800.000
G1 X119.326 Y132.423 E0.25231 F600.000
G1 X119.326 Y117.577 E0.92408
G1 X120.948 Y117.577 E0.99743
G1 X120.948 Y123.556 E1.26797
G1 X125.641 Y123.556 E1.48034 F600.000
G1 X127.108 Y123.695 E1.54701
G1 X128.333 Y124.103 E1.60543
G1 X129.334 Y124.777 E1.66006
G1 X130.076 Y125.677 E1.71283
G1 X130.522 Y126.766 E1.76606
G1 X130.672 Y128.055 E1.82480
G1 X130.522 Y129.347 E1.88364
G1 X130.079 Y130.415 E1.93596
G1 X129.343 Y131.273 E1.98710
G1 X128.331 Y131.907 E2.04115
G1 X127.058 Y132.292 E2.10132
G1 X125.510 Y132.423 E2.17162
G1 X125.133 Y132.423 E2.18867
G1 X125.133 Y131.214 F7800.000
G1 X120.948 Y131.214 E2.37807 F600.000
G1 X120.948 Y124.743 E2.67088
G1 X125.376 Y124.743 E2.87128 F600.000
G1 X127.380 Y125.098 E2.96338
G1 X128.636 Y126.210 E3.03925
G1 X129.048 Y128.035 E3.12389
G1 X128.624 Y129.800 E3.20606
G1 X127.338 Y130.872 E3.28183
G1 X125.363 Y131.202 E3.37240
G1 X119.552 Y131.442 F7800.000
G1 X120.307 Y132.197 E3.42118 F600.000
G1 X119.756 Y132.197 E3.44637
G1 X119.552 Y131.993 E3.45953
G1 X120.722 Y124.898 F7800.000
G1 X119.552 Y123.729 E3.53512 F600.000
G1 X119.552 Y124.280 E3.56031
G1 X120.722 Y125.449 E3.63590
G1 X120.722 Y126.000 E3.66109
G1 X119.552 Y124.831 E3.73667
G1 X119.552 Y125.382 E3.76186
G1 X120.722 Y126.551 E3.83745
G1 X120.722 Y127.102 E3.86264
G1 X119.552 Y125.933 E3.93822
G1 X119.552 Y126.484 E3.96341
G1 X120.722 Y127.653 E4.03900
G1 X120.722 Y128.204 E4.06419
G1 X119.552 Y127.035 E4.13977
G1 X119.552 Y127.586 E4.16496
G1 X120.722 Y128.755 E4.24055
G1 X120.722 Y129.306 E4.26574
G1 X119.552 Y128.137 E4.34133
G1 X119.552 Y128.688 E4.36652
G1 X120.722 Y129.857 E4.44210
G1 X120.722 Y130.408 E4.46729
G1 X119.552 Y129.239 E4.54288
G1 X119.552 Y129.790 E4.56807
G1 X120.722 Y130.959 E4.64365
G1 X120.652 Y131.440 E4.66589
G1 X121.409 Y132.197 E4.71484
G1 X120.858 Y132.197 E4.74002
G1 X119.552 Y130.891 E4.82443
G1 X119.552 Y130.341 E4.84962
G1 X120.722 Y131.510 E4.92521
G1 X121.203 Y131.440 E4.94744
G1 X121.960 Y132.197 E4.99639
G1 X122.511 Y132.197 E5.02158
G1 X121.754 Y131.440 E5.07053
G1 X122.305 Y131.440 E5.09572
G1 X123.062 Y132.197 E5.14467
G1 X123.613 Y132.197 E5.16986
G1 X122.856 Y131.440 E5.21881
G1 X123.407 Y131.440 E5.24399
G1 X124.164 Y132.197 E5.29294
G1 X124.715 Y132.197 E5.31813
G1 X123.958 Y131.440 E5.36708
G1 X124.509 Y131.440 E5.39227
G1 X125.266 Y132.197 E5.44122
G1 X125.798 Y132.178 E5.46558
G1 X125.060 Y131.440 E5.51332
G1 X125.557 Y131.386 E5.53618
G1 X126.306 Y132.136 E5.58464
G1 X126.814 Y132.093 E5.60795
G1 X126.029 Y131.307 E5.65873
G1 X126.501 Y131.228 E5.68062
G1 X127.282 Y132.009 E5.73110
G1 X127.705 Y131.881 E5.75130
G1 X126.973 Y131.150 E5.79860
G1 X127.425 Y131.050 E5.81974
G1 X128.128 Y131.753 E5.86518
G1 X128.498 Y131.572 E5.88401
G1 X127.726 Y130.800 E5.93393
G1 X128.026 Y130.549 E5.95182
G1 X128.836 Y131.360 E6.00422
G1 X129.170 Y131.142 E6.02241
G1 X128.327 Y130.299 E6.07693
G1 X128.627 Y130.048 E6.09481
G1 X129.441 Y130.863 E6.14746
G1 X129.696 Y130.566 E6.16532
G1 X128.857 Y129.727 E6.21957
G1 X128.963 Y129.283 E6.24047
G1 X129.930 Y130.250 E6.30299
G1 X130.092 Y129.860 E6.32226
G1 X129.070 Y128.838 E6.38834
G1 X129.176 Y128.394 E6.40923
G1 X130.253 Y129.471 E6.47887
G1 X130.343 Y129.009 E6.50036
G1 X129.280 Y127.946 E6.56910
G1 X129.119 Y127.234 E6.60245
G1 X130.400 Y128.516 E6.68528
G1 X130.427 Y127.991 E6.70927
G1 X128.958 Y126.523 E6.80423
G1 X129.341 Y125.252 F7800.000
G1 X128.955 Y124.867 E6.82914 F600.000
G1 X127.699 Y124.161 F7800.000
G1 X130.192 Y126.654 E6.99030 F600.000
G1 X130.354 Y127.368 E7.02376
G1 X126.896 Y123.910 E7.24734
G1 X126.288 Y123.852 E7.27528
G1 X127.269 Y124.833 E7.33869
G1 X126.599 Y124.714 E7.36978
G1 X125.679 Y123.795 E7.42924
G1 X125.116 Y123.782 E7.45501
G1 X125.929 Y124.596 E7.50763
G1 X125.300 Y124.517 E7.53664
G1 X124.565 Y123.782 E7.58416
G1 X124.014 Y123.782 E7.60935
G1 X124.749 Y124.517 E7.65688
G1 X124.198 Y124.517 E7.68207
G1 X123.463 Y123.782 E7.72959
G1 X122.912 Y123.782 E7.75478
G1 X123.647 Y124.517 E7.80231
G1 X123.096 Y124.517 E7.82750
G1 X122.361 Y123.782 E7.87503
G1 X121.810 Y123.782 E7.90022
G1 X122.545 Y124.517 E7.94774
G1 X121.994 Y124.517 E7.97293
G1 X121.259 Y123.782 E8.02046
G1 X120.722 Y123.796 E8.04502
G1 X119.552 Y122.627 E8.12061
G1 X119.552 Y123.178 E8.14580
G1 X120.892 Y124.517 E8.23239
G1 X121.443 Y124.517 F7800.000
G1 X120.708 Y123.782 E8.27991 F600.000
G1 X120.722 Y123.245 E8.30448
G1 X119.552 Y122.076 E8.38006
G1 X119.552 Y121.525 E8.40525
G1 X120.722 Y122.694 E8.48084
G1 X120.722 Y122.143 E8.50603
G1 X119.552 Y120.974 E8.58162
G1 X119.552 Y120.423 E8.60680
G1 X120.722 Y121.592 E8.68239
G1 X120.722 Y121.041 E8.70758
G1 X119.552 Y119.872 E8.78317
G1 X119.552 Y119.321 E8.80836
G1 X120.722 Y120.490 E8.88394
G1 X120.722 Y119.939 E8.90913
G1 X119.552 Y118.770 E8.98472
G1 X119.552 Y118.219 E9.00991
G1 X120.722 Y119.388 E9.08549
G1 X120.722 Y118.837 E9.11068
G1 X119.688 Y117.803 E9.17754
G1 X120.239 Y117.803 E9.20273
G1 X120.722 Y118.286 E9.23396
M106 S255
G92 E0
G1 Z0.600 F7800.000
G1 X120.988 Y127.637 F7800.000
G1 X120.137 Y123.331 E1.31513 F600.000
G1 X120.137 Y117.352 E3.10672
G1 X120.299 Y124.150 F7800.000
G1 X125.500 Y124.156 E4.66537 F600.000
G1 X126.970 Y124.350 E5.10941
G1 X127.428 Y124.466 E5.25112
G1 X127.867 Y124.645 E5.39308
G1 X128.022 Y124.734 E5.44674
G1 X128.815 Y125.349 E5.74739
G1 X129.069 Y125.612 E5.85684
G1 X129.402 Y126.080 E6.02917
G1 X129.686 Y126.981 E6.31226
G1 X129.854 Y128.055 E6.63801
G1 X129.676 Y129.127 E6.96347
G1 X129.393 Y129.993 E7.23644
G1 X129.056 Y130.435 E7.40301
G1 X128.821 Y130.666 E7.50171
G1 X128.028 Y131.241 E7.79523
G1 X127.818 Y131.354 E7.86655
G1 X127.384 Y131.519 E8.00593
G1 X126.931 Y131.625 E8.14538
G1 X125.484 Y131.807 E8.58222
G1 X125.271 Y131.819 E8.64629
G1 X121.173 Y131.819 E9.87424
G1 X120.210 Y131.539 E10.17450
G1 X120.137 Y130.989 E10.34086
G1 X120.137 Y124.968 E12.14503
G1 X120.299 Y124.150 E12.39503
G92 E0
G1 Z0.900 F7800.000
G1 X120.988 Y127.637 F7800.000
G1 X120.137 Y123.331 E1.31513 F600.000
G1 X120.137 Y117.352 E3.10672
G1 X120.299 Y124.150 F7800.000
G1 X125.500 Y124.156 E4.66537 F600.000
G1 X126.970 Y124.350 E5.10941
G1 X127.428 Y124.466 E5.25112
G1 X127.867 Y124.645 E5.39308
G1 X128.022 Y124.734 E5.44674
G1 X128.815 Y125.349 E5.74739
G1 X129.069 Y125.612 E5.85684
G1 X129.402 Y126.080 E6.02917
G1 X129.686 Y126.981 E6.31226
G1 X129.854 Y128.055 E6.63801
G1 X129.676 Y129.127 E6.96347
G1 X129.393 Y129.993 E7.23644
G1 X129.056 Y130.435 E7.40301
G1 X128.821 Y130.666 E7.50172
G1 X128.028 Y131.241 E7.79523
G1 X127.818 Y131.354 E7.86655
G1 X127.384 Y131.519 E8.00593
G1 X126.931 Y131.625 E8.14538
G1 X125.484 Y131.807 E8.58222
G1 X125.271 Y131.819 E8.64629
G1 X121.173 Y131.819 E9.87424
G1 X120.210 Y131.539 E10.17450
G1 X120.137 Y130.989 E10.34086
G1 X120.137 Y124.968 E12.14503
G1 X120.299 Y124.150 E12.39503
G92 E0
G1 Z1.200 F7800.000
G1 X120.988 Y127.637 F7800.000
G1 X120.137 Y123.331 E1.31513 F600.000
G1 X120.137 Y117.352 E3.10672
G1 X120.299 Y124.150 F7800.000
G1 X125.500 Y124.156 E4.66537 F600.000
G1 X126.970 Y124.350 E5.10941
G1 X127.428 Y124.466 E5.25112
G1 X127.867 Y124.645 E5.39308
G1 X128.022 Y124.734 E5.44674
G1 X128.815 Y125.349 E5.74739
G1 X129.069 Y125.612 E5.85684
G1 X129.402 Y126.080 E6.02917
G1 X129.686 Y126.981 E6.31226
G1 X129.854 Y128.055 E6.63801
G1 X129.676 Y129.127 E6.96347
G1 X129.393 Y129.993 E7.23644
G1 X129.056 Y130.435 E7.40301
G1 X128.821 Y130.666 E7.50172
G1 X128.028 Y131.241 E7.79523
G1 X127.818 Y131.354 E7.86655
G1 X127.384 Y131.519 E8.00593
G1 X126.931 Y131.625 E8.14538
G1 X125.484 Y131.807 E8.58222
G1 X125.271 Y131.819 E8.64629
G1 X121.173 Y131.819 E9.87424
G1 X120.210 Y131.539 E10.17450
G1 X120.137 Y130.989 E10.34086
G1 X120.137 Y124.968 E12.14503
G1 X120.299 Y124.150 E12.39503
G92 E0
G1 Z1.500 F7800.000
G1 X120.988 Y127.637 F7800.000
G1 X120.137 Y123.331 E1.31513 F600.000
G1 X120.137 Y117.352 E3.10672
G1 X120.299 Y124.150 F7800.000
G1 X125.500 Y124.156 E4.66537 F600.000
G1 X126.970 Y124.350 E5.10941
G1 X127.428 Y124.466 E5.25112
G1 X127.867 Y124.645 E5.39308
G1 X128.022 Y124.734 E5.44674
G1 X128.815 Y125.349 E5.74739
G1 X129.069 Y125.612 E5.85684
G1 X129.402 Y126.080 E6.02917
G1 X129.686 Y126.981 E6.31226
G1 X129.854 Y128.055 E6.63801
G1 X129.676 Y129.127 E6.96347
G1 X129.393 Y129.993 E7.23644
G1 X129.056 Y130.435 E7.40301
G1 X128.821 Y130.666 E7.50171
G1 X128.028 Y131.241 E7.79523
G1 X127.818 Y131.354 E7.86655
G1 X127.384 Y131.519 E8.00593
G1 X126.931 Y131.625 E8.14538
G1 X125.484 Y131.807 E8.58222
G1 X125.271 Y131.819 E8.64629
G1 X121.173 Y131.819 E9.87424
G1 X120.210 Y131.539 E10.17450
G1 X120.137 Y130.989 E10.34086
G1 X120.137 Y124.968 E12.14503
G1 X120.299 Y124.150 E12.39503
G92 E0
G1 Z1.800 F7800.000
G1 X120.988 Y127.637 F7800.000
G1 X120.137 Y123.331 E1.31513 F600.000
G1 X120.137 Y117.352 E3.10672
G1 X120.299 Y124.150 F7800.000
G1 X125.500 Y124.156 E4.66537 F600.000
G1 X126.970 Y124.350 E5.10941
G1 X127.428 Y124.466 E5.25112
G1 X127.867 Y124.645 E5.39308
G1 X128.022 Y124.734 E5.44674
G1 X128.815 Y125.349 E5.74739
G1 X129.069 Y125.612 E5.85684
G1 X129.402 Y126.080 E6.02917
G1 X129.686 Y126.981 E6.31226
G1 X129.854 Y128.055 E6.63801
G1 X129.676 Y129.127 E6.96348
G1 X129.393 Y129.993 E7.23644
G1 X129.056 Y130.435 E7.40301
G1 X128.821 Y130.666 E7.50171
G1 X128.028 Y131.241 E7.79523
G1 X127.818 Y131.354 E7.86655
G1 X127.384 Y131.519 E8.00593
G1 X126.931 Y131.625 E8.14538
G1 X125.484 Y131.807 E8.58222
G1 X125.271 Y131.819 E8.64629
G1 X121.173 Y131.819 E9.87424
G1 X120.210 Y131.539 E10.17450
G1 X120.137 Y130.989 E10.34086
G1 X120.137 Y124.968 E12.14503
G1 X120.299 Y124.150 E12.39503
G92 E0
G1 Z2.100 F7800.000
G1 X120.988 Y127.637 F7800.000
G1 X120.137 Y123.331 E1.31513 F600.000
G1 X120.137 Y117.352 E3.10672
G92 E0
G1 X120.299 Y124.150 F7800.000
G1 X125.500 Y124.156 E1.55865 F600.000
G1 X126.970 Y124.350 E2.00269
G1 X127.428 Y124.466 E2.14441
G1 X127.867 Y124.645 E2.28636
G1 X128.022 Y124.734 E2.34002
G1 X128.815 Y125.349 E2.64067
G1 X129.069 Y125.612 E2.75012
G1 X129.402 Y126.080 E2.92246
G1 X129.686 Y126.981 E3.20554
G1 X129.854 Y128.055 E3.53129
G1 X129.676 Y129.127 E3.85676
G1 X129.393 Y129.993 E4.12973
G1 X129.056 Y130.435 E4.29629
G1 X128.821 Y130.666 E4.39500
G1 X128.028 Y131.241 E4.68851
G1 X127.818 Y131.354 E4.75983
G1 X127.384 Y131.519 E4.89921
G1 X126.931 Y131.625 E5.03866
G1 X125.484 Y131.807 E5.47550
G1 X125.271 Y131.819 E5.53957
G1 X121.173 Y131.819 E6.76752
G1 X120.210 Y131.539 E7.06778
G1 X120.137 Y130.989 E7.23415
G1 X120.137 Y124.968 E9.03832
G1 X120.299 Y124.150 E9.28832
G92 E0
M107
M104 S0 ; turn off temperature
G28 X0  ; home X axis
M84     ; disable motors

; filament used = 83.6mm (0.6cm3)

; avoid_crossing_perimeters = 1
; bed_shape = 0x0,250x0,250x250,0x250
; bed_temperature = 0
; before_layer_gcode = 
; bridge_acceleration = 0
; bridge_fan_speed = 100
; brim_width = 0
; complete_objects = 0
; cooling = 1
; default_acceleration = 0
; disable_fan_first_layers = 1
; duplicate_distance = 6
; end_gcode = M104 S0 ; turn off temperature\nG28 X0  ; home X axis\nM84     ; disable motors\n
; extruder_clearance_height = 20
; extruder_clearance_radius = 20
; extruder_offset = 0x0
; extrusion_axis = E
; extrusion_multiplier = 3
; fan_always_on = 0
; fan_below_layer_time = 60
; filament_colour = #FFFFFF
; filament_diameter = 3.125
; first_layer_acceleration = 0
; first_layer_bed_temperature = 0
; first_layer_extrusion_width = 150%
; first_layer_speed = 90%
; first_layer_temperature = 30
; gcode_arcs = 0
; gcode_comments = 0
; gcode_flavor = reprap
; infill_acceleration = 0
; infill_first = 0
; layer_gcode = 
; max_fan_speed = 100
; max_print_speed = 80
; max_volumetric_speed = 0
; min_fan_speed = 35
; min_print_speed = 10
; min_skirt_length = 0
; notes = 
; nozzle_diameter = 1.54
; only_retract_when_crossing_perimeters = 1
; ooze_prevention = 0
; output_filename_format = [input_filename_base].gcode
; perimeter_acceleration = 0
; post_process = 
; pressure_advance = 0
; resolution = 0
; retract_before_travel = 2
; retract_layer_change = 1
; retract_length = 0
; retract_length_toolchange = 10
; retract_lift = 0
; retract_restart_extra = 0
; retract_restart_extra_toolchange = 0
; retract_speed = 0
; skirt_distance = 6
; skirt_height = 1
; skirts = 0
; slowdown_below_layer_time = 30
; spiral_vase = 0
; standby_temperature_delta = -5
; start_gcode = G28 ; home all axes\nG1 Z5 F5000 ; lift nozzle\nM302\nM92 E10000\nM500\nM501\nG1 E100
; temperature = 30
; threads = 2
; toolchange_gcode = 
; travel_speed = 130
; use_firmware_retraction = 0
; use_relative_e_distances = 0
; use_volumetric_e = 0
; vibration_limit = 0
; wipe = 0
; z_offset = 0
; dont_support_bridges = 1
; extrusion_width = 0
; first_layer_height = 100%
; infill_only_where_needed = 0
; interface_shells = 0
; layer_height = 0.3
; raft_layers = 0
; seam_position = random
; support_material = 0
; support_material_angle = 0
; support_material_contact_distance = 0.2
; support_material_enforce_layers = 0
; support_material_extruder = 1
; support_material_extrusion_width = 0
; support_material_interface_extruder = 1
; support_material_interface_layers = 3
; support_material_interface_spacing = 0
; support_material_interface_speed = 100%
; support_material_pattern = pillars
; support_material_spacing = 2.5
; support_material_speed = 7
; support_material_threshold = 0
; xy_size_compensation = 0
; bottom_solid_layers = 3
; bridge_flow_ratio = 1
; bridge_speed = 10
; external_fill_pattern = rectilinear
; external_perimeter_extrusion_width = 0
; external_perimeter_speed = 70%
; external_perimeters_first = 1
; extra_perimeters = 1
; fill_angle = 45
; fill_density = 60%
; fill_pattern = rectilinear
; gap_fill_speed = 10
; infill_every_layers = 1
; infill_extruder = 1
; infill_extrusion_width = 0
; infill_overlap = 15%
; infill_speed = 10
; overhangs = 1
; perimeter_extruder = 1
; perimeter_extrusion_width = 0
; perimeter_speed = 10
; perimeters = 1
; small_perimeter_speed = 70%
; solid_infill_below_area = 70
; solid_infill_every_layers = 0
; solid_infill_extruder = 1
; solid_infill_extrusion_width = 0
; solid_infill_speed = 10
; thin_walls = 1
; top_infill_extrusion_width = 0
; top_solid_infill_speed = 10
; top_solid_layers = 3
