; generated by Slic3r 1.2.9 on 2016-03-11 at 01:28:35

; external perimeters extrusion width = 1.54mm
; perimeters extrusion width = 2.62mm
; infill extrusion width = 6.27mm
; solid infill extrusion width = 2.62mm
; top infill extrusion width = 2.62mm

M107
M104 S30 ; set temperature
G28 ; home all axes
G1 Z5 F5000 ; lift nozzle
M302
M92 E10000
M500
M501
G1 E100
M109 S30 ; wait for temperature to be reached
G21 ; set units to millimeters
G90 ; use absolute coordinates
M82 ; use absolute distances for extrusion
G92 E0
G1 Z0.300 F7800.000
G1 X112.090 Y98.561 F7800.000
G1 X108.543 Y107.423 E0.43192 F378.000
G1 X106.494 Y107.423 E0.52465
G1 X100.455 Y92.577 E1.24987
G1 X102.114 Y92.577 E1.32495
G1 X103.678 Y96.563 E1.51872
G1 X103.866 Y97.041 E1.54194 F378.000
G1 X111.116 Y97.041 E1.87000
G1 X112.857 Y92.577 E2.08681
G1 X114.486 Y92.577 E2.16052
G1 X112.176 Y98.347 E2.44174
G1 X110.675 Y98.207 F7800.000
G1 X108.399 Y104.086 E2.72701 F378.000
G1 X107.690 Y106.198 E2.82781
G1 X107.290 Y106.197 E2.84587
G1 X106.971 Y105.195 E2.89345
G1 X106.382 Y103.544 E2.97276
G1 X104.318 Y98.207 E3.23171
G1 X110.444 Y98.207 E3.50889 F378.000
G1 X109.552 Y97.267 F7800.000
G1 X110.266 Y97.981 E3.55504 F540.000
G1 X109.716 Y97.981 E3.58020
G1 X109.002 Y97.267 E3.62635
G1 X108.451 Y97.267 E3.65151
G1 X109.165 Y97.981 E3.69766
G1 X108.614 Y97.981 E3.72283
G1 X107.900 Y97.267 E3.76897
G1 X107.349 Y97.267 E3.79414
G1 X108.063 Y97.981 E3.84028
G1 X107.513 Y97.981 E3.86545
G1 X106.799 Y97.267 E3.91160
G1 X106.248 Y97.267 E3.93676
G1 X106.962 Y97.981 E3.98291
G1 X106.411 Y97.981 E4.00807
G1 X105.697 Y97.267 E4.05422
G1 X105.147 Y97.267 E4.07938
G1 X105.861 Y97.981 E4.12553
G1 X105.310 Y97.981 E4.15070
G1 X104.596 Y97.267 E4.19684
G1 X104.045 Y97.267 E4.22201
G1 X104.759 Y97.981 E4.26815
G1 X104.208 Y97.981 E4.29332
G1 X102.064 Y95.837 E4.43187
G1 X101.687 Y94.909 F7800.000
G1 X103.434 Y96.655 E4.54475 F540.000
G1 X103.078 Y95.749 F7800.000
G1 X101.309 Y93.980 E4.65904 F540.000
G1 X100.932 Y93.052 F7800.000
G1 X102.722 Y94.842 E4.77475 F540.000
G1 X102.366 Y93.936 F7800.000
G1 X101.233 Y92.803 E4.84796 F540.000
G1 X101.784 Y92.803 E4.87313
G1 X102.010 Y93.029 E4.88776
G1 X102.442 Y96.765 F7800.000
G1 X104.136 Y98.459 E4.99720 F540.000
G1 X103.197 Y98.622 F7800.000
G1 X104.830 Y100.255 E5.10272 F540.000
G1 X103.953 Y100.479 F7800.000
G1 X105.525 Y102.051 E5.20433 F540.000
G1 X104.708 Y102.335 F7800.000
G1 X106.214 Y103.842 E5.30168 F540.000
G1 X105.463 Y104.192 F7800.000
G1 X106.815 Y105.544 E5.38908 F540.000
G1 X106.218 Y106.049 F7800.000
G1 X107.367 Y107.197 E5.46328 F540.000
G1 X107.917 Y107.197 E5.48845
G1 X107.143 Y106.423 E5.53847
G1 X107.695 Y106.424 E5.56370
G1 X108.425 Y107.154 E5.61088
G1 X108.589 Y106.767 E5.63010
G1 X107.934 Y106.112 E5.67241
G1 X108.072 Y105.700 E5.69228
G1 X108.746 Y106.374 E5.73582
G1 X108.903 Y105.980 E5.75518
G1 X108.211 Y105.288 E5.79995
G1 X108.349 Y104.875 E5.81982
G1 X109.061 Y105.587 E5.86581
G1 X109.218 Y105.194 E5.88517
G1 X108.488 Y104.463 E5.93238
G1 X108.628 Y104.053 E5.95220
G1 X109.376 Y104.800 E6.00050
G1 X109.533 Y104.407 E6.01986
G1 X108.782 Y103.656 E6.06840
G1 X108.936 Y103.259 E6.08786
G1 X109.691 Y104.014 E6.13664
G1 X109.848 Y103.621 E6.15600
G1 X109.089 Y102.862 E6.20503
G1 X109.243 Y102.465 E6.22449
G1 X110.005 Y103.227 E6.27376
G1 X110.163 Y102.834 E6.29312
G1 X109.397 Y102.068 E6.34263
G1 X109.550 Y101.671 E6.36209
G1 X110.320 Y102.441 E6.41184
G1 X110.478 Y102.047 E6.43120
G1 X109.704 Y101.274 E6.48120
G1 X109.858 Y100.877 E6.50066
G1 X110.635 Y101.654 E6.55090
G1 X110.793 Y101.261 E6.57025
G1 X110.011 Y100.480 E6.62074
G1 X110.165 Y100.083 E6.64019
G1 X110.950 Y100.868 E6.69092
G1 X111.108 Y100.474 E6.71028
G1 X110.319 Y99.686 E6.76125
G1 X110.472 Y99.289 E6.78070
G1 X111.265 Y100.081 E6.83192
G1 X111.422 Y99.688 E6.85127
G1 X110.626 Y98.892 E6.90273
G1 X110.780 Y98.495 E6.92218
G1 X111.580 Y99.294 E6.97388
G1 X111.737 Y98.901 E6.99324
G1 X110.103 Y97.267 E7.09885
G1 X110.654 Y97.267 E7.12401
G1 X111.895 Y98.508 E7.20421
G1 X112.052 Y98.115 E7.22356
G1 X111.204 Y97.267 E7.27834
G1 X111.388 Y96.900 E7.29710
G1 X112.210 Y97.721 E7.35021
G1 X112.367 Y97.328 E7.36957
G1 X111.542 Y96.503 E7.42286
G1 X111.697 Y96.107 E7.44229
G1 X112.524 Y96.935 E7.49578
G1 X112.682 Y96.542 E7.51513
G1 X111.851 Y95.711 E7.56880
G1 X112.006 Y95.315 E7.58824
G1 X112.839 Y96.148 E7.64210
G1 X112.997 Y95.755 E7.66145
G1 X112.160 Y94.919 E7.71550
G1 X112.315 Y94.522 E7.73493
G1 X113.154 Y95.362 E7.78917
G1 X113.312 Y94.968 E7.80852
G1 X112.469 Y94.126 E7.86295
G1 X112.624 Y93.730 E7.88238
G1 X113.469 Y94.575 E7.93699
G1 X113.626 Y94.182 E7.95635
G1 X112.778 Y93.334 E8.01115
G1 X112.933 Y92.938 E8.03058
G1 X113.784 Y93.789 E8.08557
G1 X113.941 Y93.395 E8.10492
G1 X113.349 Y92.803 E8.14320
G1 X113.900 Y92.803 E8.16836
G1 X114.099 Y93.002 E8.18122
G92 E0
G1 X104.483 Y99.357 F7800.000
G1 X102.820 Y97.694 E0.10748 F540.000
G1 X103.575 Y99.550 F7800.000
G1 X105.178 Y101.153 E0.21104 F540.000
G1 X104.330 Y101.407 F7800.000
G1 X105.872 Y102.949 E0.31069 F540.000
G1 X105.085 Y103.264 F7800.000
G1 X106.520 Y104.698 E0.40340 F540.000
G1 X105.841 Y105.120 F7800.000
G1 X107.073 Y106.352 E0.48301 F540.000
G1 X106.596 Y106.977 F7800.000
G1 X106.816 Y107.197 E0.49723 F540.000
G92 E0
G1 X104.019 Y96.816 F7800.000
G1 X106.223 Y93.584 F7800.000
G1 X100.120 Y91.352 F7800.000
G1 X98.950 Y98.417 F7800.000
G1 X100.151 Y101.321 F7800.000
G1 X100.491 Y102.646 F7800.000
G1 X96.979 Y103.055 F7800.000
G1 X85.407 Y97.521 F7800.000
G1 X85.407 Y92.577 E0.22369 F378.000
G1 X87.028 Y92.577 E0.29704
G1 X87.028 Y98.556 E0.56759
G1 X91.721 Y98.556 E0.77996 F378.000
G1 X93.188 Y98.695 E0.84663
G1 X94.413 Y99.103 E0.90505
G1 X95.414 Y99.777 E0.95967
G1 X96.156 Y100.677 E1.01244
G1 X96.602 Y101.766 E1.06568
G1 X96.752 Y103.055 E1.12441
G1 X96.603 Y104.347 E1.18326
G1 X96.159 Y105.415 E1.23557
G1 X95.423 Y106.272 E1.28672
G1 X94.411 Y106.907 E1.34077
G1 X93.139 Y107.292 E1.40093
G1 X91.590 Y107.423 E1.47124
G1 X85.407 Y107.423 E1.75104
G1 X85.407 Y97.752 E2.18867
G1 X87.028 Y99.743 F7800.000
G1 X91.457 Y99.743 E2.38906 F378.000
G1 X93.461 Y100.098 E2.48116
G1 X94.716 Y101.210 E2.55703
G1 X95.128 Y103.035 E2.64168
G1 X94.704 Y104.800 E2.72384
G1 X93.418 Y105.872 E2.79961
G1 X91.369 Y106.214 E2.89359
G1 X87.028 Y106.214 E3.09004
G1 X87.028 Y99.974 E3.37240 F378.000
G1 X86.802 Y99.898 F7800.000
G1 X85.633 Y98.729 E3.44798 F540.000
G1 X85.633 Y99.280 E3.47317
G1 X86.802 Y100.449 E3.54876
G1 X86.802 Y101.000 E3.57395
G1 X85.633 Y99.831 E3.64953
G1 X85.633 Y100.382 E3.67472
G1 X86.802 Y101.551 E3.75031
G1 X86.802 Y102.102 E3.77550
G1 X85.633 Y100.933 E3.85109
G1 X85.633 Y101.484 E3.87627
G1 X86.802 Y102.653 E3.95186
G1 X86.802 Y103.204 E3.97705
G1 X85.633 Y102.035 E4.05264
G1 X85.633 Y102.586 E4.07783
G1 X86.802 Y103.755 E4.15341
G1 X86.802 Y104.306 E4.17860
G1 X85.633 Y103.137 E4.25419
G1 X85.633 Y103.688 E4.27938
G1 X86.802 Y104.857 E4.35496
G1 X86.802 Y105.408 E4.38015
G1 X85.633 Y104.239 E4.45574
G1 X85.633 Y104.790 E4.48093
G1 X86.802 Y105.959 E4.55652
G1 X86.732 Y106.440 E4.57875
G1 X87.489 Y107.197 E4.62770
G1 X88.040 Y107.197 E4.65289
G1 X87.283 Y106.440 E4.70184
G1 X86.802 Y106.510 E4.72407
G1 X85.633 Y105.341 E4.79966
G1 X85.633 Y105.891 E4.82485
G1 X86.938 Y107.197 E4.90925
G1 X86.387 Y107.197 E4.93444
G1 X85.633 Y106.442 E4.98323
G1 X85.633 Y106.993 E5.00842
G1 X85.836 Y107.197 E5.02158
G1 X87.834 Y106.440 F7800.000
G1 X88.591 Y107.197 E5.07053 F540.000
G1 X89.142 Y107.197 E5.09572
G1 X88.385 Y106.440 E5.14467
G1 X88.936 Y106.440 E5.16986
G1 X89.693 Y107.197 E5.21880
G1 X90.244 Y107.197 E5.24399
G1 X89.487 Y106.440 E5.29294
G1 X90.038 Y106.440 E5.31813
G1 X90.795 Y107.197 E5.36708
G1 X91.346 Y107.197 E5.39227
G1 X90.589 Y106.440 E5.44122
G1 X91.140 Y106.440 E5.46641
G1 X91.879 Y107.178 E5.51416
G1 X92.387 Y107.136 E5.53746
G1 X91.637 Y106.386 E5.58593
G1 X92.109 Y106.307 E5.60782
G1 X92.895 Y107.093 E5.65859
G1 X93.362 Y107.009 E5.68031
G1 X92.582 Y106.228 E5.73080
G1 X93.054 Y106.150 E5.75269
G1 X93.785 Y106.881 E5.79998
G1 X94.208 Y106.753 E5.82018
G1 X93.505 Y106.050 E5.86563
G1 X93.806 Y105.800 E5.88351
G1 X94.578 Y106.572 E5.93344
G1 X94.917 Y106.360 E5.95171
G1 X94.106 Y105.549 E6.00411
G1 X94.407 Y105.299 E6.02200
G1 X95.250 Y106.142 E6.07651
G1 X95.522 Y105.863 E6.09432
G1 X94.707 Y105.048 E6.14697
G1 X94.937 Y104.727 E6.16502
G1 X95.776 Y105.566 E6.21928
G1 X96.011 Y105.250 E6.23729
G1 X95.043 Y104.283 E6.29981
G1 X95.150 Y103.838 E6.32070
G1 X96.172 Y104.860 E6.38678
G1 X96.334 Y104.471 E6.40606
G1 X95.257 Y103.394 E6.47569
G1 X95.360 Y102.946 E6.49669
G1 X96.423 Y104.009 E6.56543
G1 X96.480 Y103.516 E6.58816
G1 X95.199 Y102.234 E6.67098
G1 X95.039 Y101.523 E6.70434
G1 X96.507 Y102.991 E6.79929
G1 X95.421 Y100.252 F7800.000
G1 X95.036 Y99.867 E6.82420 F540.000
G1 X93.779 Y99.161 F7800.000
G1 X96.272 Y101.654 E6.98536 F540.000
G1 X96.435 Y102.368 E7.01882
G1 X92.976 Y98.910 E7.24240
G1 X92.368 Y98.852 E7.27034
G1 X93.349 Y99.833 E7.33375
G1 X92.679 Y99.714 E7.36484
G1 X91.760 Y98.795 E7.42430
G1 X91.196 Y98.782 E7.45008
G1 X92.010 Y99.596 E7.50269
G1 X91.380 Y99.517 E7.53170
G1 X90.645 Y98.782 E7.57923
G1 X90.094 Y98.782 E7.60442
G1 X90.829 Y99.517 E7.65194
G1 X90.278 Y99.517 E7.67713
G1 X89.543 Y98.782 E7.72466
G1 X88.992 Y98.782 E7.74985
G1 X89.727 Y99.517 E7.79738
G1 X89.176 Y99.517 E7.82256
G1 X88.441 Y98.782 E7.87009
G1 X87.890 Y98.782 E7.89528
G1 X88.625 Y99.517 E7.94281
G1 X88.074 Y99.517 E7.96800
G1 X87.339 Y98.782 E8.01552
G1 X86.802 Y98.796 E8.04009
G1 X85.633 Y97.627 E8.11567
G1 X85.633 Y98.178 E8.14086
G1 X86.972 Y99.517 E8.22745
G1 X87.523 Y99.517 F7800.000
G1 X86.788 Y98.782 E8.27498 F540.000
G1 X86.802 Y98.245 E8.29954
G1 X85.633 Y97.076 E8.37513
G1 X85.633 Y96.525 E8.40032
G1 X86.802 Y97.694 E8.47590
G1 X86.802 Y97.143 E8.50109
G1 X85.633 Y95.974 E8.57668
G1 X85.633 Y95.423 E8.60187
G1 X86.802 Y96.592 E8.67746
G1 X86.802 Y96.041 E8.70265
G1 X85.633 Y94.872 E8.77823
G1 X85.633 Y94.321 E8.80342
G1 X86.802 Y95.490 E8.87901
G1 X86.802 Y94.939 E8.90420
G1 X85.633 Y93.770 E8.97978
G1 X85.633 Y93.219 E9.00497
G1 X86.802 Y94.388 E9.08056
G1 X86.802 Y93.837 E9.10575
G1 X85.768 Y92.803 E9.17260
G1 X86.319 Y92.803 E9.19779
G1 X86.802 Y93.286 E9.22902
M106 S255
G92 E0
G1 Z0.600 F7800.000
G1 X105.498 Y100.633 F7800.000
G1 X103.121 Y97.168 E1.25890 F600.000
G1 X101.196 Y92.352 E2.81311
G92 E0
G1 X111.882 Y94.457 F7800.000
G1 X111.229 Y98.774 E1.30813 F600.000
G1 X109.045 Y104.320 E3.09418
G1 X108.337 Y106.245 E3.70872
G1 X108.069 Y106.723 E3.87304
G1 X107.526 Y106.810 E4.03792
G1 X106.956 Y106.736 E4.21016
G1 X106.662 Y106.225 E4.38675
G1 X105.746 Y103.781 E5.16887
G1 X103.759 Y98.775 E6.78268
G1 X103.623 Y97.900 E7.04820
G1 X104.019 Y97.746 E7.17570
G1 X104.646 Y97.624 E7.36708
G1 X110.346 Y97.624 E9.07506
G1 X110.962 Y97.741 E9.26297
G1 X111.362 Y97.894 E9.39110
G1 X111.857 Y97.165 E9.65512
G1 X113.759 Y92.352 E11.20582
G92 E0
G1 X100.120 Y91.352 F7800.000
G1 X97.690 Y96.459 F7800.000
G1 X98.950 Y98.417 F7800.000
G1 X96.351 Y100.560 F7800.000
G1 X87.068 Y102.637 F7800.000
G1 X86.217 Y98.331 E1.31513 F600.000
G1 X86.217 Y92.352 E3.10672
G1 X86.379 Y99.149 F7800.000
G1 X91.581 Y99.156 E4.66537 F600.000
G1 X93.050 Y99.350 E5.10941
G1 X93.508 Y99.466 E5.25112
G1 X93.947 Y99.645 E5.39308
G1 X94.102 Y99.734 E5.44674
G1 X94.895 Y100.349 E5.74739
G1 X95.149 Y100.612 E5.85684
G1 X95.482 Y101.080 E6.02917
G1 X95.766 Y101.981 E6.31226
G1 X95.934 Y103.055 E6.63801
G1 X95.756 Y104.127 E6.96347
G1 X95.473 Y104.993 E7.23644
G1 X95.136 Y105.435 E7.40301
G1 X94.901 Y105.666 E7.50171
G1 X94.108 Y106.241 E7.79523
G1 X93.899 Y106.354 E7.86655
G1 X93.464 Y106.519 E8.00593
G1 X93.011 Y106.625 E8.14538
G1 X91.564 Y106.807 E8.58222
G1 X91.351 Y106.818 E8.64629
G1 X87.253 Y106.818 E9.87424
G1 X86.290 Y106.539 E10.17450
G1 X86.217 Y105.989 E10.34086
G1 X86.217 Y99.968 E12.14503
G1 X86.379 Y99.149 E12.39503
G92 E0
G1 Z0.900 F7800.000
G1 X105.498 Y100.633 F7800.000
G1 X103.121 Y97.168 E1.25890 F600.000
G1 X101.196 Y92.352 E2.81311
G92 E0
G1 X111.882 Y94.457 F7800.000
G1 X111.229 Y98.774 E1.30814 F600.000
G1 X109.045 Y104.320 E3.09418
G1 X108.337 Y106.245 E3.70873
G1 X108.069 Y106.723 E3.87305
G1 X107.526 Y106.810 E4.03792
G1 X106.956 Y106.736 E4.21017
G1 X106.662 Y106.225 E4.38676
G1 X105.746 Y103.781 E5.16887
G1 X103.759 Y98.775 E6.78269
G1 X103.623 Y97.900 E7.04820
G1 X104.019 Y97.746 E7.17571
G1 X104.646 Y97.624 E7.36709
G1 X110.346 Y97.624 E9.07507
G1 X110.962 Y97.741 E9.26298
G1 X111.362 Y97.894 E9.39111
G1 X111.857 Y97.165 E9.65512
G1 X113.759 Y92.352 E11.20582
G92 E0
G1 X100.120 Y91.352 F7800.000
G1 X97.690 Y96.459 F7800.000
G1 X98.950 Y98.417 F7800.000
G1 X96.351 Y100.560 F7800.000
G1 X87.068 Y102.637 F7800.000
G1 X86.217 Y98.331 E1.31513 F600.000
G1 X86.217 Y92.352 E3.10672
G1 X86.379 Y99.149 F7800.000
G1 X91.581 Y99.156 E4.66537 F600.000
G1 X93.050 Y99.350 E5.10941
G1 X93.508 Y99.466 E5.25112
G1 X93.947 Y99.645 E5.39308
G1 X94.102 Y99.734 E5.44674
G1 X94.895 Y100.349 E5.74739
G1 X95.149 Y100.612 E5.85684
G1 X95.482 Y101.080 E6.02917
G1 X95.766 Y101.981 E6.31226
G1 X95.934 Y103.055 E6.63801
G1 X95.756 Y104.127 E6.96347
G1 X95.473 Y104.993 E7.23644
G1 X95.136 Y105.435 E7.40301
G1 X94.901 Y105.666 E7.50172
G1 X94.108 Y106.241 E7.79523
G1 X93.899 Y106.354 E7.86655
G1 X93.464 Y106.519 E8.00593
G1 X93.011 Y106.625 E8.14538
G1 X91.564 Y106.807 E8.58222
G1 X91.351 Y106.818 E8.64629
G1 X87.253 Y106.818 E9.87424
G1 X86.290 Y106.539 E10.17450
G1 X86.217 Y105.989 E10.34086
G1 X86.217 Y99.968 E12.14503
G1 X86.379 Y99.149 E12.39503
G92 E0
G1 Z1.200 F7800.000
G1 X105.498 Y100.633 F7800.000
G1 X103.121 Y97.168 E1.25890 F600.000
G1 X101.196 Y92.352 E2.81311
G92 E0
G1 X111.882 Y94.457 F7800.000
G1 X111.229 Y98.774 E1.30814 F600.000
G1 X109.045 Y104.320 E3.09418
G1 X108.337 Y106.245 E3.70873
G1 X108.069 Y106.723 E3.87305
G1 X107.526 Y106.810 E4.03792
G1 X106.956 Y106.736 E4.21017
G1 X106.662 Y106.225 E4.38676
G1 X105.746 Y103.781 E5.16887
G1 X103.759 Y98.775 E6.78269
G1 X103.623 Y97.900 E7.04820
G1 X104.019 Y97.746 E7.17571
G1 X104.646 Y97.624 E7.36709
G1 X110.346 Y97.624 E9.07507
G1 X110.962 Y97.741 E9.26298
G1 X111.362 Y97.894 E9.39111
G1 X111.857 Y97.165 E9.65512
G1 X113.759 Y92.352 E11.20582
G92 E0
G1 X102.267 Y91.352 F7800.000
G1 X97.148 Y93.561 F7800.000
G1 X97.690 Y96.459 F7800.000
G1 X98.950 Y98.417 F7800.000
G1 X96.351 Y100.560 F7800.000
G1 X87.068 Y102.637 F7800.000
G1 X86.217 Y98.331 E1.31513 F600.000
G1 X86.217 Y92.352 E3.10672
G1 X86.379 Y99.149 F7800.000
G1 X91.581 Y99.156 E4.66537 F600.000
G1 X93.050 Y99.350 E5.10941
G1 X93.508 Y99.466 E5.25112
G1 X93.947 Y99.645 E5.39308
G1 X94.102 Y99.734 E5.44674
G1 X94.895 Y100.349 E5.74739
G1 X95.149 Y100.612 E5.85684
G1 X95.482 Y101.080 E6.02917
G1 X95.766 Y101.981 E6.31226
G1 X95.934 Y103.055 E6.63801
G1 X95.756 Y104.127 E6.96347
G1 X95.473 Y104.993 E7.23644
G1 X95.136 Y105.435 E7.40301
G1 X94.901 Y105.666 E7.50171
G1 X94.108 Y106.241 E7.79523
G1 X93.899 Y106.354 E7.86655
G1 X93.464 Y106.519 E8.00593
G1 X93.011 Y106.625 E8.14538
G1 X91.564 Y106.807 E8.58222
G1 X91.351 Y106.818 E8.64629
G1 X87.253 Y106.818 E9.87424
G1 X86.290 Y106.539 E10.17450
G1 X86.217 Y105.989 E10.34086
G1 X86.217 Y99.968 E12.14503
G1 X86.379 Y99.149 E12.39503
G92 E0
G1 Z1.500 F7800.000
G1 X105.498 Y100.633 F7800.000
G1 X103.121 Y97.168 E1.25890 F600.000
G1 X101.196 Y92.352 E2.81311
G92 E0
G1 X111.882 Y94.457 F7800.000
G1 X111.229 Y98.774 E1.30814 F600.000
G1 X109.045 Y104.320 E3.09418
G1 X108.337 Y106.245 E3.70873
G1 X108.069 Y106.723 E3.87305
G1 X107.526 Y106.810 E4.03793
G1 X106.956 Y106.736 E4.21017
G1 X106.662 Y106.225 E4.38676
G1 X105.746 Y103.781 E5.16887
G1 X103.759 Y98.775 E6.78269
G1 X103.623 Y97.900 E7.04820
G1 X104.019 Y97.746 E7.17571
G1 X104.646 Y97.624 E7.36709
G1 X110.346 Y97.624 E9.07507
G1 X110.962 Y97.741 E9.26298
G1 X111.362 Y97.894 E9.39111
G1 X111.857 Y97.165 E9.65512
G1 X113.759 Y92.352 E11.20582
G92 E0
G1 X102.267 Y91.352 F7800.000
G1 X97.148 Y93.561 F7800.000
G1 X97.690 Y96.459 F7800.000
