; generated by Slic3r 1.2.9 on 2016-03-11 at 01:28:42

; external perimeters extrusion width = 1.54mm
; perimeters extrusion width = 2.62mm
; infill extrusion width = 6.27mm
; solid infill extrusion width = 2.62mm
; top infill extrusion width = 2.62mm

M107
M104 S30 ; set temperature
G28 ; home all axes
G1 Z5 F5000 ; lift nozzle
M302
M92 E10000
M500
M501
G1 E100
M109 S30 ; wait for temperature to be reached
G21 ; set units to millimeters
G90 ; use absolute coordinates
M82 ; use absolute distances for extrusion
G92 E0
G1 Z0.300 F7800.000
G1 X115.394 Y97.130 F7800.000
G1 X115.394 Y107.423 E0.46574 F378.000
G1 X113.773 Y107.423 E0.53909
G1 X113.773 Y100.959 E0.83158
G1 X105.040 Y100.959 E1.22674
G1 X105.040 Y107.423 E1.51923
G1 X103.419 Y107.423 E1.59258
G1 X103.419 Y92.577 E2.26435
G1 X105.040 Y92.577 E2.33770
G1 X105.040 Y99.674 E2.65884
G1 X113.773 Y99.674 E3.05400 F378.000
G1 X113.773 Y92.577 E3.37513
G1 X115.394 Y92.577 E3.44848
G1 X115.394 Y96.899 E3.64406
G1 X113.999 Y99.601 F7800.000
G1 X115.168 Y100.770 E3.72014 F540.000
G1 X115.168 Y100.216 E3.74565
G1 X113.999 Y99.047 E3.82173
G1 X113.999 Y98.492 E3.84725
G1 X115.168 Y99.661 E3.92333
G1 X115.168 Y99.107 E3.94884
G1 X113.999 Y97.938 E4.02492
G1 X113.999 Y97.383 E4.05044
G1 X115.168 Y98.552 E4.12652
G1 X115.168 Y97.998 E4.15203
G1 X113.999 Y96.829 E4.22811
G1 X113.999 Y96.274 E4.25363
G1 X115.168 Y97.443 E4.32971
G1 X115.168 Y96.889 E4.35522
G1 X113.999 Y95.719 E4.43130
G1 X113.999 Y95.165 E4.45682
G1 X115.168 Y96.334 E4.53289
G1 X115.168 Y95.779 E4.55841
G1 X113.999 Y94.610 E4.63449
G1 X113.999 Y94.056 E4.66001
G1 X115.168 Y95.225 E4.73608
G1 X115.168 Y94.670 E4.76160
G1 X113.999 Y93.501 E4.83768
G1 X113.999 Y92.947 E4.86320
G1 X115.168 Y94.116 E4.93927
G1 X115.168 Y93.561 E4.96479
G1 X114.410 Y92.803 E5.01413
G1 X114.964 Y92.803 E5.03965
G1 X115.168 Y93.007 E5.05290
G1 X113.743 Y99.900 F7800.000
G1 X115.168 Y101.325 E5.14563 F540.000
G1 X115.168 Y101.880 E5.17115
G1 X113.188 Y99.900 E5.29997
G1 X112.634 Y99.900 E5.32549
G1 X113.467 Y100.733 E5.37970
G1 X112.912 Y100.733 E5.40522
G1 X112.079 Y99.900 E5.45943
G1 X111.525 Y99.900 E5.48495
G1 X112.358 Y100.733 E5.53916
G1 X111.803 Y100.733 E5.56468
G1 X110.970 Y99.900 E5.61889
G1 X110.415 Y99.900 E5.64441
G1 X111.248 Y100.733 E5.69862
G1 X110.694 Y100.733 E5.72414
G1 X109.861 Y99.900 E5.77835
G1 X109.306 Y99.900 E5.80387
G1 X110.139 Y100.733 E5.85808
G1 X109.585 Y100.733 E5.88360
G1 X108.752 Y99.900 E5.93781
G1 X108.197 Y99.900 E5.96333
G1 X109.030 Y100.733 E6.01754
G1 X108.476 Y100.733 E6.04306
G1 X107.643 Y99.900 E6.09727
G1 X107.088 Y99.900 E6.12279
G1 X107.921 Y100.733 E6.17700
G1 X107.367 Y100.733 E6.20252
G1 X106.533 Y99.900 E6.25673
G1 X105.979 Y99.900 E6.28225
G1 X106.812 Y100.733 E6.33646
G1 X106.257 Y100.733 E6.36198
G1 X105.424 Y99.900 E6.41619
G1 X104.870 Y99.900 E6.44171
G1 X105.703 Y100.733 E6.49592
G1 X105.148 Y100.733 E6.52144
G1 X103.645 Y99.230 E6.61928
G1 X103.645 Y99.784 E6.64480
G1 X104.814 Y100.953 E6.72087
G1 X104.814 Y101.508 E6.74639
G1 X103.645 Y100.339 E6.82247
G1 X103.645 Y100.893 E6.84799
G1 X104.814 Y102.062 E6.92406
G1 X104.814 Y102.617 E6.94958
G1 X103.645 Y101.448 E7.02566
G1 X103.645 Y102.002 E7.05118
G1 X104.814 Y103.171 E7.12725
G1 X104.814 Y103.726 E7.15277
G1 X103.645 Y102.557 E7.22885
G1 X103.645 Y103.112 E7.25437
G1 X104.814 Y104.281 E7.33044
G1 X104.814 Y104.835 E7.35596
G1 X103.645 Y103.666 E7.43204
G1 X103.645 Y104.221 E7.45756
G1 X104.814 Y105.390 E7.53363
G1 X104.814 Y105.944 E7.55915
G1 X103.645 Y104.775 E7.63523
G1 X103.645 Y105.330 E7.66075
G1 X104.814 Y106.499 E7.73682
G1 X104.814 Y107.053 E7.76234
G1 X103.645 Y105.884 E7.83842
G1 X103.645 Y106.439 E7.86394
G1 X104.403 Y107.197 E7.91327
G1 X103.848 Y107.197 E7.93879
G1 X103.645 Y106.993 E7.95204
G1 X104.814 Y99.844 F7800.000
G1 X103.645 Y98.675 E8.02811 F540.000
G1 X103.645 Y98.120 E8.05363
G1 X104.814 Y99.290 E8.12971
G1 X104.814 Y98.735 E8.15523
G1 X103.645 Y97.566 E8.23130
G1 X103.645 Y97.011 E8.25682
G1 X104.814 Y98.180 E8.33290
G1 X104.814 Y97.626 E8.35842
G1 X103.645 Y96.457 E8.43449
G1 X103.645 Y95.902 E8.46001
G1 X104.814 Y97.071 E8.53609
G1 X104.814 Y96.517 E8.56161
G1 X103.645 Y95.348 E8.63768
G1 X103.645 Y94.793 E8.66320
G1 X104.814 Y95.962 E8.73928
G1 X104.814 Y95.408 E8.76479
G1 X103.645 Y94.238 E8.84087
G1 X103.645 Y93.684 E8.86639
G1 X104.814 Y94.853 E8.94247
G1 X104.814 Y94.298 E8.96798
G1 X103.645 Y93.129 E9.04406
G1 X103.873 Y92.803 E9.06239
G1 X104.814 Y93.744 E9.12361
G1 X104.814 Y93.189 E9.14913
G1 X104.428 Y92.803 E9.17427
G92 E0
G1 X104.265 Y93.352 F7800.000
G1 X104.265 Y93.352 F7800.000
G1 X113.999 Y101.265 F7800.000
G1 X115.168 Y102.434 E0.07608 F540.000
G1 X115.168 Y102.989 E0.10159
G1 X113.999 Y101.820 E0.17767
G1 X113.999 Y102.374 E0.20319
G1 X115.168 Y103.543 E0.27927
G1 X115.168 Y104.098 E0.30478
G1 X113.999 Y102.929 E0.38086
G1 X113.999 Y103.483 E0.40638
G1 X115.168 Y104.652 E0.48246
G1 X115.168 Y105.207 E0.50797
G1 X113.999 Y104.038 E0.58405
G1 X113.999 Y104.592 E0.60957
G1 X115.168 Y105.762 E0.68565
G1 X115.168 Y106.316 E0.71116
G1 X113.999 Y105.147 E0.78724
G1 X113.999 Y105.702 E0.81276
G1 X115.168 Y106.871 E0.88884
G1 X114.940 Y107.197 E0.90716
G1 X113.999 Y106.256 E0.96839
G1 X113.999 Y106.811 E0.99390
G1 X114.385 Y107.197 E1.01904
G92 E0
G1 X113.548 Y107.648 F7800.000
G1 X105.265 Y108.648 F7800.000
G1 X99.451 Y105.905 F7800.000
G1 X98.391 Y106.613 F7800.000
G1 X95.588 Y105.449 F7800.000
G1 X84.606 Y106.008 F7800.000
G1 X84.606 Y92.577 E0.60775 F378.000
G1 X86.227 Y92.577 E0.68110
G1 X86.227 Y98.556 E0.95164
G1 X90.921 Y98.556 E1.16401 F378.000
G1 X92.387 Y98.695 E1.23068
G1 X93.612 Y99.103 E1.28910
G1 X94.613 Y99.777 E1.34373
G1 X95.355 Y100.677 E1.39650
G1 X95.801 Y101.766 E1.44973
G1 X95.952 Y103.055 E1.50847
G1 X95.802 Y104.347 E1.56731
G1 X95.359 Y105.415 E1.61963
G1 X94.623 Y106.272 E1.67077
G1 X93.611 Y106.907 E1.72482
G1 X92.338 Y107.292 E1.78499
G1 X90.790 Y107.423 E1.85530
G1 X84.606 Y107.423 E2.13509
G1 X84.606 Y106.239 E2.18867
G1 X86.227 Y106.214 F7800.000
G1 X86.227 Y99.743 E2.48147 F378.000
G1 X90.656 Y99.743 E2.68187
G1 X92.660 Y100.098 E2.77397
G1 X93.915 Y101.210 E2.84984
G1 X94.327 Y103.035 E2.93449
G1 X93.904 Y104.800 E3.01665
G1 X92.617 Y105.872 E3.09242
G1 X90.569 Y106.214 E3.18639
G1 X86.458 Y106.214 E3.37240
G1 X84.832 Y106.442 F7800.000
G1 X85.587 Y107.197 E3.42118 F540.000
G1 X85.036 Y107.197 E3.44637
G1 X84.832 Y106.993 E3.45953
G1 X86.001 Y99.898 F7800.000
G1 X84.832 Y98.729 E3.53512 F540.000
G1 X84.832 Y99.280 E3.56031
G1 X86.001 Y100.449 E3.63590
G1 X86.001 Y101.000 E3.66109
G1 X84.832 Y99.831 E3.73667
G1 X84.832 Y100.382 E3.76186
G1 X86.001 Y101.551 E3.83745
G1 X86.001 Y102.102 E3.86264
G1 X84.832 Y100.933 E3.93822
G1 X84.832 Y101.484 E3.96341
G1 X86.001 Y102.653 E4.03900
G1 X86.001 Y103.204 E4.06419
G1 X84.832 Y102.035 E4.13977
G1 X84.832 Y102.586 E4.16496
G1 X86.001 Y103.755 E4.24055
G1 X86.001 Y104.306 E4.26574
G1 X84.832 Y103.137 E4.34133
G1 X84.832 Y103.688 E4.36652
G1 X86.001 Y104.857 E4.44210
G1 X86.001 Y105.408 E4.46729
G1 X84.832 Y104.239 E4.54288
G1 X84.832 Y104.790 E4.56807
G1 X86.001 Y105.959 E4.64365
G1 X85.932 Y106.440 E4.66589
G1 X86.689 Y107.197 E4.71484
G1 X86.138 Y107.197 E4.74002
G1 X84.832 Y105.891 E4.82443
G1 X84.832 Y105.341 E4.84962
G1 X86.001 Y106.510 E4.92521
G1 X86.483 Y106.440 E4.94744
G1 X87.240 Y107.197 E4.99639
G1 X87.791 Y107.197 E5.02158
G1 X87.034 Y106.440 E5.07053
G1 X87.585 Y106.440 E5.09572
G1 X88.342 Y107.197 E5.14467
G1 X88.893 Y107.197 E5.16986
G1 X88.136 Y106.440 E5.21881
G1 X88.687 Y106.440 E5.24399
G1 X89.444 Y107.197 E5.29294
G1 X89.995 Y107.197 E5.31813
G1 X89.237 Y106.440 E5.36708
G1 X89.788 Y106.440 E5.39227
G1 X90.546 Y107.197 E5.44122
G1 X91.078 Y107.178 E5.46557
G1 X90.339 Y106.440 E5.51332
G1 X90.836 Y106.386 E5.53618
G1 X91.586 Y107.136 E5.58464
G1 X92.094 Y107.093 E5.60795
G1 X91.309 Y106.307 E5.65873
G1 X91.781 Y106.228 E5.68062
G1 X92.562 Y107.009 E5.73110
G1 X92.985 Y106.881 E5.75130
G1 X92.253 Y106.150 E5.79860
G1 X92.705 Y106.050 E5.81974
G1 X93.408 Y106.753 E5.86518
G1 X93.777 Y106.572 E5.88401
G1 X93.005 Y105.800 E5.93393
G1 X93.306 Y105.549 E5.95182
G1 X94.116 Y106.360 E6.00422
G1 X94.449 Y106.142 E6.02241
G1 X93.606 Y105.299 E6.07693
G1 X93.907 Y105.048 E6.09481
G1 X94.721 Y105.863 E6.14746
G1 X94.975 Y105.566 E6.16532
G1 X94.136 Y104.727 E6.21957
G1 X94.243 Y104.283 E6.24047
G1 X95.210 Y105.250 E6.30299
G1 X95.372 Y104.860 E6.32226
G1 X94.349 Y103.838 E6.38834
G1 X94.456 Y103.394 E6.40923
G1 X95.533 Y104.471 E6.47887
G1 X95.623 Y104.009 E6.50036
G1 X94.559 Y102.946 E6.56910
G1 X94.399 Y102.234 E6.60245
G1 X95.680 Y103.516 E6.68528
G1 X95.707 Y102.991 E6.70927
G1 X94.238 Y101.523 E6.80423
G1 X94.620 Y100.252 F7800.000
G1 X94.235 Y99.867 E6.82914 F540.000
G1 X92.979 Y99.161 F7800.000
G1 X95.471 Y101.654 E6.99030 F540.000
G1 X95.634 Y102.368 E7.02376
G1 X92.176 Y98.910 E7.24734
G1 X91.567 Y98.852 E7.27528
G1 X92.548 Y99.833 E7.33869
G1 X91.879 Y99.714 E7.36978
G1 X90.959 Y98.795 E7.42924
G1 X90.395 Y98.782 E7.45501
G1 X91.209 Y99.596 E7.50763
G1 X90.579 Y99.517 E7.53664
G1 X89.844 Y98.782 E7.58416
G1 X89.293 Y98.782 E7.60935
G1 X90.028 Y99.517 E7.65688
G1 X89.477 Y99.517 E7.68207
G1 X88.742 Y98.782 E7.72959
G1 X88.191 Y98.782 E7.75478
G1 X88.926 Y99.517 E7.80231
G1 X88.375 Y99.517 E7.82750
G1 X87.640 Y98.782 E7.87503
G1 X87.089 Y98.782 E7.90022
G1 X87.824 Y99.517 E7.94774
G1 X87.273 Y99.517 E7.97293
G1 X86.538 Y98.782 E8.02046
G1 X86.001 Y98.796 E8.04502
G1 X84.832 Y97.627 E8.12061
G1 X84.832 Y98.178 E8.14580
G1 X86.171 Y99.517 E8.23239
G1 X86.722 Y99.517 F7800.000
G1 X85.987 Y98.782 E8.27991 F540.000
G1 X86.001 Y98.245 E8.30448
G1 X84.832 Y97.076 E8.38006
G1 X84.832 Y96.525 E8.40525
G1 X86.001 Y97.694 E8.48084
G1 X86.001 Y97.143 E8.50603
G1 X84.832 Y95.974 E8.58162
G1 X84.832 Y95.423 E8.60680
G1 X86.001 Y96.592 E8.68239
G1 X86.001 Y96.041 E8.70758
G1 X84.832 Y94.872 E8.78317
G1 X84.832 Y94.321 E8.80836
G1 X86.001 Y95.490 E8.88394
G1 X86.001 Y94.939 E8.90913
G1 X84.832 Y93.770 E8.98472
G1 X84.832 Y93.219 E9.00991
G1 X86.001 Y94.388 E9.08549
G1 X86.001 Y93.837 E9.11068
G1 X84.967 Y92.803 E9.17754
G1 X85.518 Y92.803 E9.20273
G1 X86.001 Y93.286 E9.23396
M106 S255
G92 E0
G1 Z0.600 F7800.000
G1 X104.229 Y92.352 F7800.000
G1 X104.229 Y99.449 E2.12659 F600.000
G1 X105.140 Y103.796 E3.45730
G92 E0
G1 X114.548 Y106.648 F7800.000
G1 X114.548 Y106.648 F7800.000
G1 X114.583 Y107.648 F7800.000
G1 X114.583 Y101.184 E1.93691 F600.000
G1 X114.402 Y100.316 E2.20250
G1 X114.583 Y99.449 E2.46808
G1 X114.583 Y92.352 E4.59467
G92 E0
G1 X104.265 Y93.352 F7800.000
G1 X104.229 Y93.387 F7800.000
G1 X104.229 Y106.612 F7800.000
G1 X104.265 Y106.648 F7800.000
G1 X104.229 Y107.648 F7800.000
G1 X104.229 Y101.184 E1.93691 F600.000
G1 X104.411 Y100.316 E2.20250
G1 X115.619 Y100.316 E5.56087
G92 E0
G1 X105.265 Y101.184 F7800.000
G1 X105.265 Y101.184 F7800.000
G1 X109.406 Y105.325 F7800.000
G1 X109.406 Y105.507 F7800.000
G1 X107.265 Y107.648 F7800.000
G1 X105.265 Y108.648 F7800.000
G1 X103.194 Y108.648 F7800.000
G1 X101.194 Y107.648 F7800.000
G1 X99.451 Y105.905 F7800.000
G1 X99.465 Y105.833 F7800.000
G1 X99.596 Y104.818 F7800.000
G1 X99.674 Y103.460 F7800.000
G1 X99.674 Y102.647 F7800.000
G1 X99.595 Y101.292 F7800.000
G1 X96.021 Y101.709 F7800.000
G1 X86.268 Y102.637 F7800.000
G1 X85.417 Y98.331 E1.31513 F600.000
G1 X85.417 Y92.352 E3.10672
G1 X85.578 Y99.149 F7800.000
G1 X90.780 Y99.156 E4.66537 F600.000
G1 X92.249 Y99.350 E5.10941
G1 X92.708 Y99.466 E5.25112
G1 X93.146 Y99.645 E5.39308
G1 X93.301 Y99.734 E5.44674
G1 X94.095 Y100.349 E5.74739
G1 X94.348 Y100.612 E5.85684
G1 X94.681 Y101.080 E6.02917
G1 X94.966 Y101.981 E6.31226
G1 X95.134 Y103.055 E6.63801
G1 X94.956 Y104.127 E6.96347
G1 X94.672 Y104.993 E7.23644
G1 X94.335 Y105.435 E7.40301
G1 X94.101 Y105.666 E7.50171
G1 X93.308 Y106.241 E7.79523
G1 X93.098 Y106.354 E7.86655
G1 X92.663 Y106.519 E8.00593
G1 X92.210 Y106.625 E8.14538
G1 X90.764 Y106.807 E8.58222
G1 X90.550 Y106.818 E8.64629
G1 X86.452 Y106.818 E9.87424
G1 X85.490 Y106.539 E10.17450
G1 X85.417 Y105.989 E10.34086
G1 X85.417 Y99.968 E12.14503
G1 X85.578 Y99.149 E12.39503
G92 E0
G1 Z0.900 F7800.000
G1 X104.229 Y92.352 F7800.000
G1 X104.229 Y99.449 E2.12659 F600.000
G1 X105.140 Y103.796 E3.45730
G92 E0
G1 X114.548 Y106.648 F7800.000
G1 X114.548 Y106.648 F7800.000
G1 X114.583 Y107.648 F7800.000
G1 X114.583 Y101.184 E1.93691 F600.000
G1 X114.402 Y100.316 E2.20250
G1 X114.583 Y99.449 E2.46808
G1 X114.583 Y92.352 E4.59467
G92 E0
G1 X104.265 Y93.352 F7800.000
G1 X104.229 Y93.387 F7800.000
G1 X104.229 Y106.612 F7800.000
G1 X104.265 Y106.648 F7800.000
G1 X104.229 Y107.648 F7800.000
G1 X104.229 Y101.184 E1.93691 F600.000
G1 X104.411 Y100.316 E2.20250
G1 X115.619 Y100.316 E5.56087
G92 E0
G1 X105.265 Y101.184 F7800.000
G1 X105.265 Y101.184 F7800.000
G1 X109.406 Y105.325 F7800.000
G1 X109.406 Y105.507 F7800.000
G1 X107.265 Y107.648 F7800.000
G1 X105.265 Y108.648 F7800.000
G1 X103.194 Y108.648 F7800.000
G1 X101.194 Y107.648 F7800.000
G1 X99.451 Y105.905 F7800.000
G1 X99.465 Y105.833 F7800.000
G1 X99.596 Y104.818 F7800.000
G1 X99.674 Y103.460 F7800.000
G1 X99.674 Y102.647 F7800.000
G1 X99.595 Y101.292 F7800.000
G1 X96.021 Y101.709 F7800.000
G1 X86.268 Y102.637 F7800.000
G1 X85.417 Y98.331 E1.31513 F600.000
G1 X85.417 Y92.352 E3.10672
G1 X85.578 Y99.149 F7800.000
G1 X90.780 Y99.156 E4.66537 F600.000
G1 X92.249 Y99.350 E5.10941
G1 X92.708 Y99.466 E5.25112
G1 X93.146 Y99.645 E5.39308
G1 X93.301 Y99.734 E5.44674
G1 X94.095 Y100.349 E5.74739
G1 X94.348 Y100.612 E5.85684
G1 X94.681 Y101.080 E6.02917
G1 X94.966 Y101.981 E6.31226
G1 X95.134 Y103.055 E6.63801
G1 X94.956 Y104.127 E6.96347
G1 X94.672 Y104.993 E7.23644
G1 X94.335 Y105.435 E7.40301
G1 X94.101 Y105.666 E7.50172
G1 X93.308 Y106.241 E7.79523
G1 X93.098 Y106.354 E7.86655
G1 X92.663 Y106.519 E8.00593
G1 X92.210 Y106.625 E8.14538
G1 X90.764 Y106.807 E8.58222
G1 X90.550 Y106.818 E8.64629
G1 X86.452 Y106.818 E9.87424
G1 X85.490 Y106.539 E10.17450
G1 X85.417 Y105.989 E10.34086
G1 X85.417 Y99.968 E12.14503
G1 X85.578 Y99.149 E12.39503
G92 E0
G1 Z1.200 F7800.000
G1 X104.229 Y92.352 F7800.000
G1 X104.229 Y99.449 E2.12659 F600.000
G1 X105.140 Y103.796 E3.45730
G92 E0
G1 X114.548 Y106.648 F7800.000
G1 X114.548 Y106.648 F7800.000
G1 X114.583 Y107.648 F7800.000
G1 X114.583 Y101.184 E1.93691 F600.000
G1 X114.402 Y100.316 E2.20250
G1 X114.583 Y99.449 E2.46808
G1 X114.583 Y92.352 E4.59467
G92 E0
G1 X104.265 Y93.352 F7800.000
G1 X104.229 Y93.387 F7800.000
G1 X104.229 Y106.612 F7800.000
G1 X104.265 Y106.648 F7800.000
G1 X104.229 Y107.648 F7800.000
G1 X104.229 Y101.184 E1.93691 F600.000
G1 X104.411 Y100.316 E2.20250
G1 X115.619 Y100.316 E5.56087
G92 E0
G1 X105.265 Y101.184 F7800.000
G1 X105.265 Y101.184 F7800.000
G1 X109.406 Y105.325 F7800.000
G1 X109.406 Y105.507 F7800.000
G1 X107.265 Y107.648 F7800.000
G1 X105.265 Y108.648 F7800.000
G1 X103.194 Y108.648 F7800.000
G1 X101.194 Y107.648 F7800.000
G1 X99.451 Y105.905 F7800.000
G1 X99.465 Y105.833 F7800.000
G1 X99.596 Y104.818 F7800.000
G1 X99.674 Y103.460 F7800.000
G1 X99.674 Y102.647 F7800.000
G1 X99.595 Y101.292 F7800.000
G1 X96.021 Y101.709 F7800.000
G1 X86.268 Y102.637 F7800.000
G1 X85.417 Y98.331 E1.31513 F600.000
G1 X85.417 Y92.352 E3.10672
G1 X85.578 Y99.149 F7800.000
G1 X90.780 Y99.156 E4.66537 F600.000
G1 X92.249 Y99.350 E5.10941
G1 X92.708 Y99.466 E5.25112
G1 X93.146 Y99.645 E5.39308
G1 X93.301 Y99.734 E5.44674
G1 X94.095 Y100.349 E5.74739
G1 X94.348 Y100.612 E5.85684
G1 X94.681 Y101.080 E6.02917
G1 X94.966 Y101.981 E6.31226
G1 X95.134 Y103.055 E6.63801
G1 X94.956 Y104.127 E6.96347
G1 X94.672 Y104.993 E7.23644
G1 X94.335 Y105.435 E7.40301
G1 X94.101 Y105.666 E7.50171
G1 X93.308 Y106.241 E7.79523
G1 X93.098 Y106.354 E7.86655
G1 X92.663 Y106.519 E8.00593
G1 X92.210 Y106.625 E8.14538
G1 X90.764 Y106.807 E8.58222
G1 X90.550 Y106.818 E8.64629
G1 X86.452 Y106.818 E9.87424
G1 X85.490 Y106.539 E10.17450
G1 X85.417 Y105.989 E10.34086
G1 X85.417 Y99.968 E12.14503
G1 X85.578 Y99.149 E12.39503
G92 E0
