; generated by Slic3r 1.2.9 on 2016-03-11 at 01:28:43

; external perimeters extrusion width = 1.54mm
; perimeters extrusion width = 2.62mm
; infill extrusion width = 6.27mm
; solid infill extrusion width = 2.62mm
; top infill extrusion width = 2.62mm

M107
M104 S30 ; set temperature
G28 ; home all axes
G1 Z5 F5000 ; lift nozzle
M302
M92 E10000
M500
M501
G1 E100
M109 S30 ; wait for temperature to be reached
G21 ; set units to millimeters
G90 ; use absolute coordinates
M82 ; use absolute distances for extrusion
G92 E0
G1 Z0.300 F7800.000
G1 X108.703 Y99.287 F7800.000
G1 X108.703 Y92.577 E0.30362 F378.000
G1 X110.325 Y92.577 E0.37701
G1 X110.325 Y107.423 E1.04878
G1 X108.703 Y107.423 E1.12218 F378.000
G1 X108.703 Y99.518 E1.47988
G1 X110.099 Y93.007 F7800.000
G1 X109.896 Y92.803 E1.49329 F540.000
G1 X109.334 Y92.803 E1.51944
G1 X110.099 Y93.568 E1.56983
G1 X110.099 Y94.129 E1.59597
G1 X108.929 Y92.959 E1.67305
G1 X108.929 Y93.521 E1.69920
G1 X110.099 Y94.691 E1.77628
G1 X110.099 Y95.252 E1.80242
G1 X108.929 Y94.082 E1.87950
G1 X108.929 Y94.643 E1.90565
G1 X110.099 Y95.813 E1.98272
G1 X110.099 Y96.375 E2.00887
G1 X108.929 Y95.205 E2.08595
G1 X108.929 Y95.766 E2.11210
G1 X110.099 Y96.936 E2.18917
G1 X110.099 Y97.498 E2.21532
G1 X108.929 Y96.327 E2.29240
G1 X108.929 Y96.889 E2.31854
G1 X110.099 Y98.059 E2.39562
G1 X110.099 Y98.620 E2.42177
G1 X108.929 Y97.450 E2.49884
G1 X108.929 Y98.012 E2.52499
G1 X110.099 Y99.182 E2.60207
G1 X110.099 Y99.743 E2.62822
G1 X108.929 Y98.573 E2.70529
G1 X108.929 Y99.134 E2.73144
G1 X110.099 Y100.304 E2.80852
G1 X110.099 Y100.866 E2.83466
G1 X108.929 Y99.696 E2.91174
G1 X108.929 Y100.257 E2.93789
G1 X110.099 Y101.427 E3.01496
G1 X110.099 Y101.988 E3.04111
G1 X108.929 Y100.818 E3.11819
G1 X108.929 Y101.380 E3.14434
G1 X110.099 Y102.550 E3.22141
G1 X110.099 Y103.111 E3.24756
G1 X108.929 Y101.941 E3.32464
G1 X108.929 Y102.502 E3.35079
G1 X110.099 Y103.673 E3.42786
G1 X110.099 Y104.234 E3.45401
G1 X108.929 Y103.064 E3.53109
G1 X108.929 Y103.625 E3.55723
G1 X110.099 Y104.795 E3.63431
G1 X110.099 Y105.357 E3.66046
G1 X108.929 Y104.187 E3.73753
G1 X108.929 Y104.748 E3.76368
G1 X110.099 Y105.918 E3.84076
G1 X110.099 Y106.479 E3.86691
G1 X108.929 Y105.309 E3.94398
G1 X108.929 Y105.871 E3.97013
G1 X110.099 Y107.041 E4.04721
G1 X109.694 Y107.197 E4.06743
G1 X108.929 Y106.432 E4.11782
G1 X108.929 Y106.993 E4.14397
G1 X109.133 Y107.197 E4.15738
G92 E0
G1 X108.478 Y107.648 F7800.000
G1 X106.478 Y107.648 F7800.000
G1 X104.592 Y105.857 F7800.000
G1 X101.090 Y104.404 F7800.000
G1 X100.921 Y103.910 F7800.000
G1 X100.871 Y104.347 E0.01990 F378.000
G1 X100.427 Y105.415 E0.07221
G1 X99.691 Y106.272 E0.12336
G1 X98.679 Y106.907 E0.17740
G1 X97.406 Y107.292 E0.23757
G1 X95.858 Y107.423 E0.30788
G1 X89.675 Y107.423 E0.58768
G1 X89.675 Y92.577 E1.25945
G1 X91.296 Y92.577 E1.33280
G1 X91.296 Y98.556 E1.60334
G1 X95.989 Y98.556 E1.81571 F378.000
G1 X97.456 Y98.695 E1.88238
G1 X98.681 Y99.103 E1.94080
G1 X99.682 Y99.777 E1.99543
G1 X100.424 Y100.677 E2.04820
G1 X100.870 Y101.766 E2.10143
G1 X101.020 Y103.055 E2.16017
G1 X100.948 Y103.681 E2.18867
G1 X99.334 Y103.293 F7800.000
G1 X98.972 Y104.800 E2.25878 F378.000
G1 X97.686 Y105.872 E2.33455
G1 X95.637 Y106.214 E2.42853
G1 X91.296 Y106.214 E2.62498
G1 X91.296 Y99.743 E2.91779 F378.000
G1 X95.724 Y99.743 E3.11819
G1 X97.729 Y100.098 E3.21029
G1 X98.984 Y101.210 E3.28616
G1 X99.396 Y103.035 E3.37080
G1 X99.388 Y103.069 E3.37240
G1 X100.775 Y102.991 F7800.000
G1 X99.307 Y101.523 E3.46735 F540.000
G1 X99.467 Y102.234 E3.50071
G1 X100.748 Y103.516 E3.58353
G1 X100.691 Y104.009 E3.60626
G1 X99.628 Y102.946 E3.67500
G1 X99.525 Y103.394 E3.69600
G1 X100.602 Y104.471 E3.76563
G1 X100.440 Y104.860 E3.78491
G1 X99.418 Y103.838 E3.85099
G1 X99.311 Y104.283 E3.87188
G1 X100.278 Y105.250 E3.93440
G1 X100.044 Y105.566 E3.95241
G1 X99.205 Y104.727 E4.00666
G1 X98.975 Y105.048 E4.02472
G1 X99.789 Y105.863 E4.07737
G1 X99.518 Y106.142 E4.09518
G1 X98.675 Y105.299 E4.14969
G1 X98.374 Y105.549 E4.16758
G1 X99.185 Y106.360 E4.21998
G1 X98.846 Y106.572 E4.23825
G1 X98.074 Y105.800 E4.28818
G1 X97.773 Y106.050 E4.30606
G1 X98.476 Y106.753 E4.35150
G1 X98.053 Y106.881 E4.37171
G1 X97.322 Y106.150 E4.41900
G1 X96.849 Y106.228 E4.44089
G1 X97.630 Y107.009 E4.49138
G1 X97.163 Y107.093 E4.51309
G1 X96.377 Y106.307 E4.56387
G1 X95.905 Y106.386 E4.58576
G1 X96.655 Y107.136 E4.63422
G1 X96.147 Y107.178 E4.65753
G1 X95.408 Y106.440 E4.70528
G1 X94.857 Y106.440 E4.73047
G1 X95.614 Y107.197 E4.77942
G1 X95.063 Y107.197 E4.80461
G1 X94.306 Y106.440 E4.85356
G1 X93.755 Y106.440 E4.87875
G1 X94.512 Y107.197 E4.92769
G1 X93.961 Y107.197 E4.95288
G1 X93.204 Y106.440 E5.00183
G1 X92.653 Y106.440 E5.02702
G1 X93.410 Y107.197 E5.07597
G1 X92.859 Y107.197 E5.10116
G1 X92.102 Y106.440 E5.15011
G1 X90.104 Y107.197 F7800.000
G1 X89.901 Y106.993 E5.16327 F540.000
G1 X89.901 Y106.442 E5.18846
G1 X90.655 Y107.197 E5.23725
G1 X91.206 Y107.197 E5.26243
G1 X89.901 Y105.891 E5.34684
G1 X89.901 Y105.341 E5.37203
G1 X91.070 Y106.510 E5.44762
G1 X91.551 Y106.440 E5.46985
G1 X92.308 Y107.197 E5.51880
G1 X91.757 Y107.197 E5.54399
G1 X91.000 Y106.440 E5.59294
G1 X91.070 Y105.959 E5.61517
G1 X89.901 Y104.790 E5.69076
G1 X89.901 Y104.239 E5.71595
G1 X91.070 Y105.408 E5.79153
G1 X91.070 Y104.857 E5.81672
G1 X89.901 Y103.688 E5.89231
G1 X89.901 Y103.137 E5.91750
G1 X91.070 Y104.306 E5.99309
G1 X91.070 Y103.755 E6.01828
G1 X89.901 Y102.586 E6.09386
G1 X89.901 Y102.035 E6.11905
G1 X91.070 Y103.204 E6.19464
G1 X91.070 Y102.653 E6.21983
G1 X89.901 Y101.484 E6.29541
G1 X89.901 Y100.933 E6.32060
G1 X91.070 Y102.102 E6.39619
G1 X91.070 Y101.551 E6.42138
G1 X89.901 Y100.382 E6.49696
G1 X89.901 Y99.831 E6.52215
G1 X91.070 Y101.000 E6.59774
G1 X91.070 Y100.449 E6.62293
G1 X89.901 Y99.280 E6.69852
G1 X89.901 Y98.729 E6.72371
G1 X91.070 Y99.898 E6.79929
G1 X91.240 Y99.517 F7800.000
G1 X89.901 Y98.178 E6.88588 F540.000
G1 X89.901 Y97.627 E6.91107
G1 X91.070 Y98.796 E6.98666
G1 X91.607 Y98.782 E7.01122
G1 X92.342 Y99.517 E7.05875
G1 X92.893 Y99.517 E7.08394
G1 X92.158 Y98.782 E7.13146
G1 X92.709 Y98.782 E7.15665
G1 X93.444 Y99.517 E7.20418
G1 X93.995 Y99.517 E7.22937
G1 X93.260 Y98.782 E7.27690
G1 X93.811 Y98.782 E7.30208
G1 X94.546 Y99.517 E7.34961
G1 X95.097 Y99.517 E7.37480
G1 X94.362 Y98.782 E7.42233
G1 X94.913 Y98.782 E7.44752
G1 X95.648 Y99.517 E7.49504
G1 X96.278 Y99.596 E7.52405
G1 X95.464 Y98.782 E7.57667
G1 X96.027 Y98.795 E7.60244
G1 X96.947 Y99.714 E7.66190
G1 X97.617 Y99.833 E7.69299
G1 X96.636 Y98.852 E7.75640
G1 X97.244 Y98.910 E7.78434
G1 X100.702 Y102.368 E8.00792
G1 X100.540 Y101.654 E8.04138
G1 X98.047 Y99.161 E8.20254
G1 X99.304 Y99.867 F7800.000
G1 X99.689 Y100.252 E8.22745 F540.000
G1 X91.791 Y99.517 F7800.000
G1 X91.056 Y98.782 E8.27498 F540.000
G1 X91.070 Y98.245 E8.29954
G1 X89.901 Y97.076 E8.37513
G1 X89.901 Y96.525 E8.40032
G1 X91.070 Y97.694 E8.47590
G1 X91.070 Y97.143 E8.50109
G1 X89.901 Y95.974 E8.57668
G1 X89.901 Y95.423 E8.60187
G1 X91.070 Y96.592 E8.67746
G1 X91.070 Y96.041 E8.70265
G1 X89.901 Y94.872 E8.77823
G1 X89.901 Y94.321 E8.80342
G1 X91.070 Y95.490 E8.87901
G1 X91.070 Y94.939 E8.90420
G1 X89.901 Y93.770 E8.97978
G1 X89.901 Y93.219 E9.00497
G1 X91.070 Y94.388 E9.08056
G1 X91.070 Y93.837 E9.10575
G1 X90.036 Y92.803 E9.17260
G1 X90.587 Y92.803 E9.19779
G1 X91.070 Y93.286 E9.22902
M106 S255
G92 E0
G1 Z0.600 F7800.000
G1 X109.514 Y107.648 F7800.000
G1 X109.514 Y92.352 E4.58339 F600.000
G92 E0
G1 X106.478 Y92.352 F7800.000
G1 X102.662 Y95.412 F7800.000
G1 X101.392 Y95.024 F7800.000
G1 X98.781 Y98.899 F7800.000
G1 X91.336 Y102.637 F7800.000
G1 X90.485 Y98.331 E1.31513 F600.000
G1 X90.485 Y92.352 E3.10672
G1 X90.647 Y99.149 F7800.000
G1 X95.849 Y99.156 E4.66537 F600.000
G1 X97.318 Y99.350 E5.10941
G1 X97.776 Y99.466 E5.25112
G1 X98.215 Y99.645 E5.39308
G1 X98.370 Y99.734 E5.44674
G1 X99.163 Y100.349 E5.74739
G1 X99.417 Y100.612 E5.85684
G1 X99.750 Y101.080 E6.02917
G1 X100.034 Y101.981 E6.31226
G1 X100.202 Y103.055 E6.63801
G1 X100.024 Y104.127 E6.96347
G1 X99.741 Y104.993 E7.23644
G1 X99.404 Y105.435 E7.40301
G1 X99.169 Y105.666 E7.50171
G1 X98.376 Y106.241 E7.79523
G1 X98.167 Y106.354 E7.86655
G1 X97.732 Y106.519 E8.00593
G1 X97.279 Y106.625 E8.14538
G1 X95.832 Y106.807 E8.58222
G1 X95.619 Y106.818 E8.64629
G1 X91.521 Y106.818 E9.87424
G1 X90.558 Y106.539 E10.17450
G1 X90.485 Y105.989 E10.34086
G1 X90.485 Y99.968 E12.14503
G1 X90.647 Y99.149 E12.39503
G92 E0
G1 Z0.900 F7800.000
G1 X109.514 Y107.648 F7800.000
G1 X109.514 Y92.352 E4.58339 F600.000
G92 E0
G1 X106.478 Y92.352 F7800.000
G1 X102.662 Y95.412 F7800.000
G1 X101.392 Y95.024 F7800.000
G1 X98.781 Y98.899 F7800.000
G1 X91.336 Y102.637 F7800.000
G1 X90.485 Y98.331 E1.31513 F600.000
G1 X90.485 Y92.352 E3.10672
G1 X90.647 Y99.149 F7800.000
G1 X95.849 Y99.156 E4.66537 F600.000
G1 X97.318 Y99.350 E5.10941
G1 X97.776 Y99.466 E5.25112
G1 X98.215 Y99.645 E5.39308
G1 X98.370 Y99.734 E5.44674
G1 X99.163 Y100.349 E5.74739
G1 X99.417 Y100.612 E5.85684
G1 X99.750 Y101.080 E6.02917
G1 X100.034 Y101.981 E6.31226
G1 X100.202 Y103.055 E6.63801
G1 X100.024 Y104.127 E6.96347
G1 X99.741 Y104.993 E7.23644
G1 X99.404 Y105.435 E7.40301
G1 X99.169 Y105.666 E7.50172
G1 X98.376 Y106.241 E7.79523
G1 X98.167 Y106.354 E7.86655
G1 X97.732 Y106.519 E8.00593
G1 X97.279 Y106.625 E8.14538
G1 X95.832 Y106.807 E8.58222
G1 X95.619 Y106.818 E8.64629
G1 X91.521 Y106.818 E9.87424
G1 X90.558 Y106.539 E10.17450
G1 X90.485 Y105.989 E10.34086
G1 X90.485 Y99.968 E12.14503
G1 X90.647 Y99.149 E12.39503
G92 E0
G1 Z1.200 F7800.000
G1 X109.514 Y107.648 F7800.000
G1 X109.514 Y92.352 E4.58339 F600.000
G92 E0
G1 X106.478 Y92.352 F7800.000
G1 X102.662 Y95.412 F7800.000
G1 X101.392 Y95.024 F7800.000
G1 X98.781 Y98.899 F7800.000
G1 X91.336 Y102.637 F7800.000
G1 X90.485 Y98.331 E1.31513 F600.000
G1 X90.485 Y92.352 E3.10672
G1 X90.647 Y99.149 F7800.000
G1 X95.849 Y99.156 E4.66537 F600.000
G1 X97.318 Y99.350 E5.10941
G1 X97.776 Y99.466 E5.25112
G1 X98.215 Y99.645 E5.39308
G1 X98.370 Y99.734 E5.44674
G1 X99.163 Y100.349 E5.74739
G1 X99.417 Y100.612 E5.85684
G1 X99.750 Y101.080 E6.02917
G1 X100.034 Y101.981 E6.31226
G1 X100.202 Y103.055 E6.63801
G1 X100.024 Y104.127 E6.96347
G1 X99.741 Y104.993 E7.23644
G1 X99.404 Y105.435 E7.40301
G1 X99.169 Y105.666 E7.50171
G1 X98.376 Y106.241 E7.79523
G1 X98.167 Y106.354 E7.86655
G1 X97.732 Y106.519 E8.00593
G1 X97.279 Y106.625 E8.14538
G1 X95.832 Y106.807 E8.58222
G1 X95.619 Y106.818 E8.64629
G1 X91.521 Y106.818 E9.87424
G1 X90.558 Y106.539 E10.17450
G1 X90.485 Y105.989 E10.34086
G1 X90.485 Y99.968 E12.14503
G1 X90.647 Y99.149 E12.39503
G92 E0
G1 Z1.500 F7800.000
G1 X109.514 Y107.648 F7800.000
G1 X109.514 Y92.352 E4.58339 F600.000
G92 E0
G1 X106.478 Y92.352 F7800.000
G1 X102.662 Y95.412 F7800.000
G1 X101.392 Y95.024 F7800.000
G1 X98.781 Y98.899 F7800.000
G1 X91.336 Y102.637 F7800.000
G1 X90.485 Y98.331 E1.31513 F600.000
G1 X90.485 Y92.352 E3.10672
G1 X90.647 Y99.149 F7800.000
G1 X95.849 Y99.156 E4.66537 F600.000
G1 X97.318 Y99.350 E5.10941
G1 X97.776 Y99.466 E5.25112
G1 X98.215 Y99.645 E5.39308
G1 X98.370 Y99.734 E5.44674
G1 X99.163 Y100.349 E5.74739
G1 X99.417 Y100.612 E5.85684
G1 X99.750 Y101.080 E6.02917
G1 X100.034 Y101.981 E6.31226
G1 X100.202 Y103.055 E6.63801
G1 X100.024 Y104.127 E6.96347
G1 X99.741 Y104.993 E7.23644
G1 X99.404 Y105.435 E7.40301
G1 X99.169 Y105.666 E7.50171
G1 X98.376 Y106.241 E7.79523
G1 X98.167 Y106.354 E7.86655
G1 X97.732 Y106.519 E8.00593
G1 X97.279 Y106.625 E8.14538
G1 X95.832 Y106.807 E8.58222
G1 X95.619 Y106.818 E8.64629
G1 X91.521 Y106.818 E9.87424
G1 X90.558 Y106.539 E10.17450
G1 X90.485 Y105.989 E10.34086
G1 X90.485 Y99.968 E12.14503
G1 X90.647 Y99.149 E12.39503
G92 E0
G1 Z1.800 F7800.000
G1 X109.514 Y107.648 F7800.000
G1 X109.514 Y92.352 E4.58339 F600.000
G92 E0
G1 X106.478 Y92.352 F7800.000
G1 X102.662 Y95.412 F7800.000
G1 X101.392 Y95.024 F7800.000
G1 X98.781 Y98.899 F7800.000
G1 X91.336 Y102.637 F7800.000
G1 X90.485 Y98.331 E1.31513 F600.000
G1 X90.485 Y92.352 E3.10672
G1 X90.647 Y99.149 F7800.000
G1 X95.849 Y99.156 E4.66537 F600.000
G1 X97.318 Y99.350 E5.10941
G1 X97.776 Y99.466 E5.25112
G1 X98.215 Y99.645 E5.39308
G1 X98.370 Y99.734 E5.44674
G1 X99.163 Y100.349 E5.74739
G1 X99.417 Y100.612 E5.85684
G1 X99.750 Y101.080 E6.02917
G1 X100.034 Y101.981 E6.31226
G1 X100.202 Y103.055 E6.63800
G1 X100.024 Y104.127 E6.96347
G1 X99.741 Y104.993 E7.23644
G1 X99.404 Y105.435 E7.40301
G1 X99.169 Y105.666 E7.50171
G1 X98.376 Y106.241 E7.79523
G1 X98.167 Y106.354 E7.86655
G1 X97.732 Y106.519 E8.00593
G1 X97.279 Y106.625 E8.14538
G1 X95.832 Y106.807 E8.58222
G1 X95.619 Y106.818 E8.64629
G1 X91.521 Y106.818 E9.87424
G1 X90.558 Y106.539 E10.17450
G1 X90.485 Y105.989 E10.34086
G1 X90.485 Y99.968 E12.14503
G1 X90.647 Y99.149 E12.39503
G92 E0
G1 Z2.100 F7800.000
G1 X109.514 Y107.648 F7800.000
G1 X109.514 Y92.352 E4.58339 F600.000
G92 E0
G1 X106.478 Y92.352 F7800.000
G1 X102.662 Y95.412 F7800.000
G1 X101.392 Y95.024 F7800.000
G1 X98.781 Y98.899 F7800.000
G1 X91.336 Y102.637 F7800.000
G1 X90.485 Y98.331 E1.31513 F600.000
G1 X90.485 Y92.352 E3.10672
G92 E0
G1 X90.647 Y99.149 F7800.000
G1 X95.849 Y99.156 E1.55865 F600.000
G1 X97.318 Y99.350 E2.00269
G1 X97.776 Y99.466 E2.14441
G1 X98.215 Y99.645 E2.28636
G1 X98.370 Y99.734 E2.34002
G1 X99.163 Y100.349 E2.64067
G1 X99.417 Y100.612 E2.75012
G1 X99.750 Y101.080 E2.92246
G1 X100.034 Y101.981 E3.20554
G1 X100.202 Y103.055 E3.53129
G1 X100.024 Y104.127 E3.85676
G1 X99.741 Y104.993 E4.12973
G1 X99.404 Y105.435 E4.29629
G1 X99.169 Y105.666 E4.39500
G1 X98.376 Y106.241 E4.68851
G1 X98.167 Y106.354 E4.75983
G1 X97.732 Y106.519 E4.89921
G1 X97.279 Y106.625 E5.03866
G1 X95.832 Y106.807 E5.47550
G1 X95.619 Y106.818 E5.53957
G1 X91.521 Y106.818 E6.76752
G1 X90.558 Y106.539 E7.06778
G1 X90.485 Y105.989 E7.23415
G1 X90.485 Y99.968 E9.03832
G1 X90.647 Y99.149 E9.28832
G92 E0
M107
M104 S0 ; turn off temperature
G28 X0  ; home X axis
M84     ; disable motors

; filament used = 115.3mm (0.9cm3)

; avoid_crossing_perimeters = 1
; bed_shape = 0x0,250x0,250x250,0x250
; bed_temperature = 0
; before_layer_gcode = 
; bridge_acceleration = 0
; bridge_fan_speed = 100
; brim_width = 0
; complete_objects = 0
; cooling = 1
; default_acceleration = 0
; disable_fan_first_layers = 1
; duplicate_distance = 6
; end_gcode = M104 S0 ; turn off temperature\nG28 X0  ; home X axis\nM84     ; disable motors\n
; extruder_clearance_height = 20
; extruder_clearance_radius = 20
; extruder_offset = 0x0
; extrusion_axis = E
; extrusion_multiplier = 3
; fan_always_on = 0
; fan_below_layer_time = 60
; filament_colour = #FFFFFF
; filament_diameter = 3.125
; first_layer_acceleration = 0
; first_layer_bed_temperature = 0
; first_layer_extrusion_width = 150%
; first_layer_speed = 90%
; first_layer_temperature = 30
; gcode_arcs = 0
; gcode_comments = 0
; gcode_flavor = reprap
; infill_acceleration = 0
; infill_first = 0
; layer_gcode = 
; max_fan_speed = 100
; max_print_speed = 80
; max_volumetric_speed = 0
; min_fan_speed = 35
; min_print_speed = 10
; min_skirt_length = 0
; notes = 
; nozzle_diameter = 1.54
; only_retract_when_crossing_perimeters = 1
; ooze_prevention = 0
; output_filename_format = [input_filename_base].gcode
; perimeter_acceleration = 0
; post_process = 
; pressure_advance = 0
; resolution = 0
; retract_before_travel = 2
; retract_layer_change = 1
; retract_length = 0
; retract_length_toolchange = 10
; retract_lift = 0
; retract_restart_extra = 0
; retract_restart_extra_toolchange = 0
; retract_speed = 0
; skirt_distance = 6
; skirt_height = 1
; skirts = 0
; slowdown_below_layer_time = 30
; spiral_vase = 0
; standby_temperature_delta = -5
; start_gcode = G28 ; home all axes\nG1 Z5 F5000 ; lift nozzle\nM302\nM92 E10000\nM500\nM501\nG1 E100
; temperature = 30
; threads = 2
; toolchange_gcode = 
; travel_speed = 130
; use_firmware_retraction = 0
; use_relative_e_distances = 0
; use_volumetric_e = 0
; vibration_limit = 0
; wipe = 0
; z_offset = 0
; dont_support_bridges = 1
; extrusion_width = 0
; first_layer_height = 100%
