; generated by Slic3r 1.2.9 on 2016-03-11 at 01:28:47

; external perimeters extrusion width = 1.54mm
; perimeters extrusion width = 2.62mm
; infill extrusion width = 6.27mm
; solid infill extrusion width = 2.62mm
; top infill extrusion width = 2.62mm

M107
M104 S30 ; set temperature
G28 ; home all axes
G1 Z5 F5000 ; lift nozzle
M302
M92 E10000
M500
M501
G1 E100
M109 S30 ; wait for temperature to be reached
G21 ; set units to millimeters
G90 ; use absolute coordinates
M82 ; use absolute distances for extrusion
G92 E0
G1 Z0.300 F7800.000
G1 X107.552 Y104.137 F7800.000
G1 X105.477 Y107.423 E0.17585 F378.000
G1 X103.419 Y107.423 E0.26897
G1 X103.419 Y92.577 E0.94074
G1 X104.812 Y92.577 E1.00377
G1 X104.812 Y102.512 E1.45331
G1 X104.758 Y104.320 E1.53516 F378.000
G1 X104.703 Y105.392 E1.58372
G1 X105.108 Y105.520 E1.60294
G1 X113.249 Y92.577 E2.29481
G1 X115.394 Y92.577 E2.39186
G1 X115.394 Y107.423 E3.06363
G1 X113.979 Y107.423 E3.12765
G1 X113.979 Y97.618 E3.57132
G1 X113.993 Y96.856 E3.60580
G1 X114.108 Y94.524 E3.71146
G1 X113.704 Y94.395 E3.73065
G1 X107.675 Y103.942 E4.24159
G1 X105.225 Y106.370 F7800.000
G1 X104.951 Y106.470 F7800.000
G1 X104.449 Y106.392 F7800.000
G1 X104.194 Y106.043 F7800.000
G1 X104.497 Y105.073 F7800.000
G1 X103.645 Y104.221 E4.29706 F540.000
G1 X103.645 Y103.666 E4.32258
G1 X104.524 Y104.546 E4.37981
G1 X104.544 Y104.010 E4.40445
G1 X103.645 Y103.112 E4.46294
G1 X103.645 Y102.557 E4.48846
G1 X104.560 Y103.472 E4.54799
G1 X104.576 Y102.933 E4.57278
G1 X103.645 Y102.002 E4.63335
G1 X103.645 Y101.448 E4.65887
G1 X104.586 Y102.389 E4.72011
G1 X104.586 Y101.834 E4.74563
G1 X103.645 Y100.893 E4.80687
G1 X103.645 Y100.339 E4.83238
G1 X104.586 Y101.280 E4.89362
G1 X104.586 Y100.725 E4.91914
G1 X103.645 Y99.784 E4.98038
G1 X103.645 Y99.230 E5.00590
G1 X104.586 Y100.171 E5.06714
G1 X104.586 Y99.616 E5.09266
G1 X103.645 Y98.675 E5.15390
G1 X103.645 Y98.120 E5.17942
G1 X104.586 Y99.062 E5.24066
G1 X104.586 Y98.507 E5.26617
G1 X103.645 Y97.566 E5.32742
G1 X103.645 Y97.011 E5.35293
G1 X104.586 Y97.952 E5.41417
G1 X104.586 Y97.398 E5.43969
G1 X103.645 Y96.457 E5.50093
G1 X103.645 Y95.902 E5.52645
G1 X104.586 Y96.843 E5.58769
G1 X104.586 Y96.289 E5.61321
G1 X103.645 Y95.348 E5.67445
G1 X103.645 Y94.793 E5.69996
G1 X104.586 Y95.734 E5.76121
G1 X104.586 Y95.180 E5.78672
G1 X103.645 Y94.238 E5.84796
G1 X103.645 Y93.684 E5.87348
G1 X104.586 Y94.625 E5.93472
G1 X104.586 Y94.070 E5.96024
G1 X103.645 Y93.129 E6.02148
G1 X103.873 Y92.803 E6.03980
G1 X104.586 Y93.516 E6.08620
G92 E0
G1 X113.562 Y93.535 F7800.000
G1 X113.742 Y93.470 F7800.000
G1 X114.399 Y93.572 F7800.000
G1 X114.619 Y93.874 F7800.000
G1 X114.311 Y94.923 F7800.000
G1 X115.168 Y95.779 E0.05576 F540.000
G1 X115.168 Y96.334 E0.08127
G1 X114.285 Y95.451 E0.13873
G1 X114.259 Y95.979 E0.16308
G1 X115.168 Y96.889 E0.22224
G1 X115.168 Y97.443 E0.24775
G1 X114.233 Y96.508 E0.30861
G1 X114.214 Y97.044 E0.33329
G1 X115.168 Y97.998 E0.39536
G1 X115.168 Y98.552 E0.42088
G1 X114.205 Y97.589 E0.48355
G1 X114.205 Y98.144 E0.50907
G1 X115.168 Y99.107 E0.57174
G1 X115.168 Y99.661 E0.59726
G1 X114.205 Y98.698 E0.65993
G1 X114.205 Y99.253 E0.68544
G1 X115.168 Y100.216 E0.74812
G1 X115.168 Y100.770 E0.77363
G1 X114.205 Y99.807 E0.83631
G1 X114.205 Y100.362 E0.86182
G1 X115.168 Y101.325 E0.92450
G1 X115.168 Y101.880 E0.95001
G1 X114.205 Y100.917 E1.01269
G1 X114.205 Y101.471 E1.03820
G1 X115.168 Y102.434 E1.10087
G1 X115.168 Y102.989 E1.12639
G1 X114.205 Y102.026 E1.18906
G1 X114.205 Y102.580 E1.21458
G1 X115.168 Y103.543 E1.27725
G1 X115.168 Y104.098 E1.30277
G1 X114.205 Y103.135 E1.36544
G1 X114.205 Y103.689 E1.39096
G1 X115.168 Y104.652 E1.45363
G1 X115.168 Y105.207 E1.47915
G1 X114.205 Y104.244 E1.54182
G1 X114.205 Y104.798 E1.56734
G1 X115.168 Y105.762 E1.63001
G1 X115.168 Y106.316 E1.65553
G1 X114.205 Y105.353 E1.71820
G1 X114.205 Y105.908 E1.74372
G1 X115.168 Y106.871 E1.80639
G1 X114.940 Y107.197 E1.82472
G1 X114.205 Y106.462 E1.87254
G1 X114.205 Y107.017 E1.89805
G1 X114.385 Y107.197 E1.90979
G92 E0
G1 X105.225 Y106.370 F7800.000
G1 X104.951 Y106.470 F7800.000
G1 X104.449 Y106.392 F7800.000
G1 X104.194 Y106.648 F7800.000
G1 X103.645 Y106.993 F7800.000
G1 X103.848 Y107.197 E0.01325 F540.000
G1 X104.403 Y107.197 E0.03877
G1 X103.645 Y106.439 E0.08810
G1 X103.645 Y105.884 E0.11362
G1 X104.957 Y107.197 E0.19904
G1 X105.437 Y107.122 E0.22136
G1 X103.645 Y105.330 E0.33796
G1 X103.645 Y104.775 E0.36348
G1 X105.651 Y106.782 E0.49405
G1 X105.866 Y106.442 E0.51255
G1 X105.186 Y105.762 E0.55679
G1 X105.400 Y105.421 E0.57530
G1 X106.081 Y106.102 E0.61957
G1 X106.295 Y105.762 E0.63807
G1 X105.614 Y105.081 E0.68239
G1 X105.828 Y104.741 E0.70089
G1 X106.510 Y105.422 E0.74524
G1 X106.725 Y105.082 E0.76374
G1 X106.043 Y104.400 E0.80812
G1 X106.257 Y104.060 E0.82662
G1 X106.939 Y104.742 E0.87104
G1 X107.154 Y104.402 E0.88954
G1 X106.471 Y103.719 E0.93399
G1 X106.685 Y103.379 E0.95249
G1 X107.369 Y104.062 E0.99697
G1 X107.583 Y103.723 E1.01547
G1 X106.899 Y103.038 E1.05999
G1 X107.113 Y102.698 E1.07850
G1 X107.798 Y103.383 E1.12305
G1 X108.012 Y103.043 E1.14154
G1 X107.327 Y102.358 E1.18613
G1 X107.541 Y102.017 E1.20464
G1 X108.227 Y102.703 E1.24925
G1 X108.442 Y102.363 E1.26775
G1 X107.756 Y101.677 E1.31241
G1 X107.970 Y101.336 E1.33091
G1 X108.656 Y102.023 E1.37560
G1 X108.871 Y101.683 E1.39410
G1 X108.184 Y100.996 E1.43882
G1 X108.398 Y100.655 E1.45733
G1 X109.086 Y101.343 E1.50208
G1 X109.300 Y101.003 E1.52058
G1 X108.612 Y100.315 E1.56537
G1 X108.826 Y99.975 E1.58387
G1 X109.515 Y100.663 E1.62870
G1 X109.730 Y100.323 E1.64720
G1 X109.040 Y99.634 E1.69205
G1 X109.255 Y99.294 E1.71056
G1 X109.944 Y99.984 E1.75545
G1 X110.159 Y99.644 E1.77395
G1 X109.469 Y98.953 E1.81888
G1 X109.683 Y98.613 E1.83738
G1 X110.374 Y99.304 E1.88234
G1 X110.588 Y98.964 E1.90084
G1 X109.897 Y98.272 E1.94583
G1 X110.111 Y97.932 E1.96434
G1 X110.803 Y98.624 E2.00937
G1 X111.018 Y98.284 E2.02787
G1 X110.325 Y97.592 E2.07293
G1 X110.539 Y97.251 E2.09143
G1 X111.232 Y97.944 E2.13653
G1 X111.447 Y97.604 E2.15503
G1 X110.753 Y96.911 E2.20016
G1 X110.968 Y96.570 E2.21866
G1 X111.662 Y97.264 E2.26383
G1 X111.876 Y96.924 E2.28233
G1 X111.182 Y96.230 E2.32753
G1 X111.396 Y95.889 E2.34603
G1 X112.091 Y96.584 E2.39126
G1 X112.306 Y96.245 E2.40976
G1 X111.610 Y95.549 E2.45503
G1 X111.824 Y95.209 E2.47353
G1 X112.520 Y95.905 E2.51883
G1 X112.735 Y95.565 E2.53733
G1 X112.038 Y94.868 E2.58267
G1 X112.252 Y94.528 E2.60117
G1 X112.950 Y95.225 E2.64654
G1 X113.164 Y94.885 E2.66504
G1 X112.467 Y94.187 E2.71044
G1 X112.681 Y93.847 E2.72895
G1 X113.379 Y94.545 E2.77439
G1 X113.594 Y94.205 E2.79288
G1 X112.895 Y93.506 E2.83836
G1 X113.109 Y93.166 E2.85686
G1 X115.168 Y95.225 E2.99084
G1 X115.168 Y94.670 E3.01636
G1 X113.323 Y92.826 E3.13640
G1 X113.855 Y92.803 E3.16091
G1 X115.168 Y94.116 E3.24633
G1 X115.168 Y93.561 E3.27185
G1 X114.410 Y92.803 E3.32118
G1 X114.964 Y92.803 E3.34670
G1 X115.168 Y93.007 E3.35995
G92 E0
G1 X105.010 Y105.253 F7800.000
G1 X105.807 Y102.538 F7800.000
G1 X105.037 Y91.352 F7800.000
G1 X103.194 Y91.352 F7800.000
G1 X99.468 Y100.296 F7800.000
G1 X99.674 Y103.460 F7800.000
G1 X99.596 Y104.818 F7800.000
G1 X96.022 Y104.404 F7800.000
G1 X94.532 Y106.329 F7800.000
G1 X93.611 Y106.907 E0.04922 F378.000
G1 X92.338 Y107.292 E0.10939
G1 X90.790 Y107.423 E0.17970
G1 X84.606 Y107.423 E0.45949
G1 X84.606 Y92.577 E1.13127
G1 X86.227 Y92.577 E1.20461
G1 X86.227 Y98.556 E1.47516
G1 X90.921 Y98.556 E1.68753 F378.000
G1 X92.387 Y98.695 E1.75420
G1 X93.612 Y99.103 E1.81262
G1 X94.613 Y99.777 E1.86725
G1 X95.355 Y100.677 E1.92002
G1 X95.801 Y101.766 E1.97325
G1 X95.952 Y103.055 E2.03199
G1 X95.802 Y104.347 E2.09083
G1 X95.359 Y105.415 E2.14315
G1 X94.704 Y106.178 E2.18867
G1 X93.698 Y104.972 F7800.000
G1 X92.617 Y105.872 E2.25232 F378.000
G1 X90.569 Y106.214 E2.34630
G1 X86.227 Y106.214 E2.54275
G1 X86.227 Y99.743 E2.83556 F378.000
G1 X90.656 Y99.743 E3.03596
G1 X92.660 Y100.098 E3.12806
G1 X93.915 Y101.210 E3.20393
G1 X94.327 Y103.035 E3.28857
G1 X93.904 Y104.800 E3.37074
G1 X93.875 Y104.824 E3.37240
G1 X95.123 Y103.040 F7800.000
G1 X95.123 Y103.040 F7800.000
G1 X94.238 Y101.523 F7800.000
G1 X95.707 Y102.991 E3.46735 F540.000
G1 X95.680 Y103.516 E3.49134
G1 X94.399 Y102.234 E3.57417
G1 X94.559 Y102.946 E3.60752
G1 X95.623 Y104.009 E3.67626
G1 X95.533 Y104.471 E3.69775
G1 X94.456 Y103.394 E3.76739
G1 X94.349 Y103.838 E3.78828
G1 X95.372 Y104.860 E3.85436
G1 X95.210 Y105.250 E3.87363
G1 X94.243 Y104.283 E3.93616
G1 X94.136 Y104.727 E3.95705
G1 X94.975 Y105.566 E4.01130
G1 X94.721 Y105.863 E4.02917
G1 X93.907 Y105.048 E4.08181
G1 X93.606 Y105.299 E4.09970
G1 X94.449 Y106.142 E4.15421
G1 X94.116 Y106.360 E4.17241
G1 X93.306 Y105.549 E4.22481
G1 X93.005 Y105.800 E4.24269
G1 X93.777 Y106.572 E4.29262
G1 X93.408 Y106.753 E4.31144
G1 X92.705 Y106.050 E4.35689
G1 X92.253 Y106.150 E4.37803
G1 X92.985 Y106.881 E4.42532
G1 X92.562 Y107.009 E4.44552
G1 X91.781 Y106.228 E4.49601
G1 X91.309 Y106.307 E4.51790
G1 X92.094 Y107.093 E4.56867
G1 X91.586 Y107.136 E4.59198
G1 X90.836 Y106.386 E4.64045
G1 X90.339 Y106.440 E4.66330
G1 X91.078 Y107.178 E4.71105
G1 X90.546 Y107.197 E4.73540
G1 X89.788 Y106.440 E4.78435
G1 X89.237 Y106.440 E4.80954
G1 X89.995 Y107.197 E4.85849
G1 X89.444 Y107.197 E4.88368
G1 X88.687 Y106.440 E4.93263
G1 X88.136 Y106.440 E4.95782
G1 X88.893 Y107.197 E5.00677
G1 X88.342 Y107.197 E5.03196
G1 X87.585 Y106.440 E5.08090
G1 X87.034 Y106.440 E5.10609
G1 X87.791 Y107.197 E5.15504
G1 X87.240 Y107.197 E5.18023
G1 X86.483 Y106.440 E5.22918
G1 X86.001 Y106.510 E5.25141
G1 X84.832 Y105.341 E5.32700
G1 X84.832 Y105.891 E5.35219
G1 X86.138 Y107.197 E5.43660
G1 X86.689 Y107.197 E5.46179
G1 X85.932 Y106.440 E5.51074
G1 X86.001 Y105.959 E5.53297
G1 X84.832 Y104.790 E5.60856
G1 X84.832 Y104.239 E5.63375
G1 X86.001 Y105.408 E5.70933
G1 X86.001 Y104.857 E5.73452
G1 X84.832 Y103.688 E5.81011
G1 X84.832 Y103.137 E5.83530
G1 X86.001 Y104.306 E5.91088
G1 X86.001 Y103.755 E5.93607
G1 X84.832 Y102.586 E6.01166
G1 X84.832 Y102.035 E6.03685
G1 X86.001 Y103.204 E6.11244
G1 X86.001 Y102.653 E6.13762
G1 X84.832 Y101.484 E6.21321
G1 X84.832 Y100.933 E6.23840
G1 X86.001 Y102.102 E6.31399
G1 X86.001 Y101.551 E6.33918
G1 X84.832 Y100.382 E6.41476
G1 X84.832 Y99.831 E6.43995
G1 X86.001 Y101.000 E6.51554
G1 X86.001 Y100.449 E6.54073
G1 X84.832 Y99.280 E6.61631
G1 X84.832 Y98.729 E6.64150
G1 X86.001 Y99.898 E6.71709
G1 X86.171 Y99.517 F7800.000
G1 X84.832 Y98.178 E6.80368 F540.000
G1 X84.832 Y97.627 E6.82887
G1 X86.001 Y98.796 E6.90446
G1 X86.538 Y98.782 E6.92902
G1 X87.273 Y99.517 E6.97655
G1 X87.824 Y99.517 E7.00174
G1 X87.089 Y98.782 E7.04926
G1 X87.640 Y98.782 E7.07445
G1 X88.375 Y99.517 E7.12198
G1 X88.926 Y99.517 E7.14717
G1 X88.191 Y98.782 E7.19469
G1 X88.742 Y98.782 E7.21988
G1 X89.477 Y99.517 E7.26741
G1 X90.028 Y99.517 E7.29260
G1 X89.293 Y98.782 E7.34013
G1 X89.844 Y98.782 E7.36531
G1 X90.579 Y99.517 E7.41284
G1 X91.209 Y99.596 E7.44185
G1 X90.395 Y98.782 E7.49446
G1 X90.959 Y98.795 E7.52024
G1 X91.879 Y99.714 E7.57970
G1 X92.548 Y99.833 E7.61079
G1 X91.567 Y98.852 E7.67420
G1 X92.176 Y98.910 E7.70214
G1 X95.634 Y102.368 E7.92572
G1 X95.471 Y101.654 E7.95918
G1 X92.979 Y99.161 E8.12034
G1 X94.235 Y99.867 F7800.000
G1 X94.620 Y100.252 E8.14525 F540.000
G1 X86.722 Y99.517 F7800.000
G1 X85.987 Y98.782 E8.19278 F540.000
G1 X86.001 Y98.245 E8.21734
G1 X84.832 Y97.076 E8.29293
G1 X84.832 Y96.525 E8.31812
G1 X86.001 Y97.694 E8.39370
G1 X86.001 Y97.143 E8.41889
G1 X84.832 Y95.974 E8.49448
G1 X84.832 Y95.423 E8.51967
G1 X86.001 Y96.592 E8.59525
G1 X86.001 Y96.041 E8.62044
G1 X84.832 Y94.872 E8.69603
G1 X84.832 Y94.321 E8.72122
G1 X86.001 Y95.490 E8.79681
G1 X86.001 Y94.939 E8.82199
G1 X84.832 Y93.770 E8.89758
G1 X84.832 Y93.219 E8.92277
G1 X86.001 Y94.388 E8.99836
G1 X86.001 Y93.837 E9.02355
G1 X84.967 Y92.803 E9.09040
G1 X85.518 Y92.803 E9.11559
G1 X86.001 Y93.286 E9.14682
G1 X84.832 Y106.442 F7800.000
G1 X85.587 Y107.197 E9.19560 F540.000
G1 X85.036 Y107.197 E9.22079
G1 X84.832 Y106.993 E9.23396
M106 S255
G92 E0
G1 Z0.600 F7800.000
G1 X104.115 Y92.352 F7800.000
G1 X104.115 Y102.501 E3.04120 F600.000
G1 X104.066 Y105.185 E3.84543
G1 X104.452 Y106.390 E4.22466
G1 X104.640 Y106.422 E4.28198
G1 X104.940 Y106.449 E4.37217
G1 X105.763 Y105.726 E4.70041
G1 X113.039 Y94.181 E8.78971
G1 X113.763 Y93.507 E9.08590
G1 X114.162 Y93.535 E9.20580
G1 X114.394 Y93.577 E9.27643
G1 X114.746 Y94.729 E9.63745
G1 X114.686 Y97.625 E10.50542
G1 X114.686 Y107.648 E13.50885
G92 E0
G1 X106.703 Y108.344 F7800.000
G1 X101.194 Y107.648 F7800.000
G1 X99.465 Y105.833 F7800.000
G1 X96.022 Y104.404 F7800.000
G1 X86.268 Y102.637 F7800.000
G1 X85.417 Y98.331 E1.31513 F600.000
G1 X85.417 Y92.352 E3.10672
G1 X85.578 Y99.149 F7800.000
G1 X90.780 Y99.156 E4.66537 F600.000
G1 X92.249 Y99.350 E5.10941
G1 X92.708 Y99.466 E5.25112
G1 X93.146 Y99.645 E5.39308
G1 X93.301 Y99.734 E5.44674
G1 X94.095 Y100.349 E5.74739
G1 X94.348 Y100.612 E5.85684
G1 X94.681 Y101.080 E6.02917
G1 X94.966 Y101.981 E6.31226
G1 X95.134 Y103.055 E6.63801
G1 X94.956 Y104.127 E6.96347
G1 X94.672 Y104.993 E7.23644
G1 X94.335 Y105.435 E7.40301
G1 X94.101 Y105.666 E7.50171
G1 X93.308 Y106.241 E7.79523
G1 X93.098 Y106.354 E7.86655
G1 X92.663 Y106.519 E8.00593
G1 X92.210 Y106.625 E8.14538
G1 X90.764 Y106.807 E8.58222
G1 X90.550 Y106.818 E8.64629
G1 X86.452 Y106.818 E9.87424
G1 X85.490 Y106.539 E10.17450
G1 X85.417 Y105.989 E10.34086
G1 X85.417 Y99.968 E12.14503
G1 X85.578 Y99.149 E12.39503
G92 E0
G1 Z0.900 F7800.000
G1 X104.115 Y92.352 F7800.000
G1 X104.115 Y102.501 E3.04119 F600.000
G1 X104.066 Y105.185 E3.84543
G1 X104.452 Y106.390 E4.22466
G1 X104.640 Y106.422 E4.28198
G1 X104.940 Y106.449 E4.37217
G1 X105.763 Y105.726 E4.70041
G1 X113.039 Y94.181 E8.78971
G1 X113.763 Y93.507 E9.08590
G1 X114.162 Y93.535 E9.20580
G1 X114.394 Y93.577 E9.27643
G1 X114.746 Y94.729 E9.63746
G1 X114.686 Y97.625 E10.50542
G1 X114.686 Y107.648 E13.50885
G92 E0
G1 X106.703 Y108.344 F7800.000
G1 X101.194 Y107.648 F7800.000
G1 X99.465 Y105.833 F7800.000
G1 X96.022 Y104.404 F7800.000
G1 X86.268 Y102.637 F7800.000
G1 X85.417 Y98.331 E1.31513 F600.000
G1 X85.417 Y92.352 E3.10672
G1 X85.578 Y99.149 F7800.000
G1 X90.780 Y99.156 E4.66537 F600.000
G1 X92.249 Y99.350 E5.10941
G1 X92.708 Y99.466 E5.25112
G1 X93.146 Y99.645 E5.39308
G1 X93.301 Y99.734 E5.44674
G1 X94.095 Y100.349 E5.74739
G1 X94.348 Y100.612 E5.85684
G1 X94.681 Y101.080 E6.02917
G1 X94.966 Y101.981 E6.31226
G1 X95.134 Y103.055 E6.63801
G1 X94.956 Y104.127 E6.96347
G1 X94.672 Y104.993 E7.23644
G1 X94.335 Y105.435 E7.40301
G1 X94.101 Y105.666 E7.50172
G1 X93.308 Y106.241 E7.79523
G1 X93.098 Y106.354 E7.86655
G1 X92.663 Y106.519 E8.00593
G1 X92.210 Y106.625 E8.14538
G1 X90.764 Y106.807 E8.58222
G1 X90.550 Y106.818 E8.64629
G1 X86.452 Y106.818 E9.87424
G1 X85.490 Y106.539 E10.17450
G1 X85.417 Y105.989 E10.34086
G1 X85.417 Y99.968 E12.14503
G1 X85.578 Y99.149 E12.39503
G92 E0
G1 Z1.200 F7800.000
G1 X104.115 Y92.352 F7800.000
G1 X104.115 Y102.501 E3.04120 F600.000
G1 X104.066 Y105.185 E3.84543
G1 X104.452 Y106.390 E4.22466
G1 X104.640 Y106.422 E4.28197
G1 X104.940 Y106.449 E4.37217
G1 X105.763 Y105.726 E4.70041
G1 X113.039 Y94.181 E8.78971
G1 X113.763 Y93.507 E9.08590
G1 X114.162 Y93.535 E9.20580
G1 X114.394 Y93.577 E9.27643
G1 X114.746 Y94.729 E9.63746
G1 X114.686 Y97.625 E10.50542
G1 X114.686 Y107.648 E13.50885
G92 E0
G1 X106.703 Y108.344 F7800.000
G1 X101.194 Y107.648 F7800.000
G1 X99.465 Y105.833 F7800.000
G1 X96.022 Y104.404 F7800.000
G1 X86.268 Y102.637 F7800.000
G1 X85.417 Y98.331 E1.31513 F600.000
G1 X85.417 Y92.352 E3.10672
G1 X85.578 Y99.149 F7800.000
G1 X90.780 Y99.156 E4.66537 F600.000
G1 X92.249 Y99.350 E5.10941
G1 X92.708 Y99.466 E5.25112
G1 X93.146 Y99.645 E5.39308
G1 X93.301 Y99.734 E5.44674
G1 X94.095 Y100.349 E5.74739
G1 X94.348 Y100.612 E5.85684
G1 X94.681 Y101.080 E6.02917
G1 X94.966 Y101.981 E6.31226
G1 X95.134 Y103.055 E6.63801
G1 X94.956 Y104.127 E6.96347
G1 X94.672 Y104.993 E7.23644
G1 X94.335 Y105.435 E7.40301
G1 X94.101 Y105.666 E7.50171
