; generated by Slic3r 1.2.9 on 2016-03-11 at 01:28:49

; external perimeters extrusion width = 1.54mm
; perimeters extrusion width = 2.62mm
; infill extrusion width = 6.27mm
; solid infill extrusion width = 2.62mm
; top infill extrusion width = 2.62mm

M107
M104 S30 ; set temperature
G28 ; home all axes
G1 Z5 F5000 ; lift nozzle
M302
M92 E10000
M500
M501
G1 E100
M109 S30 ; wait for temperature to be reached
G21 ; set units to millimeters
G90 ; use absolute coordinates
M82 ; use absolute distances for extrusion
G92 E0
G1 Z0.300 F7800.000
G1 X109.233 Y98.556 F7800.000
G1 X110.044 Y98.556 E0.03667 F378.000
G1 X111.511 Y98.695 E0.10334
G1 X112.735 Y99.103 E0.16176
G1 X113.736 Y99.777 E0.21639
G1 X114.478 Y100.677 E0.26916
G1 X114.924 Y101.766 E0.32239
G1 X115.075 Y103.055 E0.38113
G1 X114.925 Y104.347 E0.43997
G1 X114.482 Y105.415 E0.49229
G1 X113.746 Y106.273 E0.54343
G1 X112.734 Y106.907 E0.59748
G1 X111.461 Y107.292 E0.65765
G1 X109.913 Y107.423 E0.72795
G1 X103.729 Y107.423 E1.00775
G1 X103.729 Y92.577 E1.67952
G1 X105.350 Y92.577 E1.75287
G1 X105.350 Y98.556 E2.02342
G1 X109.002 Y98.556 E2.18866 F378.000
G1 X109.002 Y99.743 F7800.000
G1 X109.779 Y99.743 E2.22381 F378.000
G1 X111.783 Y100.098 E2.31591
G1 X113.038 Y101.210 E2.39178
G1 X113.450 Y103.035 E2.47643
G1 X113.027 Y104.800 E2.55859
G1 X111.740 Y105.872 E2.63436
G1 X109.692 Y106.214 E2.72834
G1 X105.350 Y106.214 E2.92479
G1 X105.350 Y99.743 E3.21760
G1 X108.771 Y99.743 E3.37239 F378.000
G1 X112.102 Y99.161 F7800.000
G1 X114.594 Y101.654 E3.53355 F540.000
G1 X114.757 Y102.368 E3.56701
G1 X111.299 Y98.910 E3.79059
G1 X110.691 Y98.852 E3.81853
G1 X111.671 Y99.833 E3.88194
G1 X111.002 Y99.714 E3.91303
G1 X110.082 Y98.795 E3.97249
G1 X109.518 Y98.782 E3.99827
G1 X110.332 Y99.596 E4.05088
G1 X109.702 Y99.517 E4.07989
G1 X108.967 Y98.782 E4.12742
G1 X108.416 Y98.782 E4.15261
G1 X109.151 Y99.517 E4.20013
G1 X108.600 Y99.517 E4.22532
G1 X107.865 Y98.782 E4.27285
G1 X107.314 Y98.782 E4.29804
G1 X108.050 Y99.517 E4.34557
G1 X107.499 Y99.517 E4.37075
G1 X106.763 Y98.782 E4.41828
G1 X106.212 Y98.782 E4.44347
G1 X106.948 Y99.517 E4.49100
G1 X106.397 Y99.517 E4.51619
G1 X105.661 Y98.782 E4.56371
G1 X105.124 Y98.796 E4.58827
G1 X103.955 Y97.627 E4.66386
G1 X103.955 Y97.076 E4.68905
G1 X105.124 Y98.245 E4.76464
G1 X105.110 Y98.782 E4.78920
G1 X105.846 Y99.517 E4.83672
G1 X105.295 Y99.517 E4.86191
G1 X103.955 Y98.178 E4.94851
G1 X103.955 Y98.729 E4.97370
G1 X105.124 Y99.898 E5.04928
G1 X105.124 Y100.449 E5.07447
G1 X103.955 Y99.280 E5.15006
G1 X103.955 Y99.831 E5.17525
G1 X105.124 Y101.000 E5.25083
G1 X105.124 Y101.551 E5.27602
G1 X103.955 Y100.382 E5.35161
G1 X103.955 Y100.933 E5.37680
G1 X105.124 Y102.102 E5.45238
G1 X105.124 Y102.653 E5.47757
G1 X103.955 Y101.484 E5.55316
G1 X103.955 Y102.035 E5.57835
G1 X105.124 Y103.204 E5.65393
G1 X105.124 Y103.755 E5.67912
G1 X103.955 Y102.586 E5.75471
G1 X103.955 Y103.137 E5.77990
G1 X105.124 Y104.306 E5.85548
G1 X105.124 Y104.857 E5.88067
G1 X103.955 Y103.688 E5.95626
G1 X103.955 Y104.239 E5.98145
G1 X105.124 Y105.408 E6.05703
G1 X105.124 Y105.959 E6.08222
G1 X103.955 Y104.790 E6.15781
G1 X103.955 Y105.341 E6.18300
G1 X105.812 Y107.197 E6.30303
G1 X105.261 Y107.197 E6.32822
G1 X103.955 Y105.891 E6.41262
G1 X103.955 Y106.442 E6.43781
G1 X104.710 Y107.197 E6.48660
G1 X104.159 Y107.197 E6.51179
G1 X103.955 Y106.993 E6.52495
G1 X105.606 Y106.440 F7800.000
G1 X106.363 Y107.197 E6.57390 F540.000
G1 X106.914 Y107.197 E6.59909
G1 X106.157 Y106.440 E6.64804
G1 X106.708 Y106.440 E6.67323
G1 X107.465 Y107.197 E6.72218
G1 X108.016 Y107.197 E6.74736
G1 X107.259 Y106.440 E6.79631
G1 X107.810 Y106.440 E6.82150
G1 X108.567 Y107.197 E6.87045
G1 X109.118 Y107.197 E6.89564
G1 X108.361 Y106.440 E6.94459
G1 X108.912 Y106.440 E6.96978
G1 X109.669 Y107.197 E7.01873
G1 X110.201 Y107.178 E7.04308
G1 X109.463 Y106.440 E7.09083
G1 X109.960 Y106.386 E7.11368
G1 X110.709 Y107.136 E7.16215
G1 X111.217 Y107.093 E7.18546
G1 X110.432 Y106.307 E7.23623
G1 X110.904 Y106.228 E7.25812
G1 X111.685 Y107.009 E7.30861
G1 X112.108 Y106.881 E7.32881
G1 X111.376 Y106.150 E7.37611
G1 X111.828 Y106.050 E7.39724
G1 X112.531 Y106.753 E7.44269
G1 X112.901 Y106.572 E7.46151
G1 X112.128 Y105.800 E7.51144
G1 X112.429 Y105.549 E7.52932
G1 X113.239 Y106.360 E7.58172
G1 X113.572 Y106.142 E7.59992
G1 X112.729 Y105.299 E7.65443
G1 X113.030 Y105.048 E7.67232
G1 X113.844 Y105.863 E7.72496
G1 X114.098 Y105.566 E7.74282
G1 X113.259 Y104.727 E7.79708
G1 X113.366 Y104.283 E7.81797
G1 X114.333 Y105.250 E7.88049
G1 X114.495 Y104.860 E7.89976
G1 X113.473 Y103.838 E7.96584
G1 X113.579 Y103.394 E7.98673
G1 X114.656 Y104.471 E8.05636
G1 X114.746 Y104.009 E8.07785
G1 X113.683 Y102.946 E8.14658
G1 X113.522 Y102.234 E8.17994
G1 X114.803 Y103.516 E8.26276
G1 X114.830 Y102.991 E8.28675
G1 X113.361 Y101.523 E8.38171
G1 X113.743 Y100.252 F7800.000
G1 X113.358 Y99.867 E8.40662 F540.000
G92 E0
G1 X113.802 Y101.076 F7800.000
G1 X113.802 Y101.076 F7800.000
G1 X105.124 Y97.694 F7800.000
G1 X103.955 Y96.525 E0.07559 F540.000
G1 X103.955 Y95.974 E0.10077
G1 X105.124 Y97.143 E0.17636
G1 X105.124 Y96.592 E0.20155
G1 X103.955 Y95.423 E0.27714
G1 X103.955 Y94.872 E0.30232
G1 X105.124 Y96.041 E0.37791
G1 X105.124 Y95.490 E0.40310
G1 X103.955 Y94.321 E0.47869
G1 X103.955 Y93.770 E0.50387
G1 X105.124 Y94.939 E0.57946
G1 X105.124 Y94.388 E0.60465
G1 X103.955 Y93.219 E0.68024
G1 X104.090 Y92.803 E0.70023
G1 X105.124 Y93.837 E0.76708
G1 X105.124 Y93.286 E0.79227
G1 X104.641 Y92.803 E0.82350
G92 E0
G1 X105.575 Y98.331 F7800.000
G1 X107.575 Y92.352 F7800.000
G1 X103.504 Y91.352 F7800.000
G1 X99.194 Y97.818 F7800.000
G1 X99.783 Y100.298 F7800.000
G1 X96.339 Y101.709 F7800.000
G1 X96.248 Y103.236 F7800.000
G1 X96.120 Y104.347 E0.05063 F378.000
G1 X95.676 Y105.415 E0.10294
G1 X94.940 Y106.272 E0.15409
G1 X93.928 Y106.907 E0.20814
G1 X92.655 Y107.292 E0.26830
G1 X91.107 Y107.423 E0.33861
G1 X84.924 Y107.423 E0.61841
G1 X84.924 Y92.577 E1.29018
G1 X86.545 Y92.577 E1.36353
G1 X86.545 Y98.556 E1.63407
G1 X91.238 Y98.556 E1.84645 F378.000
G1 X92.705 Y98.695 E1.91312
G1 X93.930 Y99.103 E1.97153
G1 X94.931 Y99.777 E2.02616
G1 X95.673 Y100.677 E2.07893
G1 X96.119 Y101.766 E2.13216
G1 X96.263 Y103.006 E2.18867
G1 X94.645 Y103.035 F7800.000
G1 X94.221 Y104.800 E2.27083 F378.000
G1 X92.935 Y105.872 E2.34660
G1 X90.886 Y106.214 E2.44057
G1 X86.545 Y106.214 E2.63703
G1 X86.545 Y99.743 E2.92984 F378.000
G1 X90.973 Y99.743 E3.13024
G1 X92.978 Y100.098 E3.22233
G1 X94.233 Y101.210 E3.29821
G1 X94.594 Y102.809 E3.37240
G1 X96.024 Y102.991 F7800.000
G1 X94.556 Y101.523 E3.46735 F540.000
G1 X94.716 Y102.234 E3.50071
G1 X95.997 Y103.516 E3.58353
G1 X95.940 Y104.009 E3.60626
G1 X94.877 Y102.946 E3.67500
G1 X94.774 Y103.394 E3.69600
G1 X95.851 Y104.471 E3.76563
G1 X95.689 Y104.860 E3.78491
G1 X94.667 Y103.838 E3.85099
G1 X94.560 Y104.283 E3.87188
G1 X95.527 Y105.250 E3.93440
G1 X95.293 Y105.566 E3.95241
G1 X94.454 Y104.727 E4.00666
G1 X94.224 Y105.048 E4.02472
G1 X95.038 Y105.863 E4.07737
G1 X94.767 Y106.142 E4.09518
G1 X93.924 Y105.299 E4.14969
G1 X93.623 Y105.549 E4.16758
G1 X94.434 Y106.360 E4.21998
G1 X94.095 Y106.572 E4.23825
G1 X93.323 Y105.800 E4.28818
G1 X93.022 Y106.050 E4.30606
G1 X93.725 Y106.753 E4.35151
G1 X93.302 Y106.881 E4.37171
G1 X92.571 Y106.150 E4.41900
G1 X92.098 Y106.228 E4.44089
G1 X92.879 Y107.009 E4.49138
G1 X92.412 Y107.093 E4.51309
G1 X91.626 Y106.307 E4.56387
G1 X91.154 Y106.386 E4.58576
G1 X91.904 Y107.136 E4.63422
G1 X91.395 Y107.178 E4.65753
G1 X90.657 Y106.440 E4.70528
G1 X90.106 Y106.440 E4.73047
G1 X90.863 Y107.197 E4.77942
G1 X90.312 Y107.197 E4.80461
G1 X89.555 Y106.440 E4.85356
G1 X89.004 Y106.440 E4.87875
G1 X89.761 Y107.197 E4.92769
G1 X89.210 Y107.197 E4.95288
G1 X88.453 Y106.440 E5.00183
G1 X87.902 Y106.440 E5.02702
G1 X88.659 Y107.197 E5.07597
G1 X88.108 Y107.197 E5.10116
G1 X87.351 Y106.440 E5.15011
G1 X85.353 Y107.197 F7800.000
G1 X85.150 Y106.993 E5.16327 F540.000
G1 X85.150 Y106.442 E5.18846
G1 X85.904 Y107.197 E5.23725
G1 X86.455 Y107.197 E5.26243
G1 X85.150 Y105.891 E5.34684
G1 X85.150 Y105.341 E5.37203
G1 X86.319 Y106.510 E5.44762
G1 X86.800 Y106.440 E5.46985
G1 X87.557 Y107.197 E5.51880
G1 X87.006 Y107.197 E5.54399
G1 X86.249 Y106.440 E5.59294
G1 X86.319 Y105.959 E5.61517
G1 X85.150 Y104.790 E5.69076
G1 X85.150 Y104.239 E5.71595
G1 X86.319 Y105.408 E5.79154
G1 X86.319 Y104.857 E5.81672
G1 X85.150 Y103.688 E5.89231
G1 X85.150 Y103.137 E5.91750
G1 X86.319 Y104.306 E5.99309
G1 X86.319 Y103.755 E6.01828
G1 X85.150 Y102.586 E6.09386
G1 X85.150 Y102.035 E6.11905
G1 X86.319 Y103.204 E6.19464
G1 X86.319 Y102.653 E6.21983
G1 X85.150 Y101.484 E6.29541
G1 X85.150 Y100.933 E6.32060
G1 X86.319 Y102.102 E6.39619
G1 X86.319 Y101.551 E6.42138
G1 X85.150 Y100.382 E6.49696
G1 X85.150 Y99.831 E6.52215
G1 X86.319 Y101.000 E6.59774
G1 X86.319 Y100.449 E6.62293
G1 X85.150 Y99.280 E6.69852
G1 X85.150 Y98.729 E6.72371
G1 X86.319 Y99.898 E6.79929
G1 X86.489 Y99.517 F7800.000
G1 X85.150 Y98.178 E6.88588 F540.000
G1 X85.150 Y97.627 E6.91107
G1 X86.319 Y98.796 E6.98666
G1 X86.856 Y98.782 E7.01122
G1 X87.591 Y99.517 E7.05875
G1 X88.142 Y99.517 E7.08394
G1 X87.407 Y98.782 E7.13146
G1 X87.958 Y98.782 E7.15665
G1 X88.693 Y99.517 E7.20418
G1 X89.244 Y99.517 E7.22937
G1 X88.509 Y98.782 E7.27690
G1 X89.060 Y98.782 E7.30209
G1 X89.795 Y99.517 E7.34961
G1 X90.346 Y99.517 E7.37480
G1 X89.611 Y98.782 E7.42233
G1 X90.162 Y98.782 E7.44752
G1 X90.897 Y99.517 E7.49504
G1 X91.527 Y99.596 E7.52405
G1 X90.713 Y98.782 E7.57667
G1 X91.276 Y98.795 E7.60244
G1 X92.196 Y99.714 E7.66190
G1 X92.866 Y99.833 E7.69299
G1 X91.885 Y98.852 E7.75640
G1 X92.493 Y98.910 E7.78435
G1 X95.951 Y102.368 E8.00792
G1 X95.789 Y101.654 E8.04138
G1 X93.296 Y99.161 E8.20254
G1 X94.553 Y99.867 F7800.000
G1 X94.938 Y100.252 E8.22745 F540.000
G1 X87.040 Y99.517 F7800.000
G1 X86.305 Y98.782 E8.27498 F540.000
G1 X86.319 Y98.245 E8.29954
G1 X85.150 Y97.076 E8.37513
G1 X85.150 Y96.525 E8.40032
G1 X86.319 Y97.694 E8.47590
G1 X86.319 Y97.143 E8.50109
G1 X85.150 Y95.974 E8.57668
G1 X85.150 Y95.423 E8.60187
G1 X86.319 Y96.592 E8.67746
G1 X86.319 Y96.041 E8.70265
G1 X85.150 Y94.872 E8.77823
G1 X85.150 Y94.321 E8.80342
G1 X86.319 Y95.490 E8.87901
G1 X86.319 Y94.939 E8.90420
G1 X85.150 Y93.770 E8.97978
G1 X85.150 Y93.219 E9.00497
G1 X86.319 Y94.388 E9.08056
G1 X86.319 Y93.837 E9.10575
G1 X85.285 Y92.803 E9.17260
G1 X85.836 Y92.803 E9.19779
G1 X86.319 Y93.286 E9.22902
M106 S255
G92 E0
G1 Z0.600 F7800.000
G1 X105.391 Y102.637 F7800.000
G1 X104.540 Y98.331 E1.31513 F600.000
G1 X104.540 Y92.352 E3.10672
G1 X104.702 Y99.149 F7800.000
G1 X109.903 Y99.156 E4.66536 F600.000
G1 X111.372 Y99.350 E5.10941
G1 X111.831 Y99.466 E5.25112
G1 X112.269 Y99.645 E5.39308
G1 X112.425 Y99.734 E5.44673
G1 X113.218 Y100.349 E5.74739
G1 X113.471 Y100.612 E5.85684
G1 X113.805 Y101.080 E6.02917
G1 X114.089 Y101.981 E6.31226
G1 X114.257 Y103.055 E6.63799
G1 X114.079 Y104.127 E6.96347
G1 X113.795 Y104.993 E7.23646
G1 X113.458 Y105.435 E7.40300
G1 X113.224 Y105.666 E7.50172
G1 X112.431 Y106.241 E7.79522
G1 X112.221 Y106.354 E7.86654
G1 X111.786 Y106.519 E8.00592
G1 X111.333 Y106.625 E8.14537
G1 X109.887 Y106.807 E8.58221
G1 X109.673 Y106.818 E8.64628
G1 X105.575 Y106.818 E9.87423
G1 X104.613 Y106.539 E10.17449
G1 X104.540 Y105.989 E10.34085
G1 X104.540 Y99.968 E12.14502
G1 X104.702 Y99.149 E12.39502
G92 E0
G1 X105.575 Y98.331 F7800.000
G1 X109.565 Y94.341 F7800.000
G1 X105.575 Y91.352 F7800.000
G1 X103.504 Y91.352 F7800.000
G1 X98.751 Y96.585 F7800.000
G1 X99.194 Y97.818 F7800.000
G1 X95.868 Y100.560 F7800.000
G1 X86.585 Y102.637 F7800.000
G1 X85.734 Y98.331 E1.31513 F600.000
G1 X85.734 Y92.352 E3.10672
G1 X85.896 Y99.149 F7800.000
G1 X91.098 Y99.156 E4.66537 F600.000
G1 X92.567 Y99.350 E5.10941
G1 X93.025 Y99.466 E5.25112
G1 X93.464 Y99.645 E5.39308
G1 X93.619 Y99.734 E5.44674
G1 X94.412 Y100.349 E5.74739
G1 X94.666 Y100.612 E5.85684
G1 X94.999 Y101.080 E6.02917
G1 X95.283 Y101.981 E6.31226
G1 X95.451 Y103.055 E6.63801
G1 X95.273 Y104.127 E6.96347
G1 X94.990 Y104.993 E7.23644
G1 X94.653 Y105.435 E7.40301
G1 X94.418 Y105.666 E7.50171
G1 X93.625 Y106.241 E7.79523
G1 X93.416 Y106.354 E7.86655
G1 X92.981 Y106.519 E8.00593
G1 X92.528 Y106.625 E8.14538
G1 X91.081 Y106.807 E8.58222
G1 X90.868 Y106.818 E8.64629
G1 X86.770 Y106.818 E9.87424
G1 X85.807 Y106.539 E10.17450
G1 X85.734 Y105.989 E10.34086
G1 X85.734 Y99.968 E12.14503
G1 X85.896 Y99.149 E12.39503
G92 E0
G1 Z0.900 F7800.000
G1 X105.391 Y102.637 F7800.000
G1 X104.540 Y98.331 E1.31513 F600.000
G1 X104.540 Y92.352 E3.10672
G1 X104.702 Y99.149 F7800.000
G1 X109.903 Y99.156 E4.66536 F600.000
G1 X111.372 Y99.350 E5.10941
G1 X111.831 Y99.466 E5.25112
G1 X112.269 Y99.645 E5.39308
G1 X112.425 Y99.734 E5.44673
G1 X113.218 Y100.349 E5.74739
G1 X113.471 Y100.612 E5.85684
G1 X113.805 Y101.080 E6.02917
G1 X114.089 Y101.981 E6.31226
G1 X114.257 Y103.055 E6.63799
G1 X114.079 Y104.127 E6.96347
G1 X113.795 Y104.993 E7.23646
G1 X113.458 Y105.435 E7.40300
G1 X113.224 Y105.666 E7.50172
G1 X112.431 Y106.241 E7.79522
G1 X112.221 Y106.354 E7.86654
G1 X111.786 Y106.519 E8.00592
G1 X111.333 Y106.625 E8.14537
G1 X109.887 Y106.807 E8.58221
G1 X109.673 Y106.818 E8.64628
G1 X105.575 Y106.818 E9.87423
G1 X104.613 Y106.539 E10.17449
G1 X104.540 Y105.989 E10.34085
G1 X104.540 Y99.968 E12.14502
G1 X104.702 Y99.149 E12.39502
G92 E0
G1 X105.575 Y98.331 F7800.000
G1 X109.565 Y94.341 F7800.000
G1 X105.575 Y91.352 F7800.000
G1 X103.504 Y91.352 F7800.000
G1 X98.751 Y96.585 F7800.000
G1 X99.194 Y97.818 F7800.000
G1 X95.868 Y100.560 F7800.000
G1 X86.585 Y102.637 F7800.000
G1 X85.734 Y98.331 E1.31513 F600.000
G1 X85.734 Y92.352 E3.10672
G1 X85.896 Y99.149 F7800.000
G1 X91.098 Y99.156 E4.66537 F600.000
G1 X92.567 Y99.350 E5.10941
G1 X93.025 Y99.466 E5.25112
G1 X93.464 Y99.645 E5.39308
G1 X93.619 Y99.734 E5.44674
G1 X94.412 Y100.349 E5.74739
G1 X94.666 Y100.612 E5.85684
G1 X94.999 Y101.080 E6.02917
G1 X95.283 Y101.981 E6.31226
G1 X95.451 Y103.055 E6.63801
G1 X95.273 Y104.127 E6.96347
G1 X94.990 Y104.993 E7.23644
G1 X94.653 Y105.435 E7.40301
G1 X94.418 Y105.666 E7.50172
G1 X93.625 Y106.241 E7.79523
G1 X93.416 Y106.354 E7.86655
G1 X92.981 Y106.519 E8.00593
G1 X92.528 Y106.625 E8.14538
G1 X91.081 Y106.807 E8.58222
G1 X90.868 Y106.818 E8.64629
G1 X86.770 Y106.818 E9.87424
G1 X85.807 Y106.539 E10.17450
G1 X85.734 Y105.989 E10.34086
G1 X85.734 Y99.968 E12.14503
G1 X85.896 Y99.149 E12.39503
G92 E0
G1 Z1.200 F7800.000
G1 X105.391 Y102.637 F7800.000
G1 X104.540 Y98.331 E1.31513 F600.000
G1 X104.540 Y92.352 E3.10672
G1 X104.702 Y99.149 F7800.000
G1 X109.903 Y99.156 E4.66536 F600.000
G1 X111.372 Y99.350 E5.10941
G1 X111.831 Y99.466 E5.25112
G1 X112.269 Y99.645 E5.39308
G1 X112.425 Y99.734 E5.44673
G1 X113.218 Y100.349 E5.74739
G1 X113.471 Y100.612 E5.85684
G1 X113.805 Y101.080 E6.02917
G1 X114.089 Y101.981 E6.31226
G1 X114.257 Y103.055 E6.63799
G1 X114.079 Y104.127 E6.96347
G1 X113.795 Y104.993 E7.23646
G1 X113.458 Y105.435 E7.40300
G1 X113.224 Y105.666 E7.50172
G1 X112.431 Y106.241 E7.79522
G1 X112.221 Y106.354 E7.86654
G1 X111.786 Y106.519 E8.00592
G1 X111.333 Y106.625 E8.14537
G1 X109.887 Y106.807 E8.58221
G1 X109.673 Y106.818 E8.64628
G1 X105.575 Y106.818 E9.87423
G1 X104.613 Y106.539 E10.17449
G1 X104.540 Y105.989 E10.34085
G1 X104.540 Y99.968 E12.14502
G1 X104.702 Y99.149 E12.39502
G92 E0
G1 X105.575 Y98.331 F7800.000
G1 X109.565 Y94.341 F7800.000
G1 X105.575 Y91.352 F7800.000
G1 X103.504 Y91.352 F7800.000
G1 X98.751 Y96.585 F7800.000
G1 X99.194 Y97.818 F7800.000
G1 X95.868 Y100.560 F7800.000
G1 X86.585 Y102.637 F7800.000
G1 X85.734 Y98.331 E1.31513 F600.000
G1 X85.734 Y92.352 E3.10672
G1 X85.896 Y99.149 F7800.000
G1 X91.098 Y99.156 E4.66537 F600.000
G1 X92.567 Y99.350 E5.10941
G1 X93.025 Y99.466 E5.25112
G1 X93.464 Y99.645 E5.39308
G1 X93.619 Y99.734 E5.44674
G1 X94.412 Y100.349 E5.74739
G1 X94.666 Y100.612 E5.85684
G1 X94.999 Y101.080 E6.02917
G1 X95.283 Y101.981 E6.31226
G1 X95.451 Y103.055 E6.63801
G1 X95.273 Y104.127 E6.96347
G1 X94.990 Y104.993 E7.23644
G1 X94.653 Y105.435 E7.40301
