; generated by Slic3r 1.2.9 on 2016-03-11 at 01:28:50

; external perimeters extrusion width = 1.54mm
; perimeters extrusion width = 2.62mm
; infill extrusion width = 6.27mm
; solid infill extrusion width = 2.62mm
; top infill extrusion width = 2.62mm

M107
M104 S30 ; set temperature
G28 ; home all axes
G1 Z5 F5000 ; lift nozzle
M302
M92 E10000
M500
M501
G1 E100
M109 S30 ; wait for temperature to be reached
G21 ; set units to millimeters
G90 ; use absolute coordinates
M82 ; use absolute distances for extrusion
G92 E0
G1 Z0.300 F7800.000
G1 X110.148 Y94.442 F7800.000
G1 X112.159 Y94.939 E0.09377 F378.000
G1 X113.615 Y95.730 E0.16873
G1 X114.797 Y96.886 E0.24356
G1 X115.672 Y98.354 E0.32086
G1 X116.199 Y100.076 E0.40239
G1 X116.377 Y102.063 E0.49261
G1 X116.278 Y103.562 E0.56061
G1 X115.984 Y104.919 E0.62342
G1 X115.495 Y106.130 E0.68254
G1 X114.825 Y107.179 E0.73884
G1 X113.984 Y108.044 E0.79345
G1 X112.968 Y108.730 E0.84892
G1 X111.796 Y109.229 E0.90658
G1 X110.484 Y109.530 E0.96749
G1 X109.034 Y109.630 E1.03323
G1 X106.870 Y109.406 E1.13167
G1 X105.066 Y108.738 E1.21870
G1 X103.607 Y107.631 E1.30157
G1 X102.531 Y106.131 E1.38514
G1 X101.882 Y104.276 E1.47405
G1 X101.663 Y102.055 E1.57504
G1 X101.752 Y100.611 E1.64051
G1 X102.018 Y99.290 E1.70150
G1 X102.461 Y98.094 E1.75917
G1 X103.068 Y97.048 E1.81393
G1 X103.831 Y96.169 E1.86657
G1 X104.752 Y95.456 E1.91928
G1 X105.818 Y94.918 E1.97331
G1 X107.016 Y94.566 E2.02980
G1 X108.499 Y94.383 E2.09744
G1 X109.032 Y92.960 E2.16619
G1 X109.589 Y91.961 E2.21794
G1 X110.216 Y91.243 E2.26105
G1 X110.937 Y90.760 E2.30032
G1 X111.783 Y90.468 E2.34082
G1 X112.769 Y90.369 E2.38564
G1 X113.322 Y90.393 E2.41069
G1 X113.995 Y90.473 E2.44136 F378.000
G1 X114.468 Y90.567 E2.46320
G1 X114.468 Y91.566 E2.50839
G1 X113.898 Y91.490 E2.53442
G1 X113.439 Y91.470 E2.55520
G1 X112.703 Y91.541 E2.58866
G1 X112.043 Y91.762 E2.62016
G1 X111.471 Y92.132 E2.65099
G1 X110.985 Y92.661 E2.68349
G1 X110.576 Y93.357 E2.72002
G1 X110.232 Y94.227 E2.76235
G1 X110.068 Y95.705 F7800.000
G1 X110.692 Y95.774 E2.79080 F378.000
G1 X112.109 Y96.343 E2.85985
G1 X113.244 Y97.295 E2.92688
G1 X114.065 Y98.588 E2.99620
G1 X114.553 Y100.178 E3.07146
G1 X114.714 Y102.059 E3.15691
G1 X114.552 Y103.869 E3.23911
G1 X114.059 Y105.414 E3.31249
G1 X113.232 Y106.688 E3.38123
G1 X112.097 Y107.636 E3.44815
G1 X110.692 Y108.203 E3.51669
G1 X109.032 Y108.390 E3.59231
G1 X107.359 Y108.206 E3.66847
G1 X105.945 Y107.647 E3.73725
G1 X104.804 Y106.711 E3.80402
G1 X103.973 Y105.443 E3.87263
G1 X103.478 Y103.890 E3.94637
G1 X103.315 Y102.059 E4.02957
G1 X103.480 Y100.230 E4.11265
G1 X103.979 Y98.659 E4.18726
G1 X104.818 Y97.350 E4.25759
G1 X105.960 Y96.369 E4.32574
G1 X107.362 Y95.781 E4.39453
G1 X108.735 Y95.619 E4.45706
G1 X109.009 Y95.587 E4.46955 F378.000
G1 X109.838 Y95.679 E4.50732
G1 X111.410 Y95.779 F7800.000
G1 X110.386 Y94.756 E4.57314 F540.000
G1 X109.816 Y94.734 E4.59912
G1 X108.920 Y93.838 E4.65676
G1 X112.326 Y96.147 F7800.000
G1 X111.115 Y94.936 E4.73468 F540.000
G1 X111.843 Y95.116 E4.76879
G1 X115.551 Y98.824 E5.00732
G1 X115.793 Y99.614 F7800.000
G1 X113.761 Y97.583 E5.13801 F540.000
G1 X114.931 Y97.656 F7800.000
G1 X112.965 Y95.690 E5.26446 F540.000
G1 X114.380 Y98.750 F7800.000
G1 X115.990 Y100.360 E5.36804 F540.000
G1 X116.044 Y100.962 E5.39552
G1 X114.623 Y99.541 E5.48695
G1 X114.794 Y100.260 E5.52059
G1 X116.098 Y101.564 E5.60444
G1 X116.149 Y102.163 E5.63179
G1 X114.846 Y100.860 E5.71563
G1 X114.897 Y101.459 E5.74299
G1 X116.115 Y102.677 E5.82135
G1 X116.081 Y103.192 E5.84479
G1 X114.935 Y102.046 E5.91851
G1 X114.890 Y102.549 E5.94148
G1 X116.034 Y103.693 E6.01508
G1 X115.937 Y104.143 E6.03604
G1 X114.845 Y103.052 E6.10627
G1 X114.800 Y103.555 E6.12924
G1 X115.839 Y104.594 E6.19608
G1 X115.723 Y105.026 E6.21645
G1 X114.718 Y104.021 E6.28110
G1 X114.586 Y104.437 E6.30094
G1 X115.566 Y105.417 E6.36399
G1 X115.408 Y105.808 E6.38315
G1 X114.453 Y104.853 E6.44459
G1 X114.321 Y105.268 E6.46443
G1 X115.233 Y106.180 E6.52308
G1 X115.019 Y106.514 E6.54113
G1 X114.144 Y105.640 E6.59737
G1 X113.928 Y105.972 E6.61539
G1 X114.805 Y106.849 E6.67177
G1 X114.568 Y107.160 E6.68956
G1 X113.713 Y106.305 E6.74456
G1 X113.497 Y106.637 E6.76258
G1 X114.294 Y107.434 E6.81384
G1 X114.020 Y107.708 E6.83147
G1 X113.242 Y106.930 E6.88150
G1 X112.943 Y107.180 E6.89920
G1 X113.739 Y107.975 E6.95037
G1 X113.412 Y108.196 E6.96833
G1 X112.645 Y107.429 E7.01767
G1 X112.346 Y107.679 E7.03537
G1 X113.085 Y108.417 E7.08287
G1 X112.732 Y108.613 E7.10121
G1 X112.008 Y107.889 E7.14777
G1 X111.618 Y108.047 E7.16693
G1 X112.347 Y108.777 E7.21387
G1 X111.963 Y108.940 E7.23288
G1 X111.227 Y108.204 E7.28021
G1 X110.837 Y108.362 E7.29936
G1 X111.546 Y109.071 E7.34497
G1 X111.100 Y109.173 E7.36578
G1 X110.383 Y108.457 E7.41188
G1 X109.891 Y108.512 E7.43442
G1 X110.654 Y109.276 E7.48352
G1 X110.161 Y109.331 E7.50607
G1 X109.398 Y108.568 E7.55516
G1 X108.894 Y108.612 E7.57817
G1 X109.648 Y109.367 E7.62670
G1 X109.136 Y109.402 E7.65008
G1 X108.278 Y108.544 E7.70526
G1 X107.662 Y108.476 E7.73345
G1 X108.527 Y109.341 E7.78910
G1 X107.915 Y109.278 E7.81707
G1 X106.972 Y108.335 E7.87774
G1 X106.065 Y107.976 F7800.000
G1 X107.304 Y109.214 E7.95740 F540.000
G1 X106.552 Y109.011 E7.99279
G1 X102.336 Y104.795 E8.26398
G1 X102.090 Y104.001 E8.30181
G1 X103.824 Y105.735 E8.41333
G1 X103.530 Y104.893 F7800.000
G1 X102.030 Y103.393 E8.50983 F540.000
G1 X101.970 Y102.785 E8.53762
G1 X103.274 Y104.089 E8.62150
G1 X103.207 Y103.473 E8.64968
G1 X101.910 Y102.177 E8.73307
G1 X101.911 Y101.629 E8.75799
G1 X103.153 Y102.871 E8.83791
G1 X103.100 Y102.270 E8.86539
G1 X101.943 Y101.112 E8.93982
G1 X101.974 Y100.596 E8.96335
G1 X103.124 Y101.746 E9.03729
G1 X103.169 Y101.243 E9.06025
G1 X102.063 Y100.137 E9.13139
G1 X102.155 Y99.681 E9.15256
G1 X103.215 Y100.740 E9.22070
G1 X103.262 Y100.240 E9.24356
G1 X102.255 Y99.233 E9.30832
G1 X102.403 Y98.833 E9.32772
G1 X103.394 Y99.824 E9.39146
G1 X103.526 Y99.407 E9.41131
G1 X102.552 Y98.433 E9.47402
G1 X102.714 Y98.047 E9.49305
G1 X103.659 Y98.991 E9.55378
G1 X103.797 Y98.582 E9.57344
G1 X102.916 Y97.700 E9.63014
G1 X103.117 Y97.354 E9.64838
G1 X104.011 Y98.248 E9.70590
G1 X104.225 Y97.914 E9.72395
G1 X103.340 Y97.028 E9.78091
G1 X103.595 Y96.735 E9.79858
G1 X104.439 Y97.579 E9.85291
G1 X104.653 Y97.245 E9.87096
G1 X103.855 Y96.447 E9.92229
G1 X104.135 Y96.178 E9.93993
G1 X104.944 Y96.988 E9.99198
G1 X105.239 Y96.735 E10.00966
G1 X104.443 Y95.939 E10.06082
G1 X104.752 Y95.700 E10.07859
G1 X105.534 Y96.481 E10.12884
G1 X105.829 Y96.228 E10.14652
G1 X105.102 Y95.501 E10.19327
G1 X105.466 Y95.317 E10.21183
G1 X106.199 Y96.051 E10.25900
G1 X106.586 Y95.889 E10.27804
G1 X105.830 Y95.133 E10.32662
G1 X106.251 Y95.006 E10.34660
G1 X106.972 Y95.727 E10.39297
G1 X107.358 Y95.565 E10.41202
G1 X106.674 Y94.881 E10.45598
G1 X107.113 Y94.772 E10.47655
G1 X107.846 Y95.505 E10.52369
G1 X108.337 Y95.447 E10.54615
G1 X107.601 Y94.712 E10.59346
G1 X108.089 Y94.651 E10.61581
G1 X108.827 Y95.389 E10.66328
G1 X109.376 Y95.391 E10.68826
G1 X108.577 Y94.591 E10.73968
G1 X108.770 Y94.236 E10.75806
G1 X109.993 Y95.459 E10.83672
G1 X110.610 Y95.528 E10.86495
G1 X109.658 Y94.576 E10.92617
G1 X109.971 Y94.340 E10.94397
G1 X109.069 Y93.439 E11.00197
G1 X109.218 Y93.040 E11.02133
G1 X110.126 Y93.947 E11.07970
G1 X110.281 Y93.554 E11.09892
G1 X109.411 Y92.684 E11.15488
G1 X109.607 Y92.332 E11.17321
G1 X110.453 Y93.179 E11.22764
G1 X110.657 Y92.834 E11.24585
G1 X109.816 Y91.993 E11.29990
G1 X110.072 Y91.701 E11.31757
G1 X110.872 Y92.501 E11.36902
G1 X111.134 Y92.215 E11.38666
G1 X110.328 Y91.408 E11.43854
G1 X110.652 Y91.185 E11.45647
G1 X111.408 Y91.941 E11.50508
G1 X111.741 Y91.725 E11.52311
G1 X110.980 Y90.965 E11.57202
G1 X111.385 Y90.821 E11.59155
G1 X112.093 Y91.530 E11.63711
G1 X112.504 Y91.392 E11.65682
G1 X111.798 Y90.686 E11.70224
G1 X112.296 Y90.636 E11.72501
G1 X112.957 Y91.297 E11.76752
G1 X113.457 Y91.248 E11.79034
G1 X112.809 Y90.601 E11.83199
G1 X113.396 Y90.640 E11.85874
G1 X114.023 Y91.267 E11.89908
G1 X114.033 Y90.729 E11.92356
G1 X114.242 Y90.938 E11.93701
G92 E0
G1 X109.164 Y94.824 F7800.000
G1 X102.440 Y102.041 F7800.000
G1 X102.632 Y105.639 F7800.000
G1 X105.683 Y108.690 E0.19624 F540.000
G1 X104.031 Y107.586 F7800.000
G1 X103.676 Y107.231 E0.21905 F540.000
G92 E0
G1 X101.660 Y104.325 F7800.000
G1 X98.421 Y104.644 F7800.000
G1 X98.282 Y103.347 F7800.000
G1 X95.038 Y103.725 F7800.000
G1 X93.065 Y101.413 F7800.000
G1 X93.630 Y101.793 E0.03081 F378.000
G1 X94.372 Y102.693 E0.08358
G1 X94.818 Y103.782 E0.13681
G1 X94.968 Y105.071 E0.19555
G1 X94.819 Y106.363 E0.25439
G1 X94.375 Y107.431 E0.30671
G1 X93.639 Y108.288 E0.35785
G1 X92.627 Y108.923 E0.41190
G1 X91.354 Y109.308 E0.47207
G1 X89.806 Y109.439 E0.54237
G1 X83.623 Y109.439 E0.82217
G1 X83.623 Y94.593 E1.49394
G1 X85.244 Y94.593 E1.56729
G1 X85.244 Y100.572 E1.83784
G1 X89.937 Y100.572 E2.05021 F378.000
G1 X91.404 Y100.711 E2.11688
G1 X92.629 Y101.119 E2.17530
G1 X92.874 Y101.284 E2.18867
G1 X91.935 Y102.343 F7800.000
G1 X92.932 Y103.226 E2.24890 F378.000
G1 X93.344 Y105.051 E2.33355
G1 X92.920 Y106.816 E2.41571
G1 X91.634 Y107.888 E2.49148
G1 X89.585 Y108.230 E2.58545
G1 X85.244 Y108.230 E2.78191
G1 X85.244 Y101.759 E3.07472 F378.000
G1 X89.672 Y101.759 E3.27512
G1 X91.677 Y102.114 E3.36721
G1 X91.762 Y102.190 E3.37240
G1 X91.995 Y101.177 F7800.000
G1 X94.488 Y103.670 E3.53355 F540.000
G1 X94.650 Y104.384 E3.56702
G1 X91.192 Y100.926 E3.79059
G1 X90.584 Y100.868 E3.81854
G1 X91.565 Y101.849 E3.88195
G1 X90.895 Y101.730 E3.91304
G1 X89.975 Y100.811 E3.97249
G1 X89.412 Y100.798 E3.99827
G1 X90.226 Y101.612 E4.05089
G1 X89.596 Y101.533 E4.07990
G1 X88.861 Y100.798 E4.12742
G1 X88.310 Y100.798 E4.15261
G1 X89.045 Y101.533 E4.20014
G1 X88.494 Y101.533 E4.22533
G1 X87.759 Y100.798 E4.27285
G1 X87.208 Y100.798 E4.29804
G1 X87.943 Y101.533 E4.34557
G1 X87.392 Y101.533 E4.37076
G1 X86.657 Y100.798 E4.41828
G1 X86.106 Y100.798 E4.44347
G1 X86.841 Y101.533 E4.49100
G1 X86.290 Y101.533 E4.51619
G1 X85.555 Y100.798 E4.56372
G1 X85.018 Y100.812 E4.58828
G1 X83.849 Y99.643 E4.66386
G1 X83.849 Y100.194 E4.68905
G1 X85.188 Y101.533 E4.77565
G1 X85.018 Y101.914 F7800.000
G1 X83.849 Y100.745 E4.85123 F540.000
G1 X83.849 Y101.296 E4.87642
G1 X85.018 Y102.465 E4.95201
G1 X85.018 Y103.016 E4.97720
G1 X83.849 Y101.847 E5.05278
G1 X83.849 Y102.398 E5.07797
G1 X85.018 Y103.567 E5.15356
G1 X85.018 Y104.118 E5.17875
G1 X83.849 Y102.949 E5.25434
G1 X83.849 Y103.500 E5.27952
G1 X85.018 Y104.669 E5.35511
G1 X85.018 Y105.220 E5.38030
G1 X83.849 Y104.051 E5.45589
G1 X83.849 Y104.602 E5.48108
G1 X85.018 Y105.771 E5.55666
G1 X85.018 Y106.322 E5.58185
G1 X83.849 Y105.153 E5.65744
G1 X83.849 Y105.704 E5.68263
G1 X85.018 Y106.873 E5.75821
G1 X85.018 Y107.424 E5.78340
G1 X83.849 Y106.255 E5.85899
G1 X83.849 Y106.806 E5.88418
G1 X85.018 Y107.975 E5.95977
G1 X84.948 Y108.456 E5.98200
G1 X85.705 Y109.213 E6.03095
G1 X85.154 Y109.213 E6.05614
G1 X83.849 Y107.907 E6.14055
G1 X83.849 Y108.458 E6.16573
G1 X84.603 Y109.213 E6.21452
G1 X84.052 Y109.213 E6.23971
G1 X83.849 Y109.009 E6.25287
G1 X85.018 Y108.526 F7800.000
G1 X83.849 Y107.357 E6.32846 F540.000
G1 X85.499 Y108.456 F7800.000
G1 X86.256 Y109.213 E6.37741 F540.000
G1 X86.807 Y109.213 E6.40260
G1 X86.050 Y108.456 E6.45154
G1 X86.601 Y108.456 E6.47673
G1 X87.358 Y109.213 E6.52568
G1 X87.909 Y109.213 E6.55087
G1 X87.152 Y108.456 E6.59982
G1 X87.703 Y108.456 E6.62501
G1 X88.460 Y109.213 E6.67396
G1 X89.011 Y109.213 E6.69915
G1 X88.254 Y108.456 E6.74810
G1 X88.805 Y108.456 E6.77329
G1 X89.562 Y109.213 E6.82223
G1 X90.095 Y109.194 E6.84659
G1 X89.356 Y108.456 E6.89434
G1 X89.853 Y108.402 E6.91719
G1 X90.603 Y109.152 E6.96566
G1 X91.111 Y109.109 E6.98896
G1 X90.325 Y108.323 E7.03974
G1 X90.797 Y108.244 E7.06163
G1 X91.578 Y109.025 E7.11212
G1 X92.001 Y108.897 E7.13232
G1 X91.270 Y108.166 E7.17961
G1 X91.721 Y108.066 E7.20075
G1 X92.424 Y108.769 E7.24619
G1 X92.794 Y108.588 E7.26502
G1 X92.022 Y107.816 E7.31495
G1 X92.322 Y107.565 E7.33283
G1 X93.133 Y108.376 E7.38523
G1 X93.466 Y108.158 E7.40343
G1 X92.623 Y107.315 E7.45794
G1 X92.923 Y107.064 E7.47582
G1 X93.737 Y107.879 E7.52847
G1 X93.992 Y107.582 E7.54633
G1 X93.153 Y106.743 E7.60059
G1 X93.259 Y106.299 E7.62148
G1 X94.226 Y107.266 E7.68400
G1 X94.388 Y106.876 E7.70328
G1 X93.366 Y105.854 E7.76936
G1 X93.473 Y105.410 E7.79025
G1 X94.550 Y106.487 E7.85988
G1 X94.639 Y106.025 E7.88138
G1 X93.576 Y104.962 E7.95011
G1 X93.415 Y104.250 E7.98347
G1 X94.696 Y105.532 E8.06630
G1 X94.723 Y105.007 E8.09029
G1 X93.255 Y103.539 E8.18524
G1 X93.637 Y102.268 F7800.000
G1 X93.252 Y101.883 E8.21015 F540.000
G1 X85.739 Y101.533 F7800.000
G1 X85.004 Y100.798 E8.25768 F540.000
G1 X85.018 Y100.261 E8.28224
G1 X83.849 Y99.092 E8.35783
G1 X83.849 Y98.541 E8.38302
G1 X85.018 Y99.710 E8.45860
G1 X85.018 Y99.159 E8.48379
G1 X83.849 Y97.990 E8.55938
G1 X83.849 Y97.439 E8.58457
G1 X85.018 Y98.608 E8.66016
G1 X85.018 Y98.057 E8.68534
G1 X83.849 Y96.888 E8.76093
G1 X83.849 Y96.337 E8.78612
G1 X85.018 Y97.506 E8.86171
G1 X85.018 Y96.955 E8.88690
G1 X83.849 Y95.786 E8.96248
G1 X83.849 Y95.235 E8.98767
G1 X85.018 Y96.404 E9.06326
G1 X85.018 Y95.853 E9.08845
G1 X83.984 Y94.819 E9.15530
G1 X84.535 Y94.819 E9.18049
G1 X85.018 Y95.302 E9.21172
M106 S255
G92 E0
G1 Z0.600 F7800.000
G1 X108.285 Y94.182 F7800.000
G1 X110.249 Y95.103 E0.65005 F600.000
G1 X110.940 Y95.241 E0.86102
G1 X111.919 Y95.558 E1.16951
G1 X112.311 Y95.742 E1.29934
G1 X112.547 Y95.877 E1.38056
G1 X113.185 Y96.312 E1.61210
G1 X113.661 Y96.743 E1.80458
G1 X113.855 Y96.948 E1.88904
G1 X114.192 Y97.363 E2.04931
G1 X114.682 Y98.160 E2.32964
G1 X114.933 Y98.681 E2.50305
G1 X115.313 Y99.920 E2.89116
G1 X115.386 Y100.236 E2.98830
G1 X115.544 Y102.072 E3.54073
G1 X115.439 Y103.444 E3.95299
G1 X115.320 Y104.140 E4.16440
G1 X115.178 Y104.671 E4.32910
G1 X114.780 Y105.761 E4.67707
G1 X114.194 Y106.678 E5.00311
G1 X113.881 Y107.070 E5.15316
G1 X113.494 Y107.459 E5.31762
G1 X112.630 Y108.109 E5.64159
G1 X112.316 Y108.275 E5.74797
G1 X111.585 Y108.578 E5.98535
G1 X110.956 Y108.776 E6.18267
G1 X110.388 Y108.888 E6.35614
G1 X109.045 Y109.008 E6.76036
G1 X107.321 Y108.827 E7.27987
G1 X107.019 Y108.769 E7.37202
G1 X105.734 Y108.277 E7.78427
G1 X105.408 Y108.115 E7.89326
G1 X104.369 Y107.296 E8.28978
G1 X104.155 Y107.098 E8.37708
G1 X103.244 Y105.760 E8.86223
G1 X102.687 Y104.098 E9.38730
G1 X102.491 Y102.040 E10.00690
G1 X102.590 Y100.721 E10.40330
G1 X102.713 Y99.961 E10.63391
G1 X102.827 Y99.519 E10.77062
G1 X103.197 Y98.441 E11.11219
G1 X103.322 Y98.202 E11.19289
G1 X103.736 Y97.525 E11.43075
G1 X104.155 Y96.965 E11.64044
G1 X104.344 Y96.747 E11.72669
G1 X105.150 Y96.086 E12.03908
G1 X105.481 Y95.865 E12.15842
G1 X105.729 Y95.726 E12.24362
G1 X106.075 Y95.567 E12.35759
G1 X107.145 Y95.188 E12.69775
G1 X108.508 Y95.012 E13.10954
G1 X108.902 Y94.900 E13.23230
G1 X109.370 Y94.691 E13.38601
G1 X109.377 Y94.566 E13.42359
G1 X109.512 Y93.914 E13.62297
G1 X109.751 Y93.293 E13.82257
G1 X109.920 Y92.950 E13.93700
G1 X110.229 Y92.411 E14.12310
G1 X110.444 Y92.132 E14.22862
G1 X110.724 Y91.820 E14.35425
G1 X111.105 Y91.513 E14.50097
G1 X111.260 Y91.410 E14.55670
G1 X111.863 Y91.132 E14.75563
G1 X112.672 Y90.962 E15.00348
G1 X113.485 Y90.946 E15.24695
G1 X114.693 Y91.078 E15.61124
G92 E0
G1 X108.828 Y92.865 F7800.000
G1 X108.828 Y92.865 F7800.000
G1 X106.096 Y91.342 F7800.000
G1 X106.082 Y91.325 F7800.000
G1 X106.070 Y91.310 F7800.000
G1 X104.790 Y91.494 F7800.000
G1 X104.172 Y91.612 F7800.000
G1 X102.936 Y91.906 F7800.000
G1 X102.196 Y92.121 F7800.000
G1 X100.987 Y92.534 F7800.000
G1 X100.093 Y92.891 F7800.000
G1 X98.886 Y93.441 F7800.000
G1 X97.832 Y93.985 F7800.000
G1 X96.582 Y94.705 F7800.000
G1 X96.122 Y94.980 F7800.000
G1 X96.311 Y95.598 F7800.000
G1 X96.383 Y95.825 F7800.000
G1 X96.806 Y97.138 F7800.000
G1 X93.783 Y101.625 F7800.000
G1 X85.284 Y104.653 F7800.000
G1 X84.433 Y100.347 E1.31513 F600.000
G1 X84.433 Y94.368 E3.10672
G1 X84.595 Y101.165 F7800.000
G1 X89.797 Y101.172 E4.66537 F600.000
