; generated by Slic3r 1.2.9 on 2016-03-11 at 01:28:52

; external perimeters extrusion width = 1.54mm
; perimeters extrusion width = 2.62mm
; infill extrusion width = 6.27mm
; solid infill extrusion width = 2.62mm
; top infill extrusion width = 2.62mm

M107
M104 S30 ; set temperature
G28 ; home all axes
G1 Z5 F5000 ; lift nozzle
M302
M92 E10000
M500
M501
G1 E100
M109 S30 ; wait for temperature to be reached
G21 ; set units to millimeters
G90 ; use absolute coordinates
M82 ; use absolute distances for extrusion
G92 E0
G1 Z0.300 F7800.000
G1 X104.632 Y101.238 F7800.000
G1 X104.978 Y100.966 E0.01993 F378.000
G1 X105.449 Y100.681 E0.04483
G1 X106.010 Y100.413 E0.07296
G1 X106.714 Y100.153 E0.10691
G1 X107.615 Y99.890 E0.14939
G1 X110.614 Y99.180 E0.28884
G1 X111.168 Y99.030 E0.31483
G1 X111.674 Y98.855 E0.33904
G1 X112.131 Y98.655 E0.36161
G1 X112.537 Y98.420 E0.38285
G1 X112.885 Y98.141 E0.40302
G1 X113.172 Y97.817 E0.42264
G1 X113.386 Y97.431 E0.44259
G1 X113.513 Y96.981 E0.46374
G1 X113.555 Y96.467 E0.48706
G1 X113.424 Y95.589 E0.52725
G1 X113.024 Y94.847 E0.56539
G1 X112.365 Y94.270 E0.60502
G1 X111.488 Y93.866 E0.64872
G1 X110.496 Y93.646 E0.69468
G1 X109.156 Y93.551 E0.75550
G1 X107.924 Y93.624 E0.81132
G1 X106.866 Y93.847 E0.86024
G1 X105.980 Y94.225 E0.90386
G1 X105.268 Y94.774 E0.94450
G1 X104.742 Y95.498 E0.98503
G1 X104.481 Y96.185 E1.01826
G1 X102.954 Y95.880 E1.08874
G1 X103.900 Y94.045 E1.18214
G1 X105.959 Y92.808 E1.29083
G1 X109.086 Y92.386 E1.43359
G1 X110.773 Y92.503 E1.51012
G1 X110.892 Y92.512 E1.51552 F378.000
G1 X112.397 Y92.886 E1.58569
G1 X113.594 Y93.502 E1.64663
G1 X114.460 Y94.330 E1.70083
G1 X114.976 Y95.351 E1.75260
G1 X115.152 Y96.593 E1.80937
G1 X115.127 Y97.090 E1.83188
G1 X115.054 Y97.546 E1.85277
G1 X114.933 Y97.953 E1.87198
G1 X114.770 Y98.320 E1.89016
G1 X114.570 Y98.653 E1.90772
G1 X114.333 Y98.952 E1.92496
G1 X114.061 Y99.220 E1.94226
G1 X113.758 Y99.461 E1.95981
G1 X113.420 Y99.675 E1.97791
G1 X113.055 Y99.867 E1.99653
G1 X112.259 Y100.205 E2.03569
G1 X111.399 Y100.480 E2.07653
G1 X108.299 Y101.222 E2.22075
G1 X107.352 Y101.487 E2.26525
G1 X106.706 Y101.724 E2.29642
G1 X106.246 Y101.967 E2.31993
G1 X105.859 Y102.246 E2.34153
G1 X105.543 Y102.568 E2.36194
G1 X105.308 Y102.947 E2.38210
G1 X105.168 Y103.384 E2.40288
G1 X105.122 Y103.877 E2.42528
G1 X105.238 Y104.675 E2.46179
G1 X105.597 Y105.346 E2.49622
G1 X106.187 Y105.864 E2.53174
G1 X106.976 Y106.224 E2.57101
G1 X107.947 Y106.434 E2.61595
G1 X109.100 Y106.503 E2.66822
G1 X110.160 Y106.441 E2.71625
G1 X111.066 Y106.250 E2.75817
G1 X111.821 Y105.925 E2.79535
G1 X112.429 Y105.449 E2.83030
G1 X112.889 Y104.813 E2.86582
G1 X113.123 Y104.221 E2.89460
G1 X114.708 Y104.500 E2.96741
G1 X114.361 Y105.373 E3.00994
G1 X113.752 Y106.231 E3.05752
G1 X112.976 Y106.848 E3.10237
G1 X111.974 Y107.270 E3.15159
G1 X110.688 Y107.528 E3.21093
G1 X109.123 Y107.615 E3.28188
G1 X107.439 Y107.499 E3.35826
G1 X106.053 Y107.157 E3.42285
G1 X104.963 Y106.595 E3.47833
G1 X104.182 Y105.839 E3.52752
G1 X103.716 Y104.901 E3.57492
G1 X103.557 Y103.754 E3.62732
G1 X103.587 Y103.243 E3.65049
G1 X103.676 Y102.768 E3.67233
G1 X103.825 Y102.338 E3.69293
G1 X104.029 Y101.947 E3.71291
G1 X104.286 Y101.589 E3.73285
G1 X104.467 Y101.400 E3.74470
G1 X106.022 Y100.628 F7800.000
G1 X106.849 Y101.455 E3.79799 F540.000
G1 X106.470 Y101.625 E3.81690
G1 X105.650 Y100.805 E3.86971
G1 X105.297 Y101.001 E3.88810
G1 X106.117 Y101.821 E3.94091
G1 X105.799 Y102.051 E3.95882
G1 X104.967 Y101.220 E4.01239
G1 X104.667 Y101.469 E4.03014
G1 X105.518 Y102.320 E4.08493
G1 X105.277 Y102.627 E4.10274
G1 X104.405 Y101.755 E4.15890
G1 X104.181 Y102.081 E4.17688
G1 X105.082 Y102.981 E4.23488
G1 X104.949 Y103.397 E4.25476
G1 X104.002 Y102.450 E4.31575
G1 X103.873 Y102.870 E4.33577
G1 X104.900 Y103.897 E4.40192
G1 X104.975 Y104.521 E4.43051
G1 X103.802 Y103.349 E4.50600
G1 X103.820 Y103.915 E4.53180
G1 X105.325 Y105.420 E4.62878
G1 X105.959 Y106.054 F7800.000
G1 X107.054 Y107.149 E4.69930 F540.000
G1 X106.915 Y106.461 E4.73122
G1 X107.741 Y107.288 E4.78443
G1 X108.331 Y107.328 E4.81133
G1 X107.616 Y106.613 E4.85735
G1 X108.235 Y106.683 E4.88569
G1 X108.920 Y107.368 E4.92983
G1 X109.474 Y107.373 E4.95505
G1 X108.818 Y106.718 E4.99726
G1 X109.359 Y106.710 E5.02188
G1 X109.994 Y107.344 E5.06276
G1 X110.514 Y107.315 E5.08647
G1 X109.877 Y106.679 E5.12746
G1 X110.361 Y106.614 E5.14969
G1 X110.997 Y107.250 E5.19066
G1 X111.454 Y107.158 E5.21189
G1 X110.814 Y106.518 E5.25310
G1 X111.239 Y106.394 E5.27324
G1 X111.911 Y107.067 E5.31657
G1 X112.306 Y106.912 E5.33586
G1 X111.622 Y106.229 E5.37989
G1 X111.985 Y106.042 E5.39845
G1 X112.692 Y106.750 E5.44402
G1 X113.041 Y106.550 E5.46234
G1 X112.292 Y105.801 E5.51058
G1 X112.593 Y105.552 E5.52833
G1 X113.347 Y106.307 E5.57691
G1 X113.634 Y106.045 E5.59461
G1 X112.823 Y105.234 E5.64682
G1 X113.054 Y104.916 E5.66472
G1 X113.869 Y105.731 E5.71724
G1 X114.097 Y105.410 E5.73517
G1 X113.218 Y104.531 E5.79180
G1 X113.826 Y104.590 E5.81963
G1 X114.276 Y105.040 E5.84863
G92 E0
G1 X113.113 Y98.952 F7800.000
G1 X113.113 Y98.952 F7800.000
G1 X112.440 Y99.910 F7800.000
G1 X111.619 Y99.089 E0.05287 F540.000
G1 X112.006 Y98.928 E0.07199
G1 X112.825 Y99.747 E0.12472
G1 X113.197 Y99.569 E0.14347
G1 X112.370 Y98.743 E0.19669
G1 X112.707 Y98.531 E0.21482
G1 X113.543 Y99.367 E0.26863
G1 X113.859 Y99.135 E0.28652
G1 X113.012 Y98.287 E0.34111
G1 X113.270 Y97.996 E0.35882
G1 X114.143 Y98.869 E0.41506
G1 X114.391 Y98.568 E0.43282
G1 X113.483 Y97.661 E0.49127
G1 X113.645 Y97.274 E0.51038
G1 X114.594 Y98.223 E0.57150
G1 X114.754 Y97.833 E0.59067
G1 X113.746 Y96.825 E0.65557
G1 X113.772 Y96.302 E0.67943
G1 X114.862 Y97.393 E0.74965
G1 X114.914 Y96.896 E0.77238
G1 X113.676 Y95.658 E0.85214
G1 X113.244 Y94.677 F7800.000
G1 X114.870 Y96.303 E0.95685 F540.000
G1 X114.780 Y95.664 E0.98624
G1 X112.215 Y93.099 E1.15143
G1 X113.478 Y93.813 F7800.000
G1 X114.320 Y94.655 E1.20565 F540.000
G1 X112.955 Y94.388 F7800.000
G1 X111.481 Y92.914 E1.30059 F540.000
G1 X110.753 Y92.734 E1.33476
G1 X111.676 Y93.658 E1.39426
G1 X110.969 Y93.499 E1.42730
G1 X110.163 Y92.693 E1.47920
G1 X109.573 Y92.652 E1.50613
G1 X110.321 Y93.401 E1.55435
G1 X109.730 Y93.359 E1.58133
G1 X108.988 Y92.617 E1.62912
G1 X108.505 Y92.682 E1.65134
G1 X109.152 Y93.329 E1.69301
G1 X108.634 Y93.360 E1.71664
G1 X108.021 Y92.747 E1.75610
G1 X107.538 Y92.813 E1.77833
G1 X108.116 Y93.391 E1.81557
G1 X107.644 Y93.468 E1.83736
G1 X107.054 Y92.878 E1.87534
G1 X106.570 Y92.943 E1.89756
G1 X107.190 Y93.563 E1.93750
G1 X106.755 Y93.677 E1.95799
G1 X106.087 Y93.009 E2.00102
G1 X105.713 Y93.184 E2.01982
G1 X106.370 Y93.841 E2.06213
G1 X105.985 Y94.005 E2.08118
G1 X105.370 Y93.390 E2.12079
G1 X105.028 Y93.596 E2.13901
G1 X105.660 Y94.228 E2.17973
G1 X105.350 Y94.467 E2.19755
G1 X104.685 Y93.802 E2.24040
G1 X104.342 Y94.008 E2.25862
G1 X105.062 Y94.728 E2.30502
G1 X104.831 Y95.046 E2.32292
G1 X104.024 Y94.239 E2.37490
G1 X103.836 Y94.600 E2.39343
G1 X104.600 Y95.364 E2.44263
G1 X104.432 Y95.745 E2.46159
G1 X103.649 Y94.962 E2.51199
G1 X103.463 Y95.324 E2.53054
G1 X103.973 Y95.835 E2.56343
G92 E0
G1 X105.451 Y101.585 F7800.000
G1 X105.451 Y101.585 F7800.000
G1 X106.420 Y100.478 F7800.000
G1 X107.251 Y101.308 E0.05349 F540.000
G1 X107.674 Y101.182 E0.07358
G1 X106.827 Y100.335 E0.12815
G1 X107.251 Y100.211 E0.14830
G1 X108.103 Y101.062 E0.20313
G1 X108.539 Y100.950 E0.22365
G1 X107.679 Y100.090 E0.27903
G1 X108.123 Y99.985 E0.29981
G1 X108.982 Y100.844 E0.35513
G1 X109.425 Y100.738 E0.37587
G1 X108.567 Y99.880 E0.43114
G1 X109.011 Y99.775 E0.45191
G1 X109.868 Y100.632 E0.50712
G1 X110.311 Y100.526 E0.52786
G1 X109.454 Y99.670 E0.58301
G1 X109.898 Y99.564 E0.60378
G1 X110.754 Y100.420 E0.65887
G1 X111.197 Y100.314 E0.67961
G1 X110.342 Y99.459 E0.73464
G1 X110.781 Y99.350 E0.75525
G1 X111.625 Y100.193 E0.80958
G1 X112.040 Y100.060 E0.82945
G1 X111.211 Y99.230 E0.88288
G1 X105.451 Y101.585 F7800.000
G1 X104.428 Y102.968 F7800.000
G1 X103.908 Y104.551 F7800.000
G1 X106.325 Y106.968 E1.03856 F540.000
G1 X105.237 Y106.430 F7800.000
G1 X104.324 Y105.517 E1.09737 F540.000
G92 E0
G1 X103.363 Y103.215 F7800.000
G1 X99.924 Y102.042 F7800.000
G1 X99.987 Y101.275 F7800.000
G1 X96.263 Y101.709 F7800.000
G1 X95.274 Y100.285 F7800.000
G1 X95.597 Y100.677 E0.02299 F378.000
G1 X96.043 Y101.766 E0.07622
G1 X96.193 Y103.055 E0.13496
G1 X96.044 Y104.347 E0.19380
G1 X95.600 Y105.415 E0.24612
G1 X94.864 Y106.272 E0.29726
G1 X93.852 Y106.907 E0.35131
G1 X92.579 Y107.292 E0.41148
G1 X91.031 Y107.423 E0.48178
G1 X84.848 Y107.423 E0.76158
G1 X84.848 Y92.577 E1.43336
G1 X86.469 Y92.577 E1.50670
G1 X86.469 Y98.556 E1.77725
G1 X91.162 Y98.556 E1.98962 F378.000
G1 X92.629 Y98.695 E2.05629
G1 X93.854 Y99.103 E2.11471
G1 X94.855 Y99.777 E2.16933
G1 X95.127 Y100.107 E2.18867
G1 X94.153 Y101.206 F7800.000
G1 X94.569 Y103.035 E2.27350 F378.000
G1 X94.145 Y104.800 E2.35567
G1 X92.859 Y105.872 E2.43144
G1 X90.810 Y106.214 E2.52541
G1 X86.469 Y106.214 E2.72187
G1 X86.469 Y99.743 E3.01468 F378.000
G1 X90.897 Y99.743 E3.21508
G1 X92.902 Y100.098 E3.30717
G1 X93.980 Y101.053 E3.37235
G1 X94.862 Y100.252 F7800.000
G1 X94.477 Y99.867 E3.39726 F540.000
G1 X93.220 Y99.161 F7800.000
G1 X95.713 Y101.654 E3.55842 F540.000
G1 X95.875 Y102.368 E3.59188
G1 X92.417 Y98.910 E3.81546
G1 X91.809 Y98.852 E3.84340
G1 X92.790 Y99.833 E3.90681
G1 X92.120 Y99.714 E3.93790
G1 X91.200 Y98.795 E3.99736
G1 X90.637 Y98.782 E4.02314
G1 X91.451 Y99.596 E4.07575
G1 X90.821 Y99.517 E4.10476
G1 X90.086 Y98.782 E4.15229
G1 X89.535 Y98.782 E4.17748
G1 X90.270 Y99.517 E4.22500
G1 X89.719 Y99.517 E4.25019
G1 X88.984 Y98.782 E4.29772
G1 X88.433 Y98.782 E4.32291
G1 X89.168 Y99.517 E4.37043
G1 X88.617 Y99.517 E4.39562
G1 X87.882 Y98.782 E4.44315
G1 X87.331 Y98.782 E4.46834
G1 X88.066 Y99.517 E4.51587
G1 X87.515 Y99.517 E4.54106
G1 X86.780 Y98.782 E4.58858
G1 X86.243 Y98.796 E4.61314
G1 X85.074 Y97.627 E4.68873
G1 X85.074 Y97.076 E4.71392
G1 X86.243 Y98.245 E4.78951
G1 X86.229 Y98.782 E4.81407
G1 X86.964 Y99.517 E4.86160
G1 X86.413 Y99.517 E4.88679
G1 X85.074 Y98.178 E4.97338
G1 X85.074 Y98.729 E4.99857
G1 X86.243 Y99.898 E5.07415
G1 X86.243 Y100.449 E5.09934
G1 X85.074 Y99.280 E5.17493
G1 X85.074 Y99.831 E5.20012
G1 X86.243 Y101.000 E5.27570
G1 X86.243 Y101.551 E5.30089
G1 X85.074 Y100.382 E5.37648
G1 X85.074 Y100.933 E5.40167
G1 X86.243 Y102.102 E5.47726
G1 X86.243 Y102.653 E5.50245
G1 X85.074 Y101.484 E5.57803
G1 X85.074 Y102.035 E5.60322
G1 X86.243 Y103.204 E5.67881
G1 X86.243 Y103.755 E5.70400
G1 X85.074 Y102.586 E5.77958
G1 X85.074 Y103.137 E5.80477
G1 X86.243 Y104.306 E5.88036
G1 X86.243 Y104.857 E5.90555
G1 X85.074 Y103.688 E5.98113
G1 X85.074 Y104.239 E6.00632
G1 X86.243 Y105.408 E6.08191
G1 X86.243 Y105.959 E6.10710
G1 X85.074 Y104.790 E6.18268
G1 X85.074 Y105.341 E6.20787
G1 X86.930 Y107.197 E6.32791
G1 X87.481 Y107.197 E6.35310
G1 X86.724 Y106.440 E6.40204
G1 X87.275 Y106.440 E6.42723
G1 X88.032 Y107.197 E6.47618
G1 X88.583 Y107.197 E6.50137
G1 X87.826 Y106.440 E6.55032
G1 X88.377 Y106.440 E6.57551
G1 X89.134 Y107.197 E6.62446
G1 X89.685 Y107.197 E6.64965
G1 X88.928 Y106.440 E6.69859
G1 X89.479 Y106.440 E6.72378
G1 X90.236 Y107.197 E6.77273
G1 X90.787 Y107.197 E6.79792
G1 X90.030 Y106.440 E6.84687
G1 X90.581 Y106.440 E6.87206
G1 X91.319 Y107.178 E6.91981
G1 X91.828 Y107.136 E6.94312
G1 X91.078 Y106.386 E6.99158
G1 X91.550 Y106.307 E7.01347
G1 X92.336 Y107.093 E7.06425
G1 X92.803 Y107.009 E7.08597
G1 X92.022 Y106.228 E7.13645
G1 X92.495 Y106.150 E7.15834
G1 X93.226 Y106.881 E7.20563
G1 X93.649 Y106.753 E7.22584
G1 X92.946 Y106.050 E7.27128
G1 X93.247 Y105.800 E7.28916
G1 X94.019 Y106.572 E7.33909
G1 X94.358 Y106.360 E7.35736
G1 X93.547 Y105.549 E7.40976
G1 X93.848 Y105.299 E7.42765
G1 X94.691 Y106.142 E7.48216
G1 X94.962 Y105.863 E7.49997
G1 X94.148 Y105.048 E7.55262
G1 X94.378 Y104.727 E7.57068
G1 X95.217 Y105.566 E7.62493
G1 X95.451 Y105.250 E7.64294
G1 X94.484 Y104.283 E7.70546
G1 X94.591 Y103.838 E7.72635
G1 X95.613 Y104.860 E7.79243
G1 X95.775 Y104.471 E7.81171
G1 X94.698 Y103.394 E7.88134
G1 X94.801 Y102.946 E7.90234
G1 X95.864 Y104.009 E7.97108
G1 X95.921 Y103.516 E7.99381
G1 X94.640 Y102.234 E8.07663
G1 X94.480 Y101.523 E8.10999
G1 X95.948 Y102.991 E8.20494
G1 X94.932 Y105.004 F7800.000
G1 X94.148 Y105.807 F7800.000
G1 X86.379 Y107.197 F7800.000
G1 X85.074 Y105.891 E8.28935 F540.000
G1 X85.074 Y106.442 E8.31454
G1 X85.828 Y107.197 E8.36333
G1 X85.277 Y107.197 E8.38852
G1 X85.074 Y106.993 E8.40168
G1 X86.243 Y97.694 F7800.000
G1 X85.074 Y96.525 E8.47726 F540.000
G1 X85.074 Y95.974 E8.50245
G1 X86.243 Y97.143 E8.57804
G1 X86.243 Y96.592 E8.60323
G1 X85.074 Y95.423 E8.67882
G1 X85.074 Y94.872 E8.70401
G1 X86.243 Y96.041 E8.77959
G1 X86.243 Y95.490 E8.80478
G1 X85.074 Y94.321 E8.88037
G1 X85.074 Y93.770 E8.90556
G1 X86.243 Y94.939 E8.98114
G1 X86.243 Y94.388 E9.00633
G1 X85.074 Y93.219 E9.08192
G1 X85.209 Y92.803 E9.10191
G1 X86.243 Y93.837 E9.16876
G1 X86.243 Y93.286 E9.19395
G1 X85.760 Y92.803 E9.22518
M106 S255
G92 E0
G1 Z0.600 F7800.000
G1 X114.270 Y104.194 F7800.000
G1 X113.191 Y105.700 E0.55491 F600.000
G1 X112.847 Y106.033 E0.69860
G1 X112.606 Y106.223 E0.79046
G1 X112.254 Y106.430 E0.91289
G1 X111.783 Y106.647 E1.06842
G1 X111.166 Y106.831 E1.26133
G1 X110.614 Y106.944 E1.43012
G1 X110.176 Y106.998 E1.56233
G1 X109.126 Y107.058 E1.87733
G1 X107.932 Y106.983 E2.23605
G1 X107.528 Y106.930 E2.35813
G1 X106.881 Y106.780 E2.55716
G1 X106.270 Y106.577 E2.74986
G1 X105.754 Y106.307 E2.92442
G1 X105.361 Y106.040 E3.06680
G1 X105.185 Y105.878 E3.13852
G1 X104.967 Y105.636 E3.23611
G1 X104.787 Y105.397 E3.32584
G1 X104.610 Y105.055 E3.44121
G1 X104.460 Y104.671 E3.56451
G1 X104.367 Y104.014 E3.76345
G1 X104.347 Y103.723 E3.85102
G1 X104.376 Y103.334 E3.96772
G1 X104.455 Y102.975 E4.07798
G1 X104.563 Y102.656 E4.17893
G1 X104.643 Y102.501 E4.23124
G1 X104.900 Y102.100 E4.37392
G1 X105.131 Y101.855 E4.47474
G1 X105.420 Y101.606 E4.58916
G1 X105.809 Y101.349 E4.72874
G1 X106.347 Y101.077 E4.90935
G1 X107.164 Y100.782 E5.16987
G1 X108.099 Y100.523 E5.46057
G1 X111.203 Y99.777 E6.41693
G1 X111.976 Y99.524 E6.66076
G1 X112.513 Y99.291 E6.83617
G1 X113.032 Y99.010 E7.01295
G1 X113.363 Y98.768 E7.13573
G1 X113.729 Y98.410 E7.28923
G1 X113.898 Y98.188 E7.37288
G1 X114.041 Y97.941 E7.45825
G1 X114.166 Y97.670 E7.54785
G1 X114.255 Y97.364 E7.64338
G1 X114.322 Y97.006 E7.75242
G1 X114.346 Y96.630 E7.86529
G1 X114.324 Y96.327 E7.95631
G1 X114.217 Y95.589 E8.17975
G1 X114.063 Y95.199 E8.30541
G1 X113.846 Y94.785 E8.44550
G1 X113.665 Y94.547 E8.53510
G1 X113.444 Y94.305 E8.63322
G1 X113.189 Y94.072 E8.73700
G1 X112.597 Y93.690 E8.94805
G1 X112.172 Y93.484 E9.08944
G1 X111.591 Y93.289 E9.27307
G1 X110.799 Y93.103 E9.51705
G1 X110.561 Y93.068 E9.58912
G1 X109.105 Y92.971 E10.02639
G1 X107.797 Y93.102 E10.42013
G1 X106.615 Y93.314 E10.78002
G1 X106.179 Y93.434 E10.91555
G1 X105.764 Y93.646 E11.05522
G1 X104.888 Y94.228 E11.37028
G1 X104.473 Y94.582 E11.53377
G1 X104.066 Y95.275 E11.77440
G1 X103.634 Y96.245 E12.09276
G92 E0
G1 X102.617 Y96.042 F7800.000
G1 X97.605 Y95.237 F7800.000
G1 X97.745 Y95.547 F7800.000
G1 X95.008 Y99.609 F7800.000
G1 X86.509 Y102.637 F7800.000
G1 X85.658 Y98.331 E1.31513 F600.000
G1 X85.658 Y92.352 E3.10672
G1 X85.820 Y99.149 F7800.000
G1 X91.022 Y99.156 E4.66537 F600.000
G1 X92.491 Y99.350 E5.10941
G1 X92.949 Y99.466 E5.25112
G1 X93.388 Y99.645 E5.39308
G1 X93.543 Y99.734 E5.44674
G1 X94.336 Y100.349 E5.74739
G1 X94.590 Y100.612 E5.85684
G1 X94.923 Y101.080 E6.02917
G1 X95.207 Y101.981 E6.31226
G1 X95.375 Y103.055 E6.63801
G1 X95.197 Y104.127 E6.96347
G1 X94.914 Y104.993 E7.23644
G1 X94.577 Y105.435 E7.40301
G1 X94.342 Y105.666 E7.50172
G1 X93.549 Y106.241 E7.79523
G1 X93.340 Y106.354 E7.86655
G1 X92.905 Y106.519 E8.00593
G1 X92.452 Y106.625 E8.14538
G1 X91.005 Y106.807 E8.58222
G1 X90.792 Y106.818 E8.64629
G1 X86.694 Y106.818 E9.87424
G1 X85.731 Y106.539 E10.17450
G1 X85.658 Y105.989 E10.34086
G1 X85.658 Y99.968 E12.14503
G1 X85.820 Y99.149 E12.39503
G92 E0
G1 Z0.900 F7800.000
