; generated by Slic3r 1.2.9 on 2016-03-11 at 01:29:02

; external perimeters extrusion width = 1.54mm
; perimeters extrusion width = 2.62mm
; infill extrusion width = 6.27mm
; solid infill extrusion width = 2.62mm
; top infill extrusion width = 2.62mm

M107
M104 S30 ; set temperature
G28 ; home all axes
G1 Z5 F5000 ; lift nozzle
M302
M92 E10000
M500
M501
G1 E100
M109 S30 ; wait for temperature to be reached
G21 ; set units to millimeters
G90 ; use absolute coordinates
M82 ; use absolute distances for extrusion
G92 E0
G1 Z0.300 F7800.000
G1 X94.370 Y108.132 F7800.000
G1 X93.484 Y108.730 E0.04839 F378.000
G1 X92.311 Y109.229 E0.10605
G1 X90.999 Y109.530 E0.16696
G1 X89.549 Y109.630 E0.23270
G1 X87.386 Y109.406 E0.33113
G1 X85.582 Y108.738 E0.41817
G1 X84.123 Y107.631 E0.50104
G1 X83.046 Y106.131 E0.58461
G1 X82.397 Y104.276 E0.67351
G1 X82.178 Y102.055 E0.77451
G1 X82.267 Y100.611 E0.83998
G1 X82.534 Y99.290 E0.90097
G1 X82.976 Y98.094 E0.95864
G1 X83.583 Y97.048 E1.01340
G1 X84.346 Y96.169 E1.06604
G1 X85.267 Y95.456 E1.11875
G1 X86.333 Y94.918 E1.17278
G1 X87.531 Y94.566 E1.22927
G1 X89.014 Y94.383 E1.29690
G1 X89.548 Y92.960 E1.36566
G1 X90.105 Y91.961 E1.41741
G1 X90.731 Y91.243 E1.46052
G1 X91.452 Y90.760 E1.49979
G1 X92.299 Y90.468 E1.54029
G1 X93.284 Y90.369 E1.58511
G1 X93.837 Y90.393 E1.61015
G1 X94.510 Y90.473 E1.64083 F378.000
G1 X94.984 Y90.567 E1.66267
G1 X94.984 Y91.566 E1.70786
G1 X94.413 Y91.490 E1.73389
G1 X93.955 Y91.470 E1.75467
G1 X93.219 Y91.541 E1.78813
G1 X92.558 Y91.762 E1.81963
G1 X91.986 Y92.132 E1.85046
G1 X91.501 Y92.661 E1.88296
G1 X91.076 Y93.383 E1.92087
G1 X90.664 Y94.442 E1.97228
G1 X92.675 Y94.939 E2.06599
G1 X94.130 Y95.730 E2.14095
G1 X95.312 Y96.886 E2.21577
G1 X96.187 Y98.354 E2.29308
G1 X96.715 Y100.076 E2.37460
G1 X96.892 Y102.063 E2.46483
G1 X96.793 Y103.562 E2.53283
G1 X96.499 Y104.919 E2.59563
G1 X96.011 Y106.130 E2.65476
G1 X95.340 Y107.179 E2.71106
G1 X94.551 Y107.991 E2.76230
G1 X93.579 Y106.828 F7800.000
G1 X92.612 Y107.636 E2.81934 F378.000
G1 X91.207 Y108.203 E2.88789
G1 X89.547 Y108.390 E2.96350
G1 X87.874 Y108.206 E3.03966
G1 X86.460 Y107.647 E3.10844
G1 X85.319 Y106.711 E3.17522
G1 X84.488 Y105.443 E3.24382
G1 X83.994 Y103.890 E3.31756
G1 X83.831 Y102.059 E3.40076
G1 X83.996 Y100.230 E3.48384
G1 X84.495 Y98.659 E3.55846
G1 X85.333 Y97.350 E3.62879
G1 X86.476 Y96.369 E3.69694
G1 X87.877 Y95.781 E3.76573
G1 X89.379 Y95.604 E3.83414
G1 X89.524 Y95.587 E3.84074 F378.000
G1 X91.208 Y95.774 E3.91741
G1 X92.624 Y96.343 E3.98646
G1 X93.759 Y97.295 E4.05349
G1 X94.580 Y98.588 E4.12281
G1 X95.068 Y100.178 E4.19807
G1 X95.229 Y102.059 E4.28352
G1 X95.067 Y103.869 E4.36572
G1 X94.575 Y105.414 E4.43910
G1 X93.754 Y106.677 E4.50727
G92 E0
G1 X94.538 Y106.892 F7800.000
G1 X94.538 Y106.892 F7800.000
G1 X87.487 Y108.335 F7800.000
G1 X88.431 Y109.278 E0.06067 F540.000
G1 X89.042 Y109.341 E0.08864
G1 X88.177 Y108.476 E0.14429
G1 X88.793 Y108.544 E0.17248
G1 X89.651 Y109.402 E0.22767
G1 X90.164 Y109.367 E0.25104
G1 X89.409 Y108.612 E0.29957
G1 X89.913 Y108.568 E0.32258
G1 X90.676 Y109.331 E0.37167
G1 X91.169 Y109.276 E0.39422
G1 X90.406 Y108.512 E0.44332
G1 X90.898 Y108.457 E0.46587
G1 X91.615 Y109.173 E0.51196
G1 X92.061 Y109.071 E0.53277
G1 X91.352 Y108.362 E0.57838
G1 X91.742 Y108.204 E0.59753
G1 X92.478 Y108.940 E0.64486
G1 X92.863 Y108.777 E0.66387
G1 X92.133 Y108.047 E0.71081
G1 X92.523 Y107.889 E0.72997
G1 X93.247 Y108.613 E0.77653
G1 X93.600 Y108.417 E0.79487
G1 X92.861 Y107.679 E0.84238
G1 X93.160 Y107.429 E0.86007
G1 X93.927 Y108.196 E0.90941
G1 X94.254 Y107.975 E0.92737
G1 X93.458 Y107.180 E0.97854
G1 X93.757 Y106.930 E0.99624
G1 X94.535 Y107.708 E1.04627
G1 X94.809 Y107.434 E1.06390
G1 X94.012 Y106.637 E1.11516
G1 X94.228 Y106.305 E1.13318
G1 X95.083 Y107.160 E1.18818
G1 X95.320 Y106.849 E1.20597
G1 X94.444 Y105.972 E1.26234
G1 X94.660 Y105.640 E1.28037
G1 X95.534 Y106.514 E1.33661
G1 X95.748 Y106.180 E1.35466
G1 X94.836 Y105.268 E1.41330
G1 X94.969 Y104.853 E1.43314
G1 X95.924 Y105.808 E1.49458
G1 X96.081 Y105.417 E1.51374
G1 X95.101 Y104.437 E1.57678
G1 X95.233 Y104.021 E1.59663
G1 X96.239 Y105.026 E1.66128
G1 X96.354 Y104.594 E1.68164
G1 X95.315 Y103.555 E1.74849
G1 X95.360 Y103.052 E1.77145
G1 X96.452 Y104.143 E1.84168
G1 X96.550 Y103.693 E1.86264
G1 X95.405 Y102.549 E1.93625
G1 X95.450 Y102.046 E1.95922
G1 X96.597 Y103.192 E2.03293
G1 X96.630 Y102.677 E2.05638
G1 X95.412 Y101.459 E2.13473
G1 X95.361 Y100.860 E2.16210
G1 X96.664 Y102.163 E2.24592
G1 X96.613 Y101.564 E2.27328
G1 X95.310 Y100.260 E2.35712
G1 X95.138 Y99.541 E2.39076
G1 X96.559 Y100.962 E2.48218
G1 X96.506 Y100.360 E2.50966
G1 X94.895 Y98.750 E2.61323
G1 X96.066 Y98.824 F7800.000
G1 X92.358 Y95.116 E2.85177 F540.000
G1 X91.630 Y94.936 E2.88588
G1 X92.841 Y96.147 E2.96380
G1 X93.480 Y95.690 F7800.000
G1 X95.446 Y97.656 E3.09025 F540.000
G1 X94.277 Y97.583 F7800.000
G1 X96.308 Y99.614 E3.22093 F540.000
G1 X91.925 Y95.779 F7800.000
G1 X90.902 Y94.756 E3.28674 F540.000
G1 X90.333 Y94.736 E3.31261
G1 X89.435 Y93.838 E3.37040
G1 X90.765 Y92.382 F7800.000
G1 X90.765 Y92.382 F7800.000
G1 X94.758 Y90.938 F7800.000
G1 X94.548 Y90.729 E3.38385 F540.000
G1 X94.538 Y91.267 E3.40833
G1 X93.911 Y90.640 E3.44868
G1 X93.324 Y90.601 E3.47543
G1 X93.972 Y91.248 E3.51708
G1 X93.472 Y91.297 E3.53990
G1 X92.812 Y90.636 E3.58241
G1 X92.313 Y90.686 E3.60518
G1 X93.020 Y91.392 E3.65060
G1 X92.609 Y91.530 E3.67031
G1 X91.900 Y90.821 E3.71587
G1 X91.496 Y90.965 E3.73539
G1 X92.256 Y91.725 E3.78431
G1 X91.923 Y91.941 E3.80234
G1 X91.168 Y91.185 E3.85095
G1 X90.843 Y91.408 E3.86887
G1 X91.649 Y92.215 E3.92075
G1 X91.387 Y92.501 E3.93839
G1 X90.587 Y91.701 E3.98984
G1 X90.332 Y91.993 E4.00751
G1 X91.172 Y92.834 E4.06156
G1 X90.969 Y93.179 E4.07977
G1 X90.122 Y92.332 E4.13420
G1 X89.926 Y92.684 E4.15253
G1 X90.793 Y93.552 E4.20832
G1 X90.640 Y93.946 E4.22758
G1 X89.734 Y93.040 E4.28588
G1 X89.584 Y93.439 E4.30525
G1 X90.487 Y94.341 E4.36330
G1 X90.174 Y94.576 E4.38110
G1 X91.125 Y95.528 E4.44231
G1 X90.508 Y95.459 E4.47054
G1 X89.285 Y94.236 E4.54921
G1 X89.092 Y94.591 E4.56759
G1 X89.892 Y95.391 E4.61901
G1 X89.342 Y95.389 E4.64399
G1 X88.604 Y94.651 E4.69145
G1 X88.117 Y94.712 E4.71381
G1 X88.852 Y95.447 E4.76112
G1 X88.362 Y95.505 E4.78357
G1 X87.629 Y94.772 E4.83071
G1 X87.190 Y94.881 E4.85129
G1 X87.873 Y95.565 E4.89525
G1 X87.487 Y95.727 E4.91430
G1 X86.766 Y95.006 E4.96067
G1 X86.346 Y95.134 E4.98065
G1 X87.101 Y95.889 E5.02922
G1 X86.715 Y96.051 E5.04827
G1 X85.981 Y95.317 E5.09544
G1 X85.617 Y95.501 E5.11400
G1 X86.344 Y96.228 E5.16075
G1 X86.049 Y96.481 E5.17843
G1 X85.268 Y95.700 E5.22868
G1 X84.959 Y95.939 E5.24645
G1 X85.754 Y96.735 E5.29761
G1 X85.459 Y96.988 E5.31529
G1 X84.650 Y96.178 E5.36735
G1 X84.370 Y96.447 E5.38498
G1 X85.169 Y97.245 E5.43632
G1 X84.955 Y97.579 E5.45436
G1 X84.110 Y96.735 E5.50869
G1 X83.855 Y97.028 E5.52637
G1 X84.740 Y97.914 E5.58332
G1 X84.526 Y98.248 E5.60137
G1 X83.632 Y97.354 E5.65889
G1 X83.431 Y97.700 E5.67713
G1 X84.312 Y98.582 E5.73382
G1 X84.174 Y98.991 E5.75349
G1 X83.230 Y98.047 E5.81422
G1 X83.067 Y98.433 E5.83324
G1 X84.042 Y99.407 E5.89595
G1 X83.910 Y99.824 E5.91581
G1 X82.919 Y98.833 E5.97954
G1 X82.771 Y99.233 E5.99895
G1 X83.778 Y100.240 E6.06371
G1 X83.730 Y100.740 E6.08657
G1 X82.670 Y99.681 E6.15471
G1 X82.578 Y100.137 E6.17587
G1 X83.684 Y101.243 E6.24702
G1 X83.639 Y101.746 E6.26998
G1 X82.490 Y100.596 E6.34392
G1 X82.458 Y101.112 E6.36745
G1 X83.615 Y102.270 E6.44188
G1 X83.669 Y102.871 E6.46936
G1 X82.426 Y101.629 E6.54928
G1 X82.426 Y102.177 E6.57420
G1 X83.722 Y103.473 E6.65759
G1 X83.790 Y104.089 E6.68576
G1 X82.486 Y102.785 E6.76965
G1 X82.545 Y103.393 E6.79744
G1 X84.046 Y104.893 E6.89394
G1 X84.339 Y105.735 F7800.000
G1 X82.605 Y104.001 E7.00546 F540.000
G1 X82.851 Y104.795 E7.04329
G1 X87.068 Y109.011 E7.31448
G1 X87.819 Y109.214 E7.34987
G1 X86.580 Y107.976 E7.42953
G1 X86.198 Y108.690 F7800.000
G1 X83.147 Y105.639 E7.62577 F540.000
G1 X84.191 Y107.231 F7800.000
G1 X84.546 Y107.586 E7.64857 F540.000
G92 E0
G1 X97.118 Y102.060 F7800.000
G1 X100.537 Y99.712 F7800.000
G1 X100.513 Y97.627 F7800.000
G1 X100.533 Y96.184 F7800.000
G1 X104.845 Y97.869 F7800.000
G1 X112.769 Y94.508 F7800.000
G1 X114.113 Y94.845 E0.06269 F378.000
G1 X115.275 Y95.397 E0.12087
G1 X116.294 Y96.159 E0.17846
G1 X117.150 Y97.123 E0.23681
G1 X117.731 Y98.104 E0.28837
G1 X116.427 Y98.753 E0.35428
G1 X115.257 Y97.118 E0.44524
G1 X113.571 Y96.016 E0.53638
G1 X111.526 Y95.651 E0.63040
G1 X109.902 Y95.848 E0.70442
G1 X108.512 Y96.441 E0.77280
G1 X107.364 Y97.430 E0.84136
G1 X106.513 Y98.738 E0.91198
G1 X106.005 Y100.290 E0.98587
G1 X105.838 Y102.080 E1.06718
G1 X105.999 Y103.879 E1.14891
G1 X106.486 Y105.417 E1.22192
G1 X107.306 Y106.688 E1.29037
G1 X108.426 Y107.636 E1.35677
G1 X109.806 Y108.203 E1.42429
G1 X111.428 Y108.390 E1.49817
G1 X112.499 Y108.309 E1.54679
G1 X113.472 Y108.066 E1.59215
G1 X114.348 Y107.658 E1.63587
G1 X115.101 Y107.093 E1.67849
G1 X115.704 Y106.380 E1.72074
G1 X116.054 Y105.713 E1.75480
G1 X117.582 Y106.218 E1.82761
G1 X117.109 Y107.104 E1.87305
G1 X116.338 Y108.005 E1.92671
G1 X115.382 Y108.710 E1.98050
G1 X114.241 Y109.220 E2.03702
G1 X112.918 Y109.527 E2.09847
G1 X111.416 Y109.630 E2.16661
G1 X109.301 Y109.406 E2.26282
G1 X107.535 Y108.739 E2.34824
G1 X106.102 Y107.632 E2.43019
G1 X105.041 Y106.134 E2.51325
G1 X104.401 Y104.287 E2.60172
G1 X104.186 Y102.077 E2.70217
G1 X104.282 Y100.562 E2.77086
G1 X104.570 Y99.192 E2.83420
G1 X105.048 Y97.970 E2.89357
G1 X105.704 Y96.912 E2.94991
G1 X106.531 Y96.033 E3.00452
G1 X107.531 Y95.330 E3.05984
G1 X108.687 Y94.815 E3.11711
G1 X109.984 Y94.505 E3.17742
G1 X111.422 Y94.402 E3.24266
G1 X112.539 Y94.490 E3.29338
G1 X113.530 Y94.951 F7800.000
G1 X115.547 Y96.968 E3.42251 F540.000
G1 X115.399 Y96.821 F7800.000
G1 X116.883 Y98.304 E3.51749 F540.000
G1 X117.247 Y98.123 E3.53590
G1 X114.406 Y95.282 E3.71781
G1 X113.971 Y95.938 F7800.000
G1 X112.794 Y94.761 E3.79316 F540.000
G1 X112.183 Y94.695 E3.82099
G1 X113.190 Y95.702 E3.88547
G1 X112.526 Y95.584 E3.91601
G1 X111.590 Y94.648 E3.97589
G1 X111.046 Y94.650 E4.00053
G1 X111.861 Y95.465 E4.05274
G1 X111.309 Y95.459 E4.07773
G1 X110.537 Y94.686 E4.12717
G1 X110.028 Y94.723 E4.15026
G1 X110.823 Y95.518 E4.20112
G1 X110.336 Y95.577 E4.22331
G1 X109.577 Y94.818 E4.27190
G1 X109.137 Y94.923 E4.29239
G1 X109.861 Y95.647 E4.33875
G1 X109.479 Y95.810 E4.35757
G1 X108.698 Y95.029 E4.40757
G1 X108.320 Y95.197 E4.42628
G1 X109.097 Y95.974 E4.47599
G1 X108.714 Y96.137 E4.49481
G1 X107.942 Y95.365 E4.54421
G1 X107.570 Y95.539 E4.56280
G1 X108.355 Y96.323 E4.61300
G1 X108.062 Y96.576 E4.63052
G1 X107.250 Y95.764 E4.68247
G1 X106.930 Y95.989 E4.70019
G1 X107.769 Y96.828 E4.75388
G1 X107.476 Y97.081 E4.77140
G1 X106.630 Y96.235 E4.82552
G1 X106.357 Y96.508 E4.84299
G1 X107.190 Y97.341 E4.89632
G1 X106.975 Y97.672 E4.91417
G1 X106.088 Y96.784 E4.97097
G1 X105.833 Y97.075 E4.98847
G1 X106.760 Y98.002 E5.04783
G1 X106.545 Y98.332 E5.06568
G1 X105.624 Y97.411 E5.12466
G1 X105.415 Y97.748 E5.14259
G1 X106.330 Y98.663 E5.20117
G1 X106.190 Y99.068 E5.22059
G1 X105.216 Y98.094 E5.28295
G1 X105.062 Y98.487 E5.30202
G1 X106.055 Y99.479 E5.36558
G1 X105.921 Y99.891 E5.38516
G1 X104.909 Y98.879 E5.44993
G1 X104.767 Y99.282 E5.46929
G1 X105.786 Y100.302 E5.53456
G1 X105.738 Y100.799 E5.55718
G1 X104.672 Y99.733 E5.62542
G1 X104.577 Y100.184 E5.64627
G1 X105.691 Y101.298 E5.71759
G1 X105.644 Y101.796 E5.74027
G1 X104.498 Y100.650 E5.81365
G1 X104.466 Y101.163 E5.83693
G1 X105.625 Y102.322 E5.91114
G1 X105.678 Y102.922 E5.93837
G1 X104.433 Y101.676 E6.01810
G1 X104.436 Y102.225 E6.04293
G1 X105.732 Y103.521 E6.12591
G1 X105.819 Y104.153 E6.15479
G1 X104.495 Y102.829 E6.23954
G1 X104.554 Y103.434 E6.26703
G1 X106.072 Y104.952 E6.36421
G1 X106.435 Y105.861 F7800.000
G1 X104.613 Y104.038 E6.48090 F540.000
G1 X104.863 Y104.835 E6.51870
G1 X109.069 Y109.040 E6.78792
G1 X109.796 Y109.222 E6.82187
G1 X108.543 Y107.969 E6.90209
G1 X108.192 Y108.709 F7800.000
G1 X105.152 Y105.669 E7.09671 F540.000
G1 X106.175 Y107.238 F7800.000
G1 X106.533 Y107.596 E7.11963 F540.000
G1 X109.470 Y108.350 F7800.000
G1 X110.407 Y109.287 E7.17963 F540.000
G1 X111.017 Y109.351 E7.20741
G1 X110.145 Y108.480 E7.26322
G1 X110.762 Y108.551 E7.29132
G1 X111.607 Y109.396 E7.34543
G1 X112.118 Y109.361 E7.36860
G1 X111.372 Y108.615 E7.41637
G1 X111.879 Y108.577 E7.43940
G1 X112.628 Y109.326 E7.48737
G1 X113.114 Y109.266 E7.50953
G1 X112.386 Y108.538 E7.55614
G1 X112.834 Y108.440 E7.57689
G1 X113.557 Y109.163 E7.62317
G1 X114.000 Y109.060 E7.64375
G1 X113.270 Y108.331 E7.69043
G1 X113.675 Y108.191 E7.70983
G1 X114.410 Y108.925 E7.75686
G1 X114.787 Y108.757 E7.77556
G1 X114.048 Y108.017 E7.82291
G1 X114.420 Y107.844 E7.84149
G1 X115.164 Y108.589 E7.88916
G1 X115.502 Y108.381 E7.90712
G1 X114.732 Y107.611 E7.95641
G1 X115.044 Y107.377 E7.97405
G1 X115.816 Y108.149 E8.02350
G1 X116.126 Y107.914 E8.04112
G1 X115.331 Y107.119 E8.09203
G1 X115.581 Y106.823 E8.10956
G1 X116.397 Y107.639 E8.16182
G1 X116.649 Y107.345 E8.17933
G1 X115.831 Y106.527 E8.23169
G1 X116.031 Y106.182 E8.24977
G1 X116.901 Y107.051 E8.30544
G1 X117.099 Y106.704 E8.32354
G1 X116.537 Y106.142 E8.35951
G92 E0
G1 X116.435 Y106.655 F7800.000
G1 X116.435 Y106.655 F7800.000
G1 X116.390 Y96.720 F7800.000
G1 X115.890 Y96.220 E0.03198 F540.000
M106 S255
G92 E0
G1 Z0.600 F7800.000
G1 X88.800 Y94.182 F7800.000
G1 X90.764 Y95.103 E0.65005 F600.000
G1 X91.455 Y95.241 E0.86105
G1 X92.435 Y95.558 E1.16951
G1 X92.827 Y95.742 E1.29935
G1 X93.062 Y95.877 E1.38056
G1 X93.700 Y96.312 E1.61211
G1 X94.177 Y96.743 E1.80458
G1 X94.370 Y96.948 E1.88903
G1 X94.707 Y97.363 E2.04931
G1 X95.198 Y98.160 E2.32964
G1 X95.448 Y98.681 E2.50305
G1 X95.828 Y99.920 E2.89118
G1 X95.901 Y100.236 E2.98831
G1 X96.059 Y102.072 E3.54074
G1 X95.954 Y103.444 E3.95300
G1 X95.835 Y104.140 E4.16439
G1 X95.693 Y104.671 E4.32911
G1 X95.295 Y105.761 E4.67708
G1 X94.709 Y106.678 E5.00312
G1 X94.397 Y107.070 E5.15319
G1 X94.009 Y107.459 E5.31763
G1 X93.145 Y108.109 E5.64161
G1 X92.832 Y108.275 E5.74798
G1 X92.100 Y108.578 E5.98536
G1 X91.472 Y108.776 E6.18269
G1 X90.904 Y108.888 E6.35615
G1 X89.560 Y109.008 E6.76037
G1 X87.836 Y108.827 E7.27989
G1 X87.534 Y108.769 E7.37201
G1 X86.249 Y108.277 E7.78429
G1 X85.923 Y108.115 E7.89325
G1 X84.884 Y107.296 E8.28979
G1 X84.670 Y107.098 E8.37709
G1 X83.760 Y105.760 E8.86224
G1 X83.202 Y104.098 E9.38731
G1 X83.006 Y102.040 E10.00691
G1 X83.105 Y100.721 E10.40331
G1 X83.228 Y99.961 E10.63392
G1 X83.342 Y99.519 E10.77063
G1 X83.712 Y98.441 E11.11219
G1 X83.837 Y98.202 E11.19290
G1 X84.251 Y97.525 E11.43078
G1 X84.670 Y96.965 E11.64045
G1 X84.859 Y96.747 E11.72671
G1 X85.665 Y96.086 E12.03909
G1 X85.997 Y95.865 E12.15847
G1 X86.245 Y95.726 E12.24365
G1 X86.590 Y95.567 E12.35762
G1 X87.660 Y95.188 E12.69779
G1 X89.067 Y95.005 E13.12286
G1 X89.417 Y94.900 E13.23237
G1 X89.885 Y94.691 E13.38608
G1 X89.892 Y94.566 E13.42366
G1 X90.028 Y93.914 E13.62304
G1 X90.267 Y93.293 E13.82264
G1 X90.436 Y92.950 E13.93707
G1 X90.744 Y92.411 E14.12318
G1 X90.959 Y92.132 E14.22870
G1 X91.239 Y91.820 E14.35432
G1 X91.620 Y91.513 E14.50104
G1 X91.776 Y91.410 E14.55679
G1 X92.378 Y91.132 E14.75570
G1 X93.188 Y90.962 E15.00355
G1 X94.000 Y90.946 E15.24702
G1 X95.209 Y91.078 E15.61131
G92 E0
G1 X112.784 Y91.209 F7800.000
G1 X117.988 Y94.625 F7800.000
G1 X118.664 Y99.435 F7800.000
G1 X116.779 Y102.281 F7800.000
G1 X116.923 Y102.473 F7800.000
G1 X115.943 Y105.440 F7800.000
G1 X117.032 Y105.799 F7800.000
G1 X116.275 Y106.895 E0.39908 F600.000
G1 X115.812 Y107.440 E0.61327
G1 X115.688 Y107.556 E0.66423
G1 X115.011 Y108.075 E0.91980
G1 X114.618 Y108.294 E1.05466
G1 X114.021 Y108.567 E1.25121
G1 X113.608 Y108.701 E1.38131
G1 X112.823 Y108.890 E1.62348
G1 X112.527 Y108.931 E1.71288
G1 X111.427 Y109.008 E2.04329
G1 X109.766 Y108.827 E2.54418
G1 X109.454 Y108.765 E2.63946
G1 X108.203 Y108.272 E3.04241
G1 X107.886 Y108.111 E3.14884
G1 X106.852 Y107.276 E3.54707
G1 X106.660 Y107.097 E3.62575
G1 X105.833 Y105.873 E4.06830
