; generated by Slic3r 1.2.9 on 2016-03-11 at 01:29:05

; external perimeters extrusion width = 1.54mm
; perimeters extrusion width = 2.62mm
; infill extrusion width = 6.27mm
; solid infill extrusion width = 2.62mm
; top infill extrusion width = 2.62mm

M107
M104 S30 ; set temperature
G28 ; home all axes
G1 Z5 F5000 ; lift nozzle
M302
M92 E10000
M500
M501
G1 E100
M109 S30 ; wait for temperature to be reached
G21 ; set units to millimeters
G90 ; use absolute coordinates
M82 ; use absolute distances for extrusion
G92 E0
G1 Z0.300 F7800.000
G1 X83.512 Y101.001 F7800.000
G1 X83.536 Y100.611 E0.01771 F378.000
G1 X83.803 Y99.290 E0.07870
G1 X84.245 Y98.094 E0.13637
G1 X84.852 Y97.048 E0.19113
G1 X85.615 Y96.169 E0.24377
G1 X86.536 Y95.456 E0.29648
G1 X87.602 Y94.918 E0.35051
G1 X88.800 Y94.566 E0.40700
G1 X90.283 Y94.383 E0.47463
G1 X90.817 Y92.960 E0.54339
G1 X91.374 Y91.961 E0.59514
G1 X92.000 Y91.243 E0.63825
G1 X92.721 Y90.760 E0.67752
G1 X93.568 Y90.468 E0.71802
G1 X94.553 Y90.369 E0.76284
G1 X95.106 Y90.393 E0.78788
G1 X95.779 Y90.473 E0.81856 F378.000
G1 X96.253 Y90.567 E0.84040
G1 X96.253 Y91.566 E0.88559
G1 X95.682 Y91.490 E0.91162
G1 X95.224 Y91.470 E0.93240
G1 X94.488 Y91.541 E0.96586
G1 X93.827 Y91.762 E0.99736
G1 X93.255 Y92.132 E1.02819
G1 X92.770 Y92.661 E1.06069
G1 X92.345 Y93.383 E1.09860
G1 X91.933 Y94.442 E1.15001
G1 X93.944 Y94.939 E1.24372
G1 X95.399 Y95.730 E1.31868
G1 X96.581 Y96.886 E1.39351
G1 X97.456 Y98.354 E1.47081
G1 X97.984 Y100.076 E1.55234
G1 X98.161 Y102.063 E1.64256
G1 X98.062 Y103.562 E1.71056
G1 X97.768 Y104.919 E1.77337
G1 X97.280 Y106.130 E1.83249
G1 X96.609 Y107.179 E1.88879
G1 X95.768 Y108.044 E1.94340
G1 X94.753 Y108.730 E1.99887
G1 X93.580 Y109.229 E2.05653
G1 X92.268 Y109.530 E2.11744
G1 X90.818 Y109.630 E2.18318
G1 X88.655 Y109.406 E2.28161
G1 X86.851 Y108.738 E2.36865
G1 X85.392 Y107.631 E2.45152
G1 X84.315 Y106.131 E2.53509
G1 X83.666 Y104.276 E2.62399
G1 X83.447 Y102.055 E2.72499
G1 X83.498 Y101.232 E2.76230
G1 X85.161 Y101.382 F7800.000
G1 X85.265 Y100.230 E2.81462 F378.000
G1 X85.764 Y98.659 E2.88924
G1 X86.602 Y97.350 E2.95957
G1 X87.745 Y96.369 E3.02772
G1 X89.146 Y95.781 E3.09651
G1 X90.648 Y95.604 E3.16492
G1 X90.793 Y95.587 E3.17152 F378.000
G1 X92.477 Y95.774 E3.24819
G1 X93.893 Y96.343 E3.31724
G1 X95.028 Y97.295 E3.38428
G1 X95.849 Y98.588 E3.45360
G1 X96.337 Y100.178 E3.52885
G1 X96.498 Y102.059 E3.61430
G1 X96.336 Y103.869 E3.69651
G1 X95.844 Y105.414 E3.76988
G1 X95.016 Y106.688 E3.83863
G1 X93.881 Y107.636 E3.90555
G1 X92.476 Y108.203 E3.97409
G1 X90.816 Y108.390 E4.04970
G1 X89.143 Y108.206 E4.12586
G1 X87.729 Y107.647 E4.19464
G1 X86.588 Y106.711 E4.26142
G1 X85.757 Y105.443 E4.33002
G1 X85.263 Y103.890 E4.40377
G1 X85.100 Y102.059 E4.48697
G1 X85.140 Y101.612 E4.50727
G1 X85.315 Y104.893 F7800.000
G1 X83.814 Y103.393 E4.60376 F540.000
G1 X83.755 Y102.785 E4.63155
G1 X85.059 Y104.089 E4.71544
G1 X84.991 Y103.473 E4.74361
G1 X83.695 Y102.177 E4.82700
G1 X83.695 Y101.629 E4.85192
G1 X84.938 Y102.871 E4.93185
G1 X84.884 Y102.270 E4.95932
G1 X83.727 Y101.112 E5.03376
G1 X83.759 Y100.596 E5.05729
G1 X84.908 Y101.746 E5.13123
G1 X84.953 Y101.243 E5.15419
G1 X83.847 Y100.137 E5.22533
G1 X83.939 Y99.681 E5.24649
G1 X84.999 Y100.740 E5.31463
G1 X85.047 Y100.240 E5.33750
G1 X84.040 Y99.233 E5.40226
G1 X84.188 Y98.833 E5.42166
G1 X85.179 Y99.824 E5.48540
G1 X85.311 Y99.407 E5.50525
G1 X84.336 Y98.433 E5.56796
G1 X84.499 Y98.047 E5.58698
G1 X85.443 Y98.991 E5.64771
G1 X85.581 Y98.582 E5.66738
G1 X84.700 Y97.700 E5.72408
G1 X84.901 Y97.354 E5.74232
G1 X85.795 Y98.248 E5.79983
G1 X86.009 Y97.914 E5.81788
G1 X85.124 Y97.028 E5.87484
G1 X85.379 Y96.735 E5.89251
G1 X86.224 Y97.579 E5.94684
G1 X86.438 Y97.245 E5.96489
G1 X85.639 Y96.447 E6.01622
G1 X85.919 Y96.178 E6.03385
G1 X86.728 Y96.988 E6.08591
G1 X87.023 Y96.735 E6.10359
G1 X86.228 Y95.939 E6.15475
G1 X86.537 Y95.700 E6.17252
G1 X87.318 Y96.481 E6.22278
G1 X87.613 Y96.228 E6.24046
G1 X86.886 Y95.501 E6.28721
G1 X87.250 Y95.317 E6.30577
G1 X87.984 Y96.051 E6.35293
G1 X88.370 Y95.889 E6.37198
G1 X87.615 Y95.134 E6.42055
G1 X88.035 Y95.006 E6.44054
G1 X88.756 Y95.727 E6.48691
G1 X89.142 Y95.565 E6.50595
G1 X88.459 Y94.881 E6.54991
G1 X88.898 Y94.772 E6.57049
G1 X89.631 Y95.505 E6.61763
G1 X90.121 Y95.447 E6.64009
G1 X89.386 Y94.712 E6.68739
G1 X89.873 Y94.651 E6.70975
G1 X90.611 Y95.389 E6.75722
G1 X91.161 Y95.391 E6.78220
G1 X90.361 Y94.591 E6.83361
G1 X90.554 Y94.236 E6.85199
G1 X91.777 Y95.459 E6.93066
G1 X92.394 Y95.528 E6.95889
G1 X91.443 Y94.576 E7.02010
G1 X91.756 Y94.341 E7.03791
G1 X90.853 Y93.439 E7.09595
G1 X91.003 Y93.040 E7.11532
G1 X91.909 Y93.946 E7.17362
G1 X92.062 Y93.552 E7.19288
G1 X91.195 Y92.684 E7.24867
G1 X91.391 Y92.332 E7.26700
G1 X92.238 Y93.179 E7.32143
G1 X92.441 Y92.834 E7.33964
G1 X91.601 Y91.993 E7.39369
G1 X91.856 Y91.701 E7.41136
G1 X92.656 Y92.501 E7.46281
G1 X92.918 Y92.215 E7.48045
G1 X92.112 Y91.408 E7.53233
G1 X92.437 Y91.185 E7.55026
G1 X93.192 Y91.941 E7.59887
G1 X93.525 Y91.725 E7.61690
G1 X92.765 Y90.965 E7.66581
G1 X93.169 Y90.821 E7.68533
G1 X93.878 Y91.530 E7.73089
G1 X94.289 Y91.392 E7.75060
G1 X93.582 Y90.686 E7.79602
G1 X94.081 Y90.636 E7.81879
G1 X94.741 Y91.297 E7.86130
G1 X95.241 Y91.248 E7.88413
G1 X94.593 Y90.601 E7.92577
G1 X95.180 Y90.640 E7.95252
G1 X95.807 Y91.267 E7.99287
G1 X95.817 Y90.729 E8.01735
G1 X96.027 Y90.938 E8.03080
G92 E0
G1 X92.034 Y92.382 F7800.000
G1 X92.034 Y92.382 F7800.000
G1 X92.013 Y92.411 F7800.000
G1 X91.874 Y92.655 F7800.000
G1 X94.749 Y95.690 F7800.000
G1 X96.715 Y97.656 E0.12645 F540.000
G1 X95.546 Y97.583 F7800.000
G1 X97.577 Y99.614 E0.25713 F540.000
G1 X97.335 Y98.824 F7800.000
G1 X93.627 Y95.116 E0.49567 F540.000
G1 X92.899 Y94.936 E0.52978
G1 X94.110 Y96.147 E0.60770
G1 X93.194 Y95.779 F7800.000
G1 X92.171 Y94.756 E0.67352 F540.000
G1 X91.602 Y94.736 E0.69938
G1 X90.704 Y93.838 E0.75717
G92 E0
G1 X90.946 Y94.824 F7800.000
G1 X90.946 Y94.824 F7800.000
G1 X90.947 Y94.823 F7800.000
G1 X90.948 Y94.824 F7800.000
G1 X96.164 Y98.750 F7800.000
G1 X97.775 Y100.360 E0.10357 F540.000
G1 X97.828 Y100.962 E0.13105
G1 X96.407 Y99.541 E0.22247
G1 X96.579 Y100.260 E0.25611
G1 X97.882 Y101.564 E0.33995
G1 X97.933 Y102.163 E0.36731
G1 X96.630 Y100.860 E0.45113
G1 X96.681 Y101.459 E0.47850
G1 X97.899 Y102.677 E0.55685
G1 X97.866 Y103.192 E0.58030
G1 X96.719 Y102.046 E0.65401
G1 X96.674 Y102.549 E0.67698
G1 X97.819 Y103.693 E0.75059
G1 X97.721 Y104.143 E0.77155
G1 X96.629 Y103.052 E0.84178
G1 X96.584 Y103.555 E0.86474
G1 X97.623 Y104.594 E0.93159
G1 X97.508 Y105.026 E0.95195
G1 X96.502 Y104.021 E1.01660
G1 X96.370 Y104.437 E1.03645
G1 X97.350 Y105.417 E1.09949
G1 X97.193 Y105.808 E1.11865
G1 X96.238 Y104.853 E1.18009
G1 X96.105 Y105.268 E1.19993
G1 X97.017 Y106.180 E1.25857
G1 X96.803 Y106.514 E1.27662
G1 X95.929 Y105.640 E1.33286
G1 X95.713 Y105.972 E1.35089
G1 X96.589 Y106.849 E1.40726
G1 X96.352 Y107.160 E1.42505
G1 X95.497 Y106.305 E1.48005
G1 X95.281 Y106.637 E1.49807
G1 X96.078 Y107.434 E1.54933
G1 X95.804 Y107.708 E1.56696
G1 X95.026 Y106.930 E1.61699
G1 X94.727 Y107.180 E1.63468
G1 X95.523 Y107.975 E1.68586
G1 X95.196 Y108.196 E1.70381
G1 X94.429 Y107.429 E1.75315
G1 X94.130 Y107.679 E1.77085
G1 X94.869 Y108.417 E1.81836
G1 X94.516 Y108.613 E1.83670
G1 X93.792 Y107.889 E1.88326
G1 X93.402 Y108.047 E1.90242
G1 X94.132 Y108.777 E1.94936
G1 X93.747 Y108.940 E1.96837
G1 X93.011 Y108.204 E2.01570
G1 X92.621 Y108.362 E2.03485
G1 X93.330 Y109.071 E2.08046
G1 X92.884 Y109.173 E2.10127
G1 X92.167 Y108.457 E2.14736
G1 X91.675 Y108.512 E2.16991
G1 X92.438 Y109.276 E2.21901
G1 X91.945 Y109.331 E2.24156
G1 X91.182 Y108.568 E2.29065
G1 X90.678 Y108.612 E2.31366
G1 X91.433 Y109.367 E2.36219
G1 X90.920 Y109.402 E2.38556
G1 X90.062 Y108.544 E2.44075
G1 X89.446 Y108.476 E2.46894
G1 X90.311 Y109.341 E2.52459
G1 X89.700 Y109.278 E2.55256
G1 X88.756 Y108.335 E2.61323
G1 X87.849 Y107.976 F7800.000
G1 X89.088 Y109.214 E2.69289 F540.000
G1 X88.337 Y109.011 E2.72828
G1 X84.120 Y104.795 E2.99947
G1 X83.874 Y104.001 E3.03730
G1 X85.608 Y105.735 E3.14882
G1 X84.416 Y105.639 F7800.000
G1 X87.467 Y108.690 E3.34506 F540.000
G1 X85.815 Y107.586 F7800.000
G1 X85.460 Y107.231 E3.36786 F540.000
G92 E0
G1 X98.286 Y103.594 F7800.000
G1 X105.921 Y110.760 F7800.000
G1 X117.548 Y110.625 F7800.000
G1 X116.778 Y105.972 F7800.000
G1 X110.826 Y105.138 F7800.000
G1 X107.992 Y102.304 F7800.000
G1 X116.292 Y101.628 F7800.000
G1 X116.292 Y102.079 E0.02039 F378.000
G1 X107.767 Y102.079 E0.40614
G1 X107.767 Y108.197 E0.68298
G1 X116.553 Y108.197 E1.08054
G1 X116.553 Y109.439 E1.13674
G1 X106.146 Y109.439 E1.60765
G1 X106.146 Y94.593 E2.27942
G1 X107.767 Y94.593 E2.35277
G1 X107.767 Y100.816 E2.63435
G1 X116.292 Y100.816 E3.02010 F378.000
G1 X116.292 Y101.397 E3.04641
G1 X116.067 Y101.246 F7800.000
G1 X115.863 Y101.042 E3.05944 F540.000
G1 X115.317 Y101.042 E3.08414
G1 X116.067 Y101.791 E3.13210
G1 X115.583 Y101.853 E3.15417
G1 X114.772 Y101.042 E3.20609
G1 X114.226 Y101.042 E3.23079
G1 X115.037 Y101.853 E3.28271
G1 X114.492 Y101.853 E3.30741
G1 X113.681 Y101.042 E3.35933
G1 X113.135 Y101.042 E3.38403
G1 X113.946 Y101.853 E3.43595
G1 X113.401 Y101.853 E3.46065
G1 X112.590 Y101.042 E3.51257
G1 X112.044 Y101.042 E3.53727
G1 X112.855 Y101.853 E3.58919
G1 X112.309 Y101.853 E3.61389
G1 X111.498 Y101.042 E3.66581
G1 X110.953 Y101.042 E3.69051
G1 X111.764 Y101.853 E3.74243
G1 X111.218 Y101.853 E3.76713
G1 X110.407 Y101.042 E3.81905
G1 X109.862 Y101.042 E3.84375
G1 X110.673 Y101.853 E3.89567
G1 X110.127 Y101.853 E3.92037
G1 X109.316 Y101.042 E3.97229
G1 X108.771 Y101.042 E3.99699
G1 X109.582 Y101.853 E4.04891
G1 X109.036 Y101.853 E4.07361
G1 X108.225 Y101.042 E4.12553
G1 X107.679 Y101.042 E4.15023
G1 X108.491 Y101.853 E4.20215
G1 X107.945 Y101.853 E4.22685
G1 X106.372 Y100.280 E4.32752
G1 X106.372 Y100.826 E4.35221
G1 X107.541 Y101.995 E4.42706
G1 X107.541 Y102.541 E4.45175
G1 X106.372 Y101.372 E4.52659
G1 X106.372 Y101.917 E4.55129
G1 X107.541 Y103.086 E4.62613
G1 X107.541 Y103.632 E4.65083
G1 X106.372 Y102.463 E4.72567
G1 X106.372 Y103.008 E4.75036
G1 X107.541 Y104.177 E4.82521
G1 X107.541 Y104.723 E4.84990
G1 X106.372 Y103.554 E4.92474
G1 X106.372 Y104.099 E4.94944
G1 X107.541 Y105.268 E5.02428
G1 X107.541 Y105.814 E5.04898
G1 X106.372 Y104.645 E5.12382
G1 X106.372 Y105.191 E5.14852
G1 X107.541 Y106.360 E5.22336
G1 X107.541 Y106.905 E5.24805
G1 X106.372 Y105.736 E5.32290
G1 X106.372 Y106.282 E5.34759
G1 X107.541 Y107.451 E5.42243
G1 X107.541 Y107.996 E5.44713
G1 X106.372 Y106.827 E5.52197
G1 X106.372 Y107.373 E5.54667
G1 X108.213 Y109.213 E5.66448
G1 X108.758 Y109.213 E5.68917
G1 X107.968 Y108.423 E5.73975
G1 X108.514 Y108.423 E5.76445
G1 X109.304 Y109.213 E5.81503
G1 X109.849 Y109.213 E5.83972
G1 X109.059 Y108.423 E5.89030
G1 X109.605 Y108.423 E5.91500
G1 X110.395 Y109.213 E5.96558
G1 X110.940 Y109.213 E5.99027
G1 X110.150 Y108.423 E6.04085
G1 X110.696 Y108.423 E6.06555
G1 X111.486 Y109.213 E6.11613
G1 X112.032 Y109.213 E6.14082
G1 X111.242 Y108.423 E6.19140
G1 X111.787 Y108.423 E6.21610
G1 X112.577 Y109.213 E6.26668
G1 X113.123 Y109.213 E6.29138
G1 X112.333 Y108.423 E6.34196
G1 X112.878 Y108.423 E6.36665
G1 X113.668 Y109.213 E6.41723
G1 X114.214 Y109.213 E6.44193
G1 X113.424 Y108.423 E6.49251
G1 X113.969 Y108.423 E6.51720
G1 X114.759 Y109.213 E6.56778
G1 X115.305 Y109.213 E6.59248
G1 X114.515 Y108.423 E6.64306
G1 X115.060 Y108.423 E6.66775
G1 X115.851 Y109.213 E6.71833
G1 X116.327 Y109.144 E6.74014
G1 X115.606 Y108.423 E6.78633
G1 X116.152 Y108.423 E6.81103
G1 X116.327 Y108.599 E6.82229
G1 X107.667 Y109.213 F7800.000
G1 X106.372 Y107.918 E6.90517 F540.000
G1 X106.372 Y108.464 E6.92987
G1 X107.122 Y109.213 E6.97783
G1 X106.576 Y109.213 E7.00252
G1 X106.372 Y109.009 E7.01556
G1 X107.541 Y100.904 F7800.000
G1 X106.372 Y99.735 E7.09040 F540.000
G1 X106.372 Y99.189 E7.11509
G1 X107.541 Y100.358 E7.18994
G1 X107.541 Y99.813 E7.21463
G1 X106.372 Y98.644 E7.28947
G1 X106.372 Y98.098 E7.31417
G1 X107.541 Y99.267 E7.38901
G1 X107.541 Y98.722 E7.41371
G1 X106.372 Y97.553 E7.48855
G1 X106.372 Y97.007 E7.51324
G1 X107.541 Y98.176 E7.58809
G1 X107.541 Y97.631 E7.61278
G1 X106.372 Y96.462 E7.68762
G1 X106.372 Y95.916 E7.71232
G1 X107.541 Y97.085 E7.78716
G1 X107.541 Y96.539 E7.81186
G1 X106.372 Y95.370 E7.88670
G1 X106.389 Y94.842 E7.91064
G1 X107.541 Y95.994 E7.98439
G1 X107.541 Y95.448 E8.00908
G1 X106.912 Y94.819 E8.04938
M106 S255
G92 E0
G1 Z0.600 F7800.000
G1 X90.069 Y94.182 F7800.000
G1 X92.033 Y95.103 E0.65005 F600.000
G1 X92.724 Y95.241 E0.86105
G1 X93.704 Y95.558 E1.16951
G1 X94.096 Y95.742 E1.29935
G1 X94.331 Y95.877 E1.38056
G1 X94.969 Y96.312 E1.61211
G1 X95.446 Y96.743 E1.80458
G1 X95.639 Y96.948 E1.88903
G1 X95.976 Y97.363 E2.04931
G1 X96.467 Y98.160 E2.32964
G1 X96.717 Y98.681 E2.50305
G1 X97.097 Y99.920 E2.89118
G1 X97.170 Y100.236 E2.98831
G1 X97.328 Y102.072 E3.54074
G1 X97.223 Y103.444 E3.95300
G1 X97.104 Y104.140 E4.16439
G1 X96.962 Y104.671 E4.32911
G1 X96.564 Y105.761 E4.67708
G1 X95.978 Y106.678 E5.00312
G1 X95.666 Y107.070 E5.15319
G1 X95.278 Y107.459 E5.31763
G1 X94.414 Y108.109 E5.64161
G1 X94.101 Y108.275 E5.74798
G1 X93.369 Y108.578 E5.98536
G1 X92.741 Y108.776 E6.18269
G1 X92.173 Y108.888 E6.35615
G1 X90.829 Y109.008 E6.76037
G1 X89.105 Y108.827 E7.27989
G1 X88.803 Y108.769 E7.37201
G1 X87.518 Y108.277 E7.78429
G1 X87.192 Y108.115 E7.89325
G1 X86.153 Y107.296 E8.28979
G1 X85.939 Y107.098 E8.37709
G1 X85.029 Y105.760 E8.86224
G1 X84.471 Y104.098 E9.38731
G1 X84.275 Y102.040 E10.00691
G1 X84.374 Y100.721 E10.40331
G1 X84.497 Y99.961 E10.63392
G1 X84.611 Y99.519 E10.77063
G1 X84.981 Y98.441 E11.11219
G1 X85.106 Y98.202 E11.19290
G1 X85.520 Y97.525 E11.43078
G1 X85.939 Y96.965 E11.64045
G1 X86.128 Y96.747 E11.72671
G1 X86.934 Y96.086 E12.03909
G1 X87.266 Y95.865 E12.15847
G1 X87.514 Y95.726 E12.24365
G1 X87.859 Y95.567 E12.35762
G1 X88.929 Y95.188 E12.69779
G1 X90.336 Y95.005 E13.12286
G1 X90.686 Y94.900 E13.23237
G1 X91.154 Y94.691 E13.38608
G1 X91.161 Y94.566 E13.42366
G1 X91.297 Y93.914 E13.62304
G1 X91.536 Y93.293 E13.82264
G1 X91.705 Y92.950 E13.93707
G1 X92.013 Y92.411 E14.12318
G1 X92.228 Y92.132 E14.22870
G1 X92.508 Y91.820 E14.35432
G1 X92.889 Y91.513 E14.50104
G1 X93.045 Y91.410 E14.55679
G1 X93.647 Y91.132 E14.75570
G1 X94.457 Y90.962 E15.00355
G1 X95.269 Y90.946 E15.24702
G1 X96.478 Y91.078 E15.61131
G92 E0
G1 X101.218 Y93.033 F7800.000
G1 X100.994 Y94.221 F7800.000
G1 X101.033 Y94.368 F7800.000
G1 X105.921 Y94.368 F7800.000
G1 X107.854 Y104.928 F7800.000
G1 X106.957 Y100.591 E1.32720 F600.000
G1 X106.957 Y94.368 E3.19190
G1 X106.992 Y95.368 F7800.000
G1 X106.957 Y95.403 F7800.000
G1 X106.957 Y108.628 F7800.000
G1 X106.992 Y108.664 F7800.000
G1 X116.778 Y108.818 F7800.000
G1 X107.992 Y108.818 E5.82459 F600.000
G1 X107.037 Y108.548 E6.12204
G1 X106.957 Y107.972 E6.29639
G1 X106.957 Y102.304 E7.99479
G1 X107.134 Y101.447 E8.25686
G1 X116.517 Y101.447 E11.06856
G92 E0
G1 Z0.900 F7800.000
G1 X90.069 Y94.182 F7800.000
G1 X92.033 Y95.103 E0.65005 F600.000
G1 X92.724 Y95.241 E0.86105
G1 X93.704 Y95.558 E1.16951
G1 X94.096 Y95.742 E1.29935
G1 X94.331 Y95.877 E1.38056
G1 X94.969 Y96.312 E1.61211
G1 X95.446 Y96.743 E1.80458
G1 X95.639 Y96.948 E1.88903
G1 X95.976 Y97.363 E2.04931
G1 X96.467 Y98.160 E2.32964
G1 X96.717 Y98.681 E2.50305
G1 X97.097 Y99.920 E2.89118
G1 X97.170 Y100.236 E2.98831
G1 X97.328 Y102.072 E3.54074
G1 X97.223 Y103.444 E3.95300
G1 X97.104 Y104.140 E4.16439
G1 X96.962 Y104.671 E4.32911
G1 X96.564 Y105.761 E4.67708
G1 X95.978 Y106.678 E5.00312
G1 X95.666 Y107.070 E5.15319
G1 X95.278 Y107.459 E5.31763
G1 X94.414 Y108.109 E5.64161
G1 X94.101 Y108.275 E5.74798
G1 X93.369 Y108.578 E5.98536
G1 X92.741 Y108.776 E6.18269
G1 X92.173 Y108.888 E6.35615
G1 X90.829 Y109.008 E6.76037
G1 X89.105 Y108.827 E7.27989
G1 X88.803 Y108.769 E7.37201
G1 X87.518 Y108.277 E7.78429
G1 X87.192 Y108.115 E7.89325
G1 X86.153 Y107.296 E8.28979
G1 X85.939 Y107.098 E8.37710
G1 X85.029 Y105.760 E8.86224
G1 X84.471 Y104.098 E9.38731
G1 X84.275 Y102.040 E10.00692
