; generated by Slic3r 1.2.9 on 2016-03-11 at 01:29:07

; external perimeters extrusion width = 1.54mm
; perimeters extrusion width = 2.62mm
; infill extrusion width = 6.27mm
; solid infill extrusion width = 2.62mm
; top infill extrusion width = 2.62mm

M107
M104 S30 ; set temperature
G28 ; home all axes
G1 Z5 F5000 ; lift nozzle
M302
M92 E10000
M500
M501
G1 E100
M109 S30 ; wait for temperature to be reached
G21 ; set units to millimeters
G90 ; use absolute coordinates
M82 ; use absolute distances for extrusion
G92 E0
G1 Z0.300 F7800.000
G1 X93.777 Y95.275 F7800.000
G1 X94.613 Y95.730 E0.04309 F378.000
G1 X95.796 Y96.886 E0.11792
G1 X96.671 Y98.354 E0.19522
G1 X97.198 Y100.076 E0.27675
G1 X97.375 Y102.063 E0.36697
G1 X97.277 Y103.562 E0.43497
G1 X96.983 Y104.919 E0.49778
G1 X96.494 Y106.130 E0.55690
G1 X95.824 Y107.179 E0.61320
G1 X94.983 Y108.044 E0.66781
G1 X93.967 Y108.730 E0.72328
G1 X92.794 Y109.229 E0.78094
G1 X91.482 Y109.530 E0.84185
G1 X90.033 Y109.630 E0.90759
G1 X87.869 Y109.406 E1.00602
G1 X86.065 Y108.738 E1.09306
G1 X84.606 Y107.631 E1.17593
G1 X83.530 Y106.131 E1.25950
G1 X82.880 Y104.276 E1.34841
G1 X82.662 Y102.055 E1.44940
G1 X82.751 Y100.611 E1.51487
G1 X83.017 Y99.290 E1.57586
G1 X83.459 Y98.094 E1.63353
G1 X84.067 Y97.048 E1.68829
G1 X84.830 Y96.169 E1.74093
G1 X85.751 Y95.456 E1.79364
G1 X86.817 Y94.918 E1.84767
G1 X88.015 Y94.566 E1.90416
G1 X89.498 Y94.383 E1.97180
G1 X90.031 Y92.960 E2.04055
G1 X90.588 Y91.961 E2.09230
G1 X91.215 Y91.243 E2.13541
G1 X91.936 Y90.760 E2.17468
G1 X92.782 Y90.468 E2.21518
G1 X93.768 Y90.369 E2.26000
G1 X94.321 Y90.393 E2.28504
G1 X94.994 Y90.473 E2.31572 F378.000
G1 X95.467 Y90.567 E2.33756
G1 X95.467 Y91.566 E2.38275
G1 X94.897 Y91.490 E2.40878
G1 X94.438 Y91.470 E2.42956
G1 X93.702 Y91.541 E2.46302
G1 X93.042 Y91.762 E2.49452
G1 X92.470 Y92.132 E2.52535
G1 X91.984 Y92.661 E2.55785
G1 X91.559 Y93.383 E2.59576
G1 X91.148 Y94.442 E2.64717
G1 X93.158 Y94.939 E2.74088
G1 X93.574 Y95.165 E2.76230
G1 X93.102 Y96.341 F7800.000
G1 X94.242 Y97.295 E2.82959 F378.000
G1 X95.064 Y98.588 E2.89891
G1 X95.552 Y100.178 E2.97417
G1 X95.713 Y102.059 E3.05962
G1 X95.550 Y103.869 E3.14182
G1 X95.058 Y105.414 E3.21520
G1 X94.230 Y106.688 E3.28395
G1 X93.096 Y107.636 E3.35086
G1 X91.691 Y108.203 E3.41941
G1 X90.030 Y108.390 E3.49502
G1 X88.357 Y108.206 E3.57118
G1 X86.944 Y107.647 E3.63996
G1 X85.803 Y106.711 E3.70674
G1 X84.971 Y105.443 E3.77534
G1 X84.477 Y103.890 E3.84908
G1 X84.314 Y102.059 E3.93228
G1 X84.479 Y100.230 E4.01536
G1 X84.978 Y98.659 E4.08998
G1 X85.816 Y97.350 E4.16031
G1 X86.959 Y96.369 E4.22846
G1 X88.361 Y95.781 E4.29725
G1 X89.863 Y95.604 E4.36566
G1 X90.007 Y95.587 E4.37226 F378.000
G1 X91.691 Y95.774 E4.44893
G1 X92.887 Y96.254 E4.50725
G1 X93.325 Y96.147 F7800.000
G1 X92.113 Y94.936 E4.58517 F540.000
G1 X92.841 Y95.116 E4.61928
G1 X96.550 Y98.824 E4.85782
G1 X96.792 Y99.614 F7800.000
G1 X94.760 Y97.583 E4.98850 F540.000
G1 X95.929 Y97.656 F7800.000
G1 X93.963 Y95.690 E5.11495 F540.000
G1 X92.408 Y95.779 F7800.000
G1 X91.385 Y94.756 E5.18077 F540.000
G1 X90.817 Y94.736 E5.20663
G1 X89.918 Y93.838 E5.26443
G1 X91.249 Y92.382 F7800.000
G1 X91.249 Y92.382 F7800.000
G1 X95.241 Y90.938 F7800.000
G1 X95.032 Y90.729 E5.27788 F540.000
G1 X95.022 Y91.267 E5.30236
G1 X94.395 Y90.640 E5.34270
G1 X93.808 Y90.601 E5.36945
G1 X94.455 Y91.248 E5.41110
G1 X93.956 Y91.297 E5.43392
G1 X93.295 Y90.636 E5.47643
G1 X92.797 Y90.686 E5.49920
G1 X93.503 Y91.392 E5.54463
G1 X93.092 Y91.530 E5.56433
G1 X92.384 Y90.821 E5.60989
G1 X91.979 Y90.965 E5.62942
G1 X92.740 Y91.725 E5.67833
G1 X92.407 Y91.941 E5.69636
G1 X91.651 Y91.185 E5.74497
G1 X91.326 Y91.408 E5.76290
G1 X92.133 Y92.215 E5.81477
G1 X91.871 Y92.501 E5.83242
G1 X91.071 Y91.701 E5.88386
G1 X90.815 Y91.993 E5.90153
G1 X91.655 Y92.834 E5.95558
G1 X91.452 Y93.179 E5.97379
G1 X90.606 Y92.332 E6.02823
G1 X90.410 Y92.684 E6.04655
G1 X91.277 Y93.552 E6.10234
G1 X91.124 Y93.946 E6.12160
G1 X90.217 Y93.040 E6.17990
G1 X90.068 Y93.439 E6.19927
G1 X90.970 Y94.341 E6.25732
G1 X90.657 Y94.576 E6.27513
G1 X91.609 Y95.528 E6.33634
G1 X90.992 Y95.459 E6.36457
G1 X89.769 Y94.236 E6.44323
G1 X89.576 Y94.591 E6.46161
G1 X90.375 Y95.391 E6.51303
G1 X89.826 Y95.389 E6.53801
G1 X89.088 Y94.651 E6.58548
G1 X88.600 Y94.712 E6.60783
G1 X89.336 Y95.447 E6.65514
G1 X88.845 Y95.505 E6.67760
G1 X88.112 Y94.772 E6.72474
G1 X87.673 Y94.881 E6.74531
G1 X88.357 Y95.565 E6.78927
G1 X87.970 Y95.727 E6.80832
G1 X87.250 Y95.006 E6.85469
G1 X86.829 Y95.134 E6.87467
G1 X87.584 Y95.889 E6.92325
G1 X87.198 Y96.051 E6.94229
G1 X86.465 Y95.317 E6.98946
G1 X86.101 Y95.501 E7.00802
G1 X86.827 Y96.228 E7.05477
G1 X86.532 Y96.481 E7.07245
G1 X85.751 Y95.700 E7.12271
G1 X85.442 Y95.939 E7.14048
G1 X86.238 Y96.735 E7.19163
G1 X85.943 Y96.988 E7.20931
G1 X85.133 Y96.178 E7.26137
G1 X84.854 Y96.447 E7.27900
G1 X85.652 Y97.245 E7.33034
G1 X85.438 Y97.579 E7.34839
G1 X84.593 Y96.735 E7.40272
G1 X84.339 Y97.028 E7.42039
G1 X85.224 Y97.914 E7.47734
G1 X85.010 Y98.248 E7.49539
G1 X84.116 Y97.354 E7.55291
G1 X83.914 Y97.700 E7.57115
G1 X84.796 Y98.582 E7.62785
G1 X84.657 Y98.991 E7.64751
G1 X83.713 Y98.047 E7.70824
G1 X83.550 Y98.433 E7.72727
G1 X84.525 Y99.407 E7.78998
G1 X84.393 Y99.824 E7.80983
G1 X83.402 Y98.833 E7.87356
G1 X83.254 Y99.233 E7.89297
G1 X84.261 Y100.240 E7.95773
G1 X84.213 Y100.740 E7.98059
G1 X83.154 Y99.681 E8.04873
G1 X83.062 Y100.137 E8.06990
G1 X84.168 Y101.243 E8.14104
G1 X84.123 Y101.746 E8.16400
G1 X82.973 Y100.596 E8.23794
G1 X82.941 Y101.112 E8.26147
G1 X84.098 Y102.270 E8.33590
G1 X84.152 Y102.871 E8.36338
G1 X82.909 Y101.629 E8.44330
G1 X82.909 Y102.177 E8.46822
G1 X84.206 Y103.473 E8.55161
G1 X84.273 Y104.089 E8.57979
G1 X82.969 Y102.785 E8.66368
G1 X83.029 Y103.393 E8.69146
G1 X84.529 Y104.893 E8.78796
G1 X84.822 Y105.735 F7800.000
G1 X83.089 Y104.001 E8.89948 F540.000
G1 X83.335 Y104.795 E8.93731
G1 X87.551 Y109.011 E9.20850
G1 X88.302 Y109.214 E9.24390
G1 X87.064 Y107.976 E9.32355
G1 X86.681 Y108.690 F7800.000
G1 X83.630 Y105.639 E9.51979 F540.000
G1 X84.675 Y107.231 F7800.000
G1 X85.029 Y107.586 E9.54259 F540.000
G1 X87.971 Y108.335 F7800.000
G1 X88.914 Y109.278 E9.60327 F540.000
G1 X89.526 Y109.341 E9.63124
G1 X88.661 Y108.476 E9.68689
G1 X89.277 Y108.544 E9.71507
G1 X90.135 Y109.402 E9.77026
G1 X90.647 Y109.367 E9.79363
G1 X89.893 Y108.612 E9.84217
G1 X90.397 Y108.568 E9.86517
G1 X91.160 Y109.331 E9.91427
G1 X91.653 Y109.276 E9.93682
G1 X90.889 Y108.512 E9.98591
G1 X91.382 Y108.457 E10.00846
G1 X92.098 Y109.173 E10.05455
G1 X92.544 Y109.071 E10.07536
G1 X91.835 Y108.362 E10.12097
G1 X92.226 Y108.204 E10.14013
G1 X92.962 Y108.940 E10.18745
G1 X93.346 Y108.777 E10.20646
G1 X92.616 Y108.047 E10.25341
G1 X93.007 Y107.889 E10.27256
G1 X93.731 Y108.613 E10.31913
G1 X94.083 Y108.417 E10.33746
G1 X93.345 Y107.679 E10.38497
G1 X93.643 Y107.429 E10.40267
G1 X94.410 Y108.196 E10.45201
G1 X94.738 Y107.975 E10.46997
G1 X93.942 Y107.180 E10.52114
G1 X94.241 Y106.930 E10.53884
G1 X95.018 Y107.708 E10.58886
G1 X95.292 Y107.434 E10.60649
G1 X94.495 Y106.637 E10.65775
G1 X94.711 Y106.305 E10.67577
G1 X95.566 Y107.160 E10.73078
G1 X95.804 Y106.849 E10.74856
G1 X94.927 Y105.972 E10.80494
G1 X95.143 Y105.640 E10.82296
G1 X96.017 Y106.514 E10.87920
G1 X96.231 Y106.180 E10.89725
G1 X95.320 Y105.268 E10.95589
G1 X95.452 Y104.853 E10.97574
G1 X96.407 Y105.808 E11.03718
G1 X96.565 Y105.417 E11.05633
G1 X95.584 Y104.437 E11.11938
G1 X95.717 Y104.021 E11.13922
G1 X96.722 Y105.026 E11.20387
G1 X96.838 Y104.594 E11.22424
G1 X95.798 Y103.555 E11.29108
G1 X95.844 Y103.052 E11.31405
G1 X96.935 Y104.143 E11.38427
G1 X97.033 Y103.693 E11.40524
G1 X95.889 Y102.549 E11.47884
G1 X95.934 Y102.046 E11.50181
G1 X97.080 Y103.192 E11.57553
G1 X97.114 Y102.677 E11.59897
G1 X95.896 Y101.459 E11.67733
G1 X95.844 Y100.860 E11.70469
G1 X97.148 Y102.163 E11.78852
G1 X97.096 Y101.564 E11.81587
G1 X95.793 Y100.260 E11.89971
G1 X95.622 Y99.541 E11.93336
G1 X97.043 Y100.962 E12.02477
G1 X96.989 Y100.360 E12.05225
G1 X95.379 Y98.750 E12.15582
G92 E0
G1 X96.878 Y98.262 F7800.000
G1 X100.695 Y95.986 F7800.000
G1 X100.249 Y94.368 F7800.000
G1 X105.139 Y94.368 F7800.000
G1 X106.985 Y96.212 F7800.000
G1 X106.985 Y101.690 E0.24787 F378.000
G1 X115.718 Y101.690 E0.64303 F378.000
G1 X115.718 Y94.593 E0.96417
G1 X117.339 Y94.593 E1.03752
G1 X117.339 Y109.439 E1.70929
G1 X115.718 Y109.439 E1.78264
G1 X115.718 Y102.975 E2.07513
G1 X106.985 Y102.975 E2.47029
G1 X106.985 Y109.439 E2.76278
G1 X105.364 Y109.439 E2.83613
G1 X105.364 Y94.593 E3.50790
G1 X106.985 Y94.593 E3.58125
G1 X106.985 Y95.981 E3.64406
G1 X106.373 Y94.819 F7800.000
G1 X106.759 Y95.205 E3.66920 F540.000
G1 X106.759 Y95.760 E3.69472
G1 X105.818 Y94.819 E3.75595
G1 X105.590 Y95.145 E3.77427
G1 X106.759 Y96.314 E3.85035
G1 X106.759 Y96.869 E3.87586
G1 X105.590 Y95.700 E3.95194
G1 X105.590 Y96.254 E3.97746
G1 X106.759 Y97.424 E4.05354
G1 X106.759 Y97.978 E4.07905
G1 X105.590 Y96.809 E4.15513
G1 X105.590 Y97.364 E4.18065
G1 X106.759 Y98.533 E4.25673
G1 X106.759 Y99.087 E4.28224
G1 X105.590 Y97.918 E4.35832
G1 X105.590 Y98.473 E4.38384
G1 X106.759 Y99.642 E4.45992
G1 X106.759 Y100.196 E4.48543
G1 X105.590 Y99.027 E4.56151
G1 X105.590 Y99.582 E4.58703
G1 X106.759 Y100.751 E4.66310
G1 X106.759 Y101.306 E4.68862
G1 X105.590 Y100.136 E4.76470
G1 X105.590 Y100.691 E4.79022
G1 X106.759 Y101.860 E4.86629
G1 X105.590 Y109.009 F7800.000
G1 X105.793 Y109.213 E4.87954 F540.000
G1 X106.348 Y109.213 E4.90506
G1 X105.590 Y108.455 E4.95439
G1 X105.590 Y107.900 E4.97991
G1 X106.759 Y109.069 E5.05599
G1 X106.759 Y108.515 E5.08151
G1 X105.590 Y107.346 E5.15758
G1 X105.590 Y106.791 E5.18310
G1 X106.759 Y107.960 E5.25918
G1 X106.759 Y107.406 E5.28470
G1 X105.590 Y106.237 E5.36077
G1 X105.590 Y105.682 E5.38629
G1 X106.759 Y106.851 E5.46237
G1 X106.759 Y106.297 E5.48789
G1 X105.590 Y105.128 E5.56396
G1 X105.590 Y104.573 E5.58948
G1 X106.759 Y105.742 E5.66556
G1 X106.759 Y105.187 E5.69108
G1 X105.590 Y104.018 E5.76715
G1 X105.590 Y103.464 E5.79267
G1 X106.759 Y104.633 E5.86875
G1 X106.759 Y104.078 E5.89426
G1 X105.590 Y102.909 E5.97034
G1 X105.590 Y102.355 E5.99586
G1 X106.759 Y103.524 E6.07194
G1 X106.759 Y102.969 E6.09745
G1 X105.590 Y101.800 E6.17353
G1 X105.590 Y101.246 E6.19905
G1 X107.093 Y102.749 E6.29689
G1 X107.648 Y102.749 E6.32240
G1 X106.815 Y101.916 E6.37662
G1 X107.369 Y101.916 E6.40213
G1 X108.203 Y102.749 E6.45635
G1 X108.757 Y102.749 E6.48186
G1 X107.924 Y101.916 E6.53608
G1 X108.479 Y101.916 E6.56159
G1 X109.312 Y102.749 E6.61581
G1 X109.866 Y102.749 E6.64132
G1 X109.033 Y101.916 E6.69554
G1 X109.588 Y101.916 E6.72105
G1 X110.421 Y102.749 E6.77527
G1 X110.975 Y102.749 E6.80078
G1 X110.142 Y101.916 E6.85500
G1 X110.697 Y101.916 E6.88051
G1 X111.530 Y102.749 E6.93473
G1 X112.084 Y102.749 E6.96024
G1 X111.251 Y101.916 E7.01446
G1 X111.806 Y101.916 E7.03997
G1 X112.639 Y102.749 E7.09419
G1 X113.194 Y102.749 E7.11970
G1 X112.361 Y101.916 E7.17392
G1 X112.915 Y101.916 E7.19944
G1 X113.748 Y102.749 E7.25365
G1 X114.303 Y102.749 E7.27917
G1 X113.470 Y101.916 E7.33338
G1 X114.024 Y101.916 E7.35890
G1 X114.857 Y102.749 E7.41311
G1 X115.412 Y102.749 E7.43863
G1 X114.579 Y101.916 E7.49284
G1 X115.133 Y101.916 E7.51836
G1 X117.113 Y103.896 E7.64718
G1 X117.113 Y103.341 E7.67270
G1 X115.688 Y101.916 E7.76543
G1 X115.944 Y101.617 F7800.000
G1 X117.113 Y102.786 E7.84151 F540.000
G1 X117.113 Y102.232 E7.86703
G1 X115.944 Y101.063 E7.94310
G1 X115.944 Y100.508 E7.96862
G1 X117.113 Y101.677 E8.04470
G1 X117.113 Y101.123 E8.07022
G1 X115.944 Y99.954 E8.14629
G1 X115.944 Y99.399 E8.17181
G1 X117.113 Y100.568 E8.24789
G1 X117.113 Y100.014 E8.27341
G1 X115.944 Y98.845 E8.34948
G1 X115.944 Y98.290 E8.37500
G1 X117.113 Y99.459 E8.45108
G1 X117.113 Y98.905 E8.47660
G1 X115.944 Y97.735 E8.55267
G1 X115.944 Y97.181 E8.57819
G1 X117.113 Y98.350 E8.65427
G1 X117.113 Y97.795 E8.67979
G1 X115.944 Y96.626 E8.75586
G1 X115.944 Y96.072 E8.78138
G1 X117.113 Y97.241 E8.85746
G1 X117.113 Y96.686 E8.88298
G1 X115.944 Y95.517 E8.95906
G1 X115.944 Y94.963 E8.98457
G1 X117.113 Y96.132 E9.06065
G1 X117.113 Y95.577 E9.08617
G1 X116.355 Y94.819 E9.13551
G1 X116.909 Y94.819 E9.16102
G1 X117.113 Y95.023 E9.17427
G1 X115.944 Y103.281 F7800.000
G1 X117.113 Y104.450 E9.25035 F540.000
G1 X117.113 Y105.005 E9.27587
G1 X115.944 Y103.836 E9.35194
G1 X115.944 Y104.390 E9.37746
G1 X117.113 Y105.559 E9.45354
G1 X117.113 Y106.114 E9.47906
G1 X115.944 Y104.945 E9.55513
G1 X115.944 Y105.499 E9.58065
G1 X117.113 Y106.668 E9.65673
G1 X117.113 Y107.223 E9.68225
G1 X115.944 Y106.054 E9.75833
G1 X115.944 Y106.608 E9.78384
G1 X117.113 Y107.778 E9.85992
G1 X117.113 Y108.332 E9.88544
G1 X115.944 Y107.163 E9.96152
G1 X115.944 Y107.718 E9.98703
G1 X117.113 Y108.887 E10.06311
G1 X116.885 Y109.213 E10.08143
G1 X115.944 Y108.272 E10.14266
G1 X115.944 Y108.827 E10.16818
G1 X116.330 Y109.213 E10.19332
M106 S255
G92 E0
G1 Z0.600 F7800.000
G1 X89.284 Y94.182 F7800.000
G1 X91.248 Y95.103 E0.65005 F600.000
G1 X91.938 Y95.241 E0.86105
G1 X92.918 Y95.558 E1.16951
G1 X93.310 Y95.742 E1.29935
G1 X93.545 Y95.877 E1.38056
G1 X94.184 Y96.312 E1.61211
G1 X94.660 Y96.743 E1.80458
G1 X94.854 Y96.948 E1.88903
G1 X95.191 Y97.363 E2.04931
G1 X95.681 Y98.160 E2.32964
G1 X95.932 Y98.681 E2.50305
G1 X96.312 Y99.920 E2.89118
G1 X96.384 Y100.236 E2.98831
G1 X96.542 Y102.072 E3.54074
G1 X96.437 Y103.444 E3.95300
G1 X96.319 Y104.140 E4.16439
G1 X96.177 Y104.671 E4.32911
G1 X95.778 Y105.761 E4.67708
G1 X95.192 Y106.678 E5.00312
G1 X94.880 Y107.070 E5.15319
G1 X94.493 Y107.459 E5.31763
G1 X93.629 Y108.109 E5.64161
G1 X93.315 Y108.275 E5.74798
G1 X92.583 Y108.578 E5.98536
G1 X91.955 Y108.776 E6.18269
G1 X91.387 Y108.888 E6.35615
G1 X90.044 Y109.008 E6.76037
G1 X88.319 Y108.827 E7.27989
G1 X88.017 Y108.769 E7.37201
G1 X86.732 Y108.277 E7.78429
G1 X86.407 Y108.115 E7.89325
G1 X85.368 Y107.296 E8.28979
G1 X85.153 Y107.098 E8.37709
G1 X84.243 Y105.760 E8.86224
G1 X83.686 Y104.098 E9.38731
G1 X83.490 Y102.040 E10.00691
G1 X83.588 Y100.721 E10.40331
G1 X83.711 Y99.961 E10.63392
G1 X83.826 Y99.519 E10.77063
G1 X84.196 Y98.441 E11.11219
G1 X84.321 Y98.202 E11.19290
G1 X84.734 Y97.525 E11.43078
G1 X85.154 Y96.965 E11.64045
G1 X85.342 Y96.747 E11.72671
G1 X86.149 Y96.086 E12.03909
G1 X86.480 Y95.865 E12.15847
G1 X86.728 Y95.726 E12.24365
G1 X87.073 Y95.567 E12.35762
G1 X88.144 Y95.188 E12.69779
G1 X89.550 Y95.005 E13.12286
G1 X89.900 Y94.900 E13.23237
G1 X90.369 Y94.691 E13.38608
G1 X90.375 Y94.566 E13.42366
G1 X90.511 Y93.914 E13.62304
G1 X90.750 Y93.293 E13.82264
G1 X90.919 Y92.950 E13.93707
G1 X91.228 Y92.411 E14.12318
G1 X91.443 Y92.132 E14.22870
G1 X91.722 Y91.820 E14.35432
G1 X92.104 Y91.513 E14.50104
G1 X92.259 Y91.410 E14.55679
G1 X92.862 Y91.132 E14.75570
G1 X93.671 Y90.962 E15.00355
G1 X94.484 Y90.946 E15.24702
G1 X95.692 Y91.078 E15.61131
G92 E0
G1 X100.434 Y93.035 F7800.000
G1 X100.210 Y94.220 F7800.000
G1 X100.249 Y94.368 F7800.000
G1 X105.139 Y94.368 F7800.000
G1 X106.174 Y94.368 F7800.000
G1 X106.174 Y101.465 E2.12659 F600.000
G1 X107.085 Y105.812 E3.45730
G92 E0
G1 X116.493 Y108.664 F7800.000
G1 X116.493 Y108.664 F7800.000
G1 X116.528 Y109.664 F7800.000
G1 X116.528 Y103.200 E1.93691 F600.000
G1 X116.347 Y102.332 E2.20250
G1 X116.528 Y101.465 E2.46808
G1 X116.528 Y94.368 E4.59467
G92 E0
G1 X116.493 Y95.368 F7800.000
G1 X106.210 Y108.664 F7800.000
G1 X106.174 Y109.664 F7800.000
G1 X106.174 Y103.200 E1.93691 F600.000
G1 X106.356 Y102.332 E2.20250
G1 X117.564 Y102.332 E5.56087
G92 E0
G1 Z0.900 F7800.000
G1 X89.284 Y94.182 F7800.000
G1 X91.248 Y95.103 E0.65005 F600.000
G1 X91.938 Y95.241 E0.86105
G1 X92.918 Y95.558 E1.16951
G1 X93.310 Y95.742 E1.29935
G1 X93.545 Y95.877 E1.38056
G1 X94.184 Y96.312 E1.61211
G1 X94.660 Y96.743 E1.80458
G1 X94.854 Y96.948 E1.88903
G1 X95.191 Y97.363 E2.04931
G1 X95.681 Y98.160 E2.32964
G1 X95.932 Y98.681 E2.50305
G1 X96.312 Y99.920 E2.89118
G1 X96.384 Y100.236 E2.98831
G1 X96.542 Y102.072 E3.54074
G1 X96.437 Y103.444 E3.95300
G1 X96.319 Y104.140 E4.16439
G1 X96.177 Y104.671 E4.32911
