; generated by Slic3r 1.2.9 on 2016-03-11 at 01:29:08

; external perimeters extrusion width = 1.54mm
; perimeters extrusion width = 2.62mm
; infill extrusion width = 6.27mm
; solid infill extrusion width = 2.62mm
; top infill extrusion width = 2.62mm

M107
M104 S30 ; set temperature
G28 ; home all axes
G1 Z5 F5000 ; lift nozzle
M302
M92 E10000
M500
M501
G1 E100
M109 S30 ; wait for temperature to be reached
G21 ; set units to millimeters
G90 ; use absolute coordinates
M82 ; use absolute distances for extrusion
G92 E0
G1 Z0.300 F7800.000
G1 X99.851 Y108.180 F7800.000
G1 X99.036 Y108.730 E0.04451 F378.000
G1 X97.863 Y109.229 E0.10217
G1 X96.551 Y109.530 E0.16308
G1 X95.101 Y109.630 E0.22882
G1 X92.938 Y109.406 E0.32726
G1 X91.134 Y108.738 E0.41429
G1 X89.675 Y107.631 E0.49717
G1 X88.598 Y106.131 E0.58073
G1 X87.949 Y104.276 E0.66964
G1 X87.730 Y102.055 E0.77064
G1 X87.819 Y100.611 E0.83610
G1 X88.086 Y99.290 E0.89709
G1 X88.528 Y98.094 E0.95477
G1 X89.135 Y97.048 E1.00952
G1 X89.898 Y96.169 E1.06216
G1 X90.819 Y95.456 E1.11487
G1 X91.885 Y94.918 E1.16891
G1 X93.083 Y94.566 E1.22540
G1 X94.566 Y94.383 E1.29303
G1 X95.100 Y92.960 E1.36178
G1 X95.657 Y91.961 E1.41353
G1 X96.283 Y91.243 E1.45664
G1 X97.004 Y90.760 E1.49592
G1 X97.851 Y90.468 E1.53641
G1 X98.836 Y90.369 E1.58123
G1 X99.389 Y90.393 E1.60628
G1 X100.062 Y90.473 E1.63695 F378.000
G1 X100.536 Y90.567 E1.65879
G1 X100.536 Y91.566 E1.70398
G1 X99.965 Y91.490 E1.73002
G1 X99.507 Y91.470 E1.75080
G1 X98.771 Y91.541 E1.78425
G1 X98.110 Y91.762 E1.81575
G1 X97.538 Y92.132 E1.84658
G1 X97.053 Y92.661 E1.87908
G1 X96.628 Y93.383 E1.91699
G1 X96.216 Y94.442 E1.96841
G1 X98.227 Y94.939 E2.06212
G1 X99.682 Y95.730 E2.13707
G1 X100.864 Y96.886 E2.21190
G1 X101.739 Y98.354 E2.28920
G1 X102.267 Y100.076 E2.37073
G1 X102.444 Y102.063 E2.46096
G1 X102.345 Y103.562 E2.52896
G1 X102.051 Y104.919 E2.59176
G1 X101.563 Y106.130 E2.65088
G1 X100.892 Y107.179 E2.70718
G1 X100.042 Y108.050 E2.76229
G1 X99.066 Y106.882 F7800.000
G1 X98.164 Y107.636 E2.81548 F378.000
G1 X96.759 Y108.203 E2.88402
G1 X95.099 Y108.390 E2.95963
G1 X93.426 Y108.206 E3.03579
G1 X92.012 Y107.647 E3.10457
G1 X90.871 Y106.711 E3.17135
G1 X90.040 Y105.443 E3.23995
G1 X89.546 Y103.890 E3.31370
G1 X89.383 Y102.059 E3.39690
G1 X89.548 Y100.230 E3.47997
G1 X90.047 Y98.659 E3.55459
G1 X90.885 Y97.350 E3.62492
G1 X92.028 Y96.369 E3.69307
G1 X93.429 Y95.781 E3.76186
G1 X94.931 Y95.604 E3.83028
G1 X95.076 Y95.587 E3.83687 F378.000
G1 X96.760 Y95.774 E3.91355
G1 X98.176 Y96.343 E3.98260
G1 X99.311 Y97.295 E4.04963
G1 X100.132 Y98.588 E4.11895
G1 X100.620 Y100.178 E4.19420
G1 X100.781 Y102.059 E4.27965
G1 X100.619 Y103.869 E4.36186
G1 X100.127 Y105.414 E4.43524
G1 X99.299 Y106.688 E4.50398
G1 X99.243 Y106.734 E4.50726
G92 E0
G1 X100.090 Y106.892 F7800.000
G1 X100.090 Y106.892 F7800.000
G1 X93.039 Y108.335 F7800.000
G1 X93.983 Y109.278 E0.06067 F540.000
G1 X94.594 Y109.341 E0.08864
G1 X93.729 Y108.476 E0.14429
G1 X94.345 Y108.544 E0.17248
G1 X95.203 Y109.402 E0.22767
G1 X95.716 Y109.367 E0.25104
G1 X94.961 Y108.612 E0.29957
G1 X95.465 Y108.568 E0.32258
G1 X96.228 Y109.331 E0.37167
G1 X96.721 Y109.276 E0.39422
G1 X95.958 Y108.512 E0.44332
G1 X96.450 Y108.457 E0.46587
G1 X97.167 Y109.173 E0.51196
G1 X97.613 Y109.071 E0.53277
G1 X96.904 Y108.362 E0.57838
G1 X97.294 Y108.204 E0.59753
G1 X98.030 Y108.940 E0.64486
G1 X98.415 Y108.777 E0.66387
G1 X97.685 Y108.047 E0.71081
G1 X98.075 Y107.889 E0.72997
G1 X98.799 Y108.613 E0.77653
G1 X99.152 Y108.417 E0.79487
G1 X98.413 Y107.679 E0.84238
G1 X98.712 Y107.429 E0.86008
G1 X99.479 Y108.196 E0.90942
G1 X99.806 Y107.975 E0.92737
G1 X99.010 Y107.180 E0.97854
G1 X99.309 Y106.930 E0.99624
G1 X100.087 Y107.708 E1.04627
G1 X100.361 Y107.434 E1.06390
G1 X99.564 Y106.637 E1.11516
G1 X99.780 Y106.305 E1.13318
G1 X100.635 Y107.160 E1.18818
G1 X100.872 Y106.849 E1.20597
G1 X99.996 Y105.972 E1.26234
G1 X100.212 Y105.640 E1.28037
G1 X101.086 Y106.514 E1.33661
G1 X101.300 Y106.180 E1.35466
G1 X100.388 Y105.268 E1.41330
G1 X100.521 Y104.853 E1.43314
G1 X101.476 Y105.808 E1.49458
G1 X101.633 Y105.417 E1.51374
G1 X100.653 Y104.437 E1.57678
G1 X100.785 Y104.021 E1.59663
G1 X101.791 Y105.026 E1.66128
G1 X101.906 Y104.594 E1.68164
G1 X100.867 Y103.555 E1.74849
G1 X100.912 Y103.052 E1.77145
G1 X102.004 Y104.143 E1.84168
G1 X102.102 Y103.693 E1.86264
G1 X100.957 Y102.549 E1.93625
G1 X101.002 Y102.046 E1.95922
G1 X102.149 Y103.192 E2.03293
G1 X102.182 Y102.677 E2.05638
G1 X100.964 Y101.459 E2.13473
G1 X100.913 Y100.860 E2.16210
G1 X102.216 Y102.163 E2.24592
G1 X102.165 Y101.564 E2.27328
G1 X100.862 Y100.260 E2.35712
G1 X100.690 Y99.541 E2.39076
G1 X102.111 Y100.962 E2.48218
G1 X102.058 Y100.360 E2.50966
G1 X100.447 Y98.750 E2.61323
G1 X101.618 Y98.824 F7800.000
G1 X97.910 Y95.116 E2.85177 F540.000
G1 X97.182 Y94.936 E2.88588
G1 X98.393 Y96.147 E2.96380
G1 X99.032 Y95.690 F7800.000
G1 X100.998 Y97.656 E3.09025 F540.000
G1 X99.829 Y97.583 F7800.000
G1 X101.860 Y99.614 E3.22093 F540.000
G1 X97.477 Y95.779 F7800.000
G1 X96.454 Y94.756 E3.28674 F540.000
G1 X95.885 Y94.736 E3.31261
G1 X94.987 Y93.838 E3.37040
G1 X96.317 Y92.382 F7800.000
G1 X96.317 Y92.382 F7800.000
G1 X100.310 Y90.938 F7800.000
G1 X100.100 Y90.729 E3.38385 F540.000
G1 X100.090 Y91.267 E3.40833
G1 X99.463 Y90.640 E3.44868
G1 X98.876 Y90.601 E3.47543
G1 X99.524 Y91.248 E3.51708
G1 X99.024 Y91.297 E3.53990
G1 X98.364 Y90.636 E3.58241
G1 X97.865 Y90.686 E3.60518
G1 X98.572 Y91.392 E3.65060
G1 X98.161 Y91.530 E3.67031
G1 X97.452 Y90.821 E3.71587
G1 X97.048 Y90.965 E3.73539
G1 X97.808 Y91.725 E3.78431
G1 X97.475 Y91.941 E3.80234
G1 X96.720 Y91.185 E3.85095
G1 X96.395 Y91.408 E3.86887
G1 X97.201 Y92.215 E3.92075
G1 X96.939 Y92.501 E3.93839
G1 X96.139 Y91.701 E3.98984
G1 X95.884 Y91.993 E4.00751
G1 X96.724 Y92.834 E4.06156
G1 X96.521 Y93.179 E4.07977
G1 X95.674 Y92.332 E4.13420
G1 X95.478 Y92.684 E4.15253
G1 X96.345 Y93.552 E4.20832
G1 X96.192 Y93.946 E4.22758
G1 X95.286 Y93.040 E4.28588
G1 X95.136 Y93.439 E4.30525
G1 X96.039 Y94.341 E4.36330
G1 X95.726 Y94.576 E4.38110
G1 X96.677 Y95.528 E4.44231
G1 X96.060 Y95.459 E4.47054
G1 X94.837 Y94.236 E4.54921
G1 X94.644 Y94.591 E4.56759
G1 X95.444 Y95.391 E4.61901
G1 X94.894 Y95.389 E4.64399
G1 X94.156 Y94.651 E4.69145
G1 X93.669 Y94.712 E4.71381
G1 X94.404 Y95.447 E4.76112
G1 X93.914 Y95.505 E4.78357
G1 X93.181 Y94.772 E4.83071
G1 X92.742 Y94.881 E4.85129
G1 X93.425 Y95.565 E4.89525
G1 X93.039 Y95.727 E4.91430
G1 X92.318 Y95.006 E4.96066
G1 X91.898 Y95.134 E4.98065
G1 X92.653 Y95.889 E5.02922
G1 X92.267 Y96.051 E5.04827
G1 X91.533 Y95.317 E5.09544
G1 X91.169 Y95.501 E5.11400
G1 X91.896 Y96.228 E5.16075
G1 X91.601 Y96.481 E5.17843
G1 X90.820 Y95.700 E5.22868
G1 X90.511 Y95.939 E5.24645
G1 X91.306 Y96.735 E5.29761
G1 X91.011 Y96.988 E5.31529
G1 X90.202 Y96.178 E5.36735
G1 X89.922 Y96.447 E5.38498
G1 X90.721 Y97.245 E5.43632
G1 X90.507 Y97.579 E5.45436
G1 X89.662 Y96.735 E5.50869
G1 X89.407 Y97.028 E5.52636
G1 X90.292 Y97.914 E5.58332
G1 X90.078 Y98.248 E5.60137
G1 X89.184 Y97.354 E5.65889
G1 X88.983 Y97.700 E5.67713
G1 X89.864 Y98.582 E5.73382
G1 X89.726 Y98.991 E5.75349
G1 X88.782 Y98.047 E5.81422
G1 X88.619 Y98.433 E5.83324
G1 X89.594 Y99.407 E5.89595
G1 X89.462 Y99.824 E5.91581
G1 X88.471 Y98.833 E5.97954
G1 X88.323 Y99.233 E5.99895
G1 X89.330 Y100.240 E6.06371
G1 X89.282 Y100.740 E6.08657
G1 X88.222 Y99.681 E6.15471
G1 X88.130 Y100.137 E6.17587
G1 X89.236 Y101.243 E6.24702
G1 X89.191 Y101.746 E6.26998
G1 X88.042 Y100.596 E6.34392
G1 X88.010 Y101.112 E6.36745
G1 X89.167 Y102.270 E6.44188
G1 X89.221 Y102.871 E6.46936
G1 X87.978 Y101.629 E6.54928
G1 X87.978 Y102.177 E6.57420
G1 X89.274 Y103.473 E6.65759
G1 X89.342 Y104.089 E6.68576
G1 X88.038 Y102.785 E6.76965
G1 X88.097 Y103.393 E6.79744
G1 X89.598 Y104.893 E6.89394
G1 X89.891 Y105.735 F7800.000
G1 X88.157 Y104.001 E7.00546 F540.000
G1 X88.403 Y104.795 E7.04329
G1 X92.620 Y109.011 E7.31448
G1 X93.371 Y109.214 E7.34987
G1 X92.132 Y107.976 E7.42953
G1 X91.750 Y108.690 F7800.000
G1 X88.699 Y105.639 E7.62577 F540.000
G1 X89.743 Y107.231 F7800.000
G1 X90.098 Y107.586 E7.64857 F540.000
G92 E0
G1 X102.267 Y104.985 F7800.000
G1 X106.192 Y106.566 F7800.000
G1 X108.231 Y109.664 F7800.000
G1 X110.423 Y109.664 F7800.000
G1 X112.270 Y102.493 F7800.000
G1 X112.270 Y109.439 E0.31429 F378.000
G1 X110.648 Y109.439 E0.38768 F378.000
G1 X110.648 Y94.593 E1.05945
G1 X112.270 Y94.593 E1.13285
G1 X112.270 Y102.262 E1.47988
G1 X111.078 Y109.213 F7800.000
G1 X110.874 Y109.009 E1.49329 F540.000
G1 X110.874 Y108.448 E1.51944
G1 X111.639 Y109.213 E1.56982
G1 X112.045 Y109.057 E1.59005
G1 X110.874 Y107.887 E1.66713
G1 X110.874 Y107.325 E1.69327
G1 X112.045 Y108.495 E1.77035
G1 X112.045 Y107.934 E1.79650
G1 X110.874 Y106.764 E1.87358
G1 X110.874 Y106.203 E1.89972
G1 X112.045 Y107.373 E1.97680
G1 X112.045 Y106.811 E2.00295
G1 X110.874 Y105.641 E2.08002
G1 X110.874 Y105.080 E2.10617
G1 X112.045 Y106.250 E2.18325
G1 X112.045 Y105.689 E2.20940
G1 X110.874 Y104.518 E2.28647
G1 X110.874 Y103.957 E2.31262
G1 X112.045 Y105.127 E2.38970
G1 X112.045 Y104.566 E2.41584
G1 X110.874 Y103.396 E2.49292
G1 X110.874 Y102.834 E2.51907
G1 X112.045 Y104.004 E2.59615
G1 X112.045 Y103.443 E2.62229
G1 X110.874 Y102.273 E2.69937
G1 X110.874 Y101.712 E2.72552
G1 X112.045 Y102.882 E2.80259
G1 X112.045 Y102.320 E2.82874
G1 X110.874 Y101.150 E2.90582
G1 X110.874 Y100.589 E2.93197
G1 X112.044 Y101.759 E3.00904
G1 X112.044 Y101.198 E3.03519
G1 X110.874 Y100.028 E3.11227
G1 X110.874 Y99.466 E3.13841
G1 X112.044 Y100.636 E3.21549
G1 X112.044 Y100.075 E3.24164
G1 X110.874 Y98.905 E3.31872
G1 X110.874 Y98.343 E3.34486
G1 X112.044 Y99.514 E3.42194
G1 X112.044 Y98.952 E3.44809
G1 X110.874 Y97.782 E3.52516
G1 X110.874 Y97.221 E3.55131
G1 X112.044 Y98.391 E3.62839
G1 X112.044 Y97.829 E3.65454
G1 X110.874 Y96.659 E3.73161
G1 X110.874 Y96.098 E3.75776
G1 X112.044 Y97.268 E3.83484
G1 X112.044 Y96.707 E3.86098
G1 X110.874 Y95.537 E3.93806
G1 X110.874 Y94.975 E3.96421
G1 X112.044 Y96.145 E4.04129
G1 X112.044 Y95.584 E4.06743
G1 X111.280 Y94.819 E4.11782
G1 X111.841 Y94.819 E4.14397
G1 X112.044 Y95.023 E4.15738
M106 S255
G92 E0
G1 Z0.600 F7800.000
G1 X94.352 Y94.182 F7800.000
G1 X96.316 Y95.103 E0.65005 F600.000
G1 X97.007 Y95.241 E0.86105
G1 X97.987 Y95.558 E1.16951
G1 X98.379 Y95.742 E1.29935
G1 X98.614 Y95.877 E1.38056
G1 X99.252 Y96.312 E1.61211
G1 X99.729 Y96.743 E1.80458
G1 X99.922 Y96.948 E1.88903
G1 X100.259 Y97.363 E2.04931
G1 X100.750 Y98.160 E2.32964
G1 X101.000 Y98.681 E2.50305
G1 X101.380 Y99.920 E2.89118
G1 X101.453 Y100.236 E2.98831
G1 X101.611 Y102.072 E3.54074
G1 X101.506 Y103.444 E3.95300
G1 X101.387 Y104.140 E4.16439
G1 X101.245 Y104.671 E4.32911
G1 X100.847 Y105.761 E4.67708
G1 X100.261 Y106.678 E5.00312
G1 X99.949 Y107.070 E5.15319
G1 X99.561 Y107.459 E5.31763
G1 X98.697 Y108.109 E5.64161
G1 X98.384 Y108.275 E5.74798
G1 X97.652 Y108.578 E5.98536
G1 X97.024 Y108.776 E6.18269
G1 X96.456 Y108.888 E6.35615
G1 X95.112 Y109.008 E6.76037
G1 X93.388 Y108.827 E7.27989
G1 X93.086 Y108.769 E7.37201
G1 X91.801 Y108.277 E7.78429
G1 X91.475 Y108.115 E7.89325
G1 X90.436 Y107.296 E8.28979
G1 X90.222 Y107.098 E8.37709
G1 X89.312 Y105.760 E8.86224
G1 X88.754 Y104.098 E9.38731
G1 X88.558 Y102.040 E10.00691
G1 X88.657 Y100.721 E10.40331
G1 X88.780 Y99.961 E10.63392
G1 X88.894 Y99.519 E10.77063
G1 X89.264 Y98.441 E11.11219
G1 X89.389 Y98.202 E11.19290
G1 X89.803 Y97.525 E11.43078
G1 X90.222 Y96.965 E11.64045
G1 X90.411 Y96.747 E11.72671
G1 X91.217 Y96.086 E12.03909
G1 X91.549 Y95.865 E12.15847
G1 X91.797 Y95.726 E12.24365
G1 X92.142 Y95.567 E12.35762
G1 X93.212 Y95.188 E12.69779
G1 X94.619 Y95.005 E13.12286
G1 X94.969 Y94.900 E13.23237
G1 X95.437 Y94.691 E13.38608
G1 X95.444 Y94.566 E13.42366
G1 X95.580 Y93.914 E13.62304
G1 X95.819 Y93.293 E13.82264
G1 X95.988 Y92.950 E13.93707
G1 X96.296 Y92.411 E14.12318
G1 X96.511 Y92.132 E14.22870
G1 X96.791 Y91.820 E14.35432
G1 X97.172 Y91.513 E14.50104
G1 X97.328 Y91.410 E14.55679
G1 X97.930 Y91.132 E14.75570
G1 X98.740 Y90.962 E15.00355
G1 X99.552 Y90.946 E15.24702
G1 X100.761 Y91.078 E15.61131
G92 E0
G1 X105.582 Y93.139 F7800.000
G1 X105.379 Y94.160 F7800.000
G1 X105.434 Y94.368 F7800.000
G1 X110.423 Y94.368 F7800.000
G1 X111.459 Y109.664 F7800.000
G1 X111.459 Y94.368 E4.58339 F600.000
G92 E0
G1 Z0.900 F7800.000
G1 X94.352 Y94.182 F7800.000
G1 X96.316 Y95.103 E0.65005 F600.000
G1 X97.007 Y95.241 E0.86105
G1 X97.987 Y95.558 E1.16951
G1 X98.379 Y95.742 E1.29935
G1 X98.614 Y95.877 E1.38056
G1 X99.252 Y96.312 E1.61211
G1 X99.729 Y96.743 E1.80458
G1 X99.922 Y96.948 E1.88903
G1 X100.259 Y97.363 E2.04931
G1 X100.750 Y98.160 E2.32964
G1 X101.000 Y98.681 E2.50305
G1 X101.380 Y99.920 E2.89118
G1 X101.453 Y100.236 E2.98831
G1 X101.611 Y102.072 E3.54074
G1 X101.506 Y103.444 E3.95300
G1 X101.387 Y104.140 E4.16439
G1 X101.245 Y104.671 E4.32911
G1 X100.847 Y105.761 E4.67708
G1 X100.261 Y106.678 E5.00312
G1 X99.949 Y107.070 E5.15319
G1 X99.561 Y107.459 E5.31763
G1 X98.697 Y108.109 E5.64161
G1 X98.384 Y108.275 E5.74798
G1 X97.652 Y108.578 E5.98536
G1 X97.024 Y108.776 E6.18269
G1 X96.456 Y108.888 E6.35615
G1 X95.112 Y109.008 E6.76037
G1 X93.388 Y108.827 E7.27989
G1 X93.086 Y108.769 E7.37201
G1 X91.801 Y108.277 E7.78429
G1 X91.475 Y108.115 E7.89325
G1 X90.436 Y107.296 E8.28979
G1 X90.222 Y107.098 E8.37710
G1 X89.312 Y105.760 E8.86224
G1 X88.754 Y104.098 E9.38731
G1 X88.558 Y102.040 E10.00692
G1 X88.657 Y100.721 E10.40331
G1 X88.780 Y99.961 E10.63392
G1 X88.894 Y99.519 E10.77063
G1 X89.264 Y98.441 E11.11219
G1 X89.389 Y98.202 E11.19290
G1 X89.803 Y97.525 E11.43078
G1 X90.222 Y96.965 E11.64045
G1 X90.411 Y96.747 E11.72671
G1 X91.217 Y96.086 E12.03908
G1 X91.549 Y95.865 E12.15847
G1 X91.797 Y95.726 E12.24365
G1 X92.142 Y95.567 E12.35762
G1 X93.212 Y95.188 E12.69779
G1 X94.508 Y95.022 E13.08935
G1 X94.969 Y94.900 E13.23214
G1 X95.437 Y94.691 E13.38585
G1 X95.444 Y94.566 E13.42343
G1 X95.580 Y93.914 E13.62281
G1 X95.819 Y93.293 E13.82241
G1 X95.988 Y92.950 E13.93684
G1 X96.296 Y92.411 E14.12295
G1 X96.511 Y92.132 E14.22847
G1 X96.791 Y91.820 E14.35409
G1 X97.172 Y91.513 E14.50081
G1 X97.328 Y91.410 E14.55656
G1 X97.930 Y91.132 E14.75547
G1 X98.740 Y90.962 E15.00332
G1 X99.542 Y90.941 E15.24373
G1 X99.980 Y90.977 E15.37546
G1 X100.761 Y91.099 E15.61221
G92 E0
G1 X105.582 Y93.139 F7800.000
G1 X105.379 Y94.160 F7800.000
G1 X105.434 Y94.368 F7800.000
G1 X110.423 Y94.368 F7800.000
G1 X111.459 Y109.664 F7800.000
G1 X111.459 Y94.368 E4.58339 F600.000
G92 E0
G1 Z1.200 F7800.000
G1 X94.352 Y94.182 F7800.000
G1 X96.316 Y95.103 E0.65005 F600.000
G1 X97.007 Y95.241 E0.86105
G1 X97.987 Y95.558 E1.16951
G1 X98.379 Y95.742 E1.29935
G1 X98.614 Y95.877 E1.38056
G1 X99.252 Y96.312 E1.61210
G1 X99.729 Y96.743 E1.80458
G1 X99.922 Y96.948 E1.88903
G1 X100.259 Y97.363 E2.04931
G1 X100.750 Y98.160 E2.32964
G1 X101.000 Y98.681 E2.50305
G1 X101.380 Y99.920 E2.89118
G1 X101.453 Y100.236 E2.98831
G1 X101.611 Y102.072 E3.54074
G1 X101.506 Y103.444 E3.95300
G1 X101.387 Y104.140 E4.16439
G1 X101.245 Y104.671 E4.32911
G1 X100.847 Y105.762 E4.67708
G1 X100.261 Y106.678 E5.00312
G1 X99.949 Y107.070 E5.15319
G1 X99.561 Y107.459 E5.31763
G1 X98.697 Y108.109 E5.64161
G1 X98.384 Y108.275 E5.74798
G1 X97.652 Y108.578 E5.98536
G1 X97.024 Y108.776 E6.18269
G1 X96.456 Y108.888 E6.35615
G1 X95.112 Y109.008 E6.76037
G1 X93.388 Y108.827 E7.27989
G1 X93.086 Y108.769 E7.37201
G1 X91.801 Y108.277 E7.78428
G1 X91.475 Y108.115 E7.89325
G1 X90.436 Y107.296 E8.28979
G1 X90.222 Y107.098 E8.37709
G1 X89.312 Y105.760 E8.86224
G1 X88.754 Y104.098 E9.38731
G1 X88.558 Y102.040 E10.00691
G1 X88.657 Y100.721 E10.40331
G1 X88.780 Y99.961 E10.63392
G1 X88.894 Y99.519 E10.77063
G1 X89.264 Y98.441 E11.11218
G1 X89.389 Y98.202 E11.19290
G1 X89.803 Y97.525 E11.43078
G1 X90.222 Y96.965 E11.64045
G1 X90.411 Y96.747 E11.72671
G1 X91.217 Y96.086 E12.03908
G1 X91.549 Y95.865 E12.15847
G1 X91.797 Y95.726 E12.24365
G1 X92.142 Y95.567 E12.35762
G1 X93.212 Y95.188 E12.69779
G1 X94.508 Y95.022 E13.08935
G1 X94.969 Y94.900 E13.23214
G1 X95.437 Y94.691 E13.38585
