; generated by Slic3r 1.2.9 on 2016-03-11 at 01:29:09

; external perimeters extrusion width = 1.54mm
; perimeters extrusion width = 2.62mm
; infill extrusion width = 6.27mm
; solid infill extrusion width = 2.62mm
; top infill extrusion width = 2.62mm

M107
M104 S30 ; set temperature
G28 ; home all axes
G1 Z5 F5000 ; lift nozzle
M302
M92 E10000
M500
M501
G1 E100
M109 S30 ; wait for temperature to be reached
G21 ; set units to millimeters
G90 ; use absolute coordinates
M82 ; use absolute distances for extrusion
G92 E0
G1 Z0.300 F7800.000
G1 X94.319 Y94.637 F7800.000
G1 X95.542 Y94.939 E0.05701 F378.000
G1 X96.997 Y95.730 E0.13196
G1 X98.179 Y96.886 E0.20679
G1 X99.054 Y98.354 E0.28409
G1 X99.582 Y100.076 E0.36562
G1 X99.759 Y102.063 E0.45585
G1 X99.660 Y103.562 E0.52385
G1 X99.366 Y104.919 E0.58665
G1 X98.878 Y106.130 E0.64578
G1 X98.207 Y107.179 E0.70208
G1 X97.366 Y108.044 E0.75668
G1 X96.351 Y108.730 E0.81215
G1 X95.178 Y109.229 E0.86981
G1 X93.866 Y109.530 E0.93072
G1 X92.416 Y109.630 E0.99646
G1 X90.253 Y109.406 E1.09490
G1 X88.449 Y108.738 E1.18193
G1 X86.990 Y107.631 E1.26481
G1 X85.913 Y106.131 E1.34838
G1 X85.264 Y104.276 E1.43728
G1 X85.045 Y102.055 E1.53828
G1 X85.134 Y100.611 E1.60375
G1 X85.401 Y99.290 E1.66474
G1 X85.843 Y98.094 E1.72241
G1 X86.450 Y97.048 E1.77717
G1 X87.213 Y96.169 E1.82981
G1 X88.134 Y95.456 E1.88251
G1 X89.200 Y94.918 E1.93655
G1 X90.398 Y94.566 E1.99304
G1 X91.881 Y94.383 E2.06067
G1 X92.415 Y92.960 E2.12942
G1 X92.972 Y91.961 E2.18117
G1 X93.598 Y91.243 E2.22429
G1 X94.319 Y90.760 E2.26356
G1 X95.166 Y90.468 E2.30406
G1 X96.151 Y90.369 E2.34888
G1 X96.704 Y90.393 E2.37392
G1 X97.377 Y90.473 E2.40459 F378.000
G1 X97.851 Y90.567 E2.42644
G1 X97.851 Y91.566 E2.47163
G1 X97.280 Y91.490 E2.49766
G1 X96.822 Y91.470 E2.51844
G1 X96.086 Y91.541 E2.55189
G1 X95.425 Y91.762 E2.58340
G1 X94.853 Y92.132 E2.61423
G1 X94.368 Y92.661 E2.64673
G1 X93.943 Y93.383 E2.68463
G1 X93.531 Y94.442 E2.73605
G1 X94.094 Y94.581 E2.76230
G1 X93.963 Y95.762 F7800.000
G1 X94.075 Y95.774 E2.76740 F378.000
G1 X95.491 Y96.343 E2.83645
G1 X96.626 Y97.295 E2.90348
G1 X97.447 Y98.588 E2.97280
G1 X97.935 Y100.178 E3.04805
G1 X98.096 Y102.059 E3.13351
G1 X97.934 Y103.869 E3.21571
G1 X97.442 Y105.414 E3.28909
G1 X96.614 Y106.688 E3.35783
G1 X95.479 Y107.636 E3.42475
G1 X94.074 Y108.203 E3.49329
G1 X92.414 Y108.390 E3.56891
G1 X90.741 Y108.206 E3.64506
G1 X89.327 Y107.647 E3.71385
G1 X88.186 Y106.711 E3.78062
G1 X87.355 Y105.443 E3.84923
G1 X86.861 Y103.890 E3.92297
G1 X86.698 Y102.059 E4.00617
G1 X86.863 Y100.230 E4.08925
G1 X87.362 Y98.659 E4.16386
G1 X88.200 Y97.350 E4.23419
G1 X89.343 Y96.369 E4.30235
G1 X90.744 Y95.781 E4.37113
G1 X92.246 Y95.604 E4.43955
G1 X92.391 Y95.587 E4.44615 F378.000
G1 X93.733 Y95.736 E4.50727
G1 X94.792 Y95.779 F7800.000
G1 X93.769 Y94.756 E4.57309 F540.000
G1 X93.200 Y94.736 E4.59895
G1 X92.302 Y93.838 E4.65674
G1 X95.708 Y96.147 F7800.000
G1 X94.497 Y94.936 E4.73466 F540.000
G1 X95.225 Y95.116 E4.76877
G1 X98.933 Y98.824 E5.00731
G1 X99.175 Y99.614 F7800.000
G1 X97.144 Y97.583 E5.13799 F540.000
G1 X98.313 Y97.656 F7800.000
G1 X96.347 Y95.690 E5.26444 F540.000
G1 X97.762 Y98.750 F7800.000
G1 X99.373 Y100.360 E5.36801 F540.000
G1 X99.426 Y100.962 E5.39549
G1 X98.005 Y99.541 E5.48691
G1 X98.177 Y100.260 E5.52055
G1 X99.480 Y101.564 E5.60439
G1 X99.531 Y102.163 E5.63175
G1 X98.228 Y100.860 E5.71557
G1 X98.279 Y101.459 E5.74294
G1 X99.497 Y102.677 E5.82129
G1 X99.464 Y103.192 E5.84474
G1 X98.317 Y102.046 E5.91845
G1 X98.272 Y102.549 E5.94142
G1 X99.417 Y103.693 E6.01503
G1 X99.319 Y104.143 E6.03599
G1 X98.227 Y103.052 E6.10621
G1 X98.182 Y103.555 E6.12918
G1 X99.221 Y104.594 E6.19603
G1 X99.106 Y105.026 E6.21639
G1 X98.100 Y104.021 E6.28104
G1 X97.968 Y104.437 E6.30089
G1 X98.948 Y105.417 E6.36393
G1 X98.791 Y105.808 E6.38309
G1 X97.836 Y104.853 E6.44453
G1 X97.703 Y105.268 E6.46437
G1 X98.615 Y106.180 E6.52301
G1 X98.401 Y106.514 E6.54106
G1 X97.527 Y105.640 E6.59730
G1 X97.311 Y105.972 E6.61533
G1 X98.187 Y106.849 E6.67170
G1 X97.950 Y107.160 E6.68949
G1 X97.095 Y106.305 E6.74449
G1 X96.879 Y106.637 E6.76251
G1 X97.676 Y107.434 E6.81377
G1 X97.402 Y107.708 E6.83140
G1 X96.624 Y106.930 E6.88142
G1 X96.325 Y107.180 E6.89912
G1 X97.121 Y107.975 E6.95030
G1 X96.794 Y108.196 E6.96825
G1 X96.027 Y107.429 E7.01759
G1 X95.728 Y107.679 E7.03529
G1 X96.467 Y108.417 E7.08280
G1 X96.114 Y108.613 E7.10114
G1 X95.390 Y107.889 E7.14770
G1 X95.000 Y108.047 E7.16686
G1 X95.730 Y108.777 E7.21380
G1 X95.345 Y108.940 E7.23281
G1 X94.609 Y108.204 E7.28014
G1 X94.219 Y108.362 E7.29929
G1 X94.928 Y109.071 E7.34490
G1 X94.482 Y109.173 E7.36571
G1 X93.765 Y108.457 E7.41180
G1 X93.273 Y108.512 E7.43435
G1 X94.036 Y109.276 E7.48345
G1 X93.543 Y109.331 E7.50600
G1 X92.780 Y108.568 E7.55509
G1 X92.276 Y108.612 E7.57810
G1 X93.031 Y109.367 E7.62663
G1 X92.518 Y109.402 E7.65000
G1 X91.660 Y108.544 E7.70519
G1 X91.044 Y108.476 E7.73338
G1 X91.909 Y109.341 E7.78903
G1 X91.298 Y109.278 E7.81700
G1 X90.354 Y108.335 E7.87767
G1 X89.447 Y107.976 F7800.000
G1 X90.686 Y109.214 E7.95733 F540.000
G1 X89.935 Y109.011 E7.99272
G1 X85.718 Y104.795 E8.26391
G1 X85.472 Y104.001 E8.30174
G1 X87.206 Y105.735 E8.41326
G1 X86.913 Y104.893 F7800.000
G1 X85.412 Y103.393 E8.50976 F540.000
G1 X85.353 Y102.785 E8.53755
G1 X86.657 Y104.089 E8.62143
G1 X86.589 Y103.473 E8.64961
G1 X85.293 Y102.177 E8.73300
G1 X85.293 Y101.629 E8.75792
G1 X86.536 Y102.871 E8.83784
G1 X86.482 Y102.270 E8.86532
G1 X85.325 Y101.112 E8.93975
G1 X85.357 Y100.596 E8.96328
G1 X86.506 Y101.746 E9.03722
G1 X86.551 Y101.243 E9.06018
G1 X85.445 Y100.137 E9.13132
G1 X85.537 Y99.681 E9.15249
G1 X86.597 Y100.740 E9.22063
G1 X86.645 Y100.240 E9.24349
G1 X85.638 Y99.233 E9.30825
G1 X85.786 Y98.833 E9.32766
G1 X86.777 Y99.824 E9.39139
G1 X86.909 Y99.407 E9.41125
G1 X85.934 Y98.433 E9.47396
G1 X86.097 Y98.047 E9.49298
G1 X87.041 Y98.991 E9.55371
G1 X87.179 Y98.582 E9.57337
G1 X86.298 Y97.700 E9.63007
G1 X86.499 Y97.354 E9.64831
G1 X87.393 Y98.248 E9.70583
G1 X87.607 Y97.914 E9.72388
G1 X86.722 Y97.028 E9.78083
G1 X86.977 Y96.735 E9.79851
G1 X87.822 Y97.579 E9.85284
G1 X88.036 Y97.245 E9.87088
G1 X87.237 Y96.447 E9.92222
G1 X87.517 Y96.178 E9.93985
G1 X88.326 Y96.988 E9.99191
G1 X88.621 Y96.735 E10.00959
G1 X87.826 Y95.939 E10.06075
G1 X88.135 Y95.700 E10.07852
G1 X88.916 Y96.481 E10.12877
G1 X89.211 Y96.228 E10.14645
G1 X88.484 Y95.501 E10.19320
G1 X88.848 Y95.317 E10.21176
G1 X89.582 Y96.051 E10.25893
G1 X89.968 Y95.889 E10.27798
G1 X89.213 Y95.134 E10.32655
G1 X89.633 Y95.006 E10.34653
G1 X90.354 Y95.727 E10.39290
G1 X90.740 Y95.565 E10.41195
G1 X90.057 Y94.881 E10.45591
G1 X90.496 Y94.772 E10.47649
G1 X91.229 Y95.505 E10.52363
G1 X91.719 Y95.447 E10.54608
G1 X90.984 Y94.712 E10.59339
G1 X91.471 Y94.651 E10.61575
G1 X92.209 Y95.389 E10.66321
G1 X92.759 Y95.391 E10.68819
G1 X91.959 Y94.591 E10.73961
G1 X92.152 Y94.236 E10.75799
G1 X93.375 Y95.459 E10.83666
G1 X93.992 Y95.528 E10.86489
G1 X93.041 Y94.576 E10.92610
G1 X93.354 Y94.341 E10.94390
G1 X92.451 Y93.439 E11.00195
G1 X92.601 Y93.040 E11.02132
G1 X93.507 Y93.946 E11.07962
G1 X93.660 Y93.552 E11.09888
G1 X92.793 Y92.684 E11.15467
G1 X92.989 Y92.332 E11.17300
G1 X93.836 Y93.179 E11.22743
G1 X94.039 Y92.834 E11.24564
G1 X93.199 Y91.993 E11.29969
G1 X93.454 Y91.701 E11.31736
G1 X94.254 Y92.501 E11.36881
G1 X94.516 Y92.215 E11.38645
G1 X93.710 Y91.408 E11.43833
G1 X94.035 Y91.185 E11.45625
G1 X94.790 Y91.941 E11.50486
G1 X95.123 Y91.725 E11.52289
G1 X94.363 Y90.965 E11.57180
G1 X94.767 Y90.821 E11.59133
G1 X95.476 Y91.530 E11.63689
G1 X95.887 Y91.392 E11.65660
G1 X95.180 Y90.686 E11.70202
G1 X95.679 Y90.636 E11.72479
G1 X96.339 Y91.297 E11.76730
G1 X96.839 Y91.248 E11.79012
G1 X96.191 Y90.601 E11.83177
G1 X96.778 Y90.640 E11.85852
G1 X97.405 Y91.267 E11.89887
G1 X97.415 Y90.729 E11.92335
G1 X97.625 Y90.938 E11.93680
G92 E0
G1 X92.546 Y94.824 F7800.000
G1 X85.823 Y102.041 F7800.000
G1 X86.014 Y105.639 F7800.000
G1 X89.065 Y108.690 E0.19624 F540.000
G1 X87.413 Y107.586 F7800.000
G1 X87.058 Y107.231 E0.21904 F540.000
G92 E0
G1 X99.884 Y103.594 F7800.000
G1 X107.221 Y103.671 F7800.000
G1 X110.562 Y99.120 F7800.000
G1 X110.575 Y99.003 F7800.000
G1 X113.119 Y98.902 F7800.000
G1 X114.955 Y99.636 F7800.000
G1 X114.955 Y109.439 E0.44359 F378.000
G1 X110.392 Y109.439 E0.65006
G1 X110.392 Y108.197 E0.70626
G1 X113.344 Y108.197 E0.83983
G1 X113.344 Y98.893 E1.26083
G1 X113.269 Y97.945 E1.30387
G1 X113.037 Y97.137 E1.34189
G1 X112.640 Y96.486 E1.37642
G1 X112.098 Y96.009 E1.40906
G1 X111.440 Y95.724 E1.44152
G1 X110.679 Y95.630 E1.47623
G1 X109.969 Y95.716 E1.50856
G1 X109.338 Y95.975 E1.53946
G1 X108.793 Y96.404 E1.57083
G1 X108.358 Y96.980 E1.60349
G1 X108.045 Y97.677 E1.63809
G1 X107.903 Y98.272 E1.66574
G1 X106.352 Y98.015 E1.73687
G1 X107.074 Y96.093 E1.82973
G1 X108.526 Y94.831 E1.91681
G1 X110.677 Y94.403 E2.01606
G1 X111.801 Y94.526 E2.06721
G1 X111.914 Y94.538 E2.07235 F378.000
G1 X112.957 Y94.940 E2.12294
G1 X113.809 Y95.606 E2.17183
G1 X114.442 Y96.507 E2.22168
G1 X114.825 Y97.617 E2.27483
G1 X114.955 Y98.956 E2.33569
G1 X114.955 Y99.405 E2.35600
G1 X113.337 Y97.271 F7800.000
G1 X114.687 Y98.621 E2.44411 F540.000
G1 X114.730 Y99.219 E2.47177
G1 X113.507 Y97.997 E2.55155
G1 X113.555 Y98.600 E2.57950
G1 X114.730 Y99.775 E2.65616
G1 X114.730 Y100.331 E2.68182
G1 X113.570 Y99.172 E2.75744
G1 X113.570 Y99.728 E2.78310
G1 X114.730 Y100.887 E2.85873
G1 X114.730 Y101.443 E2.88438
G1 X113.570 Y100.284 E2.96001
G1 X113.570 Y100.840 E2.98567
G1 X114.730 Y102.000 E3.06129
G1 X114.730 Y102.556 E3.08695
G1 X113.570 Y101.396 E3.16258
G1 X113.570 Y101.953 E3.18823
G1 X114.730 Y103.112 E3.26386
G1 X114.730 Y103.668 E3.28952
G1 X113.570 Y102.509 E3.36514
G1 X113.570 Y103.065 E3.39080
G1 X114.730 Y104.224 E3.46643
G1 X114.730 Y104.780 E3.49208
G1 X113.570 Y103.621 E3.56771
G1 X113.570 Y104.177 E3.59337
G1 X114.730 Y105.336 E3.66899
G1 X114.730 Y105.892 E3.69465
G1 X113.570 Y104.733 E3.77028
G1 X113.570 Y105.289 E3.79593
G1 X114.730 Y106.448 E3.87156
G1 X114.730 Y107.004 E3.89722
G1 X113.570 Y105.845 E3.97285
G1 X113.570 Y106.401 E3.99850
G1 X114.730 Y107.560 E4.07413
G1 X114.730 Y108.116 E4.09978
G1 X113.570 Y106.957 E4.17541
G1 X113.570 Y107.513 E4.20107
G1 X114.730 Y108.672 E4.27670
G1 X114.702 Y109.201 E4.30111
G1 X113.570 Y108.069 E4.37494
G1 X113.368 Y108.423 F7800.000
G1 X114.158 Y109.213 E4.42649 F540.000
G1 X113.602 Y109.213 E4.45215
G1 X112.812 Y108.423 E4.50370
G1 X112.256 Y108.423 E4.52935
G1 X113.046 Y109.213 E4.58091
G1 X112.490 Y109.213 E4.60656
G1 X111.700 Y108.423 E4.65811
G1 X111.144 Y108.423 E4.68377
G1 X111.934 Y109.213 E4.73532
G1 X111.378 Y109.213 E4.76097
G1 X110.618 Y108.453 E4.81054
G1 X110.618 Y109.009 E4.83619
G1 X110.822 Y109.213 E4.84948
G92 E0
G1 X114.119 Y98.862 F7800.000
G1 X114.050 Y97.804 F7800.000
G1 X114.047 Y97.787 F7800.000
G1 X113.862 Y97.203 F7800.000
G1 X107.326 Y97.932 F7800.000
G1 X106.798 Y97.404 E0.03447 F540.000
G1 X106.950 Y97.000 E0.05439
G1 X107.791 Y97.841 E0.10927
G1 X107.936 Y97.431 E0.12936
G1 X107.101 Y96.595 E0.18385
G1 X107.268 Y96.206 E0.20340
G1 X108.109 Y97.047 E0.25826
G1 X108.323 Y96.705 E0.27687
G1 X107.551 Y95.933 E0.32725
G1 X107.849 Y95.675 E0.34543
G1 X108.563 Y96.389 E0.39203
G1 X108.847 Y96.117 E0.41018
G1 X108.146 Y95.416 E0.45587
G1 X108.444 Y95.158 E0.47406
G1 X109.157 Y95.871 E0.52062
G1 X109.523 Y95.681 E0.53964
G1 X108.829 Y94.987 E0.58495
G1 X109.293 Y94.895 E0.60677
G1 X109.918 Y95.520 E0.64756
G1 X110.400 Y95.446 E0.67006
G1 X109.756 Y94.802 E0.71203
G1 X110.220 Y94.710 E0.73385
G1 X110.934 Y95.423 E0.78039
G1 X111.567 Y95.501 E0.80985
G1 X110.710 Y94.644 E0.86579
G1 X111.334 Y94.711 E0.89475
G1 X114.627 Y98.005 E1.10965
G1 X114.425 Y97.247 E1.14587
G1 X112.047 Y94.869 E1.30103
G1 X113.370 Y95.635 F7800.000
G1 X113.732 Y95.998 E1.32468 F540.000
M106 S255
G92 E0
G1 Z0.600 F7800.000
G1 X91.667 Y94.182 F7800.000
G1 X93.631 Y95.103 E0.65005 F600.000
G1 X94.322 Y95.241 E0.86105
G1 X95.302 Y95.558 E1.16951
G1 X95.694 Y95.742 E1.29935
G1 X95.929 Y95.877 E1.38056
G1 X96.567 Y96.312 E1.61211
G1 X97.044 Y96.743 E1.80458
G1 X97.237 Y96.948 E1.88903
G1 X97.574 Y97.363 E2.04931
G1 X98.065 Y98.160 E2.32964
G1 X98.315 Y98.681 E2.50305
G1 X98.695 Y99.920 E2.89118
G1 X98.768 Y100.236 E2.98831
G1 X98.926 Y102.072 E3.54074
G1 X98.821 Y103.444 E3.95300
G1 X98.702 Y104.140 E4.16439
G1 X98.560 Y104.671 E4.32911
G1 X98.162 Y105.761 E4.67708
G1 X97.576 Y106.678 E5.00312
G1 X97.264 Y107.070 E5.15319
G1 X96.876 Y107.459 E5.31763
G1 X96.012 Y108.109 E5.64161
G1 X95.699 Y108.275 E5.74798
G1 X94.967 Y108.578 E5.98536
G1 X94.339 Y108.776 E6.18269
G1 X93.771 Y108.888 E6.35615
G1 X92.427 Y109.008 E6.76037
G1 X90.703 Y108.827 E7.27989
G1 X90.401 Y108.769 E7.37201
G1 X89.116 Y108.277 E7.78429
G1 X88.790 Y108.115 E7.89325
G1 X87.751 Y107.296 E8.28979
G1 X87.537 Y107.098 E8.37709
G1 X86.627 Y105.760 E8.86224
G1 X86.069 Y104.098 E9.38731
G1 X85.873 Y102.040 E10.00691
G1 X85.972 Y100.721 E10.40331
G1 X86.095 Y99.961 E10.63392
G1 X86.209 Y99.519 E10.77063
G1 X86.579 Y98.441 E11.11219
G1 X86.704 Y98.202 E11.19290
G1 X87.118 Y97.525 E11.43078
G1 X87.537 Y96.965 E11.64045
G1 X87.726 Y96.747 E11.72671
G1 X88.532 Y96.086 E12.03909
G1 X88.864 Y95.865 E12.15847
G1 X89.112 Y95.726 E12.24365
G1 X89.457 Y95.567 E12.35762
G1 X90.527 Y95.188 E12.69779
G1 X91.934 Y95.005 E13.12286
G1 X92.284 Y94.900 E13.23237
G1 X92.752 Y94.691 E13.38608
G1 X92.759 Y94.566 E13.42366
G1 X92.895 Y93.914 E13.62304
G1 X93.134 Y93.293 E13.82264
G1 X93.303 Y92.950 E13.93707
G1 X93.611 Y92.411 E14.12318
G1 X93.826 Y92.132 E14.22870
G1 X94.106 Y91.820 E14.35432
G1 X94.487 Y91.513 E14.50104
G1 X94.643 Y91.410 E14.55679
G1 X95.245 Y91.132 E14.75570
G1 X96.055 Y90.962 E15.00355
G1 X96.867 Y90.946 E15.24702
G1 X98.076 Y91.078 E15.61131
G92 E0
G1 X101.768 Y91.836 F7800.000
G1 X103.961 Y92.598 F7800.000
G1 X106.883 Y95.961 F7800.000
G1 X106.976 Y98.346 F7800.000
G1 X107.725 Y96.546 E0.58425 F600.000
G1 X108.393 Y95.851 E0.87317
G1 X108.843 Y95.478 E1.04831
G1 X109.123 Y95.368 E1.13847
G1 X109.931 Y95.140 E1.38994
G1 X110.705 Y95.021 E1.62452
G1 X111.483 Y95.109 E1.85918
G1 X111.762 Y95.165 E1.94450
G1 X112.326 Y95.396 E2.12695
G1 X112.614 Y95.545 E2.22431
G1 X113.081 Y95.933 E2.40604
G1 X113.272 Y96.115 E2.48521
G1 X113.667 Y96.719 E2.70122
G1 X113.751 Y96.860 E2.75057
G1 X114.021 Y97.705 E3.01628
G1 X114.059 Y97.905 E3.07740
G1 X114.150 Y98.995 E3.40516
G1 X114.150 Y107.972 E6.09506
G1 X114.068 Y108.552 E6.27054
G1 X113.119 Y108.818 E6.56585
G1 X110.167 Y108.818 E7.45040
G92 E0
G1 Z0.900 F7800.000
G1 X91.667 Y94.182 F7800.000
G1 X93.631 Y95.103 E0.65005 F600.000
G1 X94.322 Y95.241 E0.86105
G1 X95.302 Y95.558 E1.16951
G1 X95.694 Y95.742 E1.29935
G1 X95.929 Y95.877 E1.38056
G1 X96.567 Y96.312 E1.61211
G1 X97.044 Y96.743 E1.80458
G1 X97.237 Y96.948 E1.88903
G1 X97.574 Y97.363 E2.04931
G1 X98.065 Y98.160 E2.32964
G1 X98.315 Y98.681 E2.50305
G1 X98.695 Y99.920 E2.89118
G1 X98.768 Y100.236 E2.98831
G1 X98.926 Y102.072 E3.54074
G1 X98.821 Y103.444 E3.95300
G1 X98.702 Y104.140 E4.16439
G1 X98.560 Y104.671 E4.32911
G1 X98.162 Y105.761 E4.67708
G1 X97.576 Y106.678 E5.00312
G1 X97.264 Y107.070 E5.15319
G1 X96.876 Y107.459 E5.31763
G1 X96.012 Y108.109 E5.64161
G1 X95.699 Y108.275 E5.74798
G1 X94.967 Y108.578 E5.98536
G1 X94.339 Y108.776 E6.18269
G1 X93.771 Y108.888 E6.35615
G1 X92.427 Y109.008 E6.76037
G1 X90.703 Y108.827 E7.27989
G1 X90.401 Y108.769 E7.37201
G1 X89.116 Y108.277 E7.78429
G1 X88.790 Y108.115 E7.89325
G1 X87.751 Y107.296 E8.28979
G1 X87.537 Y107.098 E8.37710
G1 X86.627 Y105.760 E8.86224
G1 X86.069 Y104.098 E9.38731
G1 X85.873 Y102.040 E10.00692
G1 X85.972 Y100.721 E10.40331
G1 X86.095 Y99.961 E10.63392
G1 X86.209 Y99.519 E10.77063
G1 X86.579 Y98.441 E11.11219
G1 X86.704 Y98.202 E11.19290
G1 X87.118 Y97.525 E11.43078
G1 X87.537 Y96.965 E11.64045
G1 X87.726 Y96.747 E11.72671
G1 X88.532 Y96.086 E12.03908
G1 X88.864 Y95.865 E12.15847
G1 X89.112 Y95.726 E12.24365
G1 X89.457 Y95.567 E12.35762
G1 X90.527 Y95.188 E12.69779
