; generated by Slic3r 1.2.9 on 2016-03-11 at 01:29:11

; external perimeters extrusion width = 1.54mm
; perimeters extrusion width = 2.62mm
; infill extrusion width = 6.27mm
; solid infill extrusion width = 2.62mm
; top infill extrusion width = 2.62mm

M107
M104 S30 ; set temperature
G28 ; home all axes
G1 Z5 F5000 ; lift nozzle
M302
M92 E10000
M500
M501
G1 E100
M109 S30 ; wait for temperature to be reached
G21 ; set units to millimeters
G90 ; use absolute coordinates
M82 ; use absolute distances for extrusion
G92 E0
G1 Z0.300 F7800.000
G1 X98.558 Y103.731 F7800.000
G1 X98.300 Y104.919 E0.05498 F378.000
G1 X97.812 Y106.130 E0.11411
G1 X97.141 Y107.179 E0.17041
G1 X96.300 Y108.044 E0.22502
G1 X95.285 Y108.730 E0.28049
G1 X94.112 Y109.229 E0.33815
G1 X92.800 Y109.530 E0.39906
G1 X91.350 Y109.630 E0.46480
G1 X89.187 Y109.406 E0.56323
G1 X87.383 Y108.738 E0.65027
G1 X85.924 Y107.631 E0.73314
G1 X84.847 Y106.131 E0.81671
G1 X84.198 Y104.276 E0.90561
G1 X83.979 Y102.055 E1.00661
G1 X84.068 Y100.611 E1.07208
G1 X84.335 Y99.290 E1.13307
G1 X84.777 Y98.094 E1.19074
G1 X85.384 Y97.048 E1.24550
G1 X86.147 Y96.169 E1.29814
G1 X87.068 Y95.456 E1.35085
G1 X88.134 Y94.918 E1.40488
G1 X89.332 Y94.566 E1.46137
G1 X90.815 Y94.383 E1.52900
G1 X91.349 Y92.960 E1.59776
G1 X91.906 Y91.961 E1.64951
G1 X92.532 Y91.243 E1.69262
G1 X93.253 Y90.760 E1.73189
G1 X94.100 Y90.468 E1.77239
G1 X95.085 Y90.369 E1.81721
G1 X95.638 Y90.393 E1.84225
G1 X96.311 Y90.473 E1.87293 F378.000
G1 X96.785 Y90.567 E1.89477
G1 X96.785 Y91.566 E1.93996
G1 X96.214 Y91.490 E1.96599
G1 X95.756 Y91.470 E1.98677
G1 X95.020 Y91.541 E2.02023
G1 X94.359 Y91.762 E2.05173
G1 X93.787 Y92.132 E2.08256
G1 X93.302 Y92.661 E2.11506
G1 X92.877 Y93.383 E2.15297
G1 X92.465 Y94.442 E2.20438
G1 X94.476 Y94.939 E2.29809
G1 X95.931 Y95.730 E2.37305
G1 X97.113 Y96.886 E2.44787
G1 X97.988 Y98.354 E2.52517
G1 X98.516 Y100.076 E2.60670
G1 X98.693 Y102.063 E2.69693
G1 X98.598 Y103.504 E2.76230
G1 X96.914 Y103.353 F7800.000
G1 X96.868 Y103.869 E2.78574 F378.000
G1 X96.376 Y105.414 E2.85912
G1 X95.548 Y106.688 E2.92787
G1 X94.413 Y107.636 E2.99478
G1 X93.008 Y108.203 E3.06333
G1 X91.348 Y108.390 E3.13894
G1 X89.675 Y108.206 E3.21510
G1 X88.261 Y107.647 E3.28388
G1 X87.120 Y106.711 E3.35066
G1 X86.289 Y105.443 E3.41926
G1 X85.795 Y103.890 E3.49301
G1 X85.632 Y102.059 E3.57621
G1 X85.797 Y100.230 E3.65928
G1 X86.296 Y98.659 E3.73390
G1 X87.134 Y97.350 E3.80423
G1 X88.277 Y96.369 E3.87238
G1 X89.678 Y95.781 E3.94117
G1 X91.180 Y95.604 E4.00958
G1 X91.325 Y95.587 E4.01618 F378.000
G1 X93.009 Y95.774 E4.09285
G1 X94.425 Y96.343 E4.16191
G1 X95.560 Y97.295 E4.22894
G1 X96.381 Y98.588 E4.29826
G1 X96.869 Y100.178 E4.37351
G1 X97.030 Y102.059 E4.45896
G1 X96.935 Y103.123 E4.50727
G1 X98.109 Y99.614 F7800.000
G1 X96.078 Y97.583 E4.63794 F540.000
G1 X97.247 Y97.656 F7800.000
G1 X95.281 Y95.690 E4.76440 F540.000
G1 X94.642 Y96.147 F7800.000
G1 X93.431 Y94.936 E4.84231 F540.000
G1 X94.159 Y95.116 E4.87642
G1 X97.867 Y98.824 E5.11496
G1 X96.696 Y98.750 F7800.000
G1 X98.307 Y100.360 E5.21853 F540.000
G1 X98.360 Y100.962 E5.24602
G1 X96.939 Y99.541 E5.33743
G1 X97.111 Y100.260 E5.37108
G1 X98.414 Y101.564 E5.45491
G1 X98.465 Y102.163 E5.48227
G1 X97.162 Y100.860 E5.56610
G1 X97.213 Y101.459 E5.59346
G1 X98.431 Y102.677 E5.67181
G1 X98.398 Y103.192 E5.69526
G1 X97.251 Y102.046 E5.76897
G1 X97.206 Y102.549 E5.79194
G1 X98.351 Y103.693 E5.86555
G1 X98.253 Y104.143 E5.88651
G1 X97.161 Y103.052 E5.95674
G1 X97.116 Y103.555 E5.97971
G1 X98.155 Y104.594 E6.04655
G1 X98.040 Y105.026 E6.06691
G1 X97.034 Y104.021 E6.13156
G1 X96.902 Y104.437 E6.15141
G1 X97.882 Y105.417 E6.21445
G1 X97.725 Y105.808 E6.23361
G1 X96.770 Y104.853 E6.29505
G1 X96.637 Y105.268 E6.31489
G1 X97.549 Y106.180 E6.37353
G1 X97.335 Y106.514 E6.39159
G1 X96.461 Y105.640 E6.44783
G1 X96.245 Y105.972 E6.46585
G1 X97.121 Y106.849 E6.52222
G1 X96.884 Y107.160 E6.54001
G1 X96.029 Y106.305 E6.59501
G1 X95.813 Y106.637 E6.61303
G1 X96.610 Y107.434 E6.66429
G1 X96.336 Y107.708 E6.68192
G1 X95.558 Y106.930 E6.73195
G1 X95.259 Y107.180 E6.74965
G1 X96.055 Y107.975 E6.80082
G1 X95.728 Y108.196 E6.81878
G1 X94.961 Y107.429 E6.86812
G1 X94.662 Y107.679 E6.88582
G1 X95.401 Y108.417 E6.93332
G1 X95.048 Y108.613 E6.95166
G1 X94.324 Y107.889 E6.99823
G1 X93.934 Y108.047 E7.01738
G1 X94.664 Y108.777 E7.06432
G1 X94.279 Y108.940 E7.08333
G1 X93.543 Y108.204 E7.13066
G1 X93.153 Y108.362 E7.14981
G1 X93.862 Y109.071 E7.19543
G1 X93.416 Y109.173 E7.21624
G1 X92.699 Y108.457 E7.26233
G1 X92.207 Y108.512 E7.28488
G1 X92.970 Y109.276 E7.33397
G1 X92.477 Y109.331 E7.35652
G1 X91.714 Y108.568 E7.40561
G1 X91.210 Y108.612 E7.42862
G1 X91.965 Y109.367 E7.47715
G1 X91.452 Y109.402 E7.50053
G1 X90.594 Y108.544 E7.55571
G1 X89.978 Y108.476 E7.58390
G1 X90.843 Y109.341 E7.63955
G1 X90.232 Y109.278 E7.66752
G1 X89.288 Y108.335 E7.72819
G1 X88.381 Y107.976 F7800.000
G1 X89.620 Y109.214 E7.80785 F540.000
G1 X88.869 Y109.011 E7.84324
G1 X84.652 Y104.795 E8.11443
G1 X84.406 Y104.001 E8.15226
G1 X86.140 Y105.735 E8.26378
G1 X85.847 Y104.893 F7800.000
G1 X84.346 Y103.393 E8.36028 F540.000
G1 X84.287 Y102.785 E8.38807
G1 X85.591 Y104.089 E8.47196
G1 X85.523 Y103.473 E8.50013
G1 X84.227 Y102.177 E8.58352
G1 X84.227 Y101.629 E8.60844
G1 X85.470 Y102.871 E8.68837
G1 X85.416 Y102.270 E8.71584
G1 X84.259 Y101.112 E8.79028
G1 X84.291 Y100.596 E8.81381
G1 X85.440 Y101.746 E8.88774
G1 X85.485 Y101.243 E8.91071
G1 X84.379 Y100.137 E8.98185
G1 X84.471 Y99.681 E9.00301
G1 X85.531 Y100.740 E9.07115
G1 X85.579 Y100.240 E9.09402
G1 X84.572 Y99.233 E9.15877
G1 X84.720 Y98.833 E9.17818
G1 X85.711 Y99.824 E9.24191
G1 X85.843 Y99.407 E9.26177
G1 X84.868 Y98.433 E9.32448
G1 X85.031 Y98.047 E9.34350
G1 X85.975 Y98.991 E9.40423
G1 X86.113 Y98.582 E9.42390
G1 X85.232 Y97.700 E9.48060
G1 X85.433 Y97.354 E9.49884
G1 X86.327 Y98.248 E9.55635
G1 X86.541 Y97.914 E9.57440
G1 X85.656 Y97.028 E9.63136
G1 X85.911 Y96.735 E9.64903
G1 X86.756 Y97.579 E9.70336
G1 X86.970 Y97.245 E9.72141
G1 X86.171 Y96.447 E9.77274
G1 X86.451 Y96.178 E9.79037
G1 X87.260 Y96.988 E9.84243
G1 X87.555 Y96.735 E9.86011
G1 X86.760 Y95.939 E9.91127
G1 X87.069 Y95.700 E9.92904
G1 X87.850 Y96.481 E9.97930
G1 X88.145 Y96.228 E9.99698
G1 X87.418 Y95.501 E10.04372
G1 X87.782 Y95.317 E10.06228
G1 X88.516 Y96.051 E10.10945
G1 X88.902 Y95.889 E10.12850
G1 X88.147 Y95.134 E10.17707
G1 X88.567 Y95.006 E10.19706
G1 X89.288 Y95.727 E10.24342
G1 X89.674 Y95.565 E10.26247
G1 X88.991 Y94.881 E10.30643
G1 X89.430 Y94.772 E10.32701
G1 X90.163 Y95.505 E10.37415
G1 X90.653 Y95.447 E10.39661
G1 X89.918 Y94.712 E10.44391
G1 X90.405 Y94.651 E10.46627
G1 X91.143 Y95.389 E10.51373
G1 X91.693 Y95.391 E10.53871
G1 X90.893 Y94.591 E10.59013
G1 X91.086 Y94.236 E10.60851
G1 X92.309 Y95.459 E10.68718
G1 X92.926 Y95.528 E10.71541
G1 X91.975 Y94.576 E10.77662
G1 X92.288 Y94.341 E10.79443
G1 X91.385 Y93.439 E10.85247
G1 X91.535 Y93.040 E10.87184
G1 X92.441 Y93.946 E10.93014
G1 X92.594 Y93.552 E10.94940
G1 X91.727 Y92.684 E11.00519
G1 X91.923 Y92.332 E11.02352
G1 X92.770 Y93.179 E11.07795
G1 X92.973 Y92.834 E11.09616
G1 X92.133 Y91.993 E11.15021
G1 X92.388 Y91.701 E11.16788
G1 X93.188 Y92.501 E11.21933
G1 X93.450 Y92.215 E11.23697
G1 X92.644 Y91.408 E11.28885
G1 X92.969 Y91.185 E11.30677
G1 X93.724 Y91.941 E11.35538
G1 X94.057 Y91.725 E11.37341
G1 X93.297 Y90.965 E11.42233
G1 X93.701 Y90.821 E11.44185
G1 X94.410 Y91.530 E11.48741
G1 X94.821 Y91.392 E11.50712
G1 X94.114 Y90.686 E11.55254
G1 X94.613 Y90.636 E11.57531
G1 X95.273 Y91.297 E11.61782
G1 X95.773 Y91.248 E11.64064
G1 X95.125 Y90.601 E11.68229
G1 X95.712 Y90.640 E11.70904
G1 X96.339 Y91.267 E11.74939
G1 X96.349 Y90.729 E11.77387
G1 X96.559 Y90.938 E11.78732
G1 X92.566 Y92.382 F7800.000
G1 X91.615 Y94.481 F7800.000
G1 X93.726 Y95.779 F7800.000
G1 X92.703 Y94.756 E11.85314 F540.000
G1 X92.134 Y94.736 E11.87900
G1 X91.236 Y93.838 E11.93680
G1 X85.588 Y98.327 F7800.000
G1 X85.143 Y99.519 F7800.000
G1 X85.001 Y100.067 F7800.000
G1 X84.906 Y100.721 F7800.000
G1 X84.806 Y102.040 F7800.000
G1 X84.757 Y102.041 F7800.000
G1 X84.948 Y105.639 F7800.000
G1 X87.999 Y108.690 E12.13304 F540.000
G1 X86.347 Y107.586 F7800.000
G1 X85.992 Y107.231 E12.15584 F540.000
G92 E0
G1 X97.319 Y107.319 F7800.000
G1 X101.091 Y108.202 F7800.000
G1 X102.138 Y107.541 F7800.000
G1 X104.261 Y109.664 F7800.000
G1 X106.453 Y109.664 F7800.000
G1 X106.678 Y106.044 F7800.000
G1 X106.678 Y94.593 E0.51816 F378.000
G1 X116.021 Y94.593 E0.94093
G1 X116.021 Y95.835 E0.99713
G1 X108.299 Y95.835 E1.34654 F378.000
G1 X108.299 Y109.439 E1.96211
G1 X106.678 Y109.439 E2.03546
G1 X106.678 Y106.275 E2.17862
G1 X107.108 Y109.213 F7800.000
G1 X106.904 Y109.009 E2.19195 F540.000
G1 X106.904 Y108.451 E2.21778
G1 X107.666 Y109.213 E2.26765
G1 X108.073 Y109.063 E2.28776
G1 X106.904 Y107.893 E2.36431
G1 X106.904 Y107.335 E2.39014
G1 X108.073 Y108.505 E2.46669
G1 X108.073 Y107.947 E2.49252
G1 X106.904 Y106.777 E2.56907
G1 X106.904 Y106.219 E2.59491
G1 X108.073 Y107.389 E2.67146
G1 X108.073 Y106.831 E2.69729
G1 X106.904 Y105.661 E2.77384
G1 X106.904 Y105.103 E2.79967
G1 X108.073 Y106.273 E2.87622
G1 X108.073 Y105.715 E2.90206
G1 X106.904 Y104.545 E2.97860
G1 X106.904 Y103.987 E3.00444
G1 X108.073 Y105.157 E3.08099
G1 X108.073 Y104.599 E3.10682
G1 X106.904 Y103.429 E3.18337
G1 X106.904 Y102.871 E3.20921
G1 X108.073 Y104.041 E3.28575
G1 X108.073 Y103.483 E3.31159
G1 X106.904 Y102.313 E3.38814
G1 X106.904 Y101.755 E3.41397
G1 X108.073 Y102.925 E3.49052
G1 X108.073 Y102.367 E3.51635
G1 X106.904 Y101.197 E3.59290
G1 X106.904 Y100.639 E3.61874
G1 X108.073 Y101.809 E3.69528
G1 X108.073 Y101.251 E3.72112
G1 X106.904 Y100.081 E3.79767
G1 X106.904 Y99.523 E3.82350
G1 X108.073 Y100.693 E3.90005
G1 X108.073 Y100.135 E3.92589
G1 X106.904 Y98.965 E4.00243
G1 X106.904 Y98.407 E4.02827
G1 X108.073 Y99.577 E4.10482
G1 X108.073 Y99.019 E4.13065
G1 X106.904 Y97.849 E4.20720
G1 X106.904 Y97.291 E4.23303
G1 X108.073 Y98.461 E4.30958
G1 X108.073 Y97.903 E4.33542
G1 X106.904 Y96.733 E4.41197
G1 X106.904 Y96.175 E4.43780
G1 X108.073 Y97.345 E4.51435
G1 X108.073 Y96.787 E4.54018
G1 X106.904 Y95.617 E4.61673
G1 X106.904 Y95.059 E4.64257
G1 X108.073 Y96.229 E4.71911
G1 X108.073 Y95.671 E4.74495
G1 X107.222 Y94.819 E4.80071
G1 X107.780 Y94.819 E4.82654
G1 X108.570 Y95.609 E4.87828
G1 X109.128 Y95.609 E4.90411
G1 X108.338 Y94.819 E4.95584
G1 X108.896 Y94.819 E4.98168
G1 X109.686 Y95.609 E5.03341
G1 X110.244 Y95.609 E5.05924
G1 X109.454 Y94.819 E5.11098
G1 X110.012 Y94.819 E5.13681
G1 X110.802 Y95.609 E5.18854
G1 X111.360 Y95.609 E5.21438
G1 X110.570 Y94.819 E5.26611
G1 X111.128 Y94.819 E5.29195
G1 X111.918 Y95.609 E5.34368
G1 X112.476 Y95.609 E5.36951
G1 X111.686 Y94.819 E5.42124
G1 X112.244 Y94.819 E5.44708
G1 X113.034 Y95.609 E5.49881
G1 X113.592 Y95.609 E5.52465
G1 X112.802 Y94.819 E5.57638
G1 X113.360 Y94.819 E5.60221
G1 X114.150 Y95.609 E5.65394
G1 X114.708 Y95.609 E5.67978
G1 X113.918 Y94.819 E5.73151
G1 X114.476 Y94.819 E5.75735
G1 X115.266 Y95.609 E5.80908
G1 X115.796 Y95.581 E5.83363
G1 X115.034 Y94.819 E5.88350
G1 X115.592 Y94.819 E5.90933
G1 X115.795 Y95.023 E5.92266
M106 S255
G92 E0
G1 Z0.600 F7800.000
G1 X90.601 Y94.182 F7800.000
G1 X92.565 Y95.103 E0.65005 F600.000
G1 X93.256 Y95.241 E0.86105
G1 X94.236 Y95.558 E1.16951
G1 X94.628 Y95.742 E1.29935
G1 X94.863 Y95.877 E1.38056
G1 X95.501 Y96.312 E1.61211
G1 X95.978 Y96.743 E1.80458
G1 X96.171 Y96.948 E1.88903
G1 X96.508 Y97.363 E2.04931
G1 X96.999 Y98.160 E2.32964
G1 X97.249 Y98.681 E2.50305
G1 X97.629 Y99.920 E2.89118
G1 X97.702 Y100.236 E2.98831
G1 X97.860 Y102.072 E3.54074
G1 X97.755 Y103.444 E3.95300
G1 X97.636 Y104.140 E4.16439
G1 X97.494 Y104.671 E4.32911
G1 X97.096 Y105.761 E4.67708
G1 X96.510 Y106.678 E5.00312
G1 X96.198 Y107.070 E5.15319
G1 X95.810 Y107.459 E5.31763
G1 X94.946 Y108.109 E5.64161
G1 X94.633 Y108.275 E5.74798
G1 X93.901 Y108.578 E5.98536
G1 X93.273 Y108.776 E6.18269
G1 X92.705 Y108.888 E6.35615
G1 X91.361 Y109.008 E6.76037
G1 X89.637 Y108.827 E7.27989
G1 X89.335 Y108.769 E7.37201
G1 X88.050 Y108.277 E7.78429
G1 X87.724 Y108.115 E7.89325
G1 X86.685 Y107.296 E8.28979
G1 X86.471 Y107.098 E8.37709
G1 X85.561 Y105.760 E8.86224
G1 X85.003 Y104.098 E9.38731
G1 X84.807 Y102.040 E10.00691
G1 X84.906 Y100.721 E10.40331
G1 X85.029 Y99.961 E10.63392
G1 X85.143 Y99.519 E10.77063
G1 X85.513 Y98.441 E11.11219
G1 X85.638 Y98.202 E11.19290
G1 X86.052 Y97.525 E11.43078
G1 X86.471 Y96.965 E11.64045
G1 X86.660 Y96.747 E11.72671
G1 X87.466 Y96.086 E12.03909
G1 X87.798 Y95.865 E12.15847
G1 X88.046 Y95.726 E12.24365
G1 X88.391 Y95.567 E12.35762
G1 X89.461 Y95.188 E12.69779
G1 X90.868 Y95.005 E13.12286
G1 X91.218 Y94.900 E13.23237
G1 X91.686 Y94.691 E13.38608
G1 X91.693 Y94.566 E13.42366
G1 X91.829 Y93.914 E13.62304
G1 X92.068 Y93.293 E13.82264
G1 X92.237 Y92.950 E13.93707
G1 X92.545 Y92.411 E14.12318
G1 X92.760 Y92.132 E14.22870
G1 X93.040 Y91.820 E14.35432
G1 X93.421 Y91.513 E14.50104
G1 X93.577 Y91.410 E14.55679
G1 X94.179 Y91.132 E14.75570
G1 X94.989 Y90.962 E15.00355
G1 X95.801 Y90.946 E15.24702
G1 X97.010 Y91.078 E15.61131
G92 E0
G1 X101.750 Y93.033 F7800.000
G1 X101.526 Y94.221 F7800.000
G1 X101.565 Y94.368 F7800.000
G1 X106.453 Y94.368 F7800.000
G1 X107.489 Y109.664 F7800.000
G1 X107.489 Y96.060 E4.07639 F600.000
G1 X107.569 Y95.484 E4.25074
G1 X108.524 Y95.214 E4.54818
G1 X116.246 Y95.214 E6.86205
G92 E0
G1 Z0.900 F7800.000
G1 X90.601 Y94.182 F7800.000
G1 X92.565 Y95.103 E0.65005 F600.000
G1 X93.256 Y95.241 E0.86105
G1 X94.236 Y95.558 E1.16951
G1 X94.628 Y95.742 E1.29935
G1 X94.863 Y95.877 E1.38056
G1 X95.501 Y96.312 E1.61211
G1 X95.978 Y96.743 E1.80458
G1 X96.171 Y96.948 E1.88903
G1 X96.508 Y97.363 E2.04931
G1 X96.999 Y98.160 E2.32964
G1 X97.249 Y98.681 E2.50305
G1 X97.629 Y99.920 E2.89118
G1 X97.702 Y100.236 E2.98831
G1 X97.860 Y102.072 E3.54074
G1 X97.755 Y103.444 E3.95300
G1 X97.636 Y104.140 E4.16439
G1 X97.494 Y104.671 E4.32911
G1 X97.096 Y105.761 E4.67708
G1 X96.510 Y106.678 E5.00312
G1 X96.198 Y107.070 E5.15319
G1 X95.810 Y107.459 E5.31763
G1 X94.946 Y108.109 E5.64161
G1 X94.633 Y108.275 E5.74798
G1 X93.901 Y108.578 E5.98536
G1 X93.273 Y108.776 E6.18269
G1 X92.705 Y108.888 E6.35615
G1 X91.361 Y109.008 E6.76037
G1 X89.637 Y108.827 E7.27989
G1 X89.335 Y108.769 E7.37201
G1 X88.050 Y108.277 E7.78429
G1 X87.724 Y108.115 E7.89325
G1 X86.685 Y107.296 E8.28979
G1 X86.471 Y107.098 E8.37710
G1 X85.561 Y105.760 E8.86224
G1 X85.003 Y104.098 E9.38731
G1 X84.807 Y102.040 E10.00692
G1 X84.906 Y100.721 E10.40331
G1 X85.029 Y99.961 E10.63392
G1 X85.143 Y99.519 E10.77063
G1 X85.513 Y98.441 E11.11219
G1 X85.638 Y98.202 E11.19290
G1 X86.052 Y97.525 E11.43078
G1 X86.471 Y96.965 E11.64045
G1 X86.660 Y96.747 E11.72671
G1 X87.466 Y96.086 E12.03908
G1 X87.798 Y95.865 E12.15847
G1 X88.046 Y95.726 E12.24365
G1 X88.391 Y95.567 E12.35762
G1 X89.461 Y95.188 E12.69779
G1 X90.757 Y95.022 E13.08935
G1 X91.218 Y94.900 E13.23214
G1 X91.686 Y94.691 E13.38585
G1 X91.693 Y94.566 E13.42343
G1 X91.829 Y93.914 E13.62281
G1 X92.068 Y93.293 E13.82241
G1 X92.237 Y92.950 E13.93684
G1 X92.545 Y92.411 E14.12295
G1 X92.760 Y92.132 E14.22847
G1 X93.040 Y91.820 E14.35409
G1 X93.421 Y91.513 E14.50081
G1 X93.577 Y91.410 E14.55656
G1 X94.179 Y91.132 E14.75547
G1 X94.989 Y90.962 E15.00332
G1 X95.791 Y90.941 E15.24373
G1 X96.229 Y90.977 E15.37546
G1 X97.010 Y91.099 E15.61221
G92 E0
G1 X101.750 Y93.033 F7800.000
G1 X101.526 Y94.221 F7800.000
G1 X101.565 Y94.368 F7800.000
G1 X106.453 Y94.368 F7800.000
G1 X107.489 Y109.664 F7800.000
G1 X107.489 Y96.060 E4.07639 F600.000
G1 X107.569 Y95.484 E4.25074
G1 X108.524 Y95.214 E4.54818
G1 X116.246 Y95.214 E6.86205
G92 E0
G1 Z1.200 F7800.000
G1 X90.601 Y94.182 F7800.000
G1 X92.565 Y95.103 E0.65005 F600.000
G1 X93.256 Y95.241 E0.86105
G1 X94.236 Y95.558 E1.16951
G1 X94.628 Y95.742 E1.29935
G1 X94.863 Y95.877 E1.38056
G1 X95.501 Y96.312 E1.61210
G1 X95.978 Y96.743 E1.80458
G1 X96.171 Y96.948 E1.88903
G1 X96.508 Y97.363 E2.04931
G1 X96.999 Y98.160 E2.32964
G1 X97.249 Y98.681 E2.50305
G1 X97.629 Y99.920 E2.89118
