; generated by Slic3r 1.2.9 on 2016-03-11 at 01:29:14

; external perimeters extrusion width = 1.54mm
; perimeters extrusion width = 2.62mm
; infill extrusion width = 6.27mm
; solid infill extrusion width = 2.62mm
; top infill extrusion width = 2.62mm

M107
M104 S30 ; set temperature
G28 ; home all axes
G1 Z5 F5000 ; lift nozzle
M302
M92 E10000
M500
M501
G1 E100
M109 S30 ; wait for temperature to be reached
G21 ; set units to millimeters
G90 ; use absolute coordinates
M82 ; use absolute distances for extrusion
G92 E0
G1 Z0.300 F7800.000
G1 X103.618 Y101.933 F7800.000
G1 X103.706 Y100.578 E0.06144 F378.000
G1 X103.999 Y99.212 E0.12467
G1 X104.484 Y97.981 E0.18455
G1 X105.152 Y96.912 E0.24158
G1 X105.990 Y96.027 E0.29670
G1 X107.002 Y95.324 E0.35246
G1 X108.174 Y94.813 E0.41031
G1 X109.491 Y94.505 E0.47151
G1 X110.954 Y94.402 E0.53791
G1 X112.420 Y94.507 E0.60442
G1 X113.717 Y94.818 E0.66475 F378.000
G1 X114.890 Y95.335 E0.72275
G1 X115.907 Y96.044 E0.77887
G1 X116.753 Y96.931 E0.83432
G1 X117.429 Y97.999 E0.89153
G1 X117.924 Y99.225 E0.95137
G1 X118.222 Y100.586 E1.01437
G1 X118.322 Y102.081 E1.08219
G1 X118.223 Y103.579 E1.15013
G1 X117.929 Y104.932 E1.21276
G1 X117.441 Y106.140 E1.27174
G1 X116.771 Y107.185 E1.32792
G1 X115.929 Y108.048 E1.38244
G1 X114.914 Y108.732 E1.43786
G1 X113.741 Y109.230 E1.49550
G1 X112.429 Y109.530 E1.55641
G1 X110.979 Y109.630 E1.62215
G1 X108.815 Y109.406 E1.72059
G1 X107.011 Y108.741 E1.80761
G1 X105.552 Y107.637 E1.89039
G1 X104.476 Y106.140 E1.97380
G1 X103.827 Y104.291 E2.06248
G1 X103.617 Y102.163 E2.15924
G1 X105.261 Y102.081 F7800.000
G1 X105.425 Y100.258 E2.24205 F378.000
G1 X105.925 Y98.692 E2.31644
G1 X106.763 Y97.388 E2.38660
G1 X107.906 Y96.410 E2.45465
G1 X109.307 Y95.824 E2.52340
G1 X110.809 Y95.648 E2.59181
G1 X110.954 Y95.631 E2.59841 F378.000
G1 X112.638 Y95.817 E2.67506
G1 X114.053 Y96.384 E2.74407
G1 X115.188 Y97.333 E2.81101
G1 X116.010 Y98.621 E2.88016
G1 X116.498 Y100.206 E2.95519
G1 X116.659 Y102.081 E3.04037
G1 X116.497 Y103.884 E3.12228
G1 X116.004 Y105.424 E3.19543
G1 X115.176 Y106.694 E3.26403
G1 X114.042 Y107.639 E3.33085
G1 X112.637 Y108.204 E3.39935
G1 X110.977 Y108.390 E3.47495
G1 X109.304 Y108.207 E3.55110
G1 X107.891 Y107.650 E3.61984
G1 X106.749 Y106.717 E3.68652
G1 X105.918 Y105.454 E3.75496
G1 X105.424 Y103.906 E3.82848
G1 X105.281 Y102.311 E3.90095
G1 X104.272 Y104.782 F7800.000
G1 X108.506 Y109.016 E4.17566 F540.000
G1 X107.629 Y108.692 F7800.000
G1 X104.572 Y105.635 E4.37410 F540.000
G1 X105.732 Y105.689 F7800.000
G1 X104.032 Y103.989 E4.48441 F540.000
G1 X103.972 Y103.376 E4.51270
G1 X105.463 Y104.867 E4.60947
G1 X105.204 Y104.055 E4.64861
G1 X103.911 Y102.762 E4.73247
G1 X103.851 Y102.149 E4.76076
G1 X105.148 Y103.446 E4.84495
G1 X105.094 Y102.839 E4.87292
G1 X103.860 Y101.605 E4.95297
G1 X103.894 Y101.086 E4.97684
G1 X105.040 Y102.231 E5.05117
G1 X105.074 Y101.713 E5.07502
G1 X103.928 Y100.567 E5.14939
G1 X104.022 Y100.108 E5.17089
G1 X105.120 Y101.206 E5.24213
G1 X105.166 Y100.699 E5.26550
G1 X104.120 Y99.652 E5.33339
G1 X104.220 Y99.200 E5.35467
G1 X105.227 Y100.207 E5.42000
G1 X105.360 Y99.787 E5.44020
G1 X104.376 Y98.803 E5.50405
G1 X104.533 Y98.407 E5.52362
G1 X105.494 Y99.368 E5.58599
G1 X105.628 Y98.948 E5.60619
G1 X104.693 Y98.014 E5.66682
G1 X104.906 Y97.674 E5.68524
G1 X105.784 Y98.551 E5.74219
G1 X106.000 Y98.215 E5.76056
G1 X105.118 Y97.333 E5.81776
G1 X105.335 Y96.997 E5.83611
G1 X106.216 Y97.878 E5.89328
G1 X106.433 Y97.541 E5.91165
G1 X105.605 Y96.714 E5.96537
G1 X105.881 Y96.437 E5.98331
G1 X106.664 Y97.219 E6.03408
G1 X106.962 Y96.964 E6.05208
G1 X106.158 Y96.160 E6.10424
G1 X106.476 Y95.926 E6.12239
G1 X107.260 Y96.709 E6.17323
G1 X107.558 Y96.454 E6.19123
G1 X106.802 Y95.699 E6.24024
G1 X107.139 Y95.483 E6.25861
G1 X107.865 Y96.209 E6.30574
G1 X108.255 Y96.046 E6.32513
G1 X107.524 Y95.315 E6.37258
G1 X107.909 Y95.147 E6.39186
G1 X108.645 Y95.883 E6.43964
G1 X109.035 Y95.720 E6.45903
G1 X108.311 Y94.996 E6.50602
G1 X108.760 Y94.891 E6.52714
G1 X109.456 Y95.588 E6.57236
G1 X109.951 Y95.530 E6.59522
G1 X109.208 Y94.786 E6.64348
G1 X109.686 Y94.712 E6.66571
G1 X110.446 Y95.472 E6.71501
G1 X110.941 Y95.414 E6.73787
G1 X110.203 Y94.676 E6.78577
G1 X110.720 Y94.639 E6.80953
G1 X111.539 Y95.459 E6.86271
G1 X112.161 Y95.528 E6.89143
G1 X111.292 Y94.659 E6.94782
G1 X111.888 Y94.701 E6.97524
G1 X112.783 Y95.597 E7.03333
G1 X113.254 Y94.961 F7800.000
G1 X115.488 Y97.195 E7.17832 F540.000
G1 X115.345 Y97.053 F7800.000
G1 X117.716 Y99.424 E7.33219 F540.000
G1 X117.872 Y100.132 E7.36546
G1 X116.238 Y98.498 E7.47149
G1 X116.484 Y99.297 E7.50986
G1 X118.006 Y100.819 E7.60863
G1 X118.045 Y101.412 E7.63588
G1 X116.722 Y100.089 E7.72173
G1 X116.774 Y100.694 E7.74959
G1 X118.085 Y102.004 E7.83464
G1 X118.070 Y102.543 E7.85936
G1 X116.826 Y101.299 E7.94009
G1 X116.878 Y101.904 E7.96796
G1 X118.036 Y103.062 E8.04310
G1 X118.002 Y103.581 E8.06696
G1 X116.848 Y102.427 E8.14185
G1 X116.802 Y102.934 E8.16522
G1 X117.908 Y104.039 E8.23696
G1 X117.809 Y104.494 E8.25829
G1 X116.757 Y103.441 E8.32659
G1 X116.696 Y103.934 E8.34936
G1 X117.707 Y104.944 E8.41495
G1 X117.548 Y105.338 E8.43444
G1 X116.562 Y104.353 E8.49839
G1 X116.428 Y104.772 E8.51858
G1 X117.389 Y105.732 E8.58090
G1 X117.223 Y106.119 E8.60023
G1 X116.294 Y105.191 E8.66049
G1 X116.133 Y105.583 E8.67994
G1 X117.007 Y106.456 E8.73662
G1 X116.791 Y106.793 E8.75499
G1 X115.915 Y105.918 E8.81182
G1 X115.697 Y106.252 E8.83015
G1 X116.561 Y107.116 E8.88622
G1 X116.284 Y107.393 E8.90416
G1 X115.478 Y106.587 E8.95645
G1 X115.235 Y106.896 E8.97451
G1 X116.008 Y107.669 E9.02468
G1 X115.731 Y107.946 E9.04262
G1 X114.933 Y107.148 E9.09443
G1 X114.631 Y107.399 E9.11245
G1 X115.402 Y108.169 E9.16245
G1 X115.071 Y108.392 E9.18073
G1 X114.329 Y107.650 E9.22888
G1 X113.999 Y107.873 E9.24715
G1 X114.722 Y108.596 E9.29405
G1 X114.334 Y108.761 E9.31341
G1 X113.605 Y108.032 E9.36071
G1 X113.211 Y108.190 E9.38021
G1 X113.946 Y108.925 E9.42791
G1 X113.530 Y109.063 E9.44798
G1 X112.816 Y108.349 E9.49432
G1 X112.367 Y108.453 E9.51546
G1 X113.080 Y109.166 E9.56172
G1 X112.630 Y109.269 E9.58291
G1 X111.870 Y108.509 E9.63222
G1 X111.373 Y108.565 E9.65518
G1 X112.137 Y109.329 E9.70478
G1 X111.620 Y109.365 E9.72858
G1 X110.871 Y108.616 E9.77720
G1 X110.249 Y108.547 E9.80588
G1 X111.103 Y109.401 E9.86126
G1 X110.493 Y109.344 E9.88936
G1 X109.628 Y108.479 E9.94548
G1 X108.941 Y108.345 E9.97761
G1 X109.876 Y109.280 E10.03829
G1 X109.259 Y109.216 E10.06675
G1 X108.028 Y107.985 E10.14662
G1 X105.974 Y107.590 F7800.000
G1 X105.620 Y107.236 E10.16960 F540.000
G92 E0
G1 X105.217 Y98.359 F7800.000
G1 X105.198 Y98.347 F7800.000
G1 X105.792 Y97.407 F7800.000
G1 X105.996 Y97.147 F7800.000
G1 X113.700 Y95.960 F7800.000
G1 X112.526 Y94.787 E0.07614 F540.000
G1 X114.141 Y95.295 F7800.000
G1 X117.350 Y98.505 E0.28440 F540.000
G1 X116.369 Y96.971 F7800.000
G1 X115.531 Y96.132 E0.33881 F540.000
G92 E0
G1 X104.973 Y96.773 F7800.000
G1 X99.986 Y95.822 F7800.000
G1 X99.980 Y97.646 F7800.000
G1 X100.008 Y98.940 F7800.000
G1 X96.437 Y100.033 F7800.000
G1 X95.885 Y98.998 F7800.000
G1 X96.215 Y100.076 E0.05104 F378.000
G1 X96.392 Y102.063 E0.14127
G1 X96.293 Y103.562 E0.20927
G1 X95.999 Y104.919 E0.27207
G1 X95.511 Y106.130 E0.33119
G1 X94.840 Y107.179 E0.38749
G1 X93.999 Y108.044 E0.44210
G1 X92.984 Y108.730 E0.49757
G1 X91.811 Y109.229 E0.55523
G1 X90.499 Y109.530 E0.61614
G1 X89.049 Y109.630 E0.68188
G1 X86.886 Y109.406 E0.78031
G1 X85.082 Y108.738 E0.86735
G1 X83.623 Y107.631 E0.95022
G1 X82.546 Y106.131 E1.03379
G1 X81.897 Y104.276 E1.12270
G1 X81.678 Y102.055 E1.22370
G1 X81.767 Y100.611 E1.28916
G1 X82.034 Y99.290 E1.35015
G1 X82.476 Y98.094 E1.40782
G1 X83.083 Y97.048 E1.46258
G1 X83.846 Y96.169 E1.51522
G1 X84.767 Y95.456 E1.56793
G1 X85.833 Y94.918 E1.62196
G1 X87.031 Y94.566 E1.67845
G1 X88.514 Y94.383 E1.74609
G1 X89.048 Y92.960 E1.81484
G1 X89.605 Y91.961 E1.86659
G1 X90.231 Y91.243 E1.90970
G1 X90.952 Y90.760 E1.94897
G1 X91.799 Y90.468 E1.98947
G1 X92.784 Y90.369 E2.03429
G1 X93.337 Y90.393 E2.05933
G1 X94.010 Y90.473 E2.09001 F378.000
G1 X94.484 Y90.567 E2.11185
G1 X94.484 Y91.566 E2.15704
G1 X93.913 Y91.490 E2.18307
G1 X93.455 Y91.470 E2.20385
G1 X92.719 Y91.541 E2.23731
G1 X92.058 Y91.762 E2.26881
G1 X91.486 Y92.132 E2.29964
G1 X91.001 Y92.661 E2.33214
G1 X90.576 Y93.383 E2.37005
G1 X90.164 Y94.442 E2.42146
G1 X92.175 Y94.939 E2.51517
G1 X93.630 Y95.730 E2.59013
G1 X94.812 Y96.886 E2.66496
G1 X95.687 Y98.354 E2.74226
G1 X95.817 Y98.777 E2.76230
G1 X94.283 Y99.248 F7800.000
G1 X94.568 Y100.178 E2.80632 F378.000
G1 X94.729 Y102.059 E2.89177
G1 X94.567 Y103.869 E2.97397
G1 X94.075 Y105.414 E3.04735
G1 X93.247 Y106.688 E3.11610
G1 X92.112 Y107.636 E3.18301
G1 X90.707 Y108.203 E3.25156
G1 X89.047 Y108.390 E3.32717
G1 X87.374 Y108.206 E3.40333
G1 X85.960 Y107.647 E3.47211
G1 X84.819 Y106.711 E3.53889
G1 X83.988 Y105.443 E3.60749
G1 X83.494 Y103.890 E3.68123
G1 X83.331 Y102.059 E3.76443
G1 X83.496 Y100.230 E3.84751
G1 X83.995 Y98.659 E3.92213
G1 X84.833 Y97.350 E3.99245
G1 X85.976 Y96.369 E4.06061
G1 X87.377 Y95.781 E4.12940
G1 X88.879 Y95.604 E4.19781
G1 X89.024 Y95.587 E4.20441 F378.000
G1 X90.708 Y95.774 E4.28108
G1 X92.124 Y96.343 E4.35013
G1 X93.259 Y97.295 E4.41716
G1 X94.080 Y98.588 E4.48648
G1 X94.215 Y99.027 E4.50727
G1 X94.395 Y98.750 F7800.000
G1 X96.006 Y100.360 E4.61084 F540.000
G1 X96.059 Y100.962 E4.63832
G1 X94.638 Y99.541 E4.72973
G1 X94.810 Y100.260 E4.76338
G1 X96.113 Y101.564 E4.84722
G1 X96.164 Y102.163 E4.87457
G1 X94.861 Y100.860 E4.95840
G1 X94.912 Y101.459 E4.98576
G1 X96.130 Y102.677 E5.06412
G1 X96.097 Y103.192 E5.08756
G1 X94.950 Y102.046 E5.16128
G1 X94.905 Y102.549 E5.18425
G1 X96.050 Y103.693 E5.25785
G1 X95.952 Y104.143 E5.27882
G1 X94.860 Y103.052 E5.34904
G1 X94.815 Y103.555 E5.37201
G1 X95.854 Y104.594 E5.43885
G1 X95.739 Y105.026 E5.45922
G1 X94.733 Y104.021 E5.52387
G1 X94.601 Y104.437 E5.54371
G1 X95.581 Y105.417 E5.60676
G1 X95.424 Y105.808 E5.62591
G1 X94.469 Y104.853 E5.68735
G1 X94.336 Y105.268 E5.70720
G1 X95.248 Y106.180 E5.76584
G1 X95.034 Y106.514 E5.78389
G1 X94.160 Y105.640 E5.84013
G1 X93.944 Y105.972 E5.85815
G1 X94.820 Y106.849 E5.91453
G1 X94.583 Y107.160 E5.93231
G1 X93.728 Y106.305 E5.98732
G1 X93.512 Y106.637 E6.00534
G1 X94.309 Y107.434 E6.05660
G1 X94.035 Y107.708 E6.07423
G1 X93.257 Y106.930 E6.12425
G1 X92.958 Y107.180 E6.14195
G1 X93.754 Y107.975 E6.19312
G1 X93.427 Y108.196 E6.21108
G1 X92.660 Y107.429 E6.26042
G1 X92.361 Y107.679 E6.27812
G1 X93.100 Y108.417 E6.32563
G1 X92.747 Y108.613 E6.34396
G1 X92.023 Y107.889 E6.39053
G1 X91.633 Y108.047 E6.40968
G1 X92.363 Y108.777 E6.45663
G1 X91.978 Y108.940 E6.47564
G1 X91.242 Y108.204 E6.52296
G1 X90.852 Y108.362 E6.54212
G1 X91.561 Y109.071 E6.58773
G1 X91.115 Y109.173 E6.60854
G1 X90.398 Y108.457 E6.65463
G1 X89.906 Y108.512 E6.67718
G1 X90.669 Y109.276 E6.72627
G1 X90.176 Y109.331 E6.74882
G1 X89.413 Y108.568 E6.79792
G1 X88.909 Y108.612 E6.82092
G1 X89.664 Y109.367 E6.86946
G1 X89.151 Y109.402 E6.89283
G1 X88.293 Y108.544 E6.94802
G1 X87.677 Y108.476 E6.97620
G1 X88.542 Y109.341 E7.03185
G1 X87.931 Y109.278 E7.05982
G1 X86.987 Y108.335 E7.12050
G1 X86.080 Y107.976 F7800.000
G1 X87.319 Y109.214 E7.20015 F540.000
G1 X86.568 Y109.011 E7.23555
G1 X82.351 Y104.795 E7.50674
G1 X82.105 Y104.001 E7.54457
G1 X83.839 Y105.735 E7.65609
G1 X83.546 Y104.893 F7800.000
G1 X82.045 Y103.393 E7.75259 F540.000
G1 X81.986 Y102.785 E7.78037
G1 X83.290 Y104.089 E7.86426
G1 X83.222 Y103.473 E7.89244
G1 X81.926 Y102.177 E7.97582
G1 X81.926 Y101.629 E8.00074
G1 X83.169 Y102.871 E8.08067
G1 X83.115 Y102.270 E8.10815
G1 X81.958 Y101.112 E8.18258
G1 X81.990 Y100.596 E8.20611
G1 X83.139 Y101.746 E8.28005
G1 X83.184 Y101.243 E8.30301
G1 X82.078 Y100.137 E8.37415
G1 X82.170 Y99.681 E8.39532
G1 X83.230 Y100.740 E8.46346
G1 X83.278 Y100.240 E8.48632
G1 X82.271 Y99.233 E8.55108
G1 X82.419 Y98.833 E8.57048
G1 X83.410 Y99.824 E8.63422
G1 X83.542 Y99.407 E8.65407
G1 X82.567 Y98.433 E8.71678
G1 X82.730 Y98.047 E8.73581
G1 X83.674 Y98.991 E8.79654
G1 X83.812 Y98.582 E8.81620
G1 X82.931 Y97.700 E8.87290
G1 X83.132 Y97.354 E8.89114
G1 X84.026 Y98.248 E8.94866
G1 X84.240 Y97.914 E8.96670
G1 X83.355 Y97.028 E9.02366
G1 X83.610 Y96.735 E9.04133
G1 X84.455 Y97.579 E9.09566
G1 X84.669 Y97.245 E9.11371
G1 X83.870 Y96.447 E9.16504
G1 X84.150 Y96.178 E9.18268
G1 X84.959 Y96.988 E9.23473
G1 X85.254 Y96.735 E9.25241
G1 X84.459 Y95.939 E9.30357
G1 X84.768 Y95.700 E9.32134
G1 X85.549 Y96.481 E9.37160
G1 X85.844 Y96.228 E9.38928
G1 X85.117 Y95.501 E9.43603
G1 X85.481 Y95.317 E9.45459
G1 X86.215 Y96.051 E9.50176
G1 X86.601 Y95.889 E9.52080
G1 X85.846 Y95.134 E9.56938
G1 X86.266 Y95.006 E9.58936
G1 X86.987 Y95.727 E9.63573
G1 X87.373 Y95.565 E9.65478
G1 X86.690 Y94.881 E9.69874
G1 X87.129 Y94.772 E9.71931
G1 X87.862 Y95.505 E9.76645
G1 X88.352 Y95.447 E9.78891
G1 X87.617 Y94.712 E9.83622
G1 X88.104 Y94.651 E9.85857
G1 X88.842 Y95.389 E9.90604
G1 X89.392 Y95.391 E9.93102
G1 X88.592 Y94.591 E9.98244
G1 X88.785 Y94.236 E10.00082
G1 X90.008 Y95.459 E10.07948
G1 X90.625 Y95.528 E10.10771
G1 X89.674 Y94.576 E10.16892
G1 X89.987 Y94.341 E10.18673
G1 X89.084 Y93.439 E10.24478
G1 X89.234 Y93.040 E10.26414
G1 X90.140 Y93.946 E10.32244
G1 X90.293 Y93.552 E10.34171
G1 X89.426 Y92.684 E10.39749
G1 X89.622 Y92.332 E10.41582
G1 X90.469 Y93.179 E10.47026
G1 X90.672 Y92.834 E10.48847
G1 X89.832 Y91.993 E10.54252
G1 X90.087 Y91.701 E10.56019
G1 X90.887 Y92.501 E10.61163
G1 X91.149 Y92.215 E10.62928
G1 X90.343 Y91.408 E10.68115
G1 X90.668 Y91.185 E10.69908
G1 X91.423 Y91.941 E10.74769
G1 X91.756 Y91.725 E10.76572
G1 X90.996 Y90.965 E10.81463
G1 X91.400 Y90.821 E10.83416
G1 X92.109 Y91.530 E10.87972
G1 X92.520 Y91.392 E10.89942
G1 X91.813 Y90.686 E10.94485
G1 X92.312 Y90.636 E10.96762
G1 X92.972 Y91.297 E11.01013
G1 X93.472 Y91.248 E11.03295
G1 X92.824 Y90.601 E11.07460
G1 X93.411 Y90.640 E11.10134
G1 X94.038 Y91.267 E11.14169
G1 X94.048 Y90.729 E11.16617
G1 X94.258 Y90.938 E11.17962
G92 E0
G1 X90.265 Y92.382 F7800.000
G1 X90.265 Y92.382 F7800.000
G1 X90.244 Y92.411 F7800.000
G1 X90.105 Y92.655 F7800.000
G1 X92.980 Y95.690 F7800.000
G1 X94.946 Y97.656 E0.12645 F540.000
G1 X93.777 Y97.583 F7800.000
G1 X95.808 Y99.614 E0.25713 F540.000
G1 X95.566 Y98.824 F7800.000
G1 X91.858 Y95.116 E0.49567 F540.000
G1 X91.130 Y94.936 E0.52978
G1 X92.341 Y96.147 E0.60770
G1 X91.425 Y95.779 F7800.000
G1 X90.402 Y94.756 E0.67352 F540.000
G1 X89.833 Y94.736 E0.69938
G1 X88.935 Y93.838 E0.75717
G1 X83.287 Y98.327 F7800.000
G1 X82.842 Y99.519 F7800.000
G1 X82.700 Y100.067 F7800.000
G1 X82.605 Y100.721 F7800.000
G1 X82.505 Y102.040 F7800.000
G1 X82.456 Y102.041 F7800.000
G1 X82.647 Y105.639 F7800.000
G1 X85.698 Y108.690 E0.95341 F540.000
G1 X84.046 Y107.586 F7800.000
G1 X83.691 Y107.231 E0.97622 F540.000
M106 S255
G92 E0
G1 Z0.600 F7800.000
G1 X104.436 Y102.063 F7800.000
G1 X104.541 Y100.694 E0.41153 F600.000
G1 X104.661 Y99.989 E0.62586
G1 X104.803 Y99.455 E0.79152
G1 X105.204 Y98.343 E1.14548
G1 X105.792 Y97.407 E1.47684
G1 X106.107 Y97.005 E1.62985
G1 X106.299 Y96.795 E1.71523
G1 X106.492 Y96.612 E1.79480
G1 X107.350 Y95.949 E2.11989
G1 X107.677 Y95.770 E2.23137
G1 X108.390 Y95.465 E2.46387
G1 X109.036 Y95.256 E2.66725
G1 X109.587 Y95.143 E2.83582
G1 X110.954 Y95.018 E3.24710
G1 X112.309 Y95.139 E3.65472
G1 X112.895 Y95.256 E3.83388
G1 X113.505 Y95.449 E4.02546
G1 X114.262 Y95.768 E4.27154
G1 X114.558 Y95.926 E4.37211
G1 X115.434 Y96.596 E4.70267
G1 X115.616 Y96.766 E4.77748
G1 X115.810 Y96.978 E4.86333
G1 X116.145 Y97.406 E5.02623
G1 X116.737 Y98.355 E5.36129
G1 X117.134 Y99.470 E5.71594
G1 X117.304 Y100.161 E5.92928
G1 X117.386 Y100.704 E6.09399
G1 X117.489 Y102.081 E6.50779
G1 X117.384 Y103.461 E6.92233
G1 X117.265 Y104.156 E7.13363
G1 X117.123 Y104.683 E7.29724
G1 X116.725 Y105.770 E7.64415
G1 X116.140 Y106.684 E7.96933
G1 X115.825 Y107.077 E8.12006
G1 X115.628 Y107.289 E8.20699
G1 X115.440 Y107.462 E8.28338
G1 X114.576 Y108.110 E8.60708
G1 X114.260 Y108.277 E8.71417
