; generated by Slic3r 1.2.9 on 2016-03-11 at 01:29:17

; external perimeters extrusion width = 1.54mm
; perimeters extrusion width = 2.62mm
; infill extrusion width = 6.27mm
; solid infill extrusion width = 2.62mm
; top infill extrusion width = 2.62mm

M107
M104 S30 ; set temperature
G28 ; home all axes
G1 Z5 F5000 ; lift nozzle
M302
M92 E10000
M500
M501
G1 E100
M109 S30 ; wait for temperature to be reached
G21 ; set units to millimeters
G90 ; use absolute coordinates
M82 ; use absolute distances for extrusion
G92 E0
G1 Z0.300 F7800.000
G1 X110.233 Y109.553 F7800.000
G1 X108.815 Y109.406 E0.06449 F378.000
G1 X107.011 Y108.738 E0.15153
G1 X105.553 Y107.631 E0.23440
G1 X104.476 Y106.131 E0.31797
G1 X103.827 Y104.276 E0.40687
G1 X103.608 Y102.055 E0.50787
G1 X103.697 Y100.611 E0.57334
G1 X103.964 Y99.290 E0.63433
G1 X104.406 Y98.094 E0.69200
G1 X105.013 Y97.048 E0.74675
G1 X105.776 Y96.169 E0.79940
G1 X106.697 Y95.456 E0.85210
G1 X107.763 Y94.918 E0.90613
G1 X108.961 Y94.566 E0.96262
G1 X110.444 Y94.383 E1.03026
G1 X110.978 Y92.960 E1.09901
G1 X111.534 Y91.961 E1.15076
G1 X112.161 Y91.243 E1.19388
G1 X112.882 Y90.760 E1.23314
G1 X113.728 Y90.468 E1.27365
G1 X114.714 Y90.369 E1.31846
G1 X115.267 Y90.393 E1.34351
G1 X115.940 Y90.473 E1.37418 F378.000
G1 X116.413 Y90.567 E1.39603
G1 X116.413 Y91.566 E1.44122
G1 X115.811 Y91.486 E1.46872
G1 X115.384 Y91.470 E1.48806
G1 X114.649 Y91.541 E1.52148
G1 X113.988 Y91.762 E1.55299
G1 X113.416 Y92.132 E1.58382
G1 X112.931 Y92.661 E1.61632
G1 X112.521 Y93.357 E1.65285
G1 X112.093 Y94.442 E1.70563
G1 X114.105 Y94.939 E1.79940
G1 X115.560 Y95.730 E1.87436
G1 X116.742 Y96.886 E1.94919
G1 X117.617 Y98.354 E2.02649
G1 X118.145 Y100.076 E2.10802
G1 X118.322 Y102.063 E2.19825
G1 X118.223 Y103.562 E2.26625
G1 X117.929 Y104.919 E2.32905
G1 X117.441 Y106.130 E2.38817
G1 X116.770 Y107.179 E2.44447
G1 X115.929 Y108.044 E2.49908
G1 X114.913 Y108.730 E2.55455
G1 X113.741 Y109.229 E2.61221
G1 X112.429 Y109.530 E2.67312
G1 X110.979 Y109.630 E2.73886
G1 X110.463 Y109.577 E2.76235
G1 X110.598 Y108.349 F7800.000
G1 X109.304 Y108.206 E2.82128 F378.000
G1 X107.890 Y107.647 E2.89006
G1 X106.749 Y106.711 E2.95684
G1 X105.918 Y105.443 E3.02544
G1 X105.424 Y103.890 E3.09919
G1 X105.261 Y102.059 E3.18239
G1 X105.425 Y100.230 E3.26546
G1 X105.924 Y98.659 E3.34008
G1 X106.763 Y97.350 E3.41041
G1 X107.905 Y96.369 E3.47856
G1 X109.307 Y95.781 E3.54735
G1 X110.809 Y95.604 E3.61576
G1 X110.954 Y95.587 E3.62236 F378.000
G1 X112.638 Y95.774 E3.69904
G1 X114.054 Y96.343 E3.76809
G1 X115.189 Y97.295 E3.83512
G1 X116.010 Y98.588 E3.90443
G1 X116.498 Y100.178 E3.97969
G1 X116.659 Y102.059 E4.06514
G1 X116.497 Y103.869 E4.14734
G1 X116.004 Y105.414 E4.22072
G1 X115.177 Y106.688 E4.28947
G1 X114.042 Y107.636 E4.35639
G1 X112.637 Y108.203 E4.42493
G1 X110.977 Y108.390 E4.50054
G1 X110.828 Y108.374 E4.50732
G1 X108.917 Y108.335 F7800.000
G1 X109.860 Y109.278 E4.56800 F540.000
G1 X110.472 Y109.341 E4.59597
G1 X109.607 Y108.476 E4.65162
G1 X110.223 Y108.544 E4.67980
G1 X111.081 Y109.402 E4.73499
G1 X111.594 Y109.367 E4.75836
G1 X110.839 Y108.612 E4.80690
G1 X111.343 Y108.568 E4.82990
G1 X112.106 Y109.331 E4.87900
G1 X112.599 Y109.276 E4.90155
G1 X111.836 Y108.512 E4.95064
G1 X112.328 Y108.457 E4.97319
G1 X113.045 Y109.173 E5.01928
G1 X113.491 Y109.071 E5.04009
G1 X112.782 Y108.362 E5.08570
G1 X113.172 Y108.204 E5.10486
G1 X113.908 Y108.940 E5.15218
G1 X114.293 Y108.777 E5.17119
G1 X113.563 Y108.047 E5.21814
G1 X113.953 Y107.889 E5.23729
G1 X114.677 Y108.613 E5.28386
G1 X115.030 Y108.417 E5.30219
G1 X114.291 Y107.679 E5.34970
G1 X114.590 Y107.429 E5.36740
G1 X115.357 Y108.196 E5.41674
G1 X115.684 Y107.975 E5.43470
G1 X114.888 Y107.180 E5.48587
G1 X115.187 Y106.930 E5.50357
G1 X115.965 Y107.708 E5.55359
G1 X116.239 Y107.434 E5.57122
G1 X115.442 Y106.637 E5.62248
G1 X115.658 Y106.305 E5.64050
G1 X116.513 Y107.160 E5.69551
G1 X116.750 Y106.849 E5.71329
G1 X115.874 Y105.972 E5.76967
G1 X116.090 Y105.640 E5.78769
G1 X116.964 Y106.514 E5.84393
G1 X117.178 Y106.180 E5.86198
G1 X116.266 Y105.268 E5.92062
G1 X116.398 Y104.853 E5.94047
G1 X117.354 Y105.808 E6.00190
G1 X117.511 Y105.417 E6.02106
G1 X116.531 Y104.437 E6.08411
G1 X116.663 Y104.021 E6.10395
G1 X117.668 Y105.026 E6.16860
G1 X117.784 Y104.594 E6.18897
G1 X116.745 Y103.555 E6.25581
G1 X116.790 Y103.052 E6.27878
G1 X117.882 Y104.143 E6.34900
G1 X117.980 Y103.693 E6.36997
G1 X116.835 Y102.549 E6.44357
G1 X116.880 Y102.046 E6.46654
G1 X118.026 Y103.192 E6.54025
G1 X118.060 Y102.677 E6.56370
G1 X116.842 Y101.459 E6.64206
G1 X116.791 Y100.860 E6.66942
G1 X118.094 Y102.163 E6.75325
G1 X118.043 Y101.564 E6.78061
G1 X116.739 Y100.260 E6.86445
G1 X116.568 Y99.541 E6.89810
G1 X117.989 Y100.962 E6.98952
G1 X117.935 Y100.360 E7.01701
G1 X116.325 Y98.750 E7.12059
G1 X117.496 Y98.824 F7800.000
G1 X113.788 Y95.116 E7.35913 F540.000
G1 X113.060 Y94.936 E7.39324
G1 X114.271 Y96.147 E7.47115
G1 X114.910 Y95.690 F7800.000
G1 X116.876 Y97.656 E7.59761 F540.000
G1 X115.706 Y97.583 F7800.000
G1 X117.738 Y99.614 E7.72829 F540.000
G1 X113.355 Y95.779 F7800.000
G1 X112.332 Y94.756 E7.79411 F540.000
G1 X111.761 Y94.734 E7.82009
G1 X110.865 Y93.838 E7.87773
G1 X112.195 Y92.382 F7800.000
G1 X112.195 Y92.382 F7800.000
G1 X116.187 Y90.938 F7800.000
G1 X115.978 Y90.729 E7.89118 F540.000
G1 X115.969 Y91.268 E7.91569
G1 X115.341 Y90.640 E7.95609
G1 X114.754 Y90.601 E7.98284
G1 X115.402 Y91.248 E8.02449
G1 X114.902 Y91.297 E8.04731
G1 X114.241 Y90.636 E8.08982
G1 X113.743 Y90.686 E8.11259
G1 X114.449 Y91.392 E8.15801
G1 X114.038 Y91.530 E8.17772
G1 X113.330 Y90.821 E8.22328
G1 X112.926 Y90.965 E8.24280
G1 X113.686 Y91.725 E8.29172
G1 X113.353 Y91.941 E8.30975
G1 X112.597 Y91.185 E8.35836
G1 X112.273 Y91.408 E8.37629
G1 X113.079 Y92.215 E8.42816
G1 X112.817 Y92.501 E8.44581
G1 X112.017 Y91.701 E8.49725
G1 X111.761 Y91.993 E8.51492
G1 X112.602 Y92.834 E8.56897
G1 X112.399 Y93.179 E8.58718
G1 X111.552 Y92.332 E8.64162
G1 X111.356 Y92.684 E8.65994
G1 X112.226 Y93.554 E8.71591
G1 X112.071 Y93.947 E8.73513
G1 X111.164 Y93.040 E8.79349
G1 X111.014 Y93.439 E8.81286
G1 X111.916 Y94.340 E8.87086
G1 X111.604 Y94.576 E8.88866
G1 X112.555 Y95.528 E8.94987
G1 X111.938 Y95.459 E8.97810
G1 X110.715 Y94.236 E9.05676
G1 X110.522 Y94.591 E9.07514
G1 X111.321 Y95.391 E9.12656
G1 X110.772 Y95.389 E9.15154
G1 X110.034 Y94.651 E9.19901
G1 X109.546 Y94.712 E9.22137
G1 X110.282 Y95.447 E9.26867
G1 X109.792 Y95.505 E9.29113
G1 X109.059 Y94.772 E9.33827
G1 X108.620 Y94.881 E9.35885
G1 X109.303 Y95.565 E9.40280
G1 X108.917 Y95.727 E9.42185
G1 X108.196 Y95.006 E9.46822
G1 X107.776 Y95.133 E9.48821
G1 X108.531 Y95.889 E9.53678
G1 X108.144 Y96.051 E9.55583
G1 X107.411 Y95.317 E9.60299
G1 X107.047 Y95.501 E9.62155
G1 X107.774 Y96.228 E9.66830
G1 X107.479 Y96.481 E9.68598
G1 X106.697 Y95.700 E9.73623
G1 X106.389 Y95.939 E9.75400
G1 X107.184 Y96.735 E9.80516
G1 X106.889 Y96.988 E9.82284
G1 X106.080 Y96.178 E9.87490
G1 X105.800 Y96.447 E9.89253
G1 X106.598 Y97.245 E9.94386
G1 X106.384 Y97.579 E9.96191
G1 X105.540 Y96.735 E10.01624
G1 X105.285 Y97.028 E10.03391
G1 X106.170 Y97.914 E10.09087
G1 X105.956 Y98.248 E10.10892
G1 X105.062 Y97.354 E10.16643
G1 X104.861 Y97.700 E10.18467
G1 X105.742 Y98.582 E10.24137
G1 X105.604 Y98.991 E10.26104
G1 X104.660 Y98.047 E10.32177
G1 X104.497 Y98.433 E10.34079
G1 X105.472 Y99.407 E10.40350
G1 X105.340 Y99.824 E10.42335
G1 X104.349 Y98.833 E10.48709
G1 X104.201 Y99.233 E10.50649
G1 X105.207 Y100.240 E10.57125
G1 X105.160 Y100.740 E10.59412
G1 X104.100 Y99.681 E10.66226
G1 X104.008 Y100.137 E10.68342
G1 X105.114 Y101.243 E10.75456
G1 X105.069 Y101.746 E10.77752
G1 X103.919 Y100.596 E10.85146
G1 X103.888 Y101.112 E10.87499
G1 X105.045 Y102.270 E10.94942
G1 X105.098 Y102.871 E10.97690
G1 X103.856 Y101.629 E11.05682
G1 X103.856 Y102.177 E11.08174
G1 X105.152 Y103.473 E11.16513
G1 X105.220 Y104.089 E11.19331
G1 X103.915 Y102.785 E11.27720
G1 X103.975 Y103.393 E11.30498
G1 X105.475 Y104.893 E11.40148
G1 X105.769 Y105.735 F7800.000
G1 X104.035 Y104.001 E11.51300 F540.000
G1 X104.281 Y104.795 E11.55083
G1 X108.498 Y109.011 E11.82202
G1 X109.249 Y109.214 E11.85741
G1 X108.010 Y107.976 E11.93707
G1 X107.628 Y108.690 F7800.000
G1 X104.577 Y105.639 E12.13331 F540.000
G1 X105.621 Y107.231 F7800.000
G1 X105.976 Y107.586 E12.15612 F540.000
G92 E0
G1 X104.274 Y106.235 F7800.000
G1 X100.288 Y107.632 F7800.000
G1 X99.508 Y107.764 F7800.000
G1 X95.712 Y106.234 F7800.000
G1 X91.289 Y109.349 F7800.000
G1 X90.499 Y109.530 E0.03668 F378.000
G1 X89.049 Y109.630 E0.10243
G1 X86.886 Y109.406 E0.20086
G1 X85.082 Y108.738 E0.28789
G1 X83.623 Y107.631 E0.37077
G1 X82.546 Y106.131 E0.45434
G1 X81.897 Y104.276 E0.54324
G1 X81.678 Y102.055 E0.64424
G1 X81.767 Y100.611 E0.70971
G1 X82.034 Y99.290 E0.77070
G1 X82.476 Y98.094 E0.82837
G1 X83.083 Y97.048 E0.88313
G1 X83.846 Y96.169 E0.93577
G1 X84.767 Y95.456 E0.98847
G1 X85.833 Y94.918 E1.04251
G1 X87.031 Y94.566 E1.09900
G1 X88.514 Y94.383 E1.16663
G1 X89.048 Y92.960 E1.23538
G1 X89.605 Y91.961 E1.28713
G1 X90.231 Y91.243 E1.33025
G1 X90.952 Y90.760 E1.36952
G1 X91.799 Y90.468 E1.41002
G1 X92.784 Y90.369 E1.45484
G1 X93.337 Y90.393 E1.47988
G1 X94.010 Y90.473 E1.51055 F378.000
G1 X94.484 Y90.567 E1.53240
G1 X94.484 Y91.566 E1.57759
G1 X93.913 Y91.490 E1.60362
G1 X93.455 Y91.470 E1.62440
G1 X92.719 Y91.541 E1.65785
G1 X92.058 Y91.762 E1.68936
G1 X91.486 Y92.132 E1.72019
G1 X91.001 Y92.661 E1.75269
G1 X90.576 Y93.383 E1.79060
G1 X90.164 Y94.442 E1.84201
G1 X92.175 Y94.939 E1.93572
G1 X93.630 Y95.730 E2.01067
G1 X94.812 Y96.886 E2.08550
G1 X95.687 Y98.354 E2.16280
G1 X96.215 Y100.076 E2.24433
G1 X96.392 Y102.063 E2.33456
G1 X96.293 Y103.562 E2.40256
G1 X95.999 Y104.919 E2.46536
G1 X95.511 Y106.130 E2.52449
G1 X94.840 Y107.179 E2.58079
G1 X93.999 Y108.044 E2.63539
G1 X92.984 Y108.730 E2.69086
G1 X91.811 Y109.229 E2.74852
G1 X91.514 Y109.297 E2.76230
G1 X91.021 Y108.077 F7800.000
G1 X90.707 Y108.203 E2.77762 F378.000
G1 X89.047 Y108.390 E2.85324
G1 X87.374 Y108.206 E2.92940
G1 X85.960 Y107.647 E2.99818
G1 X84.819 Y106.711 E3.06495
G1 X83.988 Y105.443 E3.13356
G1 X83.494 Y103.890 E3.20730
G1 X83.331 Y102.059 E3.29050
G1 X83.496 Y100.230 E3.37358
G1 X83.995 Y98.659 E3.44819
G1 X84.833 Y97.350 E3.51852
G1 X85.976 Y96.369 E3.58668
G1 X87.377 Y95.781 E3.65546
G1 X88.879 Y95.604 E3.72388
G1 X89.024 Y95.587 E3.73048 F378.000
G1 X90.708 Y95.774 E3.80715
G1 X92.124 Y96.343 E3.87620
G1 X93.259 Y97.295 E3.94323
G1 X94.080 Y98.588 E4.01255
G1 X94.568 Y100.178 E4.08781
G1 X94.729 Y102.059 E4.17326
G1 X94.567 Y103.869 E4.25546
G1 X94.075 Y105.414 E4.32884
G1 X93.247 Y106.688 E4.39759
G1 X92.112 Y107.636 E4.46450
G1 X91.236 Y107.990 E4.50727
G1 X86.987 Y108.335 F7800.000
G1 X87.931 Y109.278 E4.56794 F540.000
G1 X88.542 Y109.341 E4.59591
G1 X87.677 Y108.476 E4.65156
G1 X88.293 Y108.544 E4.67975
G1 X89.151 Y109.402 E4.73493
G1 X89.664 Y109.367 E4.75830
G1 X88.909 Y108.612 E4.80684
G1 X89.413 Y108.568 E4.82985
G1 X90.176 Y109.331 E4.87894
G1 X90.669 Y109.276 E4.90149
G1 X89.906 Y108.512 E4.95058
G1 X90.398 Y108.457 E4.97313
G1 X91.115 Y109.173 E5.01922
G1 X91.561 Y109.071 E5.04003
G1 X90.852 Y108.362 E5.08565
G1 X91.242 Y108.204 E5.10480
G1 X91.978 Y108.940 E5.15213
G1 X92.363 Y108.777 E5.17113
G1 X91.633 Y108.047 E5.21808
G1 X92.023 Y107.889 E5.23723
G1 X92.747 Y108.613 E5.28380
G1 X93.100 Y108.417 E5.30214
G1 X92.361 Y107.679 E5.34964
G1 X92.660 Y107.429 E5.36734
G1 X93.427 Y108.196 E5.41668
G1 X93.754 Y107.975 E5.43464
G1 X92.958 Y107.180 E5.48581
G1 X93.257 Y106.930 E5.50351
G1 X94.035 Y107.708 E5.55353
G1 X94.309 Y107.434 E5.57116
G1 X93.512 Y106.637 E5.62242
G1 X93.728 Y106.305 E5.64045
G1 X94.583 Y107.160 E5.69545
G1 X94.820 Y106.849 E5.71324
G1 X93.944 Y105.972 E5.76961
G1 X94.160 Y105.640 E5.78763
G1 X95.034 Y106.514 E5.84387
G1 X95.248 Y106.180 E5.86192
G1 X94.336 Y105.268 E5.92057
G1 X94.469 Y104.853 E5.94041
G1 X95.424 Y105.808 E6.00185
G1 X95.581 Y105.417 E6.02101
G1 X94.601 Y104.437 E6.08405
G1 X94.733 Y104.021 E6.10389
G1 X95.739 Y105.026 E6.16854
G1 X95.854 Y104.594 E6.18891
G1 X94.815 Y103.555 E6.25575
G1 X94.860 Y103.052 E6.27872
G1 X95.952 Y104.143 E6.34895
G1 X96.050 Y103.693 E6.36991
G1 X94.905 Y102.549 E6.44352
G1 X94.950 Y102.046 E6.46648
G1 X96.097 Y103.192 E6.54020
G1 X96.130 Y102.677 E6.56364
G1 X94.912 Y101.459 E6.64200
G1 X94.861 Y100.860 E6.66936
G1 X96.164 Y102.163 E6.75319
G1 X96.113 Y101.564 E6.78055
G1 X94.810 Y100.260 E6.86438
G1 X94.638 Y99.541 E6.89803
G1 X96.059 Y100.962 E6.98944
G1 X96.006 Y100.360 E7.01692
G1 X94.395 Y98.750 E7.12050
G1 X95.566 Y98.824 F7800.000
G1 X91.858 Y95.116 E7.35903 F540.000
G1 X91.130 Y94.936 E7.39314
G1 X92.341 Y96.147 E7.47106
G1 X92.980 Y95.690 F7800.000
G1 X94.946 Y97.656 E7.59751 F540.000
G1 X93.777 Y97.583 F7800.000
G1 X95.808 Y99.614 E7.72819 F540.000
G1 X91.425 Y95.779 F7800.000
G1 X90.402 Y94.756 E7.79401 F540.000
G1 X89.833 Y94.736 E7.81988
G1 X88.935 Y93.838 E7.87767
G1 X90.265 Y92.382 F7800.000
G1 X90.265 Y92.382 F7800.000
G1 X94.258 Y90.938 F7800.000
G1 X94.048 Y90.729 E7.89112 F540.000
G1 X94.038 Y91.267 E7.91560
G1 X93.411 Y90.640 E7.95595
G1 X92.824 Y90.601 E7.98270
G1 X93.472 Y91.248 E8.02434
G1 X92.972 Y91.297 E8.04717
G1 X92.312 Y90.636 E8.08968
G1 X91.813 Y90.686 E8.11245
G1 X92.520 Y91.392 E8.15787
G1 X92.109 Y91.530 E8.17758
G1 X91.400 Y90.821 E8.22314
G1 X90.996 Y90.965 E8.24266
G1 X91.756 Y91.725 E8.29157
G1 X91.423 Y91.941 E8.30960
G1 X90.668 Y91.185 E8.35821
G1 X90.343 Y91.408 E8.37614
G1 X91.149 Y92.215 E8.42801
G1 X90.887 Y92.501 E8.44566
G1 X90.087 Y91.701 E8.49711
G1 X89.832 Y91.993 E8.51478
G1 X90.672 Y92.834 E8.56883
G1 X90.469 Y93.179 E8.58704
G1 X89.622 Y92.332 E8.64147
G1 X89.426 Y92.684 E8.65980
G1 X90.293 Y93.552 E8.71558
G1 X90.140 Y93.946 E8.73485
G1 X89.234 Y93.040 E8.79315
G1 X89.084 Y93.439 E8.81251
G1 X89.987 Y94.341 E8.87056
G1 X89.674 Y94.576 E8.88837
G1 X90.625 Y95.528 E8.94958
G1 X90.008 Y95.459 E8.97781
G1 X88.785 Y94.236 E9.05648
G1 X88.592 Y94.591 E9.07486
G1 X89.392 Y95.391 E9.12627
G1 X88.842 Y95.389 E9.15125
G1 X88.104 Y94.651 E9.19872
G1 X87.617 Y94.712 E9.22108
G1 X88.352 Y95.447 E9.26838
G1 X87.862 Y95.505 E9.29084
G1 X87.129 Y94.772 E9.33798
G1 X86.690 Y94.881 E9.35856
G1 X87.373 Y95.565 E9.40252
G1 X86.987 Y95.727 E9.42156
G1 X86.266 Y95.006 E9.46793
G1 X85.846 Y95.134 E9.48792
G1 X86.601 Y95.889 E9.53649
G1 X86.215 Y96.051 E9.55554
G1 X85.481 Y95.317 E9.60270
G1 X85.117 Y95.501 E9.62126
G1 X85.844 Y96.228 E9.66801
G1 X85.549 Y96.481 E9.68569
G1 X84.768 Y95.700 E9.73595
G1 X84.459 Y95.939 E9.75372
G1 X85.254 Y96.735 E9.80488
G1 X84.959 Y96.988 E9.82256
G1 X84.150 Y96.178 E9.87462
G1 X83.870 Y96.447 E9.89225
G1 X84.669 Y97.245 E9.94358
G1 X84.455 Y97.579 E9.96163
G1 X83.610 Y96.735 E10.01596
G1 X83.355 Y97.028 E10.03363
G1 X84.240 Y97.914 E10.09059
G1 X84.026 Y98.248 E10.10864
G1 X83.132 Y97.354 E10.16615
G1 X82.931 Y97.700 E10.18439
G1 X83.812 Y98.582 E10.24109
G1 X83.674 Y98.991 E10.26076
G1 X82.730 Y98.047 E10.32148
G1 X82.567 Y98.433 E10.34051
G1 X83.542 Y99.407 E10.40322
G1 X83.410 Y99.824 E10.42307
G1 X82.419 Y98.833 E10.48681
G1 X82.271 Y99.233 E10.50621
G1 X83.278 Y100.240 E10.57097
G1 X83.230 Y100.740 E10.59384
G1 X82.170 Y99.681 E10.66198
G1 X82.078 Y100.137 E10.68314
G1 X83.184 Y101.243 E10.75428
G1 X83.139 Y101.746 E10.77724
G1 X81.990 Y100.596 E10.85118
G1 X81.958 Y101.112 E10.87471
G1 X83.115 Y102.270 E10.94915
G1 X83.169 Y102.871 E10.97662
G1 X81.926 Y101.629 E11.05655
G1 X81.926 Y102.177 E11.08147
G1 X83.222 Y103.473 E11.16486
G1 X83.290 Y104.089 E11.19303
G1 X81.986 Y102.785 E11.27692
G1 X82.045 Y103.393 E11.30471
G1 X83.546 Y104.893 E11.40120
G1 X83.839 Y105.735 F7800.000
G1 X82.105 Y104.001 E11.51272 F540.000
G1 X82.351 Y104.795 E11.55055
G1 X86.568 Y109.011 E11.82175
G1 X87.319 Y109.214 E11.85714
G1 X86.080 Y107.976 E11.93680
G1 X85.698 Y108.690 F7800.000
G1 X82.647 Y105.639 E12.13304 F540.000
G1 X83.691 Y107.231 F7800.000
G1 X84.046 Y107.586 E12.15584 F540.000
M106 S255
G92 E0
G1 Z0.600 F7800.000
G1 X88.300 Y94.182 F7800.000
