; generated by Slic3r 1.2.9 on 2016-03-11 at 01:29:21

; external perimeters extrusion width = 1.54mm
; perimeters extrusion width = 2.62mm
; infill extrusion width = 6.27mm
; solid infill extrusion width = 2.62mm
; top infill extrusion width = 2.62mm

M107
M104 S30 ; set temperature
G28 ; home all axes
G1 Z5 F5000 ; lift nozzle
M302
M92 E10000
M500
M501
G1 E100
M109 S30 ; wait for temperature to be reached
G21 ; set units to millimeters
G90 ; use absolute coordinates
M82 ; use absolute distances for extrusion
G92 E0
G1 Z0.300 F7800.000
G1 X83.552 Y97.850 F7800.000
G1 X84.018 Y97.048 E0.04197 F378.000
G1 X84.781 Y96.169 E0.09461
G1 X85.702 Y95.456 E0.14732
G1 X86.768 Y94.918 E0.20135
G1 X87.966 Y94.566 E0.25784
G1 X89.449 Y94.383 E0.32547
G1 X89.982 Y92.960 E0.39422
G1 X90.539 Y91.961 E0.44597
G1 X91.166 Y91.243 E0.48909
G1 X91.887 Y90.760 E0.52836
G1 X92.733 Y90.468 E0.56886
G1 X93.719 Y90.369 E0.61368
G1 X94.272 Y90.393 E0.63872
G1 X94.945 Y90.473 E0.66939 F378.000
G1 X95.418 Y90.567 E0.69124
G1 X95.418 Y91.566 E0.73643
G1 X94.848 Y91.490 E0.76246
G1 X94.389 Y91.470 E0.78324
G1 X93.653 Y91.541 E0.81669
G1 X92.993 Y91.762 E0.84820
G1 X92.421 Y92.132 E0.87903
G1 X91.935 Y92.661 E0.91153
G1 X91.510 Y93.383 E0.94944
G1 X91.099 Y94.442 E1.00085
G1 X93.109 Y94.939 E1.09456
G1 X94.564 Y95.730 E1.16951
G1 X95.747 Y96.886 E1.24434
G1 X96.622 Y98.354 E1.32164
G1 X97.149 Y100.076 E1.40317
G1 X97.326 Y102.063 E1.49340
G1 X97.228 Y103.562 E1.56140
G1 X96.934 Y104.919 E1.62420
G1 X96.445 Y106.130 E1.68333
G1 X95.775 Y107.179 E1.73963
G1 X94.934 Y108.044 E1.79423
G1 X93.918 Y108.730 E1.84971
G1 X92.745 Y109.229 E1.90736
G1 X91.433 Y109.530 E1.96827
G1 X89.984 Y109.630 E2.03402
G1 X87.820 Y109.406 E2.13245
G1 X86.016 Y108.738 E2.21949
G1 X84.557 Y107.631 E2.30236
G1 X83.481 Y106.131 E2.38593
G1 X82.831 Y104.276 E2.47483
G1 X82.613 Y102.055 E2.57583
G1 X82.702 Y100.611 E2.64130
G1 X82.968 Y99.290 E2.70229
G1 X83.436 Y98.050 E2.76226
G1 X84.929 Y98.659 F7800.000
G1 X85.767 Y97.350 E2.83259 F378.000
G1 X86.910 Y96.369 E2.90075
G1 X88.312 Y95.781 E2.96953
G1 X89.814 Y95.604 E3.03795
G1 X89.958 Y95.587 E3.04455 F378.000
G1 X91.642 Y95.774 E3.12122
G1 X93.058 Y96.343 E3.19027
G1 X94.193 Y97.295 E3.25730
G1 X95.015 Y98.588 E3.32662
G1 X95.503 Y100.178 E3.40188
G1 X95.664 Y102.059 E3.48733
G1 X95.501 Y103.869 E3.56953
G1 X95.009 Y105.414 E3.64291
G1 X94.181 Y106.688 E3.71166
G1 X93.047 Y107.636 E3.77857
G1 X91.642 Y108.203 E3.84712
G1 X89.981 Y108.390 E3.92273
G1 X88.308 Y108.206 E3.99889
G1 X86.895 Y107.647 E4.06767
G1 X85.754 Y106.711 E4.13445
G1 X84.922 Y105.443 E4.20305
G1 X84.428 Y103.890 E4.27679
G1 X84.265 Y102.059 E4.35999
G1 X84.430 Y100.230 E4.44307
G1 X84.859 Y98.879 E4.50723
G1 X83.487 Y102.058 F7800.000
G1 X83.440 Y102.063 F7800.000
G1 X83.626 Y104.047 F7800.000
G1 X83.664 Y104.044 F7800.000
G1 X84.480 Y104.893 F7800.000
G1 X82.980 Y103.393 E4.60373 F540.000
G1 X82.920 Y102.785 E4.63152
G1 X84.224 Y104.089 E4.71541
G1 X84.157 Y103.473 E4.74358
G1 X82.860 Y102.177 E4.82697
G1 X82.860 Y101.629 E4.85189
G1 X84.103 Y102.871 E4.93181
G1 X84.049 Y102.270 E4.95929
G1 X82.892 Y101.112 E5.03372
G1 X82.924 Y100.596 E5.05725
G1 X84.074 Y101.746 E5.13119
G1 X84.119 Y101.243 E5.15415
G1 X83.013 Y100.137 E5.22530
G1 X83.105 Y99.681 E5.24646
G1 X84.164 Y100.740 E5.31460
G1 X84.212 Y100.240 E5.33746
G1 X83.205 Y99.233 E5.40222
G1 X83.353 Y98.833 E5.42163
G1 X84.344 Y99.824 E5.48536
G1 X84.476 Y99.407 E5.50522
G1 X83.501 Y98.433 E5.56793
G1 X83.664 Y98.047 E5.58695
G1 X84.608 Y98.991 E5.64768
G1 X84.747 Y98.582 E5.66735
G1 X83.865 Y97.700 E5.72404
G1 X84.067 Y97.354 E5.74228
G1 X84.961 Y98.248 E5.79980
G1 X85.175 Y97.914 E5.81785
G1 X84.290 Y97.028 E5.87480
G1 X84.544 Y96.735 E5.89248
G1 X85.389 Y97.579 E5.94681
G1 X85.603 Y97.245 E5.96485
G1 X84.805 Y96.447 E6.01619
G1 X85.084 Y96.178 E6.03382
G1 X85.894 Y96.988 E6.08588
G1 X86.189 Y96.735 E6.10356
G1 X85.393 Y95.939 E6.15472
G1 X85.702 Y95.700 E6.17249
G1 X86.483 Y96.481 E6.22274
G1 X86.778 Y96.228 E6.24042
G1 X86.052 Y95.501 E6.28717
G1 X86.416 Y95.317 E6.30573
G1 X87.149 Y96.051 E6.35290
G1 X87.535 Y95.889 E6.37195
G1 X86.780 Y95.134 E6.42052
G1 X87.201 Y95.006 E6.44050
G1 X87.921 Y95.727 E6.48687
G1 X88.308 Y95.565 E6.50592
G1 X87.624 Y94.881 E6.54988
G1 X88.063 Y94.772 E6.57046
G1 X88.796 Y95.505 E6.61760
G1 X89.287 Y95.447 E6.64005
G1 X88.551 Y94.712 E6.68736
G1 X89.039 Y94.651 E6.70972
G1 X89.777 Y95.389 E6.75718
G1 X90.326 Y95.391 E6.78216
G1 X89.527 Y94.591 E6.83358
G1 X89.720 Y94.236 E6.85196
G1 X90.943 Y95.459 E6.93063
G1 X91.560 Y95.528 E6.95886
G1 X90.608 Y94.576 E7.02007
G1 X90.921 Y94.341 E7.03787
G1 X90.019 Y93.439 E7.09592
G1 X90.168 Y93.040 E7.11529
G1 X91.075 Y93.946 E7.17359
G1 X91.228 Y93.552 E7.19285
G1 X90.361 Y92.684 E7.24864
G1 X90.557 Y92.332 E7.26697
G1 X91.403 Y93.179 E7.32140
G1 X91.606 Y92.834 E7.33961
G1 X90.766 Y91.993 E7.39366
G1 X91.022 Y91.701 E7.41133
G1 X91.822 Y92.501 E7.46278
G1 X92.084 Y92.215 E7.48042
G1 X91.277 Y91.408 E7.53230
G1 X91.602 Y91.185 E7.55022
G1 X92.358 Y91.941 E7.59883
G1 X92.691 Y91.725 E7.61686
G1 X91.930 Y90.965 E7.66578
G1 X92.335 Y90.821 E7.68530
G1 X93.043 Y91.530 E7.73086
G1 X93.454 Y91.392 E7.75057
G1 X92.748 Y90.686 E7.79599
G1 X93.246 Y90.636 E7.81876
G1 X93.907 Y91.297 E7.86127
G1 X94.406 Y91.248 E7.88409
G1 X93.759 Y90.601 E7.92574
G1 X94.346 Y90.640 E7.95249
G1 X94.973 Y91.267 E7.99284
G1 X94.983 Y90.729 E8.01732
G1 X95.192 Y90.938 E8.03077
G92 E0
G1 X91.200 Y92.382 F7800.000
G1 X91.200 Y92.382 F7800.000
G1 X91.179 Y92.411 F7800.000
G1 X91.039 Y92.655 F7800.000
G1 X93.914 Y95.690 F7800.000
G1 X95.880 Y97.656 E0.12645 F540.000
G1 X94.711 Y97.583 F7800.000
G1 X96.743 Y99.614 E0.25713 F540.000
G1 X96.501 Y98.824 F7800.000
G1 X92.792 Y95.116 E0.49567 F540.000
G1 X92.064 Y94.936 E0.52978
G1 X93.276 Y96.147 E0.60770
G1 X92.359 Y95.779 F7800.000
G1 X91.336 Y94.756 E0.67352 F540.000
G1 X90.768 Y94.736 E0.69938
G1 X89.869 Y93.838 E0.75717
G92 E0
G1 X90.111 Y94.824 F7800.000
G1 X90.111 Y94.824 F7800.000
G1 X90.113 Y94.823 F7800.000
G1 X90.113 Y94.824 F7800.000
G1 X95.330 Y98.750 F7800.000
G1 X96.940 Y100.360 E0.10357 F540.000
G1 X96.994 Y100.962 E0.13105
G1 X95.573 Y99.541 E0.22247
G1 X95.744 Y100.260 E0.25611
G1 X97.047 Y101.564 E0.33995
G1 X97.099 Y102.163 E0.36731
G1 X95.795 Y100.860 E0.45113
G1 X95.847 Y101.459 E0.47850
G1 X97.065 Y102.677 E0.55685
G1 X97.031 Y103.192 E0.58030
G1 X95.885 Y102.046 E0.65401
G1 X95.840 Y102.549 E0.67698
G1 X96.984 Y103.693 E0.75059
G1 X96.886 Y104.143 E0.77155
G1 X95.795 Y103.052 E0.84178
G1 X95.749 Y103.555 E0.86474
G1 X96.789 Y104.594 E0.93159
G1 X96.673 Y105.026 E0.95195
G1 X95.668 Y104.021 E1.01660
G1 X95.535 Y104.437 E1.03645
G1 X96.516 Y105.417 E1.09949
G1 X96.358 Y105.808 E1.11865
G1 X95.403 Y104.853 E1.18009
G1 X95.271 Y105.268 E1.19993
G1 X96.182 Y106.180 E1.25857
G1 X95.968 Y106.514 E1.27662
G1 X95.094 Y105.640 E1.33286
G1 X94.878 Y105.972 E1.35089
G1 X95.755 Y106.849 E1.40726
G1 X95.517 Y107.160 E1.42505
G1 X94.662 Y106.305 E1.48005
G1 X94.446 Y106.637 E1.49807
G1 X95.243 Y107.434 E1.54933
G1 X94.969 Y107.708 E1.56696
G1 X94.192 Y106.930 E1.61699
G1 X93.893 Y107.180 E1.63468
G1 X94.689 Y107.975 E1.68586
G1 X94.361 Y108.196 E1.70381
G1 X93.594 Y107.429 E1.75315
G1 X93.296 Y107.679 E1.77085
G1 X94.034 Y108.417 E1.81836
G1 X93.682 Y108.613 E1.83670
G1 X92.958 Y107.889 E1.88326
G1 X92.567 Y108.047 E1.90242
G1 X93.297 Y108.777 E1.94936
G1 X92.913 Y108.940 E1.96837
G1 X92.177 Y108.204 E2.01570
G1 X91.786 Y108.362 E2.03485
G1 X92.495 Y109.071 E2.08046
G1 X92.049 Y109.173 E2.10127
G1 X91.333 Y108.457 E2.14736
G1 X90.840 Y108.512 E2.16991
G1 X91.604 Y109.276 E2.21901
G1 X91.111 Y109.331 E2.24156
G1 X90.348 Y108.568 E2.29065
G1 X89.844 Y108.612 E2.31366
G1 X90.598 Y109.367 E2.36219
G1 X90.086 Y109.402 E2.38556
G1 X89.228 Y108.544 E2.44075
G1 X88.612 Y108.476 E2.46894
G1 X89.477 Y109.341 E2.52459
G1 X88.865 Y109.278 E2.55256
G1 X87.922 Y108.335 E2.61323
G1 X87.015 Y107.976 F7800.000
G1 X88.253 Y109.214 E2.69289 F540.000
G1 X87.502 Y109.011 E2.72828
G1 X83.286 Y104.795 E2.99947
G1 X83.040 Y104.001 E3.03730
G1 X84.773 Y105.735 E3.14882
G1 X83.581 Y105.639 F7800.000
G1 X86.632 Y108.690 E3.34506 F540.000
G1 X84.980 Y107.586 F7800.000
G1 X84.626 Y107.231 E3.36787 F540.000
G92 E0
G1 X96.646 Y106.234 F7800.000
G1 X104.981 Y110.760 F7800.000
G1 X111.302 Y107.606 F7800.000
G1 X113.360 Y109.664 F7800.000
G1 X115.552 Y109.664 F7800.000
G1 X115.777 Y107.131 F7800.000
G1 X115.777 Y100.246 E0.31154 F378.000
G1 X115.646 Y98.885 E0.37340
G1 X115.243 Y97.735 E0.42856
G1 X114.565 Y96.816 E0.48024
G1 X113.644 Y96.154 E0.53158
G1 X112.517 Y95.760 E0.58559
G1 X111.193 Y95.631 E0.64578
G1 X109.908 Y95.756 E0.70418
G1 X108.825 Y96.138 E0.75613
G1 X107.954 Y96.781 E0.80515
G1 X107.322 Y97.673 E0.85457
G1 X106.949 Y98.787 E0.90777
G1 X106.827 Y100.106 E0.96768
G1 X106.827 Y109.439 E1.39001
G1 X105.206 Y109.439 E1.46336
G1 X105.206 Y99.950 E1.89271
G1 X105.290 Y98.834 E1.94338
G1 X105.537 Y97.840 E1.98973
G1 X105.947 Y96.957 E2.03377
G1 X106.504 Y96.195 E2.07650
G1 X107.195 Y95.564 E2.11885
G1 X108.023 Y95.062 E2.16266
G1 X108.975 Y94.696 E2.20880
G1 X110.035 Y94.475 E2.25780
G1 X111.205 Y94.401 E2.31083
G1 X112.328 Y94.473 E2.36177
G1 X113.519 Y94.708 E2.41670 F378.000
G1 X114.499 Y95.088 E2.46423
G1 X115.349 Y95.610 E2.50939
G1 X116.059 Y96.265 E2.55306
G1 X116.630 Y97.054 E2.59715
G1 X117.049 Y97.967 E2.64262
G1 X117.302 Y98.994 E2.69046
G1 X117.388 Y100.145 E2.74272
G1 X117.388 Y109.439 E3.16325
G1 X115.777 Y109.439 E3.23615
G1 X115.777 Y107.362 E3.33012
G1 X116.003 Y108.672 F7800.000
G1 X116.543 Y109.213 E3.36472 F540.000
G1 X117.089 Y109.213 E3.38940
G1 X116.003 Y108.127 E3.45890
G1 X116.003 Y107.582 E3.48358
G1 X117.162 Y108.741 E3.55776
G1 X117.162 Y108.195 E3.58244
G1 X116.003 Y107.036 E3.65662
G1 X116.003 Y106.491 E3.68130
G1 X117.162 Y107.650 E3.75548
G1 X117.162 Y107.105 E3.78016
G1 X116.003 Y105.945 E3.85434
G1 X116.003 Y105.400 E3.87902
G1 X117.162 Y106.559 E3.95320
G1 X117.162 Y106.014 E3.97789
G1 X116.003 Y104.855 E4.05207
G1 X116.003 Y104.309 E4.07675
G1 X117.162 Y105.468 E4.15093
G1 X117.162 Y104.923 E4.17561
G1 X116.003 Y103.764 E4.24979
G1 X116.003 Y103.218 E4.27447
G1 X117.162 Y104.378 E4.34865
G1 X117.162 Y103.832 E4.37333
G1 X116.003 Y102.673 E4.44751
G1 X116.003 Y102.128 E4.47219
G1 X117.162 Y103.287 E4.54637
G1 X117.162 Y102.741 E4.57105
G1 X116.003 Y101.582 E4.64523
G1 X116.003 Y101.037 E4.66991
G1 X117.162 Y102.196 E4.74409
G1 X117.162 Y101.651 E4.76877
G1 X116.003 Y100.492 E4.84295
G1 X115.981 Y99.924 E4.86864
G1 X117.162 Y101.105 E4.94420
G1 X117.162 Y100.560 E4.96888
G1 X115.923 Y99.321 E5.04818
G1 X115.857 Y98.710 E5.07600
G1 X117.144 Y99.996 E5.15835
G1 X117.100 Y99.407 E5.18509
G1 X115.564 Y97.871 E5.28342
G1 X115.983 Y96.654 F7800.000
G1 X115.378 Y96.049 E5.32214 F540.000
G1 X113.933 Y95.149 F7800.000
G1 X116.758 Y97.974 E5.50297 F540.000
G1 X116.987 Y98.748 E5.53947
G1 X113.115 Y94.876 E5.78725
G1 X112.435 Y94.742 E5.81862
G1 X113.536 Y95.843 E5.88912
G1 X112.699 Y95.551 F7800.000
G1 X111.820 Y94.672 E5.94537 F540.000
G1 X111.237 Y94.635 E5.97177
G1 X112.085 Y95.483 E6.02600
G1 X111.480 Y95.424 E6.05348
G1 X110.711 Y94.654 E6.10273
G1 X110.198 Y94.687 E6.12598
G1 X110.947 Y95.435 E6.17391
G1 X110.450 Y95.484 E6.19651
G1 X109.722 Y94.756 E6.24309
G1 X109.271 Y94.850 E6.26395
G1 X109.953 Y95.532 E6.30761
G1 X109.544 Y95.669 E6.32712
G1 X108.840 Y94.965 E6.37219
G1 X108.446 Y95.116 E6.39129
G1 X109.141 Y95.811 E6.43577
G1 X108.743 Y95.958 E6.45498
G1 X108.055 Y95.271 E6.49897
G1 X107.716 Y95.477 E6.51694
G1 X108.429 Y96.190 E6.56259
G1 X108.116 Y96.422 E6.58024
G1 X107.376 Y95.683 E6.62755
G1 X107.079 Y95.931 E6.64507
G1 X107.805 Y96.657 E6.69156
G1 X107.579 Y96.976 E6.70926
G1 X106.802 Y96.199 E6.75899
G1 X106.536 Y96.479 E6.77645
G1 X107.353 Y97.295 E6.82869
G1 X107.127 Y97.615 E6.84640
G1 X106.306 Y96.794 E6.89893
G1 X106.089 Y97.123 E6.91675
G1 X106.990 Y98.023 E6.97437
G1 X106.853 Y98.431 E6.99386
G1 X105.916 Y97.495 E7.05378
G1 X105.745 Y97.869 E7.07239
G1 X106.723 Y98.848 E7.13503
G1 X106.677 Y99.347 E7.15773
G1 X105.636 Y98.305 E7.22437
G1 X105.527 Y98.742 E7.24474
G1 X106.631 Y99.846 E7.31539
G1 X106.601 Y100.361 E7.33874
G1 X105.480 Y99.240 E7.41050
G1 X105.442 Y99.748 E7.43352
G1 X106.601 Y100.907 E7.50771
G1 X106.601 Y101.452 E7.53239
G1 X105.432 Y100.283 E7.60721
G1 X105.432 Y100.828 E7.63189
G1 X106.601 Y101.998 E7.70671
G1 X106.601 Y102.543 E7.73139
G1 X105.432 Y101.374 E7.80621
G1 X105.432 Y101.919 E7.83089
G1 X106.601 Y103.088 E7.90571
G1 X106.601 Y103.634 E7.93039
G1 X105.432 Y102.465 E8.00521
G1 X105.432 Y103.010 E8.02989
G1 X106.601 Y104.179 E8.10471
G1 X106.601 Y104.725 E8.12940
G1 X105.432 Y103.555 E8.20422
G1 X105.432 Y104.101 E8.22890
G1 X106.601 Y105.270 E8.30372
G1 X106.601 Y105.815 E8.32840
G1 X105.432 Y104.646 E8.40322
G1 X105.432 Y105.192 E8.42790
G1 X106.601 Y106.361 E8.50272
G1 X106.601 Y106.906 E8.52740
G1 X105.432 Y105.737 E8.60222
G1 X105.432 Y106.282 E8.62690
G1 X106.601 Y107.452 E8.70172
G1 X106.601 Y107.997 E8.72640
G1 X105.432 Y106.828 E8.80122
G1 X105.432 Y107.373 E8.82590
G1 X106.601 Y108.542 E8.90072
G1 X106.601 Y109.088 E8.92540
G1 X105.432 Y107.919 E9.00022
G1 X105.432 Y108.464 E9.02490
G1 X106.181 Y109.213 E9.07284
G1 X105.635 Y109.213 E9.09752
G1 X105.432 Y109.009 E9.11055
M106 S255
G92 E0
G1 Z0.600 F7800.000
G1 X89.235 Y94.182 F7800.000
G1 X91.199 Y95.103 E0.65005 F600.000
G1 X91.889 Y95.241 E0.86105
G1 X92.869 Y95.558 E1.16951
G1 X93.261 Y95.742 E1.29935
G1 X93.496 Y95.877 E1.38056
G1 X94.135 Y96.312 E1.61211
G1 X94.611 Y96.743 E1.80458
G1 X94.805 Y96.948 E1.88903
G1 X95.142 Y97.363 E2.04931
G1 X95.632 Y98.160 E2.32964
G1 X95.883 Y98.681 E2.50305
G1 X96.263 Y99.920 E2.89118
G1 X96.335 Y100.236 E2.98831
G1 X96.493 Y102.072 E3.54074
G1 X96.388 Y103.444 E3.95300
G1 X96.270 Y104.140 E4.16439
G1 X96.128 Y104.671 E4.32911
G1 X95.729 Y105.761 E4.67708
G1 X95.143 Y106.678 E5.00312
G1 X94.831 Y107.070 E5.15319
G1 X94.444 Y107.459 E5.31763
G1 X93.580 Y108.109 E5.64161
G1 X93.266 Y108.275 E5.74798
G1 X92.534 Y108.578 E5.98536
G1 X91.906 Y108.776 E6.18269
G1 X91.338 Y108.888 E6.35615
G1 X89.995 Y109.008 E6.76037
G1 X88.270 Y108.827 E7.27989
G1 X87.968 Y108.769 E7.37201
G1 X86.683 Y108.277 E7.78429
G1 X86.358 Y108.115 E7.89325
G1 X85.319 Y107.296 E8.28979
G1 X85.104 Y107.098 E8.37709
G1 X84.194 Y105.760 E8.86224
G1 X83.637 Y104.098 E9.38731
G1 X83.441 Y102.040 E10.00691
G1 X83.539 Y100.721 E10.40331
G1 X83.662 Y99.961 E10.63392
G1 X83.777 Y99.519 E10.77063
G1 X84.147 Y98.441 E11.11219
G1 X84.272 Y98.202 E11.19290
G1 X84.685 Y97.525 E11.43078
G1 X85.105 Y96.965 E11.64045
G1 X85.293 Y96.747 E11.72671
G1 X86.100 Y96.086 E12.03909
G1 X86.431 Y95.865 E12.15847
G1 X86.679 Y95.726 E12.24365
G1 X87.024 Y95.567 E12.35762
G1 X88.095 Y95.188 E12.69779
G1 X89.501 Y95.005 E13.12286
G1 X89.851 Y94.900 E13.23237
G1 X90.320 Y94.691 E13.38608
G1 X90.326 Y94.566 E13.42366
G1 X90.462 Y93.914 E13.62304
G1 X90.701 Y93.293 E13.82264
G1 X90.870 Y92.950 E13.93707
G1 X91.179 Y92.411 E14.12318
G1 X91.394 Y92.132 E14.22870
G1 X91.673 Y91.820 E14.35432
G1 X92.055 Y91.513 E14.50104
G1 X92.210 Y91.410 E14.55679
G1 X92.813 Y91.132 E14.75570
G1 X93.622 Y90.962 E15.00355
G1 X94.435 Y90.946 E15.24702
G1 X95.643 Y91.078 E15.61131
G92 E0
G1 X101.173 Y99.694 F7800.000
G1 X100.709 Y107.584 F7800.000
G1 X104.981 Y110.760 F7800.000
G1 X111.302 Y107.606 F7800.000
G1 X111.302 Y100.461 F7800.000
G1 X115.552 Y100.257 F7800.000
G1 X116.582 Y109.664 F7800.000
G1 X116.581 Y100.175 E2.84325 F600.000
G1 X116.491 Y99.123 E3.15975
G1 X116.387 Y98.597 E3.32028
G1 X116.279 Y98.236 E3.43319
G1 X115.959 Y97.446 E3.68879
G1 X115.484 Y96.774 E3.93514
G1 X115.164 Y96.417 E4.07880
G1 X114.953 Y96.216 E4.16631
G1 X114.193 Y95.705 E4.44066
G1 X113.828 Y95.527 E4.56242
G1 X113.330 Y95.344 E4.72147
G1 X112.747 Y95.182 E4.90264
G1 X112.335 Y95.107 E5.02801
G1 X111.205 Y95.017 E5.36783
G1 X110.120 Y95.102 E5.69391
G1 X109.677 Y95.182 E5.82881
G1 X109.160 Y95.326 E5.98949
