; generated by Slic3r 1.2.9 on 2016-03-11 at 01:29:22

; external perimeters extrusion width = 1.54mm
; perimeters extrusion width = 2.62mm
; infill extrusion width = 6.27mm
; solid infill extrusion width = 2.62mm
; top infill extrusion width = 2.62mm

M107
M104 S30 ; set temperature
G28 ; home all axes
G1 Z5 F5000 ; lift nozzle
M302
M92 E10000
M500
M501
G1 E100
M109 S30 ; wait for temperature to be reached
G21 ; set units to millimeters
G90 ; use absolute coordinates
M82 ; use absolute distances for extrusion
G92 E0
G1 Z0.300 F7800.000
G1 X91.103 Y109.541 F7800.000
G1 X89.814 Y109.630 E0.05843 F378.000
G1 X87.651 Y109.406 E0.15687
G1 X85.847 Y108.738 E0.24390
G1 X84.388 Y107.631 E0.32678
G1 X83.311 Y106.131 E0.41035
G1 X82.662 Y104.276 E0.49925
G1 X82.443 Y102.055 E0.60025
G1 X82.532 Y100.611 E0.66572
G1 X82.799 Y99.290 E0.72671
G1 X83.241 Y98.094 E0.78438
G1 X83.848 Y97.048 E0.83914
G1 X84.611 Y96.169 E0.89178
G1 X85.532 Y95.456 E0.94448
G1 X86.598 Y94.918 E0.99852
G1 X87.796 Y94.566 E1.05501
G1 X89.279 Y94.383 E1.12264
G1 X89.813 Y92.960 E1.19139
G1 X90.370 Y91.961 E1.24314
G1 X90.996 Y91.243 E1.28626
G1 X91.717 Y90.760 E1.32553
G1 X92.564 Y90.468 E1.36603
G1 X93.549 Y90.369 E1.41085
G1 X94.102 Y90.393 E1.43589
G1 X94.775 Y90.473 E1.46656 F378.000
G1 X95.249 Y90.567 E1.48841
G1 X95.249 Y91.566 E1.53360
G1 X94.678 Y91.490 E1.55963
G1 X94.220 Y91.470 E1.58041
G1 X93.484 Y91.541 E1.61386
G1 X92.823 Y91.762 E1.64537
G1 X92.251 Y92.132 E1.67620
G1 X91.766 Y92.661 E1.70870
G1 X91.341 Y93.383 E1.74660
G1 X90.929 Y94.442 E1.79802
G1 X92.940 Y94.939 E1.89173
G1 X94.395 Y95.730 E1.96668
G1 X95.577 Y96.886 E2.04151
G1 X96.452 Y98.354 E2.11881
G1 X96.980 Y100.076 E2.20034
G1 X97.157 Y102.063 E2.29057
G1 X97.058 Y103.562 E2.35857
G1 X96.764 Y104.919 E2.42137
G1 X96.276 Y106.130 E2.48049
G1 X95.605 Y107.179 E2.53679
G1 X94.764 Y108.044 E2.59140
G1 X93.749 Y108.730 E2.64687
G1 X92.576 Y109.229 E2.70453
G1 X91.332 Y109.514 E2.76230
G1 X91.188 Y108.235 F7800.000
G1 X89.812 Y108.390 E2.82494 F378.000
G1 X88.139 Y108.206 E2.90110
G1 X86.725 Y107.647 E2.96988
G1 X85.584 Y106.711 E3.03666
G1 X84.753 Y105.443 E3.10526
G1 X84.259 Y103.890 E3.17900
G1 X84.096 Y102.059 E3.26220
G1 X84.261 Y100.230 E3.34528
G1 X84.760 Y98.659 E3.41990
G1 X85.598 Y97.350 E3.49023
G1 X86.741 Y96.369 E3.55838
G1 X88.142 Y95.781 E3.62717
G1 X89.644 Y95.604 E3.69558
G1 X89.789 Y95.587 E3.70218 F378.000
G1 X91.473 Y95.774 E3.77885
G1 X92.889 Y96.343 E3.84790
G1 X94.024 Y97.295 E3.91493
G1 X94.845 Y98.588 E3.98425
G1 X95.333 Y100.178 E4.05951
G1 X95.494 Y102.059 E4.14496
G1 X95.332 Y103.869 E4.22716
G1 X94.840 Y105.414 E4.30054
G1 X94.012 Y106.688 E4.36929
G1 X92.877 Y107.636 E4.43620
G1 X91.472 Y108.203 E4.50475
G1 X91.417 Y108.210 E4.50727
G1 X87.752 Y108.335 F7800.000
G1 X88.696 Y109.278 E4.56794 F540.000
G1 X89.307 Y109.341 E4.59591
G1 X88.442 Y108.476 E4.65156
G1 X89.058 Y108.544 E4.67975
G1 X89.916 Y109.402 E4.73493
G1 X90.429 Y109.367 E4.75830
G1 X89.674 Y108.612 E4.80684
G1 X90.178 Y108.568 E4.82985
G1 X90.941 Y109.331 E4.87894
G1 X91.434 Y109.276 E4.90149
G1 X90.671 Y108.512 E4.95058
G1 X91.163 Y108.457 E4.97313
G1 X91.880 Y109.173 E5.01922
G1 X92.326 Y109.071 E5.04003
G1 X91.617 Y108.362 E5.08565
G1 X92.007 Y108.204 E5.10480
G1 X92.743 Y108.940 E5.15213
G1 X93.128 Y108.777 E5.17113
G1 X92.398 Y108.047 E5.21808
G1 X92.788 Y107.889 E5.23723
G1 X93.512 Y108.613 E5.28380
G1 X93.865 Y108.417 E5.30213
G1 X93.126 Y107.679 E5.34964
G1 X93.425 Y107.429 E5.36734
G1 X94.192 Y108.196 E5.41668
G1 X94.519 Y107.975 E5.43464
G1 X93.723 Y107.180 E5.48581
G1 X94.022 Y106.930 E5.50351
G1 X94.800 Y107.708 E5.55353
G1 X95.074 Y107.434 E5.57116
G1 X94.277 Y106.637 E5.62242
G1 X94.493 Y106.305 E5.64045
G1 X95.348 Y107.160 E5.69545
G1 X95.585 Y106.849 E5.71324
G1 X94.709 Y105.972 E5.76961
G1 X94.925 Y105.640 E5.78763
G1 X95.799 Y106.514 E5.84387
G1 X96.013 Y106.180 E5.86192
G1 X95.101 Y105.268 E5.92057
G1 X95.234 Y104.853 E5.94041
G1 X96.189 Y105.808 E6.00185
G1 X96.346 Y105.417 E6.02101
G1 X95.366 Y104.437 E6.08405
G1 X95.498 Y104.021 E6.10389
G1 X96.504 Y105.026 E6.16854
G1 X96.619 Y104.594 E6.18891
G1 X95.580 Y103.555 E6.25575
G1 X95.625 Y103.052 E6.27872
G1 X96.717 Y104.143 E6.34895
G1 X96.815 Y103.693 E6.36991
G1 X95.670 Y102.549 E6.44352
G1 X95.715 Y102.046 E6.46648
G1 X96.862 Y103.192 E6.54020
G1 X96.895 Y102.677 E6.56364
G1 X95.677 Y101.459 E6.64200
G1 X95.626 Y100.860 E6.66936
G1 X96.929 Y102.163 E6.75319
G1 X96.878 Y101.564 E6.78055
G1 X95.575 Y100.260 E6.86438
G1 X95.403 Y99.541 E6.89803
G1 X96.824 Y100.962 E6.98944
G1 X96.771 Y100.360 E7.01692
G1 X95.160 Y98.750 E7.12050
G1 X96.331 Y98.824 F7800.000
G1 X92.623 Y95.116 E7.35903 F540.000
G1 X91.895 Y94.936 E7.39314
G1 X93.106 Y96.147 E7.47106
G1 X93.745 Y95.690 F7800.000
G1 X95.711 Y97.656 E7.59751 F540.000
G1 X94.542 Y97.583 F7800.000
G1 X96.573 Y99.614 E7.72819 F540.000
G1 X92.190 Y95.779 F7800.000
G1 X91.167 Y94.756 E7.79401 F540.000
G1 X90.598 Y94.736 E7.81988
G1 X89.700 Y93.838 E7.87767
G1 X91.030 Y92.382 F7800.000
G1 X91.030 Y92.382 F7800.000
G1 X95.023 Y90.938 F7800.000
G1 X94.813 Y90.729 E7.89112 F540.000
G1 X94.803 Y91.267 E7.91560
G1 X94.176 Y90.640 E7.95595
G1 X93.589 Y90.601 E7.98270
G1 X94.237 Y91.248 E8.02434
G1 X93.737 Y91.297 E8.04717
G1 X93.077 Y90.636 E8.08968
G1 X92.578 Y90.686 E8.11245
G1 X93.285 Y91.392 E8.15787
G1 X92.874 Y91.530 E8.17758
G1 X92.165 Y90.821 E8.22314
G1 X91.761 Y90.965 E8.24266
G1 X92.521 Y91.725 E8.29157
G1 X92.188 Y91.941 E8.30960
G1 X91.433 Y91.185 E8.35821
G1 X91.108 Y91.408 E8.37614
G1 X91.914 Y92.215 E8.42801
G1 X91.652 Y92.501 E8.44566
G1 X90.852 Y91.701 E8.49711
G1 X90.597 Y91.993 E8.51478
G1 X91.437 Y92.834 E8.56883
G1 X91.234 Y93.179 E8.58704
G1 X90.387 Y92.332 E8.64147
G1 X90.191 Y92.684 E8.65980
G1 X91.058 Y93.552 E8.71558
G1 X90.905 Y93.946 E8.73485
G1 X89.999 Y93.040 E8.79315
G1 X89.849 Y93.439 E8.81251
G1 X90.752 Y94.341 E8.87056
G1 X90.439 Y94.576 E8.88837
G1 X91.390 Y95.528 E8.94958
G1 X90.773 Y95.459 E8.97781
G1 X89.550 Y94.236 E9.05648
G1 X89.357 Y94.591 E9.07486
G1 X90.157 Y95.391 E9.12627
G1 X89.607 Y95.389 E9.15125
G1 X88.869 Y94.651 E9.19872
G1 X88.382 Y94.712 E9.22108
G1 X89.117 Y95.447 E9.26838
G1 X88.627 Y95.505 E9.29084
G1 X87.894 Y94.772 E9.33798
G1 X87.455 Y94.881 E9.35856
G1 X88.138 Y95.565 E9.40251
G1 X87.752 Y95.727 E9.42156
G1 X87.031 Y95.006 E9.46793
G1 X86.611 Y95.134 E9.48792
G1 X87.366 Y95.889 E9.53649
G1 X86.980 Y96.051 E9.55554
G1 X86.246 Y95.317 E9.60270
G1 X85.882 Y95.501 E9.62126
G1 X86.609 Y96.228 E9.66801
G1 X86.314 Y96.481 E9.68569
G1 X85.533 Y95.700 E9.73595
G1 X85.224 Y95.939 E9.75372
G1 X86.019 Y96.735 E9.80488
G1 X85.724 Y96.988 E9.82256
G1 X84.915 Y96.178 E9.87461
G1 X84.635 Y96.447 E9.89225
G1 X85.434 Y97.245 E9.94358
G1 X85.220 Y97.579 E9.96163
G1 X84.375 Y96.735 E10.01596
G1 X84.120 Y97.028 E10.03363
G1 X85.005 Y97.914 E10.09059
G1 X84.791 Y98.248 E10.10863
G1 X83.897 Y97.354 E10.16615
G1 X83.696 Y97.700 E10.18439
G1 X84.577 Y98.582 E10.24109
G1 X84.439 Y98.991 E10.26075
G1 X83.495 Y98.047 E10.32148
G1 X83.332 Y98.433 E10.34051
G1 X84.307 Y99.407 E10.40322
G1 X84.175 Y99.824 E10.42307
G1 X83.184 Y98.833 E10.48681
G1 X83.036 Y99.233 E10.50621
G1 X84.043 Y100.240 E10.57097
G1 X83.995 Y100.740 E10.59383
G1 X82.935 Y99.681 E10.66197
G1 X82.843 Y100.137 E10.68314
G1 X83.949 Y101.243 E10.75428
G1 X83.904 Y101.746 E10.77724
G1 X82.755 Y100.596 E10.85118
G1 X82.723 Y101.112 E10.87471
G1 X83.880 Y102.270 E10.94914
G1 X83.934 Y102.871 E10.97662
G1 X82.691 Y101.629 E11.05655
G1 X82.691 Y102.177 E11.08147
G1 X83.987 Y103.473 E11.16485
G1 X84.055 Y104.089 E11.19303
G1 X82.751 Y102.785 E11.27692
G1 X82.810 Y103.393 E11.30471
G1 X84.311 Y104.893 E11.40120
G1 X84.604 Y105.735 F7800.000
G1 X82.870 Y104.001 E11.51272 F540.000
G1 X83.116 Y104.795 E11.55055
G1 X87.333 Y109.011 E11.82174
G1 X88.084 Y109.214 E11.85714
G1 X86.845 Y107.976 E11.93680
G1 X86.463 Y108.690 F7800.000
G1 X83.412 Y105.639 E12.13304 F540.000
G1 X84.456 Y107.231 F7800.000
G1 X84.811 Y107.586 E12.15584 F540.000
G92 E0
G1 X95.783 Y107.319 F7800.000
G1 X99.555 Y108.202 F7800.000
G1 X99.934 Y108.339 F7800.000
G1 X103.192 Y109.664 F7800.000
G1 X104.726 Y106.492 F7800.000
G1 X109.566 Y94.593 E0.58125 F378.000
G1 X111.410 Y94.593 E0.66470
G1 X117.107 Y108.602 E1.34900
G1 X117.448 Y109.439 E1.38990 F378.000
G1 X115.756 Y109.439 E1.46646
G1 X111.618 Y98.816 E1.98231
G1 X110.696 Y96.072 E2.11332
G1 X110.301 Y96.072 E2.13120
G1 X109.378 Y98.816 E2.26222
G1 X105.218 Y109.439 E2.77844
G1 X103.527 Y109.439 E2.85496
G1 X104.639 Y106.706 E2.98848
G1 X104.116 Y109.213 F7800.000
G1 X103.917 Y109.014 E3.00127 F540.000
G1 X104.075 Y108.625 E3.02038
G1 X104.664 Y109.213 E3.05820
G1 X105.124 Y109.126 E3.07950
G1 X104.234 Y108.235 E3.13674
G1 X104.392 Y107.846 E3.15585
G1 X105.278 Y108.732 E3.21281
G1 X105.432 Y108.338 E3.23203
G1 X104.551 Y107.456 E3.28871
G1 X104.709 Y107.067 E3.30782
G1 X105.587 Y107.944 E3.36424
G1 X105.741 Y107.551 E3.38346
G1 X104.867 Y106.677 E3.43960
G1 X105.026 Y106.288 E3.45871
G1 X105.895 Y107.157 E3.51458
G1 X106.049 Y106.763 E3.53380
G1 X105.184 Y105.899 E3.58939
G1 X105.343 Y105.509 E3.60850
G1 X106.203 Y106.370 E3.66383
G1 X106.357 Y105.976 E3.68305
G1 X105.501 Y105.120 E3.73810
G1 X105.659 Y104.730 E3.75721
G1 X106.512 Y105.582 E3.81198
G1 X106.666 Y105.189 E3.83120
G1 X105.818 Y104.341 E3.88571
G1 X105.976 Y103.951 E3.90482
G1 X106.820 Y104.795 E3.95905
G1 X106.974 Y104.401 E3.97827
G1 X106.135 Y103.562 E4.03223
G1 X106.293 Y103.173 E4.05134
G1 X107.128 Y104.008 E4.10502
G1 X107.282 Y103.614 E4.12424
G1 X106.451 Y102.783 E4.17766
G1 X106.610 Y102.394 E4.19677
G1 X107.437 Y103.220 E4.24991
G1 X107.591 Y102.827 E4.26913
G1 X106.768 Y102.004 E4.32199
G1 X106.927 Y101.615 E4.34110
G1 X107.745 Y102.433 E4.39370
G1 X107.899 Y102.039 E4.41292
G1 X107.085 Y101.225 E4.46524
G1 X107.244 Y100.836 E4.48435
G1 X108.053 Y101.646 E4.53640
G1 X108.207 Y101.252 E4.55562
G1 X107.402 Y100.447 E4.60739
G1 X107.560 Y100.057 E4.62651
G1 X108.362 Y100.858 E4.67801
G1 X108.516 Y100.465 E4.69723
G1 X107.719 Y99.668 E4.74846
G1 X107.877 Y99.278 E4.76757
G1 X108.670 Y100.071 E4.81853
G1 X108.824 Y99.677 E4.83775
G1 X108.036 Y98.889 E4.88843
G1 X108.194 Y98.499 E4.90754
G1 X108.978 Y99.284 E4.95795
G1 X109.132 Y98.890 E4.97717
G1 X108.352 Y98.110 E5.02731
G1 X108.511 Y97.720 E5.04642
G1 X109.274 Y98.484 E5.09550
G1 X109.412 Y98.074 E5.11516
G1 X108.669 Y97.331 E5.16292
G1 X108.828 Y96.942 E5.18203
G1 X109.550 Y97.664 E5.22847
G1 X109.688 Y97.254 E5.24813
G1 X108.986 Y96.552 E5.29324
G1 X109.144 Y96.163 E5.31235
G1 X109.826 Y96.844 E5.35615
G1 X109.964 Y96.434 E5.37581
G1 X109.303 Y95.773 E5.41829
G1 X109.461 Y95.384 E5.43740
G1 X110.101 Y96.024 E5.47855
G1 X110.471 Y95.846 F7800.000
G1 X109.620 Y94.994 E5.53328 F540.000
G1 X109.992 Y94.819 E5.55199
G1 X112.059 Y96.886 E5.68485
G1 X111.380 Y97.302 F7800.000
G1 X112.810 Y98.733 E5.77679 F540.000
G1 X111.962 Y98.981 F7800.000
G1 X113.561 Y100.579 E5.87956 F540.000
G1 X112.662 Y100.776 F7800.000
G1 X114.312 Y102.426 E5.98566 F540.000
G1 X113.361 Y102.571 F7800.000
G1 X115.063 Y104.273 E6.09509 F540.000
G1 X114.688 Y103.350 F7800.000
G1 X113.011 Y101.673 E6.20286 F540.000
G1 X113.937 Y101.503 F7800.000
G1 X112.312 Y99.878 E6.30729 F540.000
G1 X113.186 Y99.656 F7800.000
G1 X111.657 Y98.127 E6.40555 F540.000
G1 X112.434 Y97.809 F7800.000
G1 X111.103 Y96.477 E6.49116 F540.000
G1 X111.683 Y95.962 F7800.000
G1 X110.540 Y94.819 E6.56466 F540.000
G1 X111.088 Y94.819 E6.58957
G1 X111.308 Y95.039 E6.60371
G1 X113.711 Y103.468 F7800.000
G1 X115.439 Y105.196 E6.71481 F540.000
G1 X115.814 Y106.120 F7800.000
G1 X114.060 Y104.366 E6.82758 F540.000
G1 X114.410 Y105.263 F7800.000
G1 X116.190 Y107.043 E6.94202 F540.000
G1 X116.565 Y107.967 F7800.000
G1 X114.759 Y106.161 E7.05812 F540.000
G1 X115.109 Y107.058 F7800.000
G1 X116.941 Y108.890 E7.17589 F540.000
G1 X116.716 Y109.213 E7.19378
G1 X115.459 Y107.955 E7.27462
G1 X115.808 Y108.853 F7800.000
G1 X116.168 Y109.213 E7.29778 F540.000
M106 S255
G92 E0
G1 Z0.600 F7800.000
G1 X89.065 Y94.182 F7800.000
G1 X91.029 Y95.103 E0.65005 F600.000
G1 X91.720 Y95.241 E0.86105
G1 X92.700 Y95.558 E1.16951
G1 X93.092 Y95.742 E1.29935
G1 X93.327 Y95.877 E1.38056
G1 X93.965 Y96.312 E1.61211
G1 X94.442 Y96.743 E1.80458
G1 X94.635 Y96.948 E1.88903
G1 X94.972 Y97.363 E2.04931
G1 X95.463 Y98.160 E2.32964
G1 X95.713 Y98.681 E2.50305
G1 X96.093 Y99.920 E2.89118
G1 X96.166 Y100.236 E2.98831
G1 X96.324 Y102.072 E3.54074
G1 X96.219 Y103.444 E3.95300
G1 X96.100 Y104.140 E4.16439
G1 X95.958 Y104.671 E4.32911
G1 X95.560 Y105.761 E4.67708
G1 X94.974 Y106.678 E5.00312
G1 X94.662 Y107.070 E5.15319
G1 X94.274 Y107.459 E5.31763
G1 X93.410 Y108.109 E5.64161
G1 X93.097 Y108.275 E5.74798
G1 X92.365 Y108.578 E5.98536
G1 X91.737 Y108.776 E6.18269
G1 X91.169 Y108.888 E6.35615
G1 X89.825 Y109.008 E6.76037
G1 X88.101 Y108.827 E7.27989
G1 X87.799 Y108.769 E7.37201
G1 X86.514 Y108.277 E7.78429
G1 X86.188 Y108.115 E7.89325
G1 X85.149 Y107.296 E8.28979
G1 X84.935 Y107.098 E8.37709
G1 X84.025 Y105.760 E8.86224
G1 X83.467 Y104.098 E9.38731
G1 X83.271 Y102.040 E10.00691
G1 X83.370 Y100.721 E10.40331
G1 X83.493 Y99.961 E10.63392
G1 X83.607 Y99.519 E10.77063
G1 X83.977 Y98.441 E11.11219
G1 X84.102 Y98.202 E11.19290
G1 X84.516 Y97.525 E11.43078
G1 X84.935 Y96.965 E11.64045
G1 X85.124 Y96.747 E11.72671
G1 X85.930 Y96.086 E12.03909
G1 X86.262 Y95.865 E12.15847
G1 X86.510 Y95.726 E12.24365
G1 X86.855 Y95.567 E12.35762
G1 X87.925 Y95.188 E12.69779
G1 X89.332 Y95.005 E13.12286
G1 X89.682 Y94.900 E13.23237
G1 X90.150 Y94.691 E13.38608
G1 X90.157 Y94.566 E13.42366
G1 X90.293 Y93.914 E13.62304
G1 X90.532 Y93.293 E13.82264
G1 X90.701 Y92.950 E13.93707
G1 X91.009 Y92.411 E14.12318
G1 X91.224 Y92.132 E14.22870
G1 X91.504 Y91.820 E14.35432
G1 X91.885 Y91.513 E14.50104
G1 X92.041 Y91.410 E14.55679
G1 X92.643 Y91.132 E14.75570
G1 X93.453 Y90.962 E15.00355
G1 X94.265 Y90.946 E15.24702
G1 X95.474 Y91.078 E15.61131
G92 E0
G1 X101.103 Y104.423 F7800.000
G1 X103.192 Y110.760 F7800.000
G1 X110.490 Y107.777 F7800.000
G1 X110.498 Y99.247 F7800.000
G1 X111.406 Y98.893 F7800.000
G1 X116.689 Y109.664 F7800.000
G1 X112.276 Y98.578 E3.57549 F600.000
G1 X111.330 Y96.029 E4.39000
G1 X110.890 Y95.365 E4.62869
G1 X110.463 Y95.332 E4.75724
G1 X110.088 Y95.369 E4.87012
G1 X109.657 Y96.026 E5.10552
G1 X108.712 Y98.574 E5.91986
G1 X104.285 Y109.664 E9.49798
G92 E0
G1 Z0.900 F7800.000
G1 X89.065 Y94.182 F7800.000
G1 X91.029 Y95.103 E0.65005 F600.000
G1 X91.720 Y95.241 E0.86105
G1 X92.700 Y95.558 E1.16951
G1 X93.092 Y95.742 E1.29935
G1 X93.327 Y95.877 E1.38056
G1 X93.965 Y96.312 E1.61211
G1 X94.442 Y96.743 E1.80458
G1 X94.635 Y96.948 E1.88903
G1 X94.972 Y97.363 E2.04931
G1 X95.463 Y98.160 E2.32964
G1 X95.713 Y98.681 E2.50305
G1 X96.093 Y99.920 E2.89118
G1 X96.166 Y100.236 E2.98831
G1 X96.324 Y102.072 E3.54074
G1 X96.219 Y103.444 E3.95300
G1 X96.100 Y104.140 E4.16439
G1 X95.958 Y104.671 E4.32911
G1 X95.560 Y105.761 E4.67708
G1 X94.974 Y106.678 E5.00312
G1 X94.662 Y107.070 E5.15319
G1 X94.274 Y107.459 E5.31763
G1 X93.410 Y108.109 E5.64161
G1 X93.097 Y108.275 E5.74798
G1 X92.365 Y108.578 E5.98536
G1 X91.737 Y108.776 E6.18269
G1 X91.169 Y108.888 E6.35615
G1 X89.825 Y109.008 E6.76037
G1 X88.101 Y108.827 E7.27989
G1 X87.799 Y108.769 E7.37201
G1 X86.514 Y108.277 E7.78429
G1 X86.188 Y108.115 E7.89325
G1 X85.149 Y107.296 E8.28979
G1 X84.935 Y107.098 E8.37710
G1 X84.025 Y105.760 E8.86224
G1 X83.467 Y104.098 E9.38731
G1 X83.271 Y102.040 E10.00692
G1 X83.370 Y100.721 E10.40331
G1 X83.493 Y99.961 E10.63392
G1 X83.607 Y99.519 E10.77063
G1 X83.977 Y98.441 E11.11219
G1 X84.102 Y98.202 E11.19290
G1 X84.516 Y97.525 E11.43078
G1 X84.935 Y96.965 E11.64045
G1 X85.124 Y96.747 E11.72671
G1 X85.930 Y96.086 E12.03908
G1 X86.262 Y95.865 E12.15847
G1 X86.510 Y95.726 E12.24365
G1 X86.855 Y95.567 E12.35762
G1 X87.925 Y95.188 E12.69779
G1 X89.221 Y95.022 E13.08935
G1 X89.682 Y94.900 E13.23214
G1 X90.150 Y94.691 E13.38585
G1 X90.157 Y94.566 E13.42343
G1 X90.293 Y93.914 E13.62281
G1 X90.532 Y93.293 E13.82241
