; generated by Slic3r 1.2.9 on 2016-03-11 at 01:29:23

; external perimeters extrusion width = 1.54mm
; perimeters extrusion width = 2.62mm
; infill extrusion width = 6.27mm
; solid infill extrusion width = 2.62mm
; top infill extrusion width = 2.62mm

M107
M104 S30 ; set temperature
G28 ; home all axes
G1 Z5 F5000 ; lift nozzle
M302
M92 E10000
M500
M501
G1 E100
M109 S30 ; wait for temperature to be reached
G21 ; set units to millimeters
G90 ; use absolute coordinates
M82 ; use absolute distances for extrusion
G92 E0
G1 Z0.300 F7800.000
G1 X86.289 Y109.587 F7800.000
G1 X84.536 Y109.406 E0.07972 F378.000
G1 X82.732 Y108.738 E0.16676
G1 X81.273 Y107.631 E0.24963
G1 X80.197 Y106.131 E0.33320
G1 X79.547 Y104.276 E0.42211
G1 X79.329 Y102.055 E0.52311
G1 X79.418 Y100.611 E0.58857
G1 X79.684 Y99.290 E0.64956
G1 X80.126 Y98.094 E0.70723
G1 X80.734 Y97.048 E0.76199
G1 X81.497 Y96.169 E0.81463
G1 X82.418 Y95.456 E0.86734
G1 X83.484 Y94.918 E0.92138
G1 X84.682 Y94.566 E0.97787
G1 X86.165 Y94.383 E1.04550
G1 X86.698 Y92.960 E1.11425
G1 X87.255 Y91.961 E1.16600
G1 X87.882 Y91.243 E1.20911
G1 X88.603 Y90.760 E1.24838
G1 X89.449 Y90.468 E1.28888
G1 X90.435 Y90.369 E1.33370
G1 X90.988 Y90.393 E1.35875
G1 X91.661 Y90.473 E1.38942 F378.000
G1 X92.134 Y90.567 E1.41126
G1 X92.134 Y91.566 E1.45645
G1 X91.564 Y91.490 E1.48248
G1 X91.105 Y91.470 E1.50326
G1 X90.369 Y91.541 E1.53672
G1 X89.709 Y91.762 E1.56822
G1 X89.137 Y92.132 E1.59905
G1 X88.651 Y92.661 E1.63155
G1 X88.226 Y93.383 E1.66946
G1 X87.815 Y94.442 E1.72087
G1 X89.825 Y94.939 E1.81458
G1 X91.280 Y95.730 E1.88954
G1 X92.463 Y96.886 E1.96437
G1 X93.338 Y98.354 E2.04167
G1 X93.865 Y100.076 E2.12320
G1 X94.042 Y102.063 E2.21343
G1 X93.944 Y103.562 E2.28143
G1 X93.650 Y104.919 E2.34423
G1 X93.161 Y106.130 E2.40335
G1 X92.491 Y107.179 E2.45965
G1 X91.650 Y108.044 E2.51426
G1 X90.634 Y108.730 E2.56973
G1 X89.461 Y109.229 E2.62739
G1 X88.149 Y109.530 E2.68830
G1 X86.700 Y109.630 E2.75404
G1 X86.518 Y109.611 E2.76230
G1 X86.654 Y108.386 F7800.000
G1 X85.024 Y108.206 E2.83646 F378.000
G1 X83.611 Y107.647 E2.90524
G1 X82.470 Y106.711 E2.97202
G1 X81.638 Y105.443 E3.04062
G1 X81.144 Y103.890 E3.11437
G1 X80.981 Y102.059 E3.19757
G1 X81.146 Y100.230 E3.28064
G1 X81.645 Y98.659 E3.35526
G1 X82.483 Y97.350 E3.42559
G1 X83.626 Y96.369 E3.49374
G1 X85.028 Y95.781 E3.56253
G1 X86.530 Y95.604 E3.63094
G1 X86.674 Y95.587 E3.63754 F378.000
G1 X88.358 Y95.774 E3.71421
G1 X89.774 Y96.343 E3.78326
G1 X90.909 Y97.295 E3.85030
G1 X91.731 Y98.588 E3.91962
G1 X92.219 Y100.178 E3.99487
G1 X92.380 Y102.059 E4.08032
G1 X92.217 Y103.869 E4.16253
G1 X91.725 Y105.414 E4.23590
G1 X90.897 Y106.688 E4.30465
G1 X89.763 Y107.636 E4.37157
G1 X88.358 Y108.203 E4.44011
G1 X86.883 Y108.369 E4.50727
G1 X84.638 Y108.335 F7800.000
G1 X85.581 Y109.278 E4.56794 F540.000
G1 X86.193 Y109.341 E4.59591
G1 X85.328 Y108.476 E4.65156
G1 X85.944 Y108.544 E4.67975
G1 X86.802 Y109.402 E4.73493
G1 X87.314 Y109.367 E4.75830
G1 X86.560 Y108.612 E4.80684
G1 X87.064 Y108.568 E4.82985
G1 X87.827 Y109.331 E4.87894
G1 X88.320 Y109.276 E4.90149
G1 X87.556 Y108.512 E4.95058
G1 X88.049 Y108.457 E4.97313
G1 X88.765 Y109.173 E5.01922
G1 X89.211 Y109.071 E5.04003
G1 X88.502 Y108.362 E5.08565
G1 X88.893 Y108.204 E5.10480
G1 X89.629 Y108.940 E5.15213
G1 X90.013 Y108.777 E5.17113
G1 X89.283 Y108.047 E5.21808
G1 X89.674 Y107.889 E5.23723
G1 X90.398 Y108.613 E5.28380
G1 X90.750 Y108.417 E5.30213
G1 X90.012 Y107.679 E5.34964
G1 X90.310 Y107.429 E5.36734
G1 X91.077 Y108.196 E5.41668
G1 X91.405 Y107.975 E5.43464
G1 X90.609 Y107.180 E5.48581
G1 X90.908 Y106.930 E5.50351
G1 X91.685 Y107.708 E5.55353
G1 X91.959 Y107.434 E5.57116
G1 X91.162 Y106.637 E5.62242
G1 X91.378 Y106.305 E5.64044
G1 X92.233 Y107.160 E5.69545
G1 X92.471 Y106.849 E5.71323
G1 X91.594 Y105.972 E5.76961
G1 X91.810 Y105.640 E5.78763
G1 X92.684 Y106.514 E5.84387
G1 X92.898 Y106.180 E5.86192
G1 X91.987 Y105.268 E5.92057
G1 X92.119 Y104.853 E5.94041
G1 X93.074 Y105.808 E6.00185
G1 X93.232 Y105.417 E6.02101
G1 X92.251 Y104.437 E6.08405
G1 X92.384 Y104.021 E6.10389
G1 X93.389 Y105.026 E6.16854
G1 X93.505 Y104.594 E6.18891
G1 X92.465 Y103.555 E6.25575
G1 X92.511 Y103.052 E6.27872
G1 X93.602 Y104.143 E6.34895
G1 X93.700 Y103.693 E6.36991
G1 X92.556 Y102.549 E6.44352
G1 X92.601 Y102.046 E6.46648
G1 X93.747 Y103.192 E6.54020
G1 X93.781 Y102.677 E6.56364
G1 X92.563 Y101.459 E6.64200
G1 X92.511 Y100.860 E6.66936
G1 X93.815 Y102.163 E6.75319
G1 X93.763 Y101.564 E6.78055
G1 X92.460 Y100.260 E6.86438
G1 X92.289 Y99.541 E6.89803
G1 X93.710 Y100.962 E6.98944
G1 X93.656 Y100.360 E7.01692
G1 X92.046 Y98.750 E7.12050
G1 X93.217 Y98.824 F7800.000
G1 X89.508 Y95.116 E7.35903 F540.000
G1 X88.780 Y94.936 E7.39314
G1 X89.992 Y96.147 E7.47106
G1 X90.630 Y95.690 F7800.000
G1 X92.596 Y97.656 E7.59751 F540.000
G1 X91.427 Y97.583 F7800.000
G1 X93.459 Y99.614 E7.72819 F540.000
G1 X89.075 Y95.779 F7800.000
G1 X88.052 Y94.756 E7.79401 F540.000
G1 X87.484 Y94.736 E7.81988
G1 X86.585 Y93.838 E7.87767
G1 X87.916 Y92.382 F7800.000
G1 X87.916 Y92.382 F7800.000
G1 X91.908 Y90.938 F7800.000
G1 X91.699 Y90.729 E7.89112 F540.000
G1 X91.689 Y91.267 E7.91560
G1 X91.062 Y90.640 E7.95595
G1 X90.475 Y90.601 E7.98270
G1 X91.122 Y91.248 E8.02434
G1 X90.623 Y91.297 E8.04717
G1 X89.962 Y90.636 E8.08968
G1 X89.464 Y90.686 E8.11245
G1 X90.170 Y91.392 E8.15787
G1 X89.759 Y91.530 E8.17758
G1 X89.051 Y90.821 E8.22314
G1 X88.646 Y90.965 E8.24266
G1 X89.407 Y91.725 E8.29157
G1 X89.074 Y91.941 E8.30960
G1 X88.318 Y91.185 E8.35821
G1 X87.993 Y91.408 E8.37614
G1 X88.800 Y92.215 E8.42801
G1 X88.538 Y92.501 E8.44566
G1 X87.738 Y91.701 E8.49711
G1 X87.482 Y91.993 E8.51478
G1 X88.322 Y92.834 E8.56883
G1 X88.119 Y93.179 E8.58704
G1 X87.273 Y92.332 E8.64147
G1 X87.077 Y92.684 E8.65980
G1 X87.944 Y93.552 E8.71558
G1 X87.791 Y93.946 E8.73485
G1 X86.884 Y93.040 E8.79315
G1 X86.735 Y93.439 E8.81251
G1 X87.637 Y94.341 E8.87056
G1 X87.324 Y94.576 E8.88837
G1 X88.276 Y95.528 E8.94958
G1 X87.659 Y95.459 E8.97781
G1 X86.436 Y94.236 E9.05648
G1 X86.243 Y94.591 E9.07486
G1 X87.042 Y95.391 E9.12627
G1 X86.493 Y95.389 E9.15125
G1 X85.755 Y94.651 E9.19872
G1 X85.267 Y94.712 E9.22108
G1 X86.003 Y95.447 E9.26838
G1 X85.512 Y95.505 E9.29084
G1 X84.779 Y94.772 E9.33798
G1 X84.340 Y94.881 E9.35856
G1 X85.024 Y95.565 E9.40251
G1 X84.637 Y95.727 E9.42156
G1 X83.917 Y95.006 E9.46793
G1 X83.496 Y95.134 E9.48792
G1 X84.251 Y95.889 E9.53649
G1 X83.865 Y96.051 E9.55554
G1 X83.132 Y95.317 E9.60270
G1 X82.768 Y95.501 E9.62126
G1 X83.494 Y96.228 E9.66801
G1 X83.199 Y96.481 E9.68569
G1 X82.418 Y95.700 E9.73595
G1 X82.109 Y95.939 E9.75372
G1 X82.905 Y96.735 E9.80488
G1 X82.610 Y96.988 E9.82256
G1 X81.800 Y96.178 E9.87461
G1 X81.521 Y96.447 E9.89225
G1 X82.319 Y97.245 E9.94358
G1 X82.105 Y97.579 E9.96163
G1 X81.260 Y96.735 E10.01596
G1 X81.006 Y97.028 E10.03363
G1 X81.891 Y97.914 E10.09059
G1 X81.677 Y98.248 E10.10863
G1 X80.783 Y97.354 E10.16615
G1 X80.581 Y97.700 E10.18439
G1 X81.463 Y98.582 E10.24109
G1 X81.324 Y98.991 E10.26075
G1 X80.380 Y98.047 E10.32148
G1 X80.217 Y98.433 E10.34051
G1 X81.192 Y99.407 E10.40322
G1 X81.060 Y99.824 E10.42307
G1 X80.069 Y98.833 E10.48681
G1 X79.921 Y99.233 E10.50621
G1 X80.928 Y100.240 E10.57097
G1 X80.880 Y100.740 E10.59383
G1 X79.821 Y99.681 E10.66198
G1 X79.729 Y100.137 E10.68314
G1 X80.835 Y101.243 E10.75428
G1 X80.790 Y101.746 E10.77724
G1 X79.640 Y100.596 E10.85118
G1 X79.608 Y101.112 E10.87471
G1 X80.765 Y102.270 E10.94914
G1 X80.819 Y102.871 E10.97662
G1 X79.576 Y101.629 E11.05655
G1 X79.576 Y102.177 E11.08147
G1 X80.873 Y103.473 E11.16486
G1 X80.940 Y104.089 E11.19303
G1 X79.636 Y102.785 E11.27692
G1 X79.696 Y103.393 E11.30471
G1 X81.196 Y104.893 E11.40120
G1 X81.489 Y105.735 F7800.000
G1 X79.756 Y104.001 E11.51272 F540.000
G1 X80.002 Y104.795 E11.55055
G1 X84.218 Y109.011 E11.82174
G1 X84.969 Y109.214 E11.85714
G1 X83.731 Y107.976 E11.93680
G1 X83.348 Y108.690 F7800.000
G1 X80.297 Y105.639 E12.13304 F540.000
G1 X81.342 Y107.231 F7800.000
G1 X81.696 Y107.586 E12.15584 F540.000
G92 E0
G1 X94.268 Y102.060 F7800.000
G1 X107.060 Y91.256 F7800.000
G1 X110.495 Y99.520 F7800.000
G1 X110.495 Y103.429 F7800.000
G1 X110.493 Y103.875 F7800.000
G1 X111.265 Y104.086 F7800.000
G1 X114.089 Y94.593 F7800.000
G1 X116.221 Y94.593 E0.09647 F378.000
G1 X120.596 Y109.439 E0.79681
G1 X118.910 Y109.439 E0.87310
G1 X116.324 Y100.125 E1.31049
G1 X115.903 Y98.551 E1.38422
G1 X115.328 Y96.124 E1.49707
G1 X114.893 Y96.131 E1.51674
G1 X114.311 Y98.612 E1.63206
G1 X113.936 Y100.084 E1.70079
G1 X111.319 Y109.439 E2.14035
G1 X109.677 Y109.439 E2.21467
G1 X107.196 Y100.571 E2.63135
G1 X106.710 Y98.741 E2.71703
G1 X106.108 Y96.145 E2.83763
G1 X105.670 Y96.145 E2.85743
G1 X105.086 Y98.665 E2.97451
G1 X104.770 Y99.888 E3.03166
G1 X102.067 Y109.439 E3.48080
G1 X100.380 Y109.439 E3.55714
G1 X104.756 Y94.593 E4.25749
G1 X106.889 Y94.593 E4.35397
G1 X108.286 Y99.670 E4.59225
G1 X109.808 Y105.301 E4.85620 F378.000
G1 X110.284 Y107.399 E4.95351
G1 X110.724 Y107.397 E4.97342
G1 X111.283 Y104.907 E5.08888
G1 X111.482 Y104.144 E5.12458
G1 X114.028 Y94.816 E5.56211
G1 X116.087 Y95.032 F7800.000
G1 X115.874 Y94.819 E5.57596 F540.000
G1 X115.320 Y94.819 E5.60140
G1 X116.318 Y95.817 E5.66627
G1 X115.602 Y96.208 F7800.000
G1 X116.781 Y97.387 E5.74290 F540.000
G1 X117.013 Y98.173 E5.78051
G1 X115.774 Y96.934 E5.86100
G1 X115.946 Y97.660 E5.89527
G1 X117.244 Y98.958 E5.97962
G1 X117.475 Y99.743 E6.01722
G1 X116.118 Y98.385 E6.10543
G1 X116.319 Y99.140 E6.14134
G1 X117.707 Y100.528 E6.23150
G1 X117.938 Y101.313 E6.26910
G1 X116.521 Y99.896 E6.36119
G1 X116.733 Y100.662 E6.39769
G1 X118.169 Y102.098 E6.49104
G1 X118.401 Y102.883 E6.52864
G1 X116.946 Y101.428 E6.62320
G1 X117.159 Y102.195 E6.65975
G1 X118.632 Y103.668 E6.75551
G1 X118.864 Y104.454 E6.79311
G1 X117.371 Y102.961 E6.89007
G1 X117.584 Y103.728 E6.92662
G1 X119.095 Y105.239 E7.02478
G1 X119.326 Y106.024 E7.06239
G1 X117.797 Y104.495 E7.16175
G1 X118.010 Y105.261 E7.19830
G1 X119.558 Y106.809 E7.29886
G1 X119.789 Y107.594 E7.33647
G1 X118.223 Y106.028 E7.43823
G1 X118.436 Y106.795 E7.47479
G1 X120.021 Y108.379 E7.57775
G1 X120.252 Y109.164 E7.61536
G1 X118.649 Y107.561 E7.71953
G1 X118.862 Y108.328 E7.75608
G1 X119.747 Y109.213 E7.81360
G92 E0
G1 X119.498 Y108.664 F7800.000
G1 X119.498 Y108.664 F7800.000
G1 X111.832 Y106.836 F7800.000
G1 X111.206 Y106.209 E0.04072 F540.000
G1 X111.307 Y105.757 E0.06201
G1 X111.953 Y106.403 E0.10398
G1 X112.074 Y105.970 E0.12463
G1 X111.409 Y105.305 E0.16787
G1 X111.512 Y104.854 E0.18911
G1 X112.195 Y105.538 E0.23353
G1 X112.316 Y105.105 E0.25417
G1 X111.627 Y104.415 E0.29900
G1 X111.743 Y103.977 E0.31980
G1 X112.437 Y104.672 E0.36494
G1 X112.558 Y104.240 E0.38559
G1 X111.861 Y103.542 E0.43088
G1 X111.980 Y103.107 E0.45160
G1 X112.679 Y103.807 E0.49704
G1 X112.801 Y103.374 E0.51769
G1 X112.099 Y102.672 E0.56328
G1 X112.218 Y102.237 E0.58400
G1 X112.922 Y102.941 E0.62974
G1 X113.043 Y102.509 E0.65038
G1 X112.336 Y101.802 E0.69628
G1 X112.455 Y101.367 E0.71699
G1 X113.164 Y102.076 E0.76304
G1 X113.285 Y101.643 E0.78368
G1 X112.574 Y100.932 E0.82987
G1 X112.692 Y100.497 E0.85059
G1 X113.406 Y101.211 E0.89693
G1 X113.527 Y100.778 E0.91758
G1 X112.811 Y100.062 E0.96407
G1 X112.930 Y99.627 E0.98478
G1 X113.648 Y100.345 E1.03142
G1 X113.765 Y99.909 E1.05218
G1 X113.049 Y99.192 E1.09875
G1 X113.167 Y98.757 E1.11946
G1 X113.878 Y99.468 E1.16563
G1 X113.990 Y99.026 E1.18655
G1 X113.286 Y98.322 E1.23231
G1 X113.405 Y97.887 E1.25302
G1 X114.102 Y98.585 E1.29834
G1 X114.207 Y98.136 E1.31950
G1 X113.523 Y97.452 E1.36395
G1 X113.642 Y97.017 E1.38466
G1 X114.313 Y97.688 E1.42823
G1 X114.418 Y97.239 E1.44940
G1 X113.761 Y96.582 E1.49210
G1 X113.880 Y96.147 E1.51281
G1 X114.523 Y96.791 E1.55464
G1 X114.629 Y96.342 E1.57580
G1 X113.998 Y95.712 E1.61675
G1 X114.117 Y95.277 E1.63747
G1 X114.748 Y95.908 E1.67849
G1 X115.294 Y95.900 E1.70355
G1 X114.236 Y94.842 E1.77230
G1 X114.766 Y94.819 E1.79670
G1 X116.550 Y96.602 E1.91258
G92 E0
G1 X106.298 Y95.369 F7800.000
G1 X106.298 Y95.369 F7800.000
G1 X107.830 Y98.958 F7800.000
G1 X106.767 Y97.894 E0.06909 F540.000
G1 X106.600 Y97.173 E0.10310
G1 X107.620 Y98.194 E0.16940
G1 X107.410 Y97.429 E0.20582
G1 X106.432 Y96.452 E0.26932
G1 X105.899 Y95.919 F7800.000
G1 X104.881 Y94.900 E0.33548 F540.000
G1 X104.754 Y95.328 E0.35597
G1 X105.477 Y96.050 E0.40291
G1 X105.373 Y96.500 E0.42411
G1 X104.628 Y95.756 E0.47247
G1 X104.502 Y96.183 E0.49296
G1 X105.268 Y96.950 E0.54274
G1 X105.164 Y97.399 E0.56394
G1 X104.376 Y96.611 E0.61514
G1 X104.250 Y97.039 E0.63563
G1 X105.060 Y97.849 E0.68825
G1 X104.956 Y98.298 E0.70945
G1 X104.124 Y97.466 E0.76350
G1 X103.998 Y97.894 E0.78398
G1 X104.850 Y98.746 E0.83934
G1 X104.736 Y99.186 E0.86022
G1 X103.872 Y98.322 E0.91639
G1 X103.746 Y98.749 E0.93687
G1 X104.623 Y99.626 E0.99384
G1 X104.505 Y100.063 E1.01461
G1 X103.620 Y99.177 E1.07215
G1 X103.494 Y99.605 E1.09264
G1 X104.383 Y100.494 E1.15044
G1 X104.261 Y100.926 E1.17105
G1 X103.368 Y100.032 E1.22910
G1 X103.242 Y100.460 E1.24959
G1 X104.139 Y101.357 E1.30790
G1 X104.017 Y101.789 E1.32851
G1 X103.116 Y100.888 E1.38707
G1 X102.989 Y101.315 E1.40756
G1 X103.895 Y102.221 E1.46638
G1 X103.773 Y102.652 E1.48699
G1 X102.863 Y101.743 E1.54607
G1 X102.737 Y102.171 E1.56655
G1 X103.650 Y103.084 E1.62588
G1 X103.528 Y103.515 E1.64649
G1 X102.611 Y102.598 E1.70608
G1 X102.485 Y103.026 E1.72656
G1 X103.406 Y103.947 E1.78640
G1 X103.284 Y104.379 E1.80701
G1 X102.359 Y103.454 E1.86711
G1 X102.233 Y103.881 E1.88759
G1 X103.162 Y104.810 E1.94794
G1 X103.040 Y105.242 E1.96855
G1 X102.107 Y104.309 E2.02916
G1 X101.981 Y104.737 E2.04964
G1 X102.918 Y105.673 E2.11050
G1 X102.795 Y106.105 E2.13111
G1 X101.855 Y105.164 E2.19223
G1 X101.729 Y105.592 E2.21271
G1 X102.673 Y106.537 E2.27408
G1 X102.551 Y106.968 E2.29469
G1 X101.603 Y106.020 E2.35632
G1 X101.477 Y106.447 E2.37680
G1 X102.429 Y107.400 E2.43869
G1 X102.307 Y107.831 E2.45929
G1 X101.351 Y106.875 E2.52143
G1 X101.225 Y107.303 E2.54192
G1 X102.185 Y108.263 E2.60431
G1 X102.063 Y108.695 E2.62491
G1 X101.098 Y107.730 E2.68756
G1 X100.972 Y108.158 E2.70805
G1 X101.940 Y109.126 E2.77095
G1 X101.474 Y109.213 E2.79276
G1 X100.846 Y108.586 E2.83353
G1 X100.720 Y109.013 E2.85401
G1 X100.920 Y109.213 E2.86699
G92 E0
G1 X101.481 Y108.664 F7800.000
G1 X101.481 Y108.664 F7800.000
G1 X109.266 Y107.038 F7800.000
G1 X111.227 Y108.999 E0.12747 F540.000
G1 X110.887 Y109.213 E0.14592
G1 X109.481 Y107.807 E0.23731
G1 X109.988 Y107.206 F7800.000
G1 X109.051 Y106.269 E0.29820 F540.000
G1 X109.662 Y105.773 F7800.000
G1 X108.620 Y104.731 E0.36591 F540.000
G1 X109.271 Y104.275 F7800.000
G1 X108.190 Y103.194 E0.43614 F540.000
G1 X107.975 Y102.425 E0.47282
G1 X109.066 Y103.516 E0.54371
G1 X108.861 Y102.757 E0.57982
G1 X107.760 Y101.656 E0.65136
G1 X107.545 Y100.887 E0.68804
G1 X108.656 Y101.999 E0.76025
G1 X108.451 Y101.240 E0.79636
G1 X107.336 Y100.124 E0.86885
G1 X107.136 Y99.371 E0.90468
G1 X108.246 Y100.481 E0.97685
G1 X108.041 Y99.722 E1.01300
G1 X106.936 Y98.617 E1.08480
G1 X107.199 Y96.665 F7800.000
G1 X105.353 Y94.819 E1.20477 F540.000
G1 X105.907 Y94.819 E1.23021
G1 X106.989 Y95.901 E1.30053
G1 X106.778 Y95.137 E1.33695
G1 X106.460 Y94.819 E1.35761
G1 X108.405 Y103.963 F7800.000
G1 X109.476 Y105.033 E1.42719 F540.000
G1 X108.835 Y105.500 F7800.000
G1 X109.825 Y106.490 E1.49149 F540.000
G1 X110.405 Y107.624 F7800.000
G1 X111.348 Y108.567 E1.55275 F540.000
G1 X111.469 Y108.134 E1.57340
G1 X110.901 Y107.566 E1.61033
G1 X111.003 Y107.113 E1.63162
G1 X111.590 Y107.701 E1.66981
G1 X111.711 Y107.269 E1.69045
G1 X111.104 Y106.661 E1.72991
G1 X109.696 Y108.575 F7800.000
G1 X110.333 Y109.213 E1.77135 F540.000
M106 S255
G92 E0
G1 Z0.600 F7800.000
G1 X85.951 Y94.182 F7800.000
G1 X87.915 Y95.103 E0.65005 F600.000
G1 X88.605 Y95.241 E0.86105
G1 X89.585 Y95.558 E1.16951
G1 X89.977 Y95.742 E1.29935
G1 X90.212 Y95.877 E1.38056
G1 X90.851 Y96.312 E1.61211
G1 X91.327 Y96.743 E1.80458
G1 X91.521 Y96.948 E1.88903
G1 X91.858 Y97.363 E2.04931
G1 X92.348 Y98.160 E2.32964
