; generated by Slic3r 1.2.9 on 2016-03-11 at 01:29:25

; external perimeters extrusion width = 1.54mm
; perimeters extrusion width = 2.62mm
; infill extrusion width = 6.27mm
; solid infill extrusion width = 2.62mm
; top infill extrusion width = 2.62mm

M107
M104 S30 ; set temperature
G28 ; home all axes
G1 Z5 F5000 ; lift nozzle
M302
M92 E10000
M500
M501
G1 E100
M109 S30 ; wait for temperature to be reached
G21 ; set units to millimeters
G90 ; use absolute coordinates
M82 ; use absolute distances for extrusion
G92 E0
G1 Z0.300 F7800.000
G1 X84.355 Y96.689 F7800.000
G1 X84.806 Y96.169 E0.03115 F378.000
G1 X85.727 Y95.456 E0.08385
G1 X86.793 Y94.918 E0.13789
G1 X87.991 Y94.566 E0.19438
G1 X89.474 Y94.383 E0.26201
G1 X90.008 Y92.960 E0.33076
G1 X90.565 Y91.961 E0.38251
G1 X91.191 Y91.243 E0.42563
G1 X91.912 Y90.760 E0.46490
G1 X92.759 Y90.468 E0.50540
G1 X93.744 Y90.369 E0.55022
G1 X94.297 Y90.393 E0.57526
G1 X94.970 Y90.473 E0.60593 F378.000
G1 X95.444 Y90.567 E0.62778
G1 X95.444 Y91.566 E0.67297
G1 X94.873 Y91.490 E0.69900
G1 X94.415 Y91.470 E0.71978
G1 X93.679 Y91.541 E0.75323
G1 X93.018 Y91.762 E0.78474
G1 X92.446 Y92.132 E0.81557
G1 X91.961 Y92.661 E0.84807
G1 X91.536 Y93.383 E0.88597
G1 X91.124 Y94.442 E0.93739
G1 X93.135 Y94.939 E1.03110
G1 X94.590 Y95.730 E1.10605
G1 X95.772 Y96.886 E1.18088
G1 X96.647 Y98.354 E1.25818
G1 X97.175 Y100.076 E1.33971
G1 X97.352 Y102.063 E1.42994
G1 X97.253 Y103.562 E1.49794
G1 X96.959 Y104.919 E1.56074
G1 X96.471 Y106.130 E1.61986
G1 X95.800 Y107.179 E1.67616
G1 X94.959 Y108.044 E1.73077
G1 X93.944 Y108.730 E1.78624
G1 X92.771 Y109.229 E1.84390
G1 X91.459 Y109.530 E1.90481
G1 X90.009 Y109.630 E1.97055
G1 X87.846 Y109.406 E2.06899
G1 X86.042 Y108.738 E2.15602
G1 X84.583 Y107.631 E2.23890
G1 X83.506 Y106.131 E2.32247
G1 X82.857 Y104.276 E2.41137
G1 X82.638 Y102.055 E2.51237
G1 X82.727 Y100.611 E2.57784
G1 X82.994 Y99.290 E2.63883
G1 X83.436 Y98.094 E2.69650
G1 X84.043 Y97.048 E2.75126
G1 X84.203 Y96.863 E2.76230
G1 X85.551 Y97.727 F7800.000
G1 X85.793 Y97.350 E2.78256 F378.000
G1 X86.936 Y96.369 E2.85071
G1 X88.337 Y95.781 E2.91950
G1 X89.839 Y95.604 E2.98791
G1 X89.984 Y95.587 E2.99451 F378.000
G1 X91.668 Y95.774 E3.07118
G1 X93.084 Y96.343 E3.14023
G1 X94.219 Y97.295 E3.20726
G1 X95.040 Y98.588 E3.27658
G1 X95.528 Y100.178 E3.35184
G1 X95.689 Y102.059 E3.43729
G1 X95.527 Y103.869 E3.51949
G1 X95.035 Y105.414 E3.59287
G1 X94.207 Y106.688 E3.66162
G1 X93.072 Y107.636 E3.72853
G1 X91.667 Y108.203 E3.79708
G1 X90.007 Y108.390 E3.87269
G1 X88.334 Y108.206 E3.94885
G1 X86.920 Y107.647 E4.01763
G1 X85.779 Y106.711 E4.08441
G1 X84.948 Y105.443 E4.15301
G1 X84.454 Y103.890 E4.22676
G1 X84.291 Y102.059 E4.30995
G1 X84.456 Y100.230 E4.39303
G1 X84.955 Y98.659 E4.46765
G1 X85.427 Y97.921 E4.50727
G1 X89.895 Y93.838 F7800.000
G1 X90.793 Y94.736 E4.56506 F540.000
G1 X91.362 Y94.756 E4.59093
G1 X92.385 Y95.779 E4.65674
G1 X93.301 Y96.147 F7800.000
G1 X92.090 Y94.936 E4.73466 F540.000
G1 X92.818 Y95.116 E4.76877
G1 X96.526 Y98.824 E5.00731
G1 X96.768 Y99.614 F7800.000
G1 X94.737 Y97.583 E5.13799 F540.000
G1 X95.906 Y97.656 F7800.000
G1 X93.940 Y95.690 E5.26444 F540.000
G1 X95.355 Y98.750 F7800.000
G1 X96.966 Y100.360 E5.36801 F540.000
G1 X97.019 Y100.962 E5.39549
G1 X95.598 Y99.541 E5.48691
G1 X95.770 Y100.260 E5.52055
G1 X97.073 Y101.564 E5.60439
G1 X97.124 Y102.163 E5.63175
G1 X95.821 Y100.860 E5.71557
G1 X95.872 Y101.459 E5.74294
G1 X97.090 Y102.677 E5.82129
G1 X97.057 Y103.192 E5.84474
G1 X95.910 Y102.046 E5.91845
G1 X95.865 Y102.549 E5.94142
G1 X97.010 Y103.693 E6.01503
G1 X96.912 Y104.143 E6.03599
G1 X95.820 Y103.052 E6.10622
G1 X95.775 Y103.555 E6.12918
G1 X96.814 Y104.594 E6.19603
G1 X96.699 Y105.026 E6.21639
G1 X95.693 Y104.021 E6.28104
G1 X95.561 Y104.437 E6.30089
G1 X96.541 Y105.417 E6.36393
G1 X96.384 Y105.808 E6.38309
G1 X95.429 Y104.853 E6.44453
G1 X95.296 Y105.268 E6.46437
G1 X96.208 Y106.180 E6.52301
G1 X95.994 Y106.514 E6.54106
G1 X95.120 Y105.640 E6.59730
G1 X94.904 Y105.972 E6.61533
G1 X95.780 Y106.849 E6.67170
G1 X95.543 Y107.160 E6.68949
G1 X94.688 Y106.305 E6.74449
G1 X94.472 Y106.637 E6.76251
G1 X95.269 Y107.434 E6.81377
G1 X94.995 Y107.708 E6.83140
G1 X94.217 Y106.930 E6.88142
G1 X93.918 Y107.180 E6.89912
G1 X94.714 Y107.975 E6.95030
G1 X94.387 Y108.196 E6.96825
G1 X93.620 Y107.429 E7.01759
G1 X93.321 Y107.679 E7.03529
G1 X94.060 Y108.417 E7.08280
G1 X93.707 Y108.613 E7.10114
G1 X92.983 Y107.889 E7.14770
G1 X92.593 Y108.047 E7.16686
G1 X93.323 Y108.777 E7.21380
G1 X92.938 Y108.940 E7.23281
G1 X92.202 Y108.204 E7.28014
G1 X91.812 Y108.362 E7.29929
G1 X92.521 Y109.071 E7.34490
G1 X92.075 Y109.173 E7.36571
G1 X91.358 Y108.457 E7.41180
G1 X90.866 Y108.512 E7.43435
G1 X91.629 Y109.276 E7.48345
G1 X91.136 Y109.331 E7.50600
G1 X90.373 Y108.568 E7.55509
G1 X89.869 Y108.612 E7.57810
G1 X90.624 Y109.367 E7.62663
G1 X90.111 Y109.402 E7.65000
G1 X89.253 Y108.544 E7.70519
G1 X88.637 Y108.476 E7.73338
G1 X89.502 Y109.341 E7.78903
G1 X88.891 Y109.278 E7.81700
G1 X87.947 Y108.335 E7.87767
G1 X87.040 Y107.976 F7800.000
G1 X88.279 Y109.214 E7.95733 F540.000
G1 X87.528 Y109.011 E7.99272
G1 X83.311 Y104.795 E8.26391
G1 X83.065 Y104.001 E8.30174
G1 X84.799 Y105.735 E8.41326
G1 X84.506 Y104.893 F7800.000
G1 X83.005 Y103.393 E8.50976 F540.000
G1 X82.946 Y102.785 E8.53755
G1 X84.250 Y104.089 E8.62143
G1 X84.182 Y103.473 E8.64961
G1 X82.886 Y102.177 E8.73300
G1 X82.886 Y101.629 E8.75792
G1 X84.129 Y102.871 E8.83784
G1 X84.075 Y102.270 E8.86532
G1 X82.918 Y101.112 E8.93975
G1 X82.950 Y100.596 E8.96328
G1 X84.099 Y101.746 E9.03722
G1 X84.144 Y101.243 E9.06018
G1 X83.038 Y100.137 E9.13132
G1 X83.130 Y99.681 E9.15249
G1 X84.190 Y100.740 E9.22063
G1 X84.238 Y100.240 E9.24349
G1 X83.231 Y99.233 E9.30825
G1 X83.379 Y98.833 E9.32766
G1 X84.370 Y99.824 E9.39139
G1 X84.502 Y99.407 E9.41125
G1 X83.527 Y98.433 E9.47396
G1 X83.690 Y98.047 E9.49298
G1 X84.634 Y98.991 E9.55371
G1 X84.772 Y98.582 E9.57337
G1 X83.891 Y97.700 E9.63007
G1 X84.092 Y97.354 E9.64831
G1 X84.986 Y98.248 E9.70583
G1 X85.200 Y97.914 E9.72388
G1 X84.315 Y97.028 E9.78083
G1 X84.570 Y96.735 E9.79851
G1 X85.415 Y97.579 E9.85284
G1 X85.629 Y97.245 E9.87088
G1 X84.830 Y96.447 E9.92222
G1 X85.110 Y96.178 E9.93985
G1 X85.919 Y96.988 E9.99191
G1 X86.214 Y96.735 E10.00959
G1 X85.419 Y95.939 E10.06075
G1 X85.728 Y95.700 E10.07852
G1 X86.509 Y96.481 E10.12877
G1 X86.804 Y96.228 E10.14645
G1 X86.077 Y95.501 E10.19320
G1 X86.441 Y95.317 E10.21176
G1 X87.175 Y96.051 E10.25893
G1 X87.561 Y95.889 E10.27798
G1 X86.806 Y95.134 E10.32655
G1 X87.226 Y95.006 E10.34653
G1 X87.947 Y95.727 E10.39290
G1 X88.333 Y95.565 E10.41195
G1 X87.650 Y94.881 E10.45591
G1 X88.089 Y94.772 E10.47649
G1 X88.822 Y95.505 E10.52363
G1 X89.312 Y95.447 E10.54608
G1 X88.577 Y94.712 E10.59339
G1 X89.064 Y94.651 E10.61575
G1 X89.802 Y95.389 E10.66321
G1 X90.352 Y95.391 E10.68819
G1 X89.552 Y94.591 E10.73961
G1 X89.745 Y94.236 E10.75799
G1 X90.968 Y95.459 E10.83666
G1 X91.585 Y95.528 E10.86489
G1 X90.634 Y94.576 E10.92610
G1 X90.947 Y94.341 E10.94390
G1 X90.044 Y93.439 E11.00195
G1 X90.194 Y93.040 E11.02132
G1 X91.100 Y93.946 E11.07962
G1 X91.253 Y93.552 E11.09888
G1 X90.386 Y92.684 E11.15467
G1 X90.582 Y92.332 E11.17300
G1 X91.429 Y93.179 E11.22743
G1 X91.632 Y92.834 E11.24564
G1 X90.792 Y91.993 E11.29969
G1 X91.047 Y91.701 E11.31736
G1 X91.847 Y92.501 E11.36881
G1 X92.109 Y92.215 E11.38645
G1 X91.303 Y91.408 E11.43833
G1 X91.628 Y91.185 E11.45625
G1 X92.383 Y91.941 E11.50486
G1 X92.716 Y91.725 E11.52289
G1 X91.956 Y90.965 E11.57181
G1 X92.360 Y90.821 E11.59133
G1 X93.069 Y91.530 E11.63689
G1 X93.480 Y91.392 E11.65660
G1 X92.773 Y90.686 E11.70202
G1 X93.272 Y90.636 E11.72479
G1 X93.932 Y91.297 E11.76730
G1 X94.432 Y91.248 E11.79012
G1 X93.784 Y90.601 E11.83177
G1 X94.371 Y90.640 E11.85852
G1 X94.998 Y91.267 E11.89887
G1 X95.008 Y90.729 E11.92335
G1 X95.218 Y90.938 E11.93680
G92 E0
G1 X90.139 Y94.824 F7800.000
G1 X83.416 Y102.041 F7800.000
G1 X83.607 Y105.639 F7800.000
G1 X86.658 Y108.690 E0.19624 F540.000
G1 X85.006 Y107.586 F7800.000
G1 X84.651 Y107.231 E0.21904 F540.000
G92 E0
G1 X97.175 Y104.985 F7800.000
G1 X100.962 Y106.511 F7800.000
G1 X100.452 Y107.486 F7800.000
G1 X103.777 Y109.664 F7800.000
G1 X108.122 Y103.442 F7800.000
G1 X109.868 Y100.775 E0.14423 F378.000
G1 X109.868 Y94.593 E0.42397
G1 X111.479 Y94.593 E0.49686
G1 X111.479 Y100.775 E0.77661
G1 X117.170 Y109.439 E1.24565 F378.000
G1 X115.433 Y109.439 E1.32425
G1 X110.696 Y101.958 E1.72491
G1 X105.931 Y109.439 E2.12624
G1 X104.194 Y109.439 E2.20485
G1 X107.995 Y103.635 E2.51881
G1 X111.131 Y102.118 F7800.000
G1 X113.725 Y104.711 E2.68777 F540.000
G1 X113.049 Y105.145 F7800.000
G1 X115.850 Y107.947 E2.87030 F540.000
G1 X114.966 Y108.173 F7800.000
G1 X116.006 Y109.213 E2.93804 F540.000
G1 X116.561 Y109.213 E2.96361
G1 X114.007 Y106.659 E3.12998
G1 X114.788 Y106.329 F7800.000
G1 X112.090 Y103.632 E3.30572 F540.000
G1 X112.662 Y103.093 F7800.000
G1 X110.094 Y100.526 E3.47298 F540.000
G1 X109.977 Y100.964 E3.49388
G1 X110.662 Y101.649 E3.53849
G1 X110.446 Y101.988 E3.55702
G1 X109.758 Y101.299 E3.60187
G1 X109.538 Y101.635 E3.62035
G1 X110.230 Y102.327 E3.66545
G1 X110.014 Y102.666 E3.68397
G1 X109.318 Y101.970 E3.72931
G1 X109.098 Y102.306 E3.74778
G1 X109.798 Y103.005 E3.79336
G1 X109.582 Y103.345 E3.81188
G1 X108.879 Y102.641 E3.85770
G1 X108.659 Y102.977 E3.87618
G1 X109.366 Y103.684 E3.92223
G1 X109.150 Y104.023 E3.94076
G1 X108.439 Y103.312 E3.98706
G1 X108.220 Y103.648 E4.00553
G1 X108.934 Y104.362 E4.05207
G1 X108.718 Y104.701 E4.07060
G1 X108.000 Y103.983 E4.11738
G1 X107.780 Y104.319 E4.13585
G1 X108.502 Y105.040 E4.18287
G1 X108.286 Y105.379 E4.20139
G1 X107.560 Y104.654 E4.24866
G1 X107.341 Y104.989 E4.26713
G1 X108.070 Y105.719 E4.31463
G1 X107.854 Y106.058 E4.33315
G1 X107.121 Y105.325 E4.38090
G1 X106.901 Y105.660 E4.39937
G1 X107.638 Y106.397 E4.44735
G1 X107.422 Y106.736 E4.46588
G1 X106.682 Y105.996 E4.51410
G1 X106.462 Y106.331 E4.53257
G1 X107.206 Y107.075 E4.58104
G1 X106.990 Y107.414 E4.59956
G1 X106.242 Y106.667 E4.64826
G1 X106.022 Y107.002 E4.66674
G1 X106.774 Y107.754 E4.71568
G1 X106.558 Y108.093 E4.73420
G1 X105.803 Y107.338 E4.78339
G1 X105.583 Y107.673 E4.80186
G1 X106.342 Y108.432 E4.85129
G1 X106.126 Y108.771 E4.86981
G1 X105.363 Y108.009 E4.91947
G1 X105.143 Y108.344 E4.93795
G1 X105.910 Y109.110 E4.98785
G1 X105.457 Y109.213 E5.00922
G1 X104.924 Y108.680 E5.04398
G1 X104.704 Y109.015 E5.06245
G1 X104.902 Y109.213 E5.07535
G1 X110.643 Y100.598 F7800.000
G1 X110.643 Y100.598 F7800.000
G1 X111.599 Y101.475 F7800.000
G1 X110.094 Y99.971 E5.17337 F540.000
G1 X110.094 Y99.415 E5.19895
G1 X111.253 Y100.574 E5.27446
G1 X111.253 Y100.019 E5.30003
G1 X110.094 Y98.860 E5.37554
G1 X110.094 Y98.305 E5.40112
G1 X111.253 Y99.464 E5.47663
G1 X111.253 Y98.909 E5.50220
G1 X110.094 Y97.750 E5.57772
G1 X110.094 Y97.195 E5.60329
G1 X111.253 Y98.354 E5.67880
G1 X111.253 Y97.798 E5.70438
G1 X110.094 Y96.639 E5.77989
G1 X110.094 Y96.084 E5.80546
G1 X111.253 Y97.243 E5.88097
G1 X111.253 Y96.688 E5.90655
G1 X110.094 Y95.529 E5.98206
G1 X110.094 Y94.974 E6.00763
G1 X111.253 Y96.133 E6.08314
G1 X111.253 Y95.578 E6.10872
G1 X110.495 Y94.819 E6.15815
G1 X111.050 Y94.819 E6.18373
G1 X111.253 Y95.023 E6.19699
M106 S255
G92 E0
G1 Z0.600 F7800.000
G1 X89.260 Y94.182 F7800.000
G1 X91.224 Y95.103 E0.65005 F600.000
G1 X91.915 Y95.241 E0.86105
G1 X92.895 Y95.558 E1.16951
G1 X93.287 Y95.742 E1.29935
G1 X93.522 Y95.877 E1.38056
G1 X94.160 Y96.312 E1.61211
G1 X94.637 Y96.743 E1.80458
G1 X94.830 Y96.948 E1.88903
G1 X95.167 Y97.363 E2.04931
G1 X95.658 Y98.160 E2.32964
G1 X95.908 Y98.681 E2.50305
G1 X96.288 Y99.920 E2.89118
G1 X96.361 Y100.236 E2.98831
G1 X96.519 Y102.072 E3.54074
G1 X96.414 Y103.444 E3.95300
G1 X96.295 Y104.140 E4.16439
G1 X96.153 Y104.671 E4.32911
G1 X95.755 Y105.761 E4.67708
G1 X95.169 Y106.678 E5.00312
G1 X94.857 Y107.070 E5.15319
G1 X94.469 Y107.459 E5.31763
G1 X93.605 Y108.109 E5.64161
G1 X93.292 Y108.275 E5.74798
G1 X92.560 Y108.578 E5.98536
G1 X91.932 Y108.776 E6.18269
G1 X91.364 Y108.888 E6.35615
G1 X90.020 Y109.008 E6.76037
G1 X88.296 Y108.827 E7.27989
G1 X87.994 Y108.769 E7.37201
G1 X86.709 Y108.277 E7.78429
G1 X86.383 Y108.115 E7.89325
G1 X85.344 Y107.296 E8.28979
G1 X85.130 Y107.098 E8.37709
G1 X84.220 Y105.760 E8.86224
G1 X83.662 Y104.098 E9.38731
G1 X83.466 Y102.040 E10.00691
G1 X83.565 Y100.721 E10.40331
G1 X83.688 Y99.961 E10.63392
G1 X83.802 Y99.519 E10.77063
G1 X84.172 Y98.441 E11.11219
G1 X84.297 Y98.202 E11.19290
G1 X84.711 Y97.525 E11.43078
G1 X85.130 Y96.965 E11.64045
G1 X85.319 Y96.747 E11.72671
G1 X86.125 Y96.086 E12.03909
G1 X86.457 Y95.865 E12.15847
G1 X86.705 Y95.726 E12.24365
G1 X87.050 Y95.567 E12.35762
G1 X88.120 Y95.188 E12.69779
G1 X89.527 Y95.005 E13.12286
G1 X89.877 Y94.900 E13.23237
G1 X90.345 Y94.691 E13.38608
G1 X90.352 Y94.566 E13.42366
G1 X90.488 Y93.914 E13.62304
G1 X90.727 Y93.293 E13.82264
G1 X90.896 Y92.950 E13.93707
G1 X91.204 Y92.411 E14.12318
G1 X91.419 Y92.132 E14.22870
G1 X91.699 Y91.820 E14.35432
G1 X92.080 Y91.513 E14.50104
G1 X92.236 Y91.410 E14.55679
G1 X92.838 Y91.132 E14.75570
G1 X93.648 Y90.962 E15.00355
G1 X94.460 Y90.946 E15.24702
G1 X95.669 Y91.078 E15.61131
G92 E0
G1 X101.097 Y93.980 F7800.000
G1 X102.824 Y94.964 F7800.000
G1 X103.419 Y94.368 F7800.000
G1 X109.643 Y94.368 F7800.000
G1 X110.674 Y94.368 F7800.000
G1 X110.674 Y101.225 E2.05473 F600.000
G1 X110.801 Y101.302 E2.09907
G1 X111.439 Y101.907 E2.36271
G1 X116.442 Y109.664 E5.12860
G1 X110.643 Y100.598 F7800.000
G1 X110.643 Y100.598 F7800.000
G1 X104.921 Y109.664 F7800.000
G1 X109.938 Y101.896 E7.89969 F600.000
G1 X110.551 Y101.303 E8.15525
G1 X111.704 Y100.576 E8.56368
G92 E0
G1 Z0.900 F7800.000
G1 X89.260 Y94.182 F7800.000
G1 X91.224 Y95.103 E0.65005 F600.000
G1 X91.915 Y95.241 E0.86105
G1 X92.895 Y95.558 E1.16951
G1 X93.287 Y95.742 E1.29935
G1 X93.522 Y95.877 E1.38056
G1 X94.160 Y96.312 E1.61211
G1 X94.637 Y96.743 E1.80458
G1 X94.830 Y96.948 E1.88903
G1 X95.167 Y97.363 E2.04931
G1 X95.658 Y98.160 E2.32964
G1 X95.908 Y98.681 E2.50305
G1 X96.288 Y99.920 E2.89118
G1 X96.361 Y100.236 E2.98831
G1 X96.519 Y102.072 E3.54074
G1 X96.414 Y103.444 E3.95300
G1 X96.295 Y104.140 E4.16439
G1 X96.153 Y104.671 E4.32911
G1 X95.755 Y105.761 E4.67708
G1 X95.169 Y106.678 E5.00312
G1 X94.857 Y107.070 E5.15319
G1 X94.469 Y107.459 E5.31763
G1 X93.605 Y108.109 E5.64161
G1 X93.292 Y108.275 E5.74798
G1 X92.560 Y108.578 E5.98536
G1 X91.932 Y108.776 E6.18269
G1 X91.364 Y108.888 E6.35615
G1 X90.020 Y109.008 E6.76037
G1 X88.296 Y108.827 E7.27989
G1 X87.994 Y108.769 E7.37201
G1 X86.709 Y108.277 E7.78429
G1 X86.383 Y108.115 E7.89325
G1 X85.344 Y107.296 E8.28979
G1 X85.130 Y107.098 E8.37710
G1 X84.220 Y105.760 E8.86224
G1 X83.662 Y104.098 E9.38731
G1 X83.466 Y102.040 E10.00692
G1 X83.565 Y100.721 E10.40331
G1 X83.688 Y99.961 E10.63392
G1 X83.802 Y99.519 E10.77063
G1 X84.172 Y98.441 E11.11219
G1 X84.297 Y98.202 E11.19290
G1 X84.711 Y97.525 E11.43078
G1 X85.130 Y96.965 E11.64045
G1 X85.319 Y96.747 E11.72671
G1 X86.125 Y96.086 E12.03908
G1 X86.457 Y95.865 E12.15847
G1 X86.705 Y95.726 E12.24365
G1 X87.050 Y95.567 E12.35762
G1 X88.120 Y95.188 E12.69779
G1 X89.416 Y95.022 E13.08935
G1 X89.877 Y94.900 E13.23214
G1 X90.345 Y94.691 E13.38585
G1 X90.352 Y94.566 E13.42343
G1 X90.488 Y93.914 E13.62281
G1 X90.727 Y93.293 E13.82241
G1 X90.896 Y92.950 E13.93684
G1 X91.204 Y92.411 E14.12295
G1 X91.419 Y92.132 E14.22847
G1 X91.699 Y91.820 E14.35409
G1 X92.080 Y91.513 E14.50081
G1 X92.236 Y91.410 E14.55656
G1 X92.838 Y91.132 E14.75547
G1 X93.648 Y90.962 E15.00332
G1 X94.450 Y90.941 E15.24373
G1 X94.888 Y90.977 E15.37546
G1 X95.669 Y91.099 E15.61221
G92 E0
G1 X101.097 Y93.980 F7800.000
G1 X102.824 Y94.964 F7800.000
G1 X103.419 Y94.368 F7800.000
G1 X109.643 Y94.368 F7800.000
G1 X110.674 Y94.368 F7800.000
G1 X110.674 Y101.225 E2.05473 F600.000
G1 X110.801 Y101.302 E2.09907
G1 X111.439 Y101.907 E2.36271
G1 X116.442 Y109.664 E5.12860
G1 X110.643 Y100.598 F7800.000
G1 X110.643 Y100.598 F7800.000
G1 X104.921 Y109.664 F7800.000
