; generated by Slic3r 1.2.9 on 2016-03-10 at 20:36:27

; external perimeters extrusion width = 1.54mm
; perimeters extrusion width = 2.62mm
; infill extrusion width = 6.27mm
; solid infill extrusion width = 2.62mm
; top infill extrusion width = 2.62mm

M107
M104 S30 ; set temperature
G28 ; home all axes
G1 Z5 F5000 ; lift nozzle
M302
M92 E10000
M500
M501
G1 E100
M109 S30 ; wait for temperature to be reached
G21 ; set units to millimeters
G90 ; use absolute coordinates
M82 ; use absolute distances for extrusion
G92 E0
G1 Z0.300 F7800.000
G1 X121.174 Y132.423 F7800.000
G1 X118.622 Y132.423 E0.11548 F378.000
G1 X118.622 Y117.577 E0.78725
G1 X120.242 Y117.577 E0.86060
G1 X120.242 Y123.940 E1.14852
G1 X125.366 Y123.940 E1.38037 F378.000
G1 X129.342 Y117.577 E1.71988
G1 X131.186 Y117.577 E1.80331
G1 X126.900 Y124.088 E2.15601
G1 X128.257 Y124.461 E2.21967
G1 X129.124 Y124.924 E2.26417
G1 X129.829 Y125.565 E2.30727
G1 X130.350 Y126.351 E2.34996
G1 X130.664 Y127.254 E2.39319
G1 X130.769 Y128.277 E2.43973
G1 X130.620 Y129.492 E2.49512
G1 X130.179 Y130.500 E2.54490
G1 X129.444 Y131.318 E2.59466
G1 X128.429 Y131.927 E2.64820
G1 X127.149 Y132.297 E2.70851
G1 X125.588 Y132.423 E2.77936
G1 X121.405 Y132.423 E2.96867
G1 X121.405 Y131.214 F7800.000
G1 X120.242 Y131.214 E3.02126 F378.000
G1 X120.242 Y125.127 E3.29669
G1 X125.488 Y125.127 E3.53404 F378.000
G1 X126.532 Y125.215 E3.58145
G1 X127.429 Y125.485 E3.62386
G1 X128.165 Y125.943 E3.66306
G1 X128.709 Y126.573 E3.70073
G1 X129.034 Y127.349 E3.73880
G1 X129.140 Y128.258 E3.78018
G1 X129.032 Y129.137 E3.82026
G1 X128.700 Y129.880 E3.85708
G1 X128.146 Y130.469 E3.89370
G1 X127.397 Y130.888 E3.93251
G1 X126.478 Y131.134 E3.97555
G1 X125.400 Y131.214 E4.02448
G1 X121.636 Y131.214 E4.19481
G1 X120.491 Y131.440 F7800.000
G1 X121.248 Y132.197 E4.24361 F540.000
G1 X121.798 Y132.197 E4.26865
G1 X121.041 Y131.440 E4.31745
G1 X121.590 Y131.440 E4.34249
G1 X122.347 Y132.197 E4.39130
G1 X122.896 Y132.197 E4.41634
G1 X122.139 Y131.440 E4.46514
G1 X122.689 Y131.440 E4.49018
G1 X123.446 Y132.197 E4.53898
G1 X123.995 Y132.197 E4.56402
G1 X123.238 Y131.440 E4.61282
G1 X123.787 Y131.440 E4.63786
G1 X124.544 Y132.197 E4.68667
G1 X125.094 Y132.197 E4.71171
G1 X124.337 Y131.440 E4.76051
G1 X124.886 Y131.440 E4.78555
G1 X125.643 Y132.197 E4.83435
G1 X126.153 Y132.157 E4.85765
G1 X125.428 Y131.433 E4.90435
G1 X125.940 Y131.395 E4.92773
G1 X126.661 Y132.116 E4.97423
G1 X127.169 Y132.075 E4.99748
G1 X126.451 Y131.356 E5.04382
G1 X126.884 Y131.241 E5.06427
G1 X127.596 Y131.953 E5.11019
G1 X128.022 Y131.830 E5.13040
G1 X127.317 Y131.125 E5.17585
G1 X127.691 Y130.949 E5.19467
G1 X128.437 Y131.694 E5.24272
G1 X128.780 Y131.488 E5.26097
G1 X128.043 Y130.752 E5.30844
G1 X128.361 Y130.520 E5.32636
G1 X129.123 Y131.282 E5.37546
G1 X129.424 Y131.034 E5.39325
G1 X128.628 Y130.237 E5.44460
G1 X128.888 Y129.948 E5.46233
G1 X129.693 Y130.753 E5.51420
G1 X129.952 Y130.464 E5.53193
G1 X129.058 Y129.569 E5.58962
G1 X129.227 Y129.189 E5.60857
G1 X130.136 Y130.098 E5.66716
G1 X130.303 Y129.716 E5.68617
G1 X129.302 Y128.714 E5.75072
G1 X129.362 Y128.225 E5.77318
G1 X130.426 Y129.290 E5.84178
G1 X130.487 Y128.800 E5.86425
G1 X129.303 Y127.616 E5.94057
G1 X129.128 Y126.893 E5.97449
G1 X130.535 Y128.300 E6.06519
G1 X127.468 Y125.232 F7800.000
G1 X126.463 Y124.227 E6.12996 F540.000
G1 X126.749 Y123.964 E6.14768
G1 X126.030 Y123.245 E6.19401
G1 X126.242 Y122.907 E6.21218
G1 X126.967 Y123.633 E6.25895
G1 X127.185 Y123.302 E6.27703
G1 X126.453 Y122.569 E6.32424
G1 X126.664 Y122.231 E6.34241
G1 X127.403 Y122.970 E6.39006
G1 X127.621 Y122.639 E6.40814
G1 X126.875 Y121.893 E6.45622
G1 X127.087 Y121.555 E6.47439
G1 X127.839 Y122.308 E6.52292
G1 X128.057 Y121.976 E6.54100
G1 X127.298 Y121.217 E6.58996
G1 X127.509 Y120.879 E6.60813
G1 X128.275 Y121.645 E6.65753
G1 X128.494 Y121.314 E6.67561
G1 X127.720 Y120.541 E6.72545
G1 X127.932 Y120.203 E6.74362
G1 X128.712 Y120.983 E6.79390
G1 X128.930 Y120.651 E6.81198
G1 X128.143 Y119.864 E6.86270
G1 X128.354 Y119.526 E6.88087
G1 X129.148 Y120.320 E6.93203
G1 X129.366 Y119.989 E6.95010
G1 X128.565 Y119.188 E7.00170
G1 X128.777 Y118.850 E7.01987
G1 X129.584 Y119.657 E7.07190
G1 X129.802 Y119.326 E7.08998
G1 X128.988 Y118.512 E7.14245
G1 X129.199 Y118.174 E7.16062
G1 X130.020 Y118.995 E7.21353
G1 X130.238 Y118.664 E7.23161
G1 X129.410 Y117.836 E7.28496
G1 X129.927 Y117.803 E7.30855
G1 X130.456 Y118.332 E7.34267
G1 X130.476 Y117.803 E7.36681
G1 X130.674 Y118.001 E7.37958
G92 E0
G1 X129.515 Y126.494 F7800.000
G1 X129.515 Y126.494 F7800.000
G1 X127.979 Y124.645 F7800.000
G1 X130.287 Y126.953 E0.14879 F540.000
G1 X130.473 Y127.688 E0.18334
G1 X127.221 Y124.436 E0.39295
G1 X126.531 Y124.295 E0.42504
G1 X125.819 Y123.583 E0.47093
G1 X125.608 Y123.922 E0.48910
G1 X126.682 Y124.995 E0.55833
G1 X126.080 Y124.943 E0.58588
G1 X125.303 Y124.166 E0.63595
G1 X124.754 Y124.166 E0.66099
G1 X125.489 Y124.901 E0.70838
G1 X124.939 Y124.901 E0.73342
G1 X124.204 Y124.166 E0.78080
G1 X123.655 Y124.166 E0.80584
G1 X124.390 Y124.901 E0.85323
G1 X123.841 Y124.901 E0.87827
G1 X123.106 Y124.166 E0.92565
G1 X122.556 Y124.166 E0.95069
G1 X123.291 Y124.901 E0.99807
G1 X122.742 Y124.901 E1.02311
G1 X122.007 Y124.166 E1.07050
G1 X121.457 Y124.166 E1.09554
G1 X122.193 Y124.901 E1.14292
G1 X121.643 Y124.901 E1.16796
G1 X120.908 Y124.166 E1.21535
G1 X120.359 Y124.166 E1.24039
G1 X121.094 Y124.901 E1.28777
G1 X120.545 Y124.901 E1.31281
G1 X118.847 Y123.204 E1.42221
G1 X118.847 Y122.655 E1.44725
G1 X120.017 Y123.824 E1.52261
G1 X120.017 Y123.274 E1.54765
G1 X118.847 Y122.105 E1.62301
G1 X118.847 Y121.556 E1.64805
G1 X120.017 Y122.725 E1.72341
G1 X120.017 Y122.176 E1.74845
G1 X118.847 Y121.007 E1.82381
G1 X118.847 Y120.457 E1.84885
G1 X120.017 Y121.626 E1.92421
G1 X120.017 Y121.077 E1.94925
G1 X118.847 Y119.908 E2.02461
G1 X118.847 Y119.359 E2.04965
G1 X120.017 Y120.528 E2.12501
G1 X120.017 Y119.978 E2.15005
G1 X118.847 Y118.809 E2.22541
G1 X118.847 Y118.260 E2.25045
G1 X120.017 Y119.429 E2.32581
G1 X120.017 Y118.880 E2.35085
G1 X118.940 Y117.803 E2.42025
G1 X119.489 Y117.803 E2.44529
G1 X120.017 Y118.330 E2.47928
G1 X118.847 Y123.753 F7800.000
G1 X120.017 Y124.922 E2.55464 F540.000
G1 X120.017 Y125.472 E2.57968
G1 X118.847 Y124.303 E2.65504
G1 X118.847 Y124.852 E2.68008
G1 X120.017 Y126.021 E2.75544
G1 X120.017 Y126.570 E2.78048
G1 X118.847 Y125.401 E2.85584
G1 X118.847 Y125.951 E2.88088
G1 X120.017 Y127.120 E2.95624
G1 X120.017 Y127.669 E2.98128
G1 X118.847 Y126.500 E3.05664
G1 X118.847 Y127.049 E3.08168
G1 X120.017 Y128.218 E3.15704
G1 X120.017 Y128.768 E3.18208
G1 X118.847 Y127.599 E3.25744
G1 X118.847 Y128.148 E3.28248
G1 X120.017 Y129.317 E3.35784
G1 X120.017 Y129.867 E3.38288
G1 X118.847 Y128.697 E3.45824
G1 X118.847 Y129.247 E3.48328
G1 X120.017 Y130.416 E3.55865
G1 X120.017 Y130.965 E3.58368
G1 X118.847 Y129.796 E3.65905
G1 X118.847 Y130.345 E3.68408
G1 X120.699 Y132.197 E3.80344
G1 X120.150 Y132.197 E3.82848
G1 X118.847 Y130.895 E3.91243
G1 X118.847 Y131.444 E3.93747
G1 X119.600 Y132.197 E3.98600
G1 X119.051 Y132.197 E4.01104
G1 X118.847 Y131.993 E4.02416
M106 S255
G92 E0
G1 Z0.600 F7800.000
G1 X119.432 Y117.352 F7800.000
G1 X119.432 Y123.715 E1.90665 F600.000
G1 X120.283 Y128.021 E3.22178
G92 E0
G1 X119.468 Y131.648 F7800.000
G1 X119.468 Y131.648 F7800.000
G1 X125.263 Y123.681 F7800.000
G1 X126.566 Y124.535 E0.46678 F600.000
G1 X126.735 Y124.623 E0.52394
G1 X127.041 Y124.745 E0.62257
G1 X127.783 Y124.974 E0.85543
G1 X128.012 Y125.075 E0.93036
G1 X128.493 Y125.352 E1.09667
G1 X128.716 Y125.504 E1.17750
G1 X129.255 Y126.058 E1.40909
G1 X129.419 Y126.314 E1.50046
G1 X129.630 Y126.708 E1.63417
G1 X129.748 Y127.016 E1.73297
G1 X129.863 Y127.431 E1.86220
G1 X129.951 Y128.269 E2.11448
G1 X129.829 Y129.275 E2.41823
G1 X129.497 Y130.060 E2.67376
G1 X129.429 Y130.164 E2.71087
G1 X129.226 Y130.426 E2.81032
G1 X128.953 Y130.723 E2.93105
G1 X128.457 Y131.096 E3.11711
G1 X128.146 Y131.276 E3.22480
G1 X127.536 Y131.516 E3.42117
G1 X127.032 Y131.657 E3.57799
G1 X126.657 Y131.721 E3.69190
G1 X125.392 Y131.819 E4.07228
G1 X120.468 Y131.819 E5.54774
G1 X119.505 Y131.539 E5.84799
G1 X119.432 Y130.989 E6.01436
G1 X119.432 Y125.352 E7.70347
G1 X119.594 Y124.534 E7.95347
G1 X125.242 Y124.534 E9.64580
G1 X125.550 Y124.506 E9.73846
G1 X126.196 Y124.293 E9.94243
G1 X126.491 Y123.448 E10.21058
G1 X130.401 Y117.352 E12.38070
G92 E0
G1 Z0.900 F7800.000
G1 X119.432 Y117.352 F7800.000
G1 X119.432 Y123.715 E1.90665 F600.000
G1 X120.283 Y128.021 E3.22178
G92 E0
G1 X119.468 Y131.648 F7800.000
G1 X119.468 Y131.648 F7800.000
G1 X125.263 Y123.681 F7800.000
G1 X126.566 Y124.535 E0.46678 F600.000
G1 X126.735 Y124.623 E0.52394
G1 X127.041 Y124.745 E0.62257
G1 X127.783 Y124.974 E0.85543
G1 X128.012 Y125.075 E0.93036
G1 X128.493 Y125.352 E1.09667
G1 X128.716 Y125.504 E1.17750
G1 X129.255 Y126.058 E1.40909
G1 X129.419 Y126.314 E1.50046
G1 X129.630 Y126.708 E1.63417
G1 X129.748 Y127.016 E1.73297
G1 X129.863 Y127.431 E1.86220
G1 X129.951 Y128.269 E2.11448
G1 X129.829 Y129.275 E2.41823
G1 X129.497 Y130.060 E2.67376
G1 X129.429 Y130.164 E2.71087
G1 X129.226 Y130.426 E2.81032
G1 X128.953 Y130.723 E2.93105
G1 X128.457 Y131.096 E3.11711
G1 X128.146 Y131.276 E3.22480
G1 X127.536 Y131.516 E3.42117
G1 X127.032 Y131.657 E3.57799
G1 X126.657 Y131.721 E3.69190
G1 X125.391 Y131.819 E4.07228
G1 X120.468 Y131.819 E5.54774
G1 X119.505 Y131.539 E5.84799
G1 X119.432 Y130.989 E6.01436
G1 X119.432 Y125.352 E7.70347
G1 X119.594 Y124.534 E7.95347
G1 X125.241 Y124.534 E9.64580
G1 X125.550 Y124.506 E9.73846
G1 X126.196 Y124.293 E9.94243
G1 X126.491 Y123.448 E10.21058
G1 X130.401 Y117.352 E12.38070
G92 E0
G1 Z1.200 F7800.000
G1 X119.432 Y117.352 F7800.000
G1 X119.432 Y123.715 E1.90665 F600.000
G1 X120.283 Y128.021 E3.22178
G92 E0
G1 X119.468 Y131.648 F7800.000
G1 X119.468 Y131.648 F7800.000
G1 X125.263 Y123.681 F7800.000
G1 X126.566 Y124.535 E0.46678 F600.000
G1 X126.735 Y124.623 E0.52394
G1 X127.041 Y124.745 E0.62257
G1 X127.783 Y124.974 E0.85543
G1 X128.012 Y125.075 E0.93036
G1 X128.493 Y125.352 E1.09667
G1 X128.716 Y125.504 E1.17750
G1 X129.255 Y126.058 E1.40909
G1 X129.419 Y126.314 E1.50046
G1 X129.630 Y126.708 E1.63417
G1 X129.748 Y127.016 E1.73297
G1 X129.863 Y127.431 E1.86220
G1 X129.951 Y128.269 E2.11448
G1 X129.829 Y129.275 E2.41823
G1 X129.497 Y130.060 E2.67376
G1 X129.429 Y130.164 E2.71087
G1 X129.226 Y130.426 E2.81032
G1 X128.953 Y130.723 E2.93105
G1 X128.457 Y131.096 E3.11711
G1 X128.146 Y131.276 E3.22480
G1 X127.536 Y131.516 E3.42117
G1 X127.032 Y131.657 E3.57799
G1 X126.657 Y131.721 E3.69190
G1 X125.392 Y131.819 E4.07228
G1 X120.468 Y131.819 E5.54774
G1 X119.505 Y131.539 E5.84799
G1 X119.432 Y130.989 E6.01436
G1 X119.432 Y125.352 E7.70347
G1 X119.594 Y124.534 E7.95347
G1 X125.242 Y124.534 E9.64580
G1 X125.550 Y124.506 E9.73846
G1 X126.196 Y124.293 E9.94243
G1 X126.491 Y123.448 E10.21058
G1 X130.401 Y117.352 E12.38070
G92 E0
G1 Z1.500 F7800.000
G1 X119.432 Y117.352 F7800.000
G1 X119.432 Y123.715 E1.90665 F600.000
G1 X120.283 Y128.021 E3.22178
G92 E0
G1 X119.468 Y131.648 F7800.000
G1 X119.468 Y131.648 F7800.000
G1 X125.263 Y123.681 F7800.000
G1 X126.566 Y124.535 E0.46678 F600.000
G1 X126.735 Y124.623 E0.52394
G1 X127.041 Y124.745 E0.62257
G1 X127.783 Y124.974 E0.85543
G1 X128.012 Y125.075 E0.93036
G1 X128.493 Y125.352 E1.09667
G1 X128.716 Y125.504 E1.17750
G1 X129.255 Y126.058 E1.40909
G1 X129.419 Y126.314 E1.50046
G1 X129.630 Y126.708 E1.63417
G1 X129.748 Y127.016 E1.73297
G1 X129.863 Y127.431 E1.86220
G1 X129.951 Y128.269 E2.11448
G1 X129.829 Y129.275 E2.41823
G1 X129.497 Y130.060 E2.67376
G1 X129.429 Y130.164 E2.71087
G1 X129.226 Y130.426 E2.81032
G1 X128.953 Y130.723 E2.93105
G1 X128.457 Y131.096 E3.11711
G1 X128.146 Y131.276 E3.22480
G1 X127.536 Y131.516 E3.42117
G1 X127.032 Y131.657 E3.57799
G1 X126.657 Y131.721 E3.69190
G1 X125.391 Y131.819 E4.07228
G1 X120.468 Y131.819 E5.54774
G1 X119.505 Y131.539 E5.84799
G1 X119.432 Y130.989 E6.01436
G1 X119.432 Y125.352 E7.70347
G1 X119.594 Y124.534 E7.95347
G1 X125.242 Y124.534 E9.64580
G1 X125.550 Y124.506 E9.73846
G1 X126.196 Y124.293 E9.94243
G1 X126.491 Y123.448 E10.21058
G1 X130.401 Y117.352 E12.38070
G92 E0
G1 Z1.800 F7800.000
G1 X119.432 Y117.352 F7800.000
G1 X119.432 Y123.715 E1.90665 F600.000
G1 X120.283 Y128.021 E3.22178
G92 E0
G1 X119.468 Y131.648 F7800.000
G1 X119.468 Y131.648 F7800.000
G1 X125.263 Y123.681 F7800.000
G1 X126.566 Y124.535 E0.46678 F600.000
G1 X126.735 Y124.623 E0.52394
G1 X127.041 Y124.745 E0.62257
G1 X127.783 Y124.974 E0.85543
G1 X128.012 Y125.075 E0.93036
G1 X128.493 Y125.352 E1.09667
G1 X128.716 Y125.504 E1.17750
G1 X129.255 Y126.058 E1.40909
G1 X129.419 Y126.314 E1.50046
G1 X129.630 Y126.708 E1.63417
G1 X129.748 Y127.016 E1.73297
G1 X129.863 Y127.431 E1.86220
G1 X129.951 Y128.269 E2.11448
G1 X129.829 Y129.275 E2.41823
G1 X129.497 Y130.060 E2.67376
G1 X129.429 Y130.164 E2.71087
G1 X129.226 Y130.426 E2.81032
G1 X128.953 Y130.723 E2.93105
G1 X128.457 Y131.096 E3.11711
G1 X128.146 Y131.276 E3.22480
G1 X127.536 Y131.516 E3.42117
G1 X127.032 Y131.657 E3.57799
G1 X126.657 Y131.721 E3.69190
G1 X125.391 Y131.819 E4.07228
G1 X120.468 Y131.819 E5.54774
G1 X119.505 Y131.539 E5.84799
G1 X119.432 Y130.989 E6.01436
G1 X119.432 Y125.352 E7.70347
G1 X119.594 Y124.534 E7.95347
G1 X125.242 Y124.534 E9.64580
G1 X125.550 Y124.506 E9.73846
G1 X126.196 Y124.293 E9.94243
G1 X126.491 Y123.448 E10.21058
G1 X130.401 Y117.352 E12.38070
G92 E0
G1 Z2.100 F7800.000
G1 X119.432 Y117.352 F7800.000
G1 X119.432 Y123.715 E1.90665 F600.000
G1 X120.283 Y128.021 E3.22178
G92 E0
G1 X119.468 Y131.648 F7800.000
G1 X119.468 Y131.648 F7800.000
G1 X125.263 Y123.681 F7800.000
G1 X126.566 Y124.535 E0.46678 F600.000
G1 X126.735 Y124.623 E0.52394
G1 X127.041 Y124.745 E0.62257
G1 X127.783 Y124.974 E0.85543
G1 X128.012 Y125.075 E0.93036
G1 X128.493 Y125.352 E1.09667
G1 X128.716 Y125.504 E1.17750
G1 X129.255 Y126.058 E1.40909
G1 X129.419 Y126.314 E1.50046
G1 X129.630 Y126.708 E1.63417
G1 X129.748 Y127.016 E1.73297
G1 X129.863 Y127.431 E1.86220
G1 X129.951 Y128.269 E2.11448
G1 X129.829 Y129.275 E2.41823
G1 X129.497 Y130.060 E2.67376
G1 X129.429 Y130.164 E2.71087
G1 X129.226 Y130.426 E2.81032
G1 X128.953 Y130.723 E2.93105
G1 X128.457 Y131.096 E3.11711
G1 X128.146 Y131.276 E3.22480
G1 X127.536 Y131.516 E3.42117
G1 X127.032 Y131.657 E3.57799
G1 X126.657 Y131.721 E3.69190
G1 X125.391 Y131.819 E4.07228
G1 X120.468 Y131.819 E5.54774
G1 X119.505 Y131.539 E5.84799
G1 X119.432 Y130.989 E6.01436
G1 X119.432 Y125.352 E7.70347
G1 X119.594 Y124.534 E7.95347
G1 X125.242 Y124.534 E9.64580
G1 X125.550 Y124.506 E9.73846
G1 X126.196 Y124.293 E9.94243
G1 X126.491 Y123.448 E10.21058
G1 X130.401 Y117.352 E12.38070
G92 E0
M107
M104 S0 ; turn off temperature
G28 X0  ; home X axis
M84     ; disable motors

; filament used = 105.0mm (0.8cm3)

; avoid_crossing_perimeters = 1
; bed_shape = 0x0,250x0,250x250,0x250
; bed_temperature = 0
; before_layer_gcode = 
; bridge_acceleration = 0
; bridge_fan_speed = 100
; brim_width = 0
; complete_objects = 0
; cooling = 1
; default_acceleration = 0
; disable_fan_first_layers = 1
; duplicate_distance = 6
; end_gcode = M104 S0 ; turn off temperature\nG28 X0  ; home X axis\nM84     ; disable motors\n
; extruder_clearance_height = 20
; extruder_clearance_radius = 20
; extruder_offset = 0x0
; extrusion_axis = E
; extrusion_multiplier = 3
; fan_always_on = 0
; fan_below_layer_time = 60
; filament_colour = #FFFFFF
; filament_diameter = 3.125
; first_layer_acceleration = 0
; first_layer_bed_temperature = 0
; first_layer_extrusion_width = 150%
; first_layer_speed = 90%
; first_layer_temperature = 30
; gcode_arcs = 0
; gcode_comments = 0
; gcode_flavor = reprap
; infill_acceleration = 0
; infill_first = 0
; layer_gcode = 
; max_fan_speed = 100
; max_print_speed = 80
; max_volumetric_speed = 0
; min_fan_speed = 35
; min_print_speed = 10
; min_skirt_length = 0
; notes = 
; nozzle_diameter = 1.54
; only_retract_when_crossing_perimeters = 1
; ooze_prevention = 0
; output_filename_format = [input_filename_base].gcode
