; generated by Slic3r 1.2.9 on 2016-03-11 at 01:29:27

; external perimeters extrusion width = 1.54mm
; perimeters extrusion width = 2.62mm
; infill extrusion width = 6.27mm
; solid infill extrusion width = 2.62mm
; top infill extrusion width = 2.62mm

M107
M104 S30 ; set temperature
G28 ; home all axes
G1 Z5 F5000 ; lift nozzle
M302
M92 E10000
M500
M501
G1 E100
M109 S30 ; wait for temperature to be reached
G21 ; set units to millimeters
G90 ; use absolute coordinates
M82 ; use absolute distances for extrusion
G92 E0
G1 Z0.300 F7800.000
G1 X114.252 Y97.707 F7800.000
G1 X110.363 Y107.423 E0.47357 F378.000
G1 X108.314 Y107.423 E0.56630
G1 X102.275 Y92.577 E1.29152
G1 X103.934 Y92.577 E1.36660
G1 X105.499 Y96.563 E1.56037
G1 X105.686 Y97.041 E1.58359 F378.000
G1 X112.936 Y97.041 E1.91165
G1 X114.677 Y92.577 E2.12846
G1 X116.306 Y92.577 E2.20217
G1 X114.338 Y97.492 E2.44174
G1 X112.495 Y98.207 F7800.000
G1 X110.219 Y104.086 E2.72701 F378.000
G1 X109.510 Y106.198 E2.82781
G1 X109.111 Y106.197 E2.84587
G1 X108.792 Y105.195 E2.89344
G1 X108.202 Y103.544 E2.97276
G1 X106.138 Y98.207 E3.23171
G1 X112.264 Y98.207 E3.50889 F378.000
G1 X111.372 Y97.267 F7800.000
G1 X112.087 Y97.981 E3.55504 F540.000
G1 X111.536 Y97.981 E3.58020
G1 X110.822 Y97.267 E3.62635
G1 X110.271 Y97.267 E3.65151
G1 X110.985 Y97.981 E3.69766
G1 X110.434 Y97.981 E3.72282
G1 X109.720 Y97.267 E3.76897
G1 X109.170 Y97.267 E3.79414
G1 X109.884 Y97.981 E3.84028
G1 X109.333 Y97.981 E3.86545
G1 X108.619 Y97.267 E3.91159
G1 X108.068 Y97.267 E3.93676
G1 X108.782 Y97.981 E3.98291
G1 X108.231 Y97.981 E4.00807
G1 X107.517 Y97.267 E4.05422
G1 X106.967 Y97.267 E4.07938
G1 X107.681 Y97.981 E4.12553
G1 X107.130 Y97.981 E4.15069
G1 X106.416 Y97.267 E4.19684
G1 X105.865 Y97.267 E4.22201
G1 X106.579 Y97.981 E4.26815
G1 X106.029 Y97.981 E4.29332
G1 X103.885 Y95.837 E4.43187
G1 X103.507 Y94.909 F7800.000
G1 X105.254 Y96.655 E4.54475 F540.000
G1 X104.898 Y95.749 F7800.000
G1 X103.129 Y93.980 E4.65904 F540.000
G1 X102.752 Y93.052 F7800.000
G1 X104.542 Y94.842 E4.77474 F540.000
G1 X104.186 Y93.936 F7800.000
G1 X103.053 Y92.803 E4.84796 F540.000
G1 X103.604 Y92.803 E4.87312
G1 X103.831 Y93.029 E4.88776
G1 X104.262 Y96.765 F7800.000
G1 X105.956 Y98.459 E4.99719 F540.000
G1 X105.017 Y98.622 F7800.000
G1 X106.650 Y100.255 E5.10272 F540.000
G1 X105.773 Y100.479 F7800.000
G1 X107.345 Y102.051 E5.20432 F540.000
G1 X106.528 Y102.335 F7800.000
G1 X108.034 Y103.842 E5.30168 F540.000
G1 X107.283 Y104.192 F7800.000
G1 X108.636 Y105.545 E5.38908 F540.000
G1 X108.038 Y106.049 F7800.000
G1 X109.187 Y107.197 E5.46328 F540.000
G1 X109.737 Y107.197 E5.48845
G1 X108.963 Y106.423 E5.53847
G1 X109.515 Y106.424 E5.56370
G1 X110.246 Y107.154 E5.61089
G1 X110.409 Y106.767 E5.63010
G1 X109.754 Y106.112 E5.67242
G1 X109.892 Y105.700 E5.69229
G1 X110.566 Y106.374 E5.73583
G1 X110.724 Y105.980 E5.75519
G1 X110.031 Y105.288 E5.79995
G1 X110.169 Y104.875 E5.81982
G1 X110.881 Y105.587 E5.86582
G1 X111.038 Y105.194 E5.88517
G1 X110.308 Y104.463 E5.93239
G1 X110.448 Y104.053 E5.95220
G1 X111.196 Y104.800 E6.00050
G1 X111.353 Y104.407 E6.01986
G1 X110.602 Y103.656 E6.06841
G1 X110.756 Y103.259 E6.08786
G1 X111.511 Y104.014 E6.13665
G1 X111.668 Y103.621 E6.15601
G1 X110.909 Y102.862 E6.20504
G1 X111.063 Y102.465 E6.22449
G1 X111.826 Y103.227 E6.27376
G1 X111.983 Y102.834 E6.29312
G1 X111.217 Y102.068 E6.34264
G1 X111.371 Y101.671 E6.36209
G1 X112.140 Y102.441 E6.41185
G1 X112.298 Y102.047 E6.43120
G1 X111.524 Y101.274 E6.48120
G1 X111.678 Y100.877 E6.50066
G1 X112.455 Y101.654 E6.55090
G1 X112.613 Y101.261 E6.57026
G1 X111.832 Y100.480 E6.62074
G1 X111.985 Y100.083 E6.64020
G1 X112.770 Y100.868 E6.69093
G1 X112.928 Y100.474 E6.71028
G1 X112.139 Y99.686 E6.76125
G1 X112.293 Y99.289 E6.78071
G1 X113.085 Y100.081 E6.83192
G1 X113.243 Y99.688 E6.85128
G1 X112.446 Y98.892 E6.90273
G1 X112.600 Y98.495 E6.92219
G1 X113.400 Y99.294 E6.97388
G1 X113.557 Y98.901 E6.99324
G1 X111.923 Y97.267 E7.09885
G1 X112.474 Y97.267 E7.12401
G1 X113.715 Y98.508 E7.20421
G1 X113.872 Y98.115 E7.22357
G1 X113.025 Y97.267 E7.27835
G1 X113.208 Y96.900 E7.29711
G1 X114.030 Y97.721 E7.35021
G1 X114.187 Y97.328 E7.36957
G1 X113.362 Y96.503 E7.42287
G1 X113.517 Y96.107 E7.44230
G1 X114.345 Y96.935 E7.49578
G1 X114.502 Y96.542 E7.51514
G1 X113.671 Y95.711 E7.56881
G1 X113.826 Y95.315 E7.58824
G1 X114.659 Y96.148 E7.64210
G1 X114.817 Y95.755 E7.66146
G1 X113.980 Y94.919 E7.71550
G1 X114.135 Y94.522 E7.73493
G1 X114.974 Y95.362 E7.78917
G1 X115.132 Y94.968 E7.80853
G1 X114.290 Y94.126 E7.86295
G1 X114.444 Y93.730 E7.88238
G1 X115.289 Y94.575 E7.93699
G1 X115.447 Y94.182 E7.95635
G1 X114.599 Y93.334 E8.01115
G1 X114.753 Y92.938 E8.03058
G1 X115.604 Y93.789 E8.08557
G1 X115.761 Y93.395 E8.10493
G1 X115.169 Y92.803 E8.14320
G1 X115.720 Y92.803 E8.16837
G1 X115.919 Y93.002 E8.18122
G92 E0
G1 X106.303 Y99.357 F7800.000
G1 X104.640 Y97.694 E0.10748 F540.000
G1 X105.395 Y99.550 F7800.000
G1 X106.998 Y101.153 E0.21104 F540.000
G1 X106.150 Y101.407 F7800.000
G1 X107.692 Y102.949 E0.31069 F540.000
G1 X106.906 Y103.264 F7800.000
G1 X108.340 Y104.698 E0.40340 F540.000
G1 X107.661 Y105.120 F7800.000
G1 X108.893 Y106.352 E0.48302 F540.000
G1 X108.416 Y106.977 F7800.000
G1 X108.636 Y107.197 E0.49723 F540.000
G92 E0
G1 X105.839 Y96.816 F7800.000
G1 X105.451 Y91.817 F7800.000
G1 X104.087 Y91.352 F7800.000
G1 X99.255 Y93.445 F7800.000
G1 X99.222 Y94.098 F7800.000
G1 X96.569 Y92.352 F7800.000
G1 X93.635 Y96.400 F7800.000
G1 X91.866 Y99.088 E0.14562 F378.000
G1 X93.222 Y99.461 E0.20927
G1 X94.089 Y99.924 E0.25377
G1 X94.795 Y100.565 E0.29688
G1 X95.316 Y101.351 E0.33957
G1 X95.629 Y102.254 E0.38280
G1 X95.734 Y103.277 E0.42934
G1 X95.585 Y104.492 E0.48472
G1 X95.144 Y105.500 E0.53451
G1 X94.409 Y106.318 E0.58427
G1 X93.395 Y106.927 E0.63780
G1 X92.114 Y107.297 E0.69812
G1 X90.554 Y107.423 E0.76896
G1 X83.587 Y107.423 E1.08421
G1 X83.587 Y92.577 E1.75598
G1 X85.208 Y92.577 E1.82933
G1 X85.208 Y98.940 E2.11725
G1 X90.331 Y98.940 E2.34910 F378.000
G1 X94.307 Y92.577 E2.68861
G1 X96.151 Y92.577 E2.77204
G1 X93.762 Y96.207 E2.96867
G92 E0
G1 X94.481 Y101.494 F7800.000
G1 X94.481 Y101.494 F7800.000
G1 X92.395 Y100.485 F7800.000
G1 X93.130 Y100.943 E0.03920 F378.000
G1 X93.674 Y101.573 E0.07688
G1 X93.999 Y102.349 E0.11494
G1 X94.105 Y103.258 E0.15632
G1 X93.997 Y104.137 E0.19640
G1 X93.665 Y104.880 E0.23323
G1 X93.111 Y105.469 E0.26984
G1 X92.362 Y105.888 E0.30865
G1 X91.443 Y106.134 E0.35169
G1 X90.365 Y106.214 E0.40063
G1 X85.208 Y106.214 E0.63399
G1 X85.208 Y100.127 E0.90943
G1 X90.453 Y100.127 E1.14678 F378.000
G1 X91.497 Y100.215 E1.19419
G1 X92.173 Y100.418 E1.22614
G1 X92.433 Y100.232 F7800.000
G1 X91.428 Y99.227 E1.29091 F540.000
G1 X91.714 Y98.964 E1.30863
G1 X90.995 Y98.245 E1.35496
G1 X91.207 Y97.907 E1.37313
G1 X91.932 Y98.633 E1.41990
G1 X92.150 Y98.302 E1.43798
G1 X91.418 Y97.569 E1.48519
G1 X91.629 Y97.231 E1.50336
G1 X92.368 Y97.970 E1.55101
G1 X92.586 Y97.639 E1.56909
G1 X91.840 Y96.893 E1.61717
G1 X92.052 Y96.555 E1.63535
G1 X92.804 Y97.308 E1.68387
G1 X93.023 Y96.976 E1.70195
G1 X92.263 Y96.217 E1.75091
G1 X92.474 Y95.879 E1.76908
G1 X93.241 Y96.645 E1.81848
G1 X93.459 Y96.314 E1.83656
G1 X92.685 Y95.541 E1.88640
G1 X92.897 Y95.203 E1.90457
G1 X93.677 Y95.983 E1.95485
G1 X93.895 Y95.651 E1.97293
G1 X93.108 Y94.864 E2.02365
G1 X93.319 Y94.526 E2.04182
G1 X94.113 Y95.320 E2.09298
G1 X94.331 Y94.989 E2.11105
G1 X93.531 Y94.188 E2.16265
G1 X93.742 Y93.850 E2.18082
G1 X94.549 Y94.657 E2.23285
G1 X94.767 Y94.326 E2.25093
G1 X93.953 Y93.512 E2.30340
G1 X94.164 Y93.174 E2.32157
G1 X94.985 Y93.995 E2.37449
G1 X95.203 Y93.664 E2.39256
G1 X94.376 Y92.836 E2.44591
G1 X94.892 Y92.803 E2.46950
G1 X95.421 Y93.332 E2.50362
G1 X95.441 Y92.803 E2.52776
G1 X95.639 Y93.001 E2.54053
G92 E0
G1 X94.481 Y101.494 F7800.000
G1 X94.481 Y101.494 F7800.000
G1 X92.944 Y99.645 F7800.000
G1 X95.252 Y101.953 E0.14879 F540.000
G1 X95.438 Y102.688 E0.18334
G1 X92.186 Y99.436 E0.39295
G1 X91.496 Y99.295 E0.42504
G1 X90.784 Y98.583 E0.47093
G1 X90.573 Y98.921 E0.48910
G1 X91.647 Y99.995 E0.55833
G1 X91.045 Y99.943 E0.58588
G1 X90.268 Y99.166 E0.63595
G1 X89.719 Y99.166 E0.66099
G1 X90.454 Y99.901 E0.70838
G1 X89.904 Y99.901 E0.73342
G1 X89.169 Y99.166 E0.78080
G1 X88.620 Y99.166 E0.80584
G1 X89.355 Y99.901 E0.85323
G1 X88.806 Y99.901 E0.87827
G1 X88.071 Y99.166 E0.92565
G1 X87.521 Y99.166 E0.95069
G1 X88.256 Y99.901 E0.99807
G1 X87.707 Y99.901 E1.02311
G1 X86.972 Y99.166 E1.07050
G1 X86.423 Y99.166 E1.09554
G1 X87.158 Y99.901 E1.14292
G1 X86.608 Y99.901 E1.16796
G1 X85.873 Y99.166 E1.21535
G1 X85.324 Y99.166 E1.24039
G1 X86.059 Y99.901 E1.28777
G1 X85.510 Y99.901 E1.31281
G1 X83.813 Y98.204 E1.42221
G1 X83.813 Y98.753 E1.44725
G1 X84.982 Y99.922 E1.52261
G1 X84.982 Y100.472 E1.54765
G1 X83.813 Y99.303 E1.62301
G1 X83.813 Y99.852 E1.64805
G1 X84.982 Y101.021 E1.72341
G1 X84.982 Y101.570 E1.74845
G1 X83.813 Y100.401 E1.82381
G1 X83.813 Y100.951 E1.84885
G1 X84.982 Y102.120 E1.92421
G1 X84.982 Y102.669 E1.94925
G1 X83.813 Y101.500 E2.02461
G1 X83.813 Y102.049 E2.04965
G1 X84.982 Y103.218 E2.12501
G1 X84.982 Y103.768 E2.15005
G1 X83.813 Y102.599 E2.22541
G1 X83.813 Y103.148 E2.25045
G1 X84.982 Y104.317 E2.32581
G1 X84.982 Y104.866 E2.35085
G1 X83.813 Y103.697 E2.42621
G1 X83.813 Y104.247 E2.45125
G1 X84.982 Y105.416 E2.52661
G1 X84.982 Y105.965 E2.55165
G1 X83.813 Y104.796 E2.62701
G1 X83.813 Y105.345 E2.65205
G1 X85.664 Y107.197 E2.77141
G1 X86.214 Y107.197 E2.79644
G1 X85.456 Y106.440 E2.84525
G1 X86.006 Y106.440 E2.87029
G1 X86.763 Y107.197 E2.91909
G1 X87.312 Y107.197 E2.94413
G1 X86.555 Y106.440 E2.99293
G1 X87.104 Y106.440 E3.01797
G1 X87.862 Y107.197 E3.06678
G1 X88.411 Y107.197 E3.09181
G1 X87.654 Y106.440 E3.14062
G1 X88.203 Y106.440 E3.16566
G1 X88.960 Y107.197 E3.21446
G1 X89.510 Y107.197 E3.23950
G1 X88.753 Y106.440 E3.28830
G1 X89.302 Y106.440 E3.31334
G1 X90.059 Y107.197 E3.36214
G1 X90.608 Y107.197 E3.38718
G1 X89.851 Y106.440 E3.43599
G1 X90.393 Y106.433 E3.46070
G1 X91.118 Y107.157 E3.50740
G1 X91.626 Y107.116 E3.53065
G1 X90.905 Y106.395 E3.57715
G1 X91.416 Y106.356 E3.60051
G1 X92.135 Y107.075 E3.64685
G1 X92.562 Y106.953 E3.66709
G1 X91.849 Y106.241 E3.71301
G1 X92.283 Y106.125 E3.73346
G1 X92.988 Y106.830 E3.77891
G1 X93.402 Y106.694 E3.79876
G1 X92.656 Y105.949 E3.84682
G1 X93.008 Y105.752 E3.86521
G1 X93.745 Y106.488 E3.91269
G1 X94.088 Y106.282 E3.93093
G1 X93.326 Y105.520 E3.98003
G1 X93.593 Y105.237 E3.99774
G1 X94.389 Y106.034 E4.04910
G1 X94.658 Y105.753 E4.06681
G1 X93.853 Y104.948 E4.11867
G1 X94.023 Y104.569 E4.13763
G1 X94.918 Y105.464 E4.19532
G1 X95.101 Y105.098 E4.21397
G1 X94.192 Y104.189 E4.27256
G1 X94.267 Y103.714 E4.29446
G1 X95.269 Y104.716 E4.35900
G1 X95.392 Y104.290 E4.37923
G1 X94.327 Y103.225 E4.44783
G1 X94.268 Y102.616 E4.47572
G1 X95.452 Y103.800 E4.55205
G1 X95.501 Y103.300 E4.57496
G1 X94.094 Y101.893 E4.66566
G92 E0
G1 X94.481 Y101.494 F7800.000
G1 X94.481 Y101.494 F7800.000
G1 X84.982 Y98.824 F7800.000
G1 X83.813 Y97.655 E0.07536 F540.000
G1 X83.813 Y97.105 E0.10040
G1 X84.982 Y98.274 E0.17576
G1 X84.982 Y97.725 E0.20080
G1 X83.813 Y96.556 E0.27616
G1 X83.813 Y96.007 E0.30120
G1 X84.982 Y97.176 E0.37656
G1 X84.982 Y96.626 E0.40160
G1 X83.813 Y95.457 E0.47696
G1 X83.813 Y94.908 E0.50200
G1 X84.982 Y96.077 E0.57736
G1 X84.982 Y95.528 E0.60240
G1 X83.813 Y94.359 E0.67776
G1 X83.813 Y93.809 E0.70280
G1 X84.982 Y94.978 E0.77816
G1 X84.982 Y94.429 E0.80320
G1 X83.813 Y93.260 E0.87856
G1 X83.905 Y92.803 E0.89981
G1 X84.982 Y93.880 E0.96921
G1 X84.982 Y93.330 E0.99425
G1 X84.454 Y92.803 E1.02825
G1 X83.813 Y105.895 F7800.000
G1 X85.115 Y107.197 E1.11219 F540.000
G1 X84.566 Y107.197 E1.13723
G1 X83.813 Y106.444 E1.18576
G1 X83.813 Y106.993 E1.21080
G1 X84.016 Y107.197 E1.22393
M106 S255
G92 E0
G1 Z0.600 F7800.000
G1 X107.318 Y100.633 F7800.000
G1 X104.941 Y97.168 E1.25890 F600.000
G1 X103.016 Y92.352 E2.81311
G92 E0
G1 X113.702 Y94.457 F7800.000
G1 X113.049 Y98.774 E1.30814 F600.000
G1 X110.865 Y104.320 E3.09418
G1 X110.157 Y106.245 E3.70872
G1 X109.889 Y106.723 E3.87305
G1 X109.346 Y106.810 E4.03793
G1 X108.776 Y106.736 E4.21016
G1 X108.482 Y106.225 E4.38678
G1 X107.566 Y103.781 E5.16886
G1 X105.580 Y98.775 E6.78268
G1 X105.443 Y97.900 E7.04819
G1 X105.839 Y97.746 E7.17570
G1 X106.466 Y97.624 E7.36708
G1 X112.166 Y97.624 E9.07506
G1 X112.782 Y97.741 E9.26297
G1 X113.182 Y97.894 E9.39110
G1 X113.677 Y97.165 E9.65512
G1 X115.579 Y92.352 E11.20582
G92 E0
G1 X101.940 Y91.352 F7800.000
G1 X93.074 Y91.659 F7800.000
G1 X87.433 Y92.352 F7800.000
G1 X85.433 Y92.352 F7800.000
G1 X84.397 Y92.352 F7800.000
G1 X84.397 Y98.715 E1.90665 F600.000
G1 X85.248 Y103.021 E3.22178
G92 E0
G1 X84.433 Y106.648 F7800.000
G1 X84.433 Y106.648 F7800.000
G1 X90.228 Y98.681 F7800.000
G1 X91.531 Y99.535 E0.46678 F600.000
G1 X91.700 Y99.623 E0.52394
G1 X92.006 Y99.745 E0.62257
G1 X92.748 Y99.974 E0.85543
G1 X92.977 Y100.075 E0.93036
G1 X93.458 Y100.352 E1.09667
G1 X93.681 Y100.504 E1.17750
G1 X94.220 Y101.058 E1.40909
G1 X94.385 Y101.314 E1.50046
G1 X94.595 Y101.708 E1.63417
G1 X94.713 Y102.016 E1.73297
G1 X94.828 Y102.431 E1.86220
G1 X94.916 Y103.269 E2.11448
G1 X94.794 Y104.275 E2.41823
G1 X94.462 Y105.060 E2.67376
G1 X94.394 Y105.164 E2.71087
G1 X94.191 Y105.426 E2.81032
G1 X93.918 Y105.723 E2.93105
G1 X93.422 Y106.096 E3.11711
G1 X93.111 Y106.276 E3.22480
G1 X92.501 Y106.516 E3.42117
G1 X91.997 Y106.657 E3.57799
G1 X91.622 Y106.721 E3.69190
G1 X90.357 Y106.818 E4.07228
G1 X85.433 Y106.818 E5.54774
G1 X84.470 Y106.539 E5.84799
G1 X84.397 Y105.989 E6.01436
G1 X84.397 Y100.352 E7.70347
G1 X84.559 Y99.533 E7.95347
G1 X90.207 Y99.533 E9.64580
G1 X90.515 Y99.506 E9.73846
G1 X91.161 Y99.293 E9.94243
G1 X91.456 Y98.448 E10.21058
G1 X95.367 Y92.352 E12.38070
G92 E0
G1 Z0.900 F7800.000
G1 X107.318 Y100.633 F7800.000
G1 X104.941 Y97.168 E1.25890 F600.000
G1 X103.016 Y92.352 E2.81311
G92 E0
G1 X113.702 Y94.457 F7800.000
G1 X113.049 Y98.774 E1.30814 F600.000
G1 X110.865 Y104.320 E3.09418
G1 X110.157 Y106.245 E3.70872
G1 X109.889 Y106.723 E3.87305
G1 X109.346 Y106.810 E4.03793
G1 X108.776 Y106.736 E4.21016
G1 X108.482 Y106.225 E4.38678
G1 X107.566 Y103.781 E5.16886
G1 X105.580 Y98.775 E6.78268
G1 X105.443 Y97.900 E7.04819
G1 X105.839 Y97.746 E7.17570
G1 X106.466 Y97.624 E7.36708
G1 X112.166 Y97.624 E9.07506
G1 X112.782 Y97.741 E9.26297
G1 X113.182 Y97.894 E9.39110
G1 X113.677 Y97.165 E9.65512
G1 X115.579 Y92.352 E11.20582
G92 E0
G1 X101.940 Y91.352 F7800.000
G1 X93.074 Y91.659 F7800.000
G1 X87.433 Y92.352 F7800.000
G1 X85.433 Y92.352 F7800.000
G1 X84.397 Y92.352 F7800.000
G1 X84.397 Y98.715 E1.90665 F600.000
G1 X85.248 Y103.021 E3.22178
G92 E0
G1 X84.433 Y106.648 F7800.000
G1 X84.433 Y106.648 F7800.000
G1 X90.228 Y98.681 F7800.000
G1 X91.531 Y99.535 E0.46678 F600.000
G1 X91.700 Y99.623 E0.52394
G1 X92.006 Y99.745 E0.62257
G1 X92.748 Y99.974 E0.85543
G1 X92.977 Y100.075 E0.93036
G1 X93.458 Y100.352 E1.09667
G1 X93.681 Y100.504 E1.17750
G1 X94.220 Y101.058 E1.40909
G1 X94.385 Y101.314 E1.50046
G1 X94.595 Y101.708 E1.63417
G1 X94.713 Y102.016 E1.73297
G1 X94.828 Y102.431 E1.86220
G1 X94.916 Y103.269 E2.11448
G1 X94.794 Y104.275 E2.41823
G1 X94.462 Y105.060 E2.67376
G1 X94.394 Y105.164 E2.71087
G1 X94.191 Y105.426 E2.81032
G1 X93.918 Y105.723 E2.93105
G1 X93.422 Y106.096 E3.11711
G1 X93.111 Y106.276 E3.22480
G1 X92.501 Y106.516 E3.42117
G1 X91.997 Y106.657 E3.57799
G1 X91.622 Y106.721 E3.69190
G1 X90.357 Y106.818 E4.07228
G1 X85.433 Y106.818 E5.54774
G1 X84.470 Y106.539 E5.84799
G1 X84.397 Y105.989 E6.01436
G1 X84.397 Y100.352 E7.70347
G1 X84.559 Y99.533 E7.95347
G1 X90.207 Y99.533 E9.64580
G1 X90.515 Y99.506 E9.73846
G1 X91.161 Y99.293 E9.94243
G1 X91.456 Y98.448 E10.21058
G1 X95.367 Y92.352 E12.38070
G92 E0
G1 Z1.200 F7800.000
G1 X107.318 Y100.633 F7800.000
G1 X104.941 Y97.168 E1.25890 F600.000
G1 X103.016 Y92.352 E2.81311
G92 E0
G1 X113.702 Y94.457 F7800.000
G1 X113.049 Y98.774 E1.30814 F600.000
G1 X110.865 Y104.320 E3.09418
G1 X110.157 Y106.245 E3.70872
