; generated by Slic3r 1.2.9 on 2016-03-11 at 01:29:28

; external perimeters extrusion width = 1.54mm
; perimeters extrusion width = 2.62mm
; infill extrusion width = 6.27mm
; solid infill extrusion width = 2.62mm
; top infill extrusion width = 2.62mm

M107
M104 S30 ; set temperature
G28 ; home all axes
G1 Z5 F5000 ; lift nozzle
M302
M92 E10000
M500
M501
G1 E100
M109 S30 ; wait for temperature to be reached
G21 ; set units to millimeters
G90 ; use absolute coordinates
M82 ; use absolute distances for extrusion
G92 E0
G1 Z0.300 F7800.000
G1 X113.329 Y106.595 F7800.000
G1 X112.718 Y107.019 E0.03363 F378.000
G1 X109.805 Y107.423 E0.16673
G1 X104.503 Y107.423 E0.40662
G1 X104.503 Y92.577 E1.07839
G1 X110.461 Y92.577 E1.34796
G1 X111.962 Y92.693 E1.41607
G1 X112.062 Y92.700 E1.42065 F378.000
G1 X113.389 Y93.064 E1.48291
G1 X114.453 Y93.663 E1.53815
G1 X115.228 Y94.467 E1.58867
G1 X115.692 Y95.456 E1.63812
G1 X115.849 Y96.650 E1.69260
G1 X115.746 Y97.552 E1.73370
G1 X115.439 Y98.339 E1.77188
G1 X114.929 Y99.016 E1.81025
G1 X114.226 Y99.561 E1.85048
G1 X113.340 Y99.946 E1.89422
G1 X112.221 Y100.177 E1.94593
G1 X112.197 Y100.600 E1.96506
G1 X113.051 Y100.878 E2.00568
G1 X113.721 Y101.267 E2.04074
G1 X114.256 Y101.778 E2.07424
G1 X114.647 Y102.398 E2.10738
G1 X114.883 Y103.110 E2.14133
G1 X114.960 Y103.901 E2.17730
G1 X114.398 Y105.853 E2.26921
G1 X113.519 Y106.463 E2.31763
G92 E0
G1 X114.174 Y103.829 F7800.000
G1 X114.137 Y103.683 F7800.000
G1 X114.094 Y103.277 F7800.000
G1 X114.039 Y103.026 F7800.000
G1 X112.387 Y99.420 F7800.000
G1 X110.214 Y99.729 E0.09930 F378.000
G1 X106.124 Y99.729 E0.28437
G1 X106.124 Y93.786 E0.55329
G1 X110.369 Y93.786 E0.74535 F378.000
G1 X111.544 Y93.866 E0.79866
G1 X112.512 Y94.113 E0.84386
G1 X113.262 Y94.537 E0.88284
G1 X113.793 Y95.139 E0.91915
G1 X114.107 Y95.902 E0.95651
G1 X114.212 Y96.831 E0.99878
G1 X113.758 Y98.445 E1.07466
G1 X112.575 Y99.286 E1.14033
G1 X111.736 Y101.188 F7800.000
G1 X112.431 Y101.567 E1.17616 F378.000
G1 X112.936 Y102.117 E1.20992
G1 X113.236 Y102.825 E1.24473
G1 X113.333 Y103.676 E1.28349
G1 X113.231 Y104.489 E1.32057
G1 X112.916 Y105.154 E1.35386
G1 X112.389 Y105.643 E1.38640
G1 X111.688 Y105.966 E1.42131
G1 X110.833 Y106.153 E1.46092
G1 X109.826 Y106.214 E1.50657
G1 X106.124 Y106.214 E1.67407
G1 X106.124 Y100.895 E1.91475
G1 X109.827 Y100.895 E2.08230 F378.000
G1 X110.865 Y100.967 E2.12938
G1 X111.512 Y101.131 E2.15959
G1 X111.987 Y100.912 F7800.000
G1 X112.715 Y101.227 E2.23738 F540.000
G1 X112.047 Y99.839 F7800.000
G1 X112.483 Y99.763 E2.28083 F540.000
G1 X112.904 Y99.589 E2.32544
G1 X113.108 Y99.394 F7800.000
G1 X113.411 Y99.697 E2.34502 F540.000
G1 X113.795 Y99.530 E2.36416
G1 X113.284 Y99.019 E2.39717
G1 X113.606 Y98.790 E2.41523
G1 X114.173 Y99.357 E2.45188
G1 X114.484 Y99.117 E2.46984
G1 X113.928 Y98.561 E2.50574
G1 X114.058 Y98.141 E2.52588
G1 X114.793 Y98.875 E2.57336
G1 X115.030 Y98.561 E2.59134
G1 X114.179 Y97.710 E2.64632
G1 X114.300 Y97.280 E2.66674
G1 X115.261 Y98.241 E2.72884
G1 X115.415 Y97.844 E2.74829
G1 X114.421 Y96.850 E2.81257
G1 X114.385 Y96.263 E2.83945
G1 X115.542 Y97.420 E2.91426
G1 X115.599 Y96.926 E2.93702
G1 X114.264 Y95.591 E3.02332
G1 X115.055 Y94.729 F7800.000
G1 X114.116 Y93.791 E3.08401 F540.000
G1 X112.989 Y93.214 F7800.000
G1 X115.486 Y95.712 E3.24546 F540.000
G1 X115.569 Y96.346 E3.27470
G1 X112.230 Y93.006 E3.49062
G1 X111.568 Y92.895 E3.52128
G1 X112.535 Y93.862 E3.58376
G1 X111.795 Y93.673 E3.61865
G1 X110.971 Y92.849 E3.67192
G1 X110.374 Y92.804 E3.69929
G1 X111.180 Y93.609 E3.75136
G1 X110.589 Y93.569 E3.77845
G1 X109.823 Y92.803 E3.82796
G1 X109.272 Y92.803 E3.85315
G1 X110.029 Y93.560 E3.90209
G1 X109.478 Y93.560 E3.92728
G1 X108.721 Y92.803 E3.97623
G1 X108.170 Y92.803 E4.00142
G1 X108.927 Y93.560 E4.05036
G1 X108.376 Y93.560 E4.07555
G1 X107.619 Y92.803 E4.12450
G1 X107.068 Y92.803 E4.14969
G1 X107.825 Y93.560 E4.19864
G1 X107.274 Y93.560 E4.22382
G1 X106.517 Y92.803 E4.27277
G1 X105.966 Y92.803 E4.29796
G1 X106.723 Y93.560 E4.34691
G1 X106.172 Y93.560 E4.37209
G1 X105.415 Y92.803 E4.42104
G1 X104.864 Y92.803 E4.44623
G1 X105.898 Y93.837 E4.51310
G1 X105.898 Y94.388 E4.53829
G1 X104.729 Y93.219 E4.61387
G1 X104.729 Y93.770 E4.63906
G1 X105.898 Y94.939 E4.71465
G1 X105.898 Y95.490 E4.73984
G1 X104.729 Y94.321 E4.81542
G1 X104.729 Y94.872 E4.84061
G1 X105.898 Y96.041 E4.91619
G1 X105.898 Y96.592 E4.94138
G1 X104.729 Y95.423 E5.01696
G1 X104.729 Y95.974 E5.04215
G1 X105.898 Y97.143 E5.11774
G1 X105.898 Y97.694 E5.14292
G1 X104.729 Y96.525 E5.21851
G1 X104.729 Y97.076 E5.24370
G1 X105.898 Y98.245 E5.31928
G1 X105.898 Y98.796 E5.34447
G1 X104.729 Y97.627 E5.42005
G1 X104.729 Y98.178 E5.44524
G1 X105.898 Y99.347 E5.52082
G1 X105.898 Y99.898 E5.54601
G1 X104.729 Y98.729 E5.62160
G1 X104.729 Y99.280 E5.64679
G1 X106.118 Y100.669 E5.73660
G1 X105.898 Y101.000 F7800.000
G1 X104.729 Y99.831 E5.81218 F540.000
G1 X104.729 Y100.382 E5.83737
G1 X105.898 Y101.551 E5.91296
G1 X105.898 Y102.102 E5.93814
G1 X104.729 Y100.933 E6.01373
G1 X104.729 Y101.484 E6.03892
G1 X105.898 Y102.653 E6.11450
G1 X105.898 Y103.204 E6.13969
G1 X104.729 Y102.035 E6.21527
G1 X104.729 Y102.586 E6.24046
G1 X105.898 Y103.755 E6.31604
G1 X105.898 Y104.306 E6.34123
G1 X104.729 Y103.137 E6.41682
G1 X104.729 Y103.688 E6.44200
G1 X105.898 Y104.857 E6.51759
G1 X105.898 Y105.408 E6.54278
G1 X104.729 Y104.239 E6.61836
G1 X104.729 Y104.790 E6.64355
G1 X105.898 Y105.959 E6.71913
G1 X105.829 Y106.440 E6.74137
G1 X106.586 Y107.197 E6.79031
G1 X107.137 Y107.197 E6.81550
G1 X106.380 Y106.440 E6.86445
G1 X105.898 Y106.510 E6.88668
G1 X104.729 Y105.341 E6.96226
G1 X104.729 Y105.892 E6.98745
G1 X106.035 Y107.197 E7.07186
G1 X105.484 Y107.197 E7.09705
G1 X104.729 Y106.442 E7.14583
G1 X104.729 Y106.993 E7.17102
G1 X104.933 Y107.197 E7.18418
G1 X106.931 Y106.440 F7800.000
G1 X107.688 Y107.197 E7.23313 F540.000
G1 X108.239 Y107.197 E7.25831
G1 X107.482 Y106.440 E7.30726
G1 X108.033 Y106.440 E7.33245
G1 X108.790 Y107.197 E7.38140
G1 X109.341 Y107.197 E7.40659
G1 X108.584 Y106.440 E7.45553
G1 X109.135 Y106.440 E7.48072
G1 X109.888 Y107.194 E7.52946
G1 X110.372 Y107.127 E7.55179
G1 X109.686 Y106.440 E7.59619
G1 X110.209 Y106.412 E7.62015
G1 X110.856 Y107.060 E7.66199
G1 X111.340 Y106.992 E7.68432
G1 X110.728 Y106.381 E7.72385
G1 X111.189 Y106.290 E7.74530
G1 X111.824 Y106.925 E7.78634
G1 X112.307 Y106.858 E7.80867
G1 X111.641 Y106.191 E7.85177
G1 X112.029 Y106.028 E7.87100
G1 X112.757 Y106.756 E7.91805
G1 X113.082 Y106.530 E7.93615
G1 X112.406 Y105.855 E7.97982
G1 X112.710 Y105.608 E7.99773
G1 X113.407 Y106.305 E8.04279
G1 X113.732 Y106.079 E8.06089
G1 X112.996 Y105.342 E8.10851
G1 X113.208 Y105.003 E8.12679
G1 X114.057 Y105.853 E8.18173
G1 X114.278 Y105.523 E8.19989
G1 X113.385 Y104.630 E8.25764
G1 X113.488 Y104.182 E8.27865
G1 X114.401 Y105.095 E8.33770
G1 X114.525 Y104.667 E8.35805
G1 X113.549 Y103.692 E8.42111
G1 X113.504 Y103.096 E8.44845
G1 X114.648 Y104.240 E8.52240
G1 X114.710 Y103.751 E8.54492
G1 X113.331 Y102.371 E8.63411
G1 X112.874 Y101.364 F7800.000
G1 X114.610 Y103.100 E8.74636 F540.000
G1 X111.800 Y100.840 F7800.000
G1 X110.819 Y99.860 E8.80972 F540.000
G1 X111.302 Y99.792 E8.83199
G1 X111.897 Y100.387 E8.87048
G1 X111.204 Y100.796 F7800.000
G1 X110.337 Y99.929 E8.92656 F540.000
G1 X109.812 Y99.955 E8.95059
G1 X110.571 Y100.714 E8.99966
G1 X109.979 Y100.673 E9.02678
G1 X109.261 Y99.955 E9.07321
G1 X108.710 Y99.955 E9.09840
G1 X109.424 Y100.669 E9.14457
G1 X108.873 Y100.669 E9.16976
G1 X108.159 Y99.955 E9.21593
G1 X107.608 Y99.955 E9.24111
G1 X108.322 Y100.669 E9.28728
G1 X107.771 Y100.669 E9.31247
G1 X107.057 Y99.955 E9.35864
G1 X106.506 Y99.955 E9.38383
G1 X107.220 Y100.669 E9.42999
G1 X106.669 Y100.669 E9.45518
G1 X105.955 Y99.955 E9.50135
G92 E0
G1 X104.278 Y92.352 F7800.000
G1 X97.132 Y91.352 F7800.000
G1 X89.562 Y93.918 F7800.000
G1 X87.996 Y92.352 F7800.000
G1 X85.996 Y92.352 F7800.000
G1 X85.771 Y96.136 F7800.000
G1 X85.771 Y98.940 E0.12689 F378.000
G1 X90.894 Y98.940 E0.35874 F378.000
G1 X94.870 Y92.577 E0.69825
G1 X96.714 Y92.577 E0.78168
G1 X92.429 Y99.088 E1.13438
G1 X93.785 Y99.461 E1.19804
G1 X94.652 Y99.924 E1.24253
G1 X95.358 Y100.565 E1.28564
G1 X95.879 Y101.351 E1.32833
G1 X96.192 Y102.254 E1.37156
G1 X96.297 Y103.277 E1.41810
G1 X96.148 Y104.492 E1.47348
G1 X95.707 Y105.500 E1.52327
G1 X94.972 Y106.318 E1.57303
G1 X93.958 Y106.927 E1.62656
G1 X92.677 Y107.297 E1.68688
G1 X91.117 Y107.423 E1.75772
G1 X84.150 Y107.423 E2.07297
G1 X84.150 Y92.577 E2.74474
G1 X85.771 Y92.577 E2.81809
G1 X85.771 Y95.905 E2.96867
G1 X85.771 Y100.127 F7800.000
G1 X91.016 Y100.127 E3.20602 F378.000
G1 X92.060 Y100.215 E3.25344
G1 X92.958 Y100.485 E3.29584
G1 X93.693 Y100.943 E3.33504
G1 X94.237 Y101.573 E3.37271
G1 X94.562 Y102.349 E3.41078
G1 X94.668 Y103.258 E3.45216
G1 X94.560 Y104.137 E3.49224
G1 X94.228 Y104.880 E3.52906
G1 X93.674 Y105.469 E3.56568
G1 X92.925 Y105.888 E3.60449
G1 X92.006 Y106.134 E3.64753
G1 X90.928 Y106.214 E3.69647
G1 X85.771 Y106.214 E3.92983
G1 X85.771 Y100.358 E4.19481
G1 X85.545 Y98.824 F7800.000
G1 X84.376 Y97.655 E4.27017 F540.000
G1 X84.376 Y97.105 E4.29521
G1 X85.545 Y98.274 E4.37057
G1 X85.545 Y97.725 E4.39561
G1 X84.376 Y96.556 E4.47097
G1 X84.376 Y96.007 E4.49601
G1 X85.545 Y97.176 E4.57137
G1 X85.545 Y96.626 E4.59641
G1 X84.376 Y95.457 E4.67177
G1 X84.376 Y94.908 E4.69681
G1 X85.545 Y96.077 E4.77217
G1 X85.545 Y95.528 E4.79721
G1 X84.376 Y94.359 E4.87257
G1 X84.376 Y93.809 E4.89761
G1 X85.545 Y94.978 E4.97297
G1 X85.545 Y94.429 E4.99801
G1 X84.376 Y93.260 E5.07337
G1 X84.468 Y92.803 E5.09462
G1 X85.545 Y93.880 E5.16402
G1 X85.545 Y93.330 E5.18906
G1 X85.017 Y92.803 E5.22306
G92 E0
G1 X84.996 Y93.352 F7800.000
G1 X84.996 Y93.352 F7800.000
G1 X92.996 Y100.232 F7800.000
G1 X91.991 Y99.227 E0.06477 F540.000
G1 X92.277 Y98.964 E0.08249
G1 X91.558 Y98.245 E0.12882
G1 X91.770 Y97.907 E0.14699
G1 X92.495 Y98.633 E0.19376
G1 X92.713 Y98.302 E0.21184
G1 X91.981 Y97.569 E0.25905
G1 X92.192 Y97.231 E0.27722
G1 X92.931 Y97.970 E0.32487
G1 X93.149 Y97.639 E0.34295
G1 X92.403 Y96.893 E0.39103
G1 X92.615 Y96.555 E0.40921
G1 X93.367 Y97.308 E0.45773
G1 X93.586 Y96.976 E0.47581
G1 X92.826 Y96.217 E0.52477
G1 X93.037 Y95.879 E0.54294
G1 X93.804 Y96.645 E0.59234
G1 X94.022 Y96.314 E0.61042
G1 X93.248 Y95.541 E0.66026
G1 X93.460 Y95.203 E0.67843
G1 X94.240 Y95.983 E0.72871
G1 X94.458 Y95.651 E0.74679
G1 X93.671 Y94.864 E0.79751
G1 X93.882 Y94.526 E0.81568
G1 X94.676 Y95.320 E0.86684
G1 X94.894 Y94.989 E0.88491
G1 X94.094 Y94.188 E0.93651
G1 X94.305 Y93.850 E0.95468
G1 X95.112 Y94.657 E1.00671
G1 X95.330 Y94.326 E1.02479
G1 X94.516 Y93.512 E1.07726
G1 X94.727 Y93.174 E1.09543
G1 X95.548 Y93.995 E1.14835
G1 X95.766 Y93.664 E1.16642
G1 X94.939 Y92.836 E1.21977
G1 X95.455 Y92.803 E1.24336
G1 X95.984 Y93.332 E1.27748
G1 X96.004 Y92.803 E1.30162
G1 X96.202 Y93.001 E1.31439
G92 E0
G1 X95.044 Y101.494 F7800.000
G1 X95.044 Y101.494 F7800.000
G1 X93.507 Y99.645 F7800.000
G1 X95.815 Y101.953 E0.14879 F540.000
G1 X96.001 Y102.688 E0.18334
G1 X92.749 Y99.436 E0.39295
G1 X92.059 Y99.295 E0.42504
G1 X91.347 Y98.583 E0.47093
G1 X91.136 Y98.921 E0.48910
G1 X92.210 Y99.995 E0.55833
G1 X91.608 Y99.943 E0.58588
G1 X90.831 Y99.166 E0.63595
G1 X90.282 Y99.166 E0.66099
G1 X91.017 Y99.901 E0.70838
G1 X90.467 Y99.901 E0.73342
G1 X89.732 Y99.166 E0.78080
G1 X89.183 Y99.166 E0.80584
G1 X89.918 Y99.901 E0.85323
G1 X89.369 Y99.901 E0.87827
G1 X88.634 Y99.166 E0.92565
G1 X88.084 Y99.166 E0.95069
G1 X88.819 Y99.901 E0.99808
G1 X88.270 Y99.901 E1.02311
G1 X87.535 Y99.166 E1.07050
G1 X86.986 Y99.166 E1.09554
G1 X87.721 Y99.901 E1.14292
G1 X87.171 Y99.901 E1.16796
G1 X86.436 Y99.166 E1.21535
G1 X85.887 Y99.166 E1.24039
G1 X86.622 Y99.901 E1.28777
G1 X86.073 Y99.901 E1.31281
G1 X84.376 Y98.204 E1.42221
G1 X84.376 Y98.753 E1.44725
G1 X85.545 Y99.922 E1.52261
G1 X85.545 Y100.472 E1.54765
G1 X84.376 Y99.303 E1.62301
G1 X84.376 Y99.852 E1.64805
G1 X85.545 Y101.021 E1.72341
G1 X85.545 Y101.570 E1.74845
G1 X84.376 Y100.401 E1.82381
G1 X84.376 Y100.951 E1.84885
G1 X85.545 Y102.120 E1.92421
G1 X85.545 Y102.669 E1.94925
G1 X84.376 Y101.500 E2.02461
G1 X84.376 Y102.049 E2.04965
G1 X85.545 Y103.218 E2.12501
G1 X85.545 Y103.768 E2.15005
G1 X84.376 Y102.599 E2.22541
G1 X84.376 Y103.148 E2.25045
G1 X85.545 Y104.317 E2.32581
G1 X85.545 Y104.866 E2.35085
G1 X84.376 Y103.697 E2.42621
G1 X84.376 Y104.247 E2.45125
G1 X85.545 Y105.416 E2.52661
G1 X85.545 Y105.965 E2.55165
G1 X84.376 Y104.796 E2.62701
G1 X84.376 Y105.345 E2.65205
G1 X86.227 Y107.197 E2.77141
G1 X86.777 Y107.197 E2.79645
G1 X86.019 Y106.440 E2.84525
G1 X86.569 Y106.440 E2.87029
G1 X87.326 Y107.197 E2.91909
G1 X87.875 Y107.197 E2.94413
G1 X87.118 Y106.440 E2.99293
G1 X87.667 Y106.440 E3.01797
G1 X88.425 Y107.197 E3.06678
G1 X88.974 Y107.197 E3.09181
G1 X88.217 Y106.440 E3.14062
G1 X88.766 Y106.440 E3.16566
G1 X89.523 Y107.197 E3.21446
G1 X90.073 Y107.197 E3.23950
G1 X89.316 Y106.440 E3.28830
G1 X89.865 Y106.440 E3.31334
G1 X90.622 Y107.197 E3.36214
G1 X91.171 Y107.197 E3.38718
G1 X90.414 Y106.440 E3.43599
G1 X90.956 Y106.433 E3.46070
G1 X91.681 Y107.157 E3.50740
G1 X92.189 Y107.116 E3.53065
G1 X91.468 Y106.395 E3.57715
G1 X91.979 Y106.356 E3.60051
G1 X92.698 Y107.075 E3.64685
G1 X93.125 Y106.953 E3.66709
G1 X92.412 Y106.241 E3.71301
G1 X92.846 Y106.125 E3.73346
G1 X93.551 Y106.830 E3.77891
G1 X93.965 Y106.694 E3.79877
G1 X93.219 Y105.949 E3.84682
G1 X93.571 Y105.752 E3.86521
G1 X94.308 Y106.488 E3.91269
G1 X94.651 Y106.282 E3.93093
G1 X93.889 Y105.520 E3.98003
G1 X94.156 Y105.237 E3.99774
G1 X94.952 Y106.034 E4.04910
G1 X95.221 Y105.753 E4.06681
G1 X94.416 Y104.948 E4.11867
G1 X94.586 Y104.569 E4.13763
G1 X95.481 Y105.464 E4.19532
G1 X95.664 Y105.098 E4.21397
G1 X94.755 Y104.189 E4.27256
G1 X94.830 Y103.714 E4.29446
G1 X95.832 Y104.716 E4.35901
G1 X95.955 Y104.290 E4.37923
G1 X94.890 Y103.225 E4.44783
G1 X94.831 Y102.616 E4.47572
G1 X96.015 Y103.800 E4.55205
G1 X96.064 Y103.300 E4.57497
G1 X94.657 Y101.893 E4.66566
G92 E0
G1 X84.996 Y106.648 F7800.000
G1 X84.996 Y106.648 F7800.000
G1 X84.960 Y106.612 F7800.000
G1 X84.925 Y106.648 F7800.000
G1 X84.376 Y105.895 F7800.000
G1 X85.678 Y107.197 E0.08395 F540.000
G1 X85.129 Y107.197 E0.10898
G1 X84.376 Y106.444 E0.15752
G1 X84.376 Y106.993 E0.18256
G1 X84.579 Y107.197 E0.19568
M106 S255
G92 E0
G1 Z0.600 F7800.000
G1 X106.152 Y103.801 F7800.000
G1 X105.314 Y99.504 E1.31181 F600.000
G1 X105.314 Y94.011 E2.95776
G1 X105.387 Y93.461 E3.12413
G1 X106.349 Y93.181 E3.42438
G1 X110.418 Y93.182 E4.64347
G1 X111.714 Y93.283 E5.03313
G1 X111.954 Y93.322 E5.10601
G1 X112.851 Y93.575 E5.38515
G1 X113.132 Y93.691 E5.47621
G1 X113.560 Y93.932 E5.62360
G1 X113.997 Y94.254 E5.78597
G1 X114.330 Y94.615 E5.93341
G1 X114.532 Y94.875 E6.03194
G1 X114.896 Y95.689 E6.29912
G1 X115.020 Y96.695 E6.60296
G1 X114.981 Y97.093 E6.72259
G1 X114.931 Y97.351 E6.80143
G1 X114.732 Y97.944 E6.98890
G1 X114.440 Y98.533 E7.18601
G1 X114.033 Y98.969 E7.36456
G1 X113.924 Y99.050 E7.40540
G1 X113.187 Y99.466 E7.65872
G1 X112.652 Y99.699 E7.83360
G1 X112.318 Y99.792 E7.93769
G1 X111.463 Y100.308 E8.23704
G1 X110.664 Y101.178 E8.59083
G1 X105.471 Y100.312 F7800.000
G1 X110.315 Y100.324 E10.04218 F600.000
G1 X110.891 Y100.303 E10.21478
G1 X111.447 Y100.326 E10.38163
G1 X111.821 Y100.739 E10.54857
G1 X111.954 Y100.848 E10.60022
G1 X112.242 Y101.022 E10.70087
G1 X112.797 Y101.282 E10.88451
G1 X113.370 Y101.734 E11.10325
G1 X113.722 Y102.215 E11.28198
G1 X113.970 Y102.718 E11.44985
G1 X114.094 Y103.277 E11.62150
G1 X114.135 Y103.825 E11.78630
G1 X113.987 Y104.547 E12.00708
G1 X113.900 Y104.847 E12.10049
G1 X113.707 Y105.357 E12.26404
G1 X113.368 Y105.704 E12.40935
G1 X112.868 Y106.106 E12.60159
G1 X112.462 Y106.363 E12.74542
G1 X111.791 Y106.549 E12.95423
G1 X110.970 Y106.696 E13.20420
G1 X109.763 Y106.818 E13.56765
G1 X106.349 Y106.818 E14.59055
G1 X105.387 Y106.539 E14.89081
G1 X105.314 Y105.989 E15.05718
G1 X105.314 Y101.120 E16.51615
G1 X105.471 Y100.312 E16.76283
G92 E0
G1 X104.278 Y92.352 F7800.000
