; generated by Slic3r 1.2.9 on 2016-03-11 at 01:29:29

; external perimeters extrusion width = 1.54mm
; perimeters extrusion width = 2.62mm
; infill extrusion width = 6.27mm
; solid infill extrusion width = 2.62mm
; top infill extrusion width = 2.62mm

M107
M104 S30 ; set temperature
G28 ; home all axes
G1 Z5 F5000 ; lift nozzle
M302
M92 E10000
M500
M501
G1 E100
M109 S30 ; wait for temperature to be reached
G21 ; set units to millimeters
G90 ; use absolute coordinates
M82 ; use absolute distances for extrusion
G92 E0
G1 Z0.300 F7800.000
G1 X103.071 Y100.640 F7800.000
G1 X103.015 Y100.061 E0.02630 F378.000
G1 X103.111 Y98.546 E0.09500
G1 X103.399 Y97.176 E0.15834
G1 X103.876 Y95.954 E0.21771
G1 X104.533 Y94.896 E0.27405
G1 X105.360 Y94.017 E0.32866
G1 X106.360 Y93.314 E0.38398
G1 X107.516 Y92.799 E0.44125
G1 X108.813 Y92.489 E0.50156
G1 X110.251 Y92.386 E0.56680
G1 X111.570 Y92.490 E0.62670
G1 X111.659 Y92.497 E0.63072 F378.000
G1 X112.942 Y92.829 E0.69070
G1 X114.104 Y93.381 E0.74888
G1 X115.123 Y94.143 E0.80646
G1 X115.979 Y95.107 E0.86482
G1 X116.559 Y96.088 E0.91637
G1 X115.256 Y96.737 E0.98228
G1 X114.086 Y95.102 E1.07325
G1 X112.400 Y94.000 E1.16438
G1 X110.355 Y93.635 E1.25840
G1 X108.731 Y93.832 E1.33242
G1 X107.341 Y94.425 E1.40080
G1 X106.193 Y95.414 E1.46937
G1 X105.342 Y96.722 E1.53998
G1 X104.834 Y98.274 E1.61387
G1 X104.666 Y100.064 E1.69518
G1 X104.827 Y101.863 E1.77691
G1 X105.315 Y103.401 E1.84992
G1 X106.134 Y104.672 E1.91837
G1 X107.255 Y105.620 E1.98477
G1 X108.635 Y106.187 E2.05230
G1 X110.257 Y106.374 E2.12618
G1 X111.328 Y106.293 E2.17480
G1 X112.301 Y106.050 E2.22015
G1 X113.177 Y105.642 E2.26387
G1 X113.930 Y105.077 E2.30649
G1 X114.533 Y104.364 E2.34874
G1 X114.883 Y103.697 E2.38280
G1 X116.411 Y104.202 E2.45561
G1 X115.938 Y105.088 E2.50105
G1 X115.167 Y105.989 E2.55472
G1 X114.210 Y106.694 E2.60850
G1 X113.070 Y107.204 E2.66502
G1 X111.747 Y107.511 E2.72647
G1 X110.245 Y107.614 E2.79461
G1 X108.130 Y107.390 E2.89082
G1 X106.364 Y106.723 E2.97624
G1 X104.931 Y105.616 E3.05819
G1 X103.870 Y104.118 E3.14125
G1 X103.230 Y102.270 E3.22972
G1 X103.094 Y100.870 E3.29341
G1 X104.901 Y102.936 F7800.000
G1 X103.383 Y101.418 E3.39059 F540.000
G1 X103.324 Y100.813 E3.41808
G1 X104.647 Y102.137 E3.50282
G1 X104.561 Y101.505 E3.53171
G1 X103.265 Y100.209 E3.61468
G1 X103.262 Y99.660 E3.63951
G1 X104.507 Y100.906 E3.71924
G1 X104.454 Y100.306 E3.74648
G1 X103.294 Y99.147 E3.82069
G1 X103.327 Y98.634 E3.84396
G1 X104.473 Y99.780 E3.91734
G1 X104.520 Y99.282 E3.94002
G1 X103.406 Y98.168 E4.01133
G1 X103.501 Y97.717 E4.03218
G1 X104.567 Y98.783 E4.10043
G1 X104.615 Y98.286 E4.12304
G1 X103.596 Y97.266 E4.18832
G1 X103.738 Y96.863 E4.20767
G1 X104.750 Y97.875 E4.27244
G1 X104.884 Y97.464 E4.29202
G1 X103.891 Y96.471 E4.35559
G1 X104.045 Y96.078 E4.37466
G1 X105.019 Y97.052 E4.43703
G1 X105.159 Y96.647 E4.45644
G1 X104.244 Y95.732 E4.51502
G1 X104.453 Y95.395 E4.53296
G1 X105.374 Y96.316 E4.59193
G1 X105.589 Y95.986 E4.60978
G1 X104.662 Y95.059 E4.66915
G1 X104.917 Y94.768 E4.68665
G1 X105.804 Y95.655 E4.74344
G1 X106.019 Y95.325 E4.76129
G1 X105.186 Y94.492 E4.81462
G1 X105.459 Y94.219 E4.83209
G1 X106.304 Y95.065 E4.88621
G1 X106.598 Y94.812 E4.90372
G1 X105.759 Y93.973 E4.95742
G1 X106.079 Y93.748 E4.97514
G1 X106.891 Y94.560 E5.02709
G1 X107.184 Y94.307 E5.04461
G1 X106.399 Y93.523 E5.09482
G1 X106.771 Y93.349 E5.11340
G1 X107.543 Y94.121 E5.16281
G1 X107.925 Y93.958 E5.18163
G1 X107.149 Y93.181 E5.23133
G1 X107.527 Y93.013 E5.25004
G1 X108.308 Y93.794 E5.30005
G1 X108.690 Y93.631 E5.31886
G1 X107.966 Y92.907 E5.36523
G1 X108.406 Y92.802 E5.38572
G1 X109.165 Y93.561 E5.43431
G1 X109.652 Y93.502 E5.45649
G1 X108.857 Y92.707 E5.50736
G1 X109.366 Y92.670 E5.53045
G1 X110.138 Y93.443 E5.57989
G1 X110.690 Y93.449 E5.60489
G1 X109.875 Y92.634 E5.65709
G1 X110.419 Y92.632 E5.68173
G1 X111.355 Y93.568 E5.74161
G1 X112.019 Y93.686 E5.77216
G1 X111.012 Y92.679 E5.83664
G1 X111.623 Y92.745 E5.86447
G1 X112.800 Y93.922 E5.93983
G1 X113.235 Y93.266 F7800.000
G1 X116.076 Y96.107 E6.12172 F540.000
G1 X115.712 Y96.288 E6.14014
G1 X114.228 Y94.805 E6.23514
G1 X114.376 Y94.952 F7800.000
G1 X112.359 Y92.935 E6.36428 F540.000
G1 X114.719 Y94.204 F7800.000
G1 X115.218 Y94.704 E6.39625 F540.000
G92 E0
G1 X115.264 Y104.639 F7800.000
G1 X115.264 Y104.639 F7800.000
G1 X115.366 Y104.126 F7800.000
G1 X115.928 Y104.688 E0.03597 F540.000
G1 X115.730 Y105.035 E0.05407
G1 X114.860 Y104.166 E0.10975
G1 X114.660 Y104.511 E0.12782
G1 X115.478 Y105.329 E0.18018
G1 X115.226 Y105.623 E0.19770
G1 X114.410 Y104.807 E0.24996
G1 X114.160 Y105.103 E0.26748
G1 X114.955 Y105.898 E0.31839
G1 X114.645 Y106.133 E0.33601
G1 X113.873 Y105.361 E0.38546
G1 X113.561 Y105.595 E0.40310
G1 X114.331 Y106.365 E0.45239
G1 X113.993 Y106.573 E0.47035
G1 X113.249 Y105.828 E0.51802
G1 X112.877 Y106.001 E0.53660
G1 X113.616 Y106.741 E0.58395
G1 X113.239 Y106.909 E0.60265
G1 X112.504 Y106.175 E0.64968
G1 X112.099 Y106.315 E0.66909
G1 X112.829 Y107.044 E0.71577
G1 X112.386 Y107.147 E0.73634
G1 X111.663 Y106.424 E0.78263
G1 X111.215 Y106.522 E0.80337
G1 X111.943 Y107.250 E0.84998
G1 X111.457 Y107.310 E0.87215
G1 X110.708 Y106.561 E0.92012
G1 X110.201 Y106.599 E0.94315
G1 X110.947 Y107.345 E0.99092
G1 X110.436 Y107.380 E1.01408
G1 X109.591 Y106.535 E1.06820
G1 X108.974 Y106.464 E1.09629
G1 X109.846 Y107.335 E1.15210
G1 X109.236 Y107.271 E1.17989
G1 X108.298 Y106.334 E1.23989
G1 X107.372 Y105.953 F7800.000
G1 X108.625 Y107.206 E1.32011 F540.000
G1 X107.898 Y107.024 E1.35406
G1 X103.692 Y102.819 E1.62328
G1 X103.442 Y102.022 E1.66108
G1 X105.264 Y103.845 E1.77776
G1 X103.981 Y103.653 F7800.000
G1 X107.021 Y106.693 E1.97237 F540.000
G1 X105.362 Y105.580 F7800.000
G1 X105.004 Y105.222 E1.99529 F540.000
G92 E0
G1 X103.668 Y104.222 F7800.000
G1 X99.668 Y105.607 F7800.000
G1 X99.024 Y106.065 F7800.000
G1 X95.566 Y104.552 F7800.000
G1 X90.400 Y107.416 F7800.000
G1 X83.349 Y107.423 E0.31908 F378.000
G1 X83.349 Y92.577 E0.99085
G1 X84.970 Y92.577 E1.06419
G1 X84.970 Y98.940 E1.35212
G1 X90.093 Y98.940 E1.58396 F378.000
G1 X94.069 Y92.577 E1.92347
G1 X95.913 Y92.577 E2.00690
G1 X91.628 Y99.088 E2.35960
G1 X92.984 Y99.461 E2.42326
G1 X93.851 Y99.924 E2.46776
G1 X94.557 Y100.565 E2.51086
G1 X95.078 Y101.351 E2.55355
G1 X95.391 Y102.254 E2.59678
G1 X95.496 Y103.277 E2.64332
G1 X95.347 Y104.492 E2.69871
G1 X94.906 Y105.500 E2.74850
G1 X94.171 Y106.318 E2.79825
G1 X93.157 Y106.927 E2.85179
G1 X91.876 Y107.297 E2.91210
G1 X90.630 Y107.398 E2.96866
G1 X90.540 Y106.183 F7800.000
G1 X90.127 Y106.214 E2.98742 F378.000
G1 X84.970 Y106.214 E3.22078
G1 X84.970 Y100.127 E3.49622
G1 X90.215 Y100.127 E3.73357 F378.000
G1 X91.259 Y100.215 E3.78098
G1 X92.157 Y100.485 E3.82338
G1 X92.892 Y100.943 E3.86258
G1 X93.436 Y101.573 E3.90026
G1 X93.761 Y102.349 E3.93833
G1 X93.867 Y103.258 E3.97971
G1 X93.759 Y104.137 E4.01979
G1 X93.427 Y104.880 E4.05661
G1 X92.873 Y105.469 E4.09322
G1 X92.124 Y105.888 E4.13204
G1 X91.205 Y106.134 E4.17508
G1 X90.771 Y106.166 E4.19480
G1 X94.132 Y105.201 F7800.000
G1 X94.535 Y104.356 F7800.000
G1 X94.558 Y104.275 F7800.000
G1 X94.592 Y104.285 F7800.000
G1 X95.263 Y103.300 F7800.000
G1 X93.856 Y101.893 E4.28550 F540.000
G1 X94.030 Y102.616 E4.31941
G1 X95.214 Y103.800 E4.39574
G1 X95.154 Y104.290 E4.41821
G1 X94.089 Y103.225 E4.48680
G1 X94.029 Y103.714 E4.50926
G1 X95.031 Y104.716 E4.57381
G1 X94.863 Y105.098 E4.59282
G1 X93.954 Y104.189 E4.65141
G1 X93.785 Y104.569 E4.67037
G1 X94.680 Y105.464 E4.72806
G1 X94.420 Y105.753 E4.74579
G1 X93.615 Y104.948 E4.79765
G1 X93.355 Y105.237 E4.81538
G1 X94.151 Y106.034 E4.86674
G1 X93.850 Y106.282 E4.88453
G1 X93.088 Y105.520 E4.93362
G1 X92.770 Y105.752 E4.95155
G1 X93.507 Y106.488 E4.99902
G1 X93.164 Y106.694 E5.01727
G1 X92.418 Y105.949 E5.06532
G1 X92.045 Y106.125 E5.08414
G1 X92.750 Y106.830 E5.12958
G1 X92.324 Y106.953 E5.14980
G1 X91.611 Y106.241 E5.19572
G1 X91.178 Y106.356 E5.21617
G1 X91.897 Y107.075 E5.26251
G1 X91.388 Y107.116 E5.28575
G1 X90.667 Y106.395 E5.33226
G1 X90.155 Y106.433 E5.35564
G1 X90.880 Y107.157 E5.40234
G1 X90.370 Y107.197 E5.42563
G1 X89.613 Y106.440 E5.47444
G1 X89.064 Y106.440 E5.49948
G1 X89.821 Y107.197 E5.54828
G1 X89.272 Y107.197 E5.57332
G1 X88.515 Y106.440 E5.62212
G1 X87.965 Y106.440 E5.64716
G1 X88.722 Y107.197 E5.69596
G1 X88.173 Y107.197 E5.72100
G1 X87.416 Y106.440 E5.76981
G1 X86.866 Y106.440 E5.79485
G1 X87.624 Y107.197 E5.84365
G1 X87.074 Y107.197 E5.86869
G1 X86.317 Y106.440 E5.91749
G1 X85.768 Y106.440 E5.94253
G1 X86.525 Y107.197 E5.99133
G1 X85.976 Y107.197 E6.01637
G1 X85.218 Y106.440 E6.06518
G1 X83.575 Y106.993 F7800.000
G1 X83.778 Y107.197 E6.07830 F540.000
G1 X84.328 Y107.197 E6.10334
G1 X83.575 Y106.444 E6.15187
G1 X83.575 Y105.895 E6.17691
G1 X84.877 Y107.197 E6.26086
G1 X85.426 Y107.197 E6.28590
G1 X83.575 Y105.345 E6.40525
G1 X83.575 Y104.796 E6.43029
G1 X84.744 Y105.965 E6.50565
G1 X84.744 Y105.416 E6.53069
G1 X83.575 Y104.247 E6.60605
G1 X83.575 Y103.697 E6.63109
G1 X84.744 Y104.866 E6.70645
G1 X84.744 Y104.317 E6.73149
G1 X83.575 Y103.148 E6.80685
G1 X83.575 Y102.599 E6.83189
G1 X84.744 Y103.768 E6.90725
G1 X84.744 Y103.218 E6.93229
G1 X83.575 Y102.049 E7.00765
G1 X83.575 Y101.500 E7.03269
G1 X84.744 Y102.669 E7.10805
G1 X84.744 Y102.120 E7.13309
G1 X83.575 Y100.951 E7.20845
G1 X83.575 Y100.401 E7.23349
G1 X84.744 Y101.570 E7.30885
G1 X84.744 Y101.021 E7.33389
G1 X83.575 Y99.852 E7.40925
G1 X83.575 Y99.303 E7.43429
G1 X84.744 Y100.472 E7.50965
G1 X84.744 Y99.922 E7.53469
G1 X83.575 Y98.753 E7.61006
G1 X84.744 Y93.330 F7800.000
G1 X84.216 Y92.803 E7.64405 F540.000
G1 X83.667 Y92.803 E7.66909
G1 X84.744 Y93.880 E7.73849
G1 X84.744 Y94.429 E7.76353
G1 X83.575 Y93.260 E7.83889
G1 X83.575 Y93.809 E7.86393
G1 X84.744 Y94.978 E7.93929
G1 X84.744 Y95.528 E7.96433
G1 X83.575 Y94.359 E8.03969
G1 X83.575 Y94.908 E8.06473
G1 X84.744 Y96.077 E8.14009
G1 X84.744 Y96.626 E8.16513
G1 X83.575 Y95.457 E8.24049
G1 X83.575 Y96.007 E8.26553
G1 X84.744 Y97.176 E8.34089
G1 X84.744 Y97.725 E8.36593
G1 X83.575 Y96.556 E8.44129
G1 X83.575 Y97.105 E8.46633
G1 X84.744 Y98.274 E8.54169
G1 X84.744 Y98.824 E8.56673
G1 X83.575 Y97.655 E8.64209
G1 X83.575 Y98.204 E8.66713
G1 X85.272 Y99.901 E8.77653
G1 X85.821 Y99.901 E8.80157
G1 X85.086 Y99.166 E8.84895
G1 X85.635 Y99.166 E8.87399
G1 X86.370 Y99.901 E8.92138
G1 X86.920 Y99.901 E8.94642
G1 X86.185 Y99.166 E8.99380
G1 X86.734 Y99.166 E9.01884
G1 X87.469 Y99.901 E9.06622
G1 X88.018 Y99.901 E9.09126
G1 X87.283 Y99.166 E9.13865
G1 X87.833 Y99.166 E9.16369
G1 X88.568 Y99.901 E9.21107
G1 X89.117 Y99.901 E9.23611
G1 X88.382 Y99.166 E9.28350
G1 X88.931 Y99.166 E9.30854
G1 X89.666 Y99.901 E9.35592
G1 X90.216 Y99.901 E9.38096
G1 X89.481 Y99.166 E9.42835
G1 X90.030 Y99.166 E9.45338
G1 X90.807 Y99.943 E9.50346
G1 X91.409 Y99.995 E9.53101
G1 X90.335 Y98.921 E9.60024
G1 X90.546 Y98.583 E9.61841
G1 X91.258 Y99.295 E9.66430
G1 X91.948 Y99.436 E9.69639
G1 X95.200 Y102.688 E9.90600
G1 X95.014 Y101.953 E9.94055
G1 X92.706 Y99.644 E10.08934
G1 X92.195 Y100.232 F7800.000
G1 X91.190 Y99.227 E10.15411 F540.000
G1 X91.476 Y98.964 E10.17183
G1 X90.757 Y98.245 E10.21816
G1 X90.969 Y97.907 E10.23633
G1 X91.694 Y98.633 E10.28310
G1 X91.912 Y98.302 E10.30118
G1 X91.180 Y97.569 E10.34839
G1 X91.391 Y97.231 E10.36656
G1 X92.130 Y97.970 E10.41421
G1 X92.348 Y97.639 E10.43229
G1 X91.602 Y96.893 E10.48037
G1 X91.814 Y96.555 E10.49854
G1 X92.566 Y97.308 E10.54707
G1 X92.785 Y96.976 E10.56515
G1 X92.025 Y96.217 E10.61411
G1 X92.236 Y95.879 E10.63228
G1 X93.003 Y96.645 E10.68168
G1 X93.221 Y96.314 E10.69976
G1 X92.447 Y95.541 E10.74960
G1 X92.659 Y95.203 E10.76777
G1 X93.439 Y95.983 E10.81805
G1 X93.657 Y95.651 E10.83613
G1 X92.870 Y94.864 E10.88685
G1 X93.081 Y94.526 E10.90502
G1 X93.875 Y95.320 E10.95618
G1 X94.093 Y94.989 E10.97425
G1 X93.293 Y94.188 E11.02585
G1 X93.504 Y93.850 E11.04402
G1 X94.311 Y94.657 E11.09605
G1 X94.529 Y94.326 E11.11413
G1 X93.715 Y93.512 E11.16660
G1 X93.926 Y93.174 E11.18477
G1 X94.747 Y93.995 E11.23768
G1 X94.965 Y93.664 E11.25576
G1 X94.138 Y92.836 E11.30911
G1 X94.654 Y92.803 E11.33270
G1 X95.183 Y93.332 E11.36682
G1 X95.203 Y92.803 E11.39096
G1 X95.401 Y93.001 E11.40373
M106 S255
G92 E0
G1 Z0.600 F7800.000
G1 X115.861 Y103.783 F7800.000
G1 X115.104 Y104.879 E0.39907 F600.000
G1 X114.641 Y105.424 E0.61327
G1 X114.517 Y105.540 E0.66419
G1 X113.840 Y106.059 E0.91981
G1 X113.447 Y106.278 E1.05467
G1 X112.850 Y106.550 E1.25120
G1 X112.437 Y106.685 E1.38132
G1 X111.652 Y106.874 E1.62349
G1 X111.356 Y106.915 E1.71289
G1 X110.256 Y106.992 E2.04330
G1 X108.595 Y106.811 E2.54416
G1 X108.283 Y106.749 E2.63944
G1 X107.032 Y106.256 E3.04239
G1 X106.715 Y106.095 E3.14885
G1 X105.681 Y105.260 E3.54706
G1 X105.489 Y105.081 E3.62575
G1 X104.662 Y103.857 E4.06831
G1 X104.592 Y103.747 E4.10737
G1 X104.543 Y103.614 E4.14996
G1 X104.039 Y102.094 E4.62983
G1 X103.843 Y100.047 E5.24586
G1 X103.950 Y98.660 E5.66270
G1 X104.064 Y97.996 E5.86470
G1 X104.218 Y97.420 E6.04324
G1 X104.619 Y96.326 E6.39258
G1 X105.199 Y95.408 E6.71790
G1 X105.513 Y95.010 E6.86976
G1 X105.886 Y94.624 E7.03068
G1 X106.730 Y93.966 E7.35120
G1 X107.095 Y93.761 E7.47684
G1 X107.746 Y93.477 E7.68949
G1 X108.446 Y93.246 E7.91036
G1 X108.914 Y93.144 E8.05388
G1 X110.248 Y93.015 E8.45566
G1 X110.497 Y93.029 E8.53030
G1 X111.547 Y93.164 E8.84756
G1 X112.467 Y93.364 E9.12965
G1 X112.720 Y93.440 E9.20882
G1 X113.728 Y94.003 E9.55475
G1 X114.432 Y94.496 E9.81217
G1 X114.641 Y94.666 E9.89306
G1 X115.357 Y95.561 E10.23633
G1 X116.035 Y96.600 E10.60816
G92 E0
G1 X110.251 Y92.160 F7800.000
G1 X110.251 Y92.160 F7800.000
G1 X110.179 Y91.161 F7800.000
G1 X108.702 Y91.215 F7800.000
G1 X108.530 Y91.228 F7800.000
G1 X107.158 Y91.389 F7800.000
G1 X106.929 Y91.427 F7800.000
G1 X105.620 Y91.705 F7800.000
G1 X105.312 Y91.787 F7800.000
G1 X104.045 Y92.188 F7800.000
G1 X103.619 Y92.347 F7800.000
G1 X102.366 Y92.889 F7800.000
G1 X101.796 Y93.171 F7800.000
G1 X100.507 Y93.887 F7800.000
G1 X99.942 Y94.230 F7800.000
G1 X96.331 Y91.256 F7800.000
G1 X93.945 Y91.256 F7800.000
G1 X92.730 Y91.593 F7800.000
G1 X88.804 Y93.769 F7800.000
G1 X87.387 Y92.352 F7800.000
G1 X85.195 Y92.352 F7800.000
G1 X84.159 Y92.352 F7800.000
G1 X84.159 Y98.715 E1.90665 F600.000
G1 X85.010 Y103.021 E3.22178
G92 E0
G1 X84.195 Y106.648 F7800.000
G1 X84.195 Y106.648 F7800.000
G1 X89.990 Y98.681 F7800.000
G1 X91.293 Y99.535 E0.46678 F600.000
G1 X91.462 Y99.623 E0.52394
G1 X91.768 Y99.745 E0.62257
G1 X92.510 Y99.974 E0.85543
G1 X92.739 Y100.075 E0.93036
G1 X93.220 Y100.352 E1.09667
G1 X93.443 Y100.504 E1.17750
G1 X93.982 Y101.058 E1.40909
G1 X94.147 Y101.314 E1.50046
G1 X94.357 Y101.708 E1.63417
G1 X94.475 Y102.016 E1.73297
G1 X94.590 Y102.431 E1.86220
G1 X94.678 Y103.269 E2.11448
G1 X94.556 Y104.275 E2.41823
G1 X94.224 Y105.060 E2.67376
G1 X94.156 Y105.164 E2.71087
G1 X93.953 Y105.426 E2.81032
G1 X93.680 Y105.723 E2.93105
G1 X93.184 Y106.096 E3.11711
G1 X92.873 Y106.276 E3.22480
G1 X92.263 Y106.516 E3.42117
G1 X91.759 Y106.657 E3.57799
G1 X91.384 Y106.721 E3.69190
G1 X90.119 Y106.818 E4.07228
G1 X85.195 Y106.818 E5.54774
G1 X84.232 Y106.539 E5.84799
G1 X84.159 Y105.989 E6.01436
G1 X84.159 Y100.352 E7.70347
G1 X84.321 Y99.533 E7.95347
G1 X89.969 Y99.533 E9.64580
G1 X90.277 Y99.506 E9.73846
G1 X90.923 Y99.293 E9.94243
G1 X91.218 Y98.448 E10.21058
G1 X95.129 Y92.352 E12.38070
G92 E0
G1 Z0.900 F7800.000
G1 X115.861 Y103.783 F7800.000
G1 X115.104 Y104.879 E0.39907 F600.000
G1 X114.641 Y105.424 E0.61327
G1 X114.517 Y105.540 E0.66419
G1 X113.840 Y106.059 E0.91981
G1 X113.447 Y106.278 E1.05467
G1 X112.850 Y106.550 E1.25120
G1 X112.437 Y106.685 E1.38132
G1 X111.652 Y106.874 E1.62349
G1 X111.356 Y106.915 E1.71289
G1 X110.256 Y106.992 E2.04330
G1 X108.595 Y106.811 E2.54416
G1 X108.283 Y106.749 E2.63944
G1 X107.032 Y106.256 E3.04239
G1 X106.715 Y106.095 E3.14885
G1 X105.681 Y105.260 E3.54706
G1 X105.489 Y105.081 E3.62575
G1 X104.662 Y103.857 E4.06831
G1 X104.592 Y103.747 E4.10737
G1 X104.543 Y103.614 E4.14996
G1 X104.039 Y102.094 E4.62983
