; generated by Slic3r 1.2.9 on 2016-03-11 at 01:29:30

; external perimeters extrusion width = 1.54mm
; perimeters extrusion width = 2.62mm
; infill extrusion width = 6.27mm
; solid infill extrusion width = 2.62mm
; top infill extrusion width = 2.62mm

M107
M104 S30 ; set temperature
G28 ; home all axes
G1 Z5 F5000 ; lift nozzle
M302
M92 E10000
M500
M501
G1 E100
M109 S30 ; wait for temperature to be reached
G21 ; set units to millimeters
G90 ; use absolute coordinates
M82 ; use absolute distances for extrusion
G92 E0
G1 Z0.300 F7800.000
G1 X115.241 Y95.492 F7800.000
G1 X115.644 Y96.120 E0.03379 F378.000
G1 X116.142 Y97.333 E0.09309
G1 X116.442 Y98.678 E0.15544
G1 X116.542 Y100.153 E0.22234
G1 X116.312 Y102.317 E0.32084
G1 X115.631 Y104.105 E0.40740
G1 X114.500 Y105.532 E0.48979
G1 X112.950 Y106.578 E0.57441
G1 X111.004 Y107.210 E0.66700
G1 X108.644 Y107.423 E0.77422
G1 X103.818 Y107.423 E0.99259
G1 X103.818 Y92.577 E1.66436
G1 X109.309 Y92.577 E1.91281
G1 X110.613 Y92.673 E1.97200
G1 X110.701 Y92.680 E1.97600 F378.000
G1 X111.967 Y92.986 E2.03492
G1 X113.116 Y93.493 E2.09178
G1 X114.125 Y94.190 E2.14724
G1 X114.966 Y95.065 E2.20217
G1 X115.116 Y95.298 E2.21469
G1 X113.793 Y96.107 F7800.000
G1 X114.203 Y96.778 E2.25028 F378.000
G1 X114.598 Y97.796 E2.29969
G1 X114.833 Y98.923 E2.35178
G1 X114.912 Y100.161 E2.40792
G1 X114.734 Y101.954 E2.48945
G1 X114.193 Y103.459 E2.56180
G1 X113.284 Y104.660 E2.62998
G1 X112.032 Y105.529 E2.69891
G1 X110.472 Y106.045 E2.77329
G1 X108.620 Y106.214 E2.85741
G1 X105.439 Y106.214 E3.00136
G1 X105.439 Y93.786 E3.56372
G1 X109.085 Y93.786 E3.72872 F378.000
G1 X110.191 Y93.870 E3.77889
G1 X111.217 Y94.126 E3.82674
G1 X112.152 Y94.553 E3.87328
G1 X112.974 Y95.145 E3.91910
G1 X113.672 Y95.910 E3.96596
G1 X114.405 Y96.575 F7800.000
G1 X116.099 Y98.270 E4.07469 F540.000
G1 X116.228 Y98.945 E4.10588
G1 X114.751 Y97.468 E4.20066
G1 X114.931 Y98.195 E4.23464
G1 X116.268 Y99.532 E4.32041
G1 X116.308 Y100.119 E4.34708
G1 X115.062 Y98.873 E4.42701
G1 X115.099 Y99.457 E4.45355
G1 X116.272 Y100.630 E4.52885
G1 X116.220 Y101.125 E4.55141
G1 X115.136 Y100.040 E4.62098
G1 X115.093 Y100.544 E4.64393
G1 X116.168 Y101.619 E4.71289
G1 X116.115 Y102.113 E4.73544
G1 X115.044 Y101.042 E4.80420
G1 X114.994 Y101.539 E4.82688
G1 X116.007 Y102.552 E4.89185
G1 X115.856 Y102.948 E4.91107
G1 X114.926 Y102.018 E4.97070
G1 X114.782 Y102.421 E4.99010
G1 X115.705 Y103.344 E5.04932
G1 X115.554 Y103.739 E5.06854
G1 X114.637 Y102.823 E5.12736
G1 X114.493 Y103.225 E5.14675
G1 X115.379 Y104.112 E5.20365
G1 X115.138 Y104.417 E5.22132
G1 X114.325 Y103.604 E5.27346
G1 X114.089 Y103.915 E5.29118
G1 X114.896 Y104.722 E5.34293
G1 X114.654 Y105.027 E5.36059
G1 X113.854 Y104.227 E5.41194
G1 X113.618 Y104.538 E5.42965
G1 X114.404 Y105.323 E5.48003
G1 X114.101 Y105.567 E5.49768
G1 X113.370 Y104.836 E5.54456
G1 X113.047 Y105.060 E5.56239
G1 X113.774 Y105.787 E5.60903
G1 X113.448 Y106.008 E5.62690
G1 X112.724 Y105.285 E5.67330
G1 X112.402 Y105.509 E5.69113
G1 X113.121 Y106.228 E5.73729
G1 X112.768 Y106.422 E5.75556
G1 X112.076 Y105.730 E5.79996
G1 X111.665 Y105.866 E5.81959
G1 X112.355 Y106.556 E5.86387
G1 X111.942 Y106.690 E5.88356
G1 X111.254 Y106.001 E5.92771
G1 X110.843 Y106.137 E5.94735
G1 X111.529 Y106.824 E5.99139
G1 X111.117 Y106.958 E6.01108
G1 X110.428 Y106.269 E6.05530
G1 X109.927 Y106.314 E6.07813
G1 X110.635 Y107.023 E6.12360
G1 X110.134 Y107.068 E6.14644
G1 X109.425 Y106.360 E6.19189
G1 X108.924 Y106.406 E6.21472
G1 X109.632 Y107.114 E6.26014
G1 X109.131 Y107.159 E6.28298
G1 X108.412 Y106.440 E6.32913
G1 X107.865 Y106.440 E6.35394
G1 X108.622 Y107.197 E6.40252
G1 X108.075 Y107.197 E6.42733
G1 X107.318 Y106.440 E6.47590
G1 X106.771 Y106.440 E6.50071
G1 X107.528 Y107.197 E6.54929
G1 X106.981 Y107.197 E6.57410
G1 X106.224 Y106.440 E6.62268
G1 X104.247 Y107.197 F7800.000
G1 X104.044 Y106.993 E6.63574 F540.000
G1 X104.044 Y106.447 E6.66055
G1 X104.794 Y107.197 E6.70870
G1 X105.341 Y107.197 E6.73351
G1 X104.044 Y105.900 E6.81675
G1 X104.044 Y105.353 E6.84156
G1 X105.213 Y106.522 E6.91657
G1 X105.678 Y106.440 E6.93798
G1 X106.435 Y107.197 E6.98656
G1 X105.888 Y107.197 E7.01137
G1 X105.131 Y106.440 E7.05995
G1 X105.213 Y105.975 E7.08136
G1 X104.044 Y104.806 E7.15637
G1 X104.044 Y104.259 E7.18118
G1 X105.213 Y105.428 E7.25619
G1 X105.213 Y104.882 E7.28100
G1 X104.044 Y103.713 E7.35602
G1 X104.044 Y103.166 E7.38083
G1 X105.213 Y104.335 E7.45584
G1 X105.213 Y103.788 E7.48065
G1 X104.044 Y102.619 E7.55567
G1 X104.044 Y102.072 E7.58048
G1 X105.213 Y103.241 E7.65549
G1 X105.213 Y102.694 E7.68030
G1 X104.044 Y101.525 E7.75531
G1 X104.044 Y100.978 E7.78012
G1 X105.213 Y102.148 E7.85514
G1 X105.213 Y101.601 E7.87995
G1 X104.044 Y100.432 E7.95496
G1 X104.044 Y99.885 E7.97977
G1 X105.213 Y101.054 E8.05479
G1 X105.213 Y100.507 E8.07960
G1 X104.044 Y99.338 E8.15461
G1 X104.044 Y98.791 E8.17942
G1 X105.213 Y99.960 E8.25443
G1 X105.213 Y99.413 E8.27924
G1 X104.044 Y98.244 E8.35426
G1 X104.044 Y97.698 E8.37907
G1 X105.213 Y98.867 E8.45408
G1 X105.213 Y98.320 E8.47889
G1 X104.044 Y97.151 E8.55391
G1 X104.044 Y96.604 E8.57872
G1 X105.213 Y97.773 E8.65373
G1 X105.213 Y97.226 E8.67854
G1 X104.044 Y96.057 E8.75355
G1 X104.044 Y95.510 E8.77836
G1 X105.213 Y96.679 E8.85338
G1 X105.213 Y96.133 E8.87819
G1 X104.044 Y94.963 E8.95320
G1 X104.044 Y94.417 E8.97801
G1 X105.213 Y95.586 E9.05303
G1 X105.213 Y95.039 E9.07784
G1 X104.044 Y93.870 E9.15285
G1 X104.044 Y93.323 E9.17766
G1 X105.213 Y94.492 E9.25267
G1 X105.213 Y93.945 E9.27748
G1 X104.077 Y92.810 E9.35036
G1 X104.617 Y92.803 E9.37487
G1 X105.374 Y93.560 E9.42345
G1 X105.921 Y93.560 E9.44826
G1 X105.164 Y92.803 E9.49683
G1 X105.711 Y92.803 E9.52164
G1 X106.468 Y93.560 E9.57022
G1 X107.015 Y93.560 E9.59503
G1 X106.258 Y92.803 E9.64361
G1 X106.805 Y92.803 E9.66842
G1 X107.562 Y93.560 E9.71700
G1 X108.109 Y93.560 E9.74181
G1 X107.351 Y92.803 E9.79039
G1 X107.898 Y92.803 E9.81520
G1 X108.655 Y93.560 E9.86378
G1 X109.204 Y93.562 E9.88867
G1 X108.445 Y92.803 E9.93737
G1 X108.992 Y92.803 E9.96218
G1 X109.796 Y93.607 E10.01377
G1 X110.403 Y93.667 E10.04145
G1 X109.565 Y92.829 E10.09525
G1 X110.155 Y92.872 E10.12211
G1 X111.131 Y93.849 E10.18475
G1 X112.035 Y94.206 F7800.000
G1 X110.784 Y92.954 E10.26506 F540.000
G1 X111.505 Y93.128 E10.29871
G1 X115.943 Y97.566 E10.58347
G1 X115.581 Y96.657 F7800.000
G1 X112.383 Y93.460 E10.78863 F540.000
G1 X113.751 Y94.281 F7800.000
G1 X114.732 Y95.262 E10.85159 F540.000
G92 E0
G1 X103.593 Y92.352 F7800.000
G1 X96.439 Y91.352 F7800.000
G1 X88.869 Y93.918 F7800.000
G1 X87.303 Y92.352 F7800.000
G1 X85.303 Y92.352 F7800.000
G1 X85.078 Y95.952 F7800.000
G1 X85.078 Y98.940 E0.13521 F378.000
G1 X90.202 Y98.940 E0.36706 F378.000
G1 X94.178 Y92.577 E0.70657
G1 X96.022 Y92.577 E0.79000
G1 X91.736 Y99.088 E1.14270
G1 X93.092 Y99.461 E1.20636
G1 X93.960 Y99.924 E1.25086
G1 X94.665 Y100.565 E1.29396
G1 X95.186 Y101.351 E1.33665
G1 X95.500 Y102.254 E1.37988
G1 X95.605 Y103.277 E1.42642
G1 X95.456 Y104.492 E1.48181
G1 X95.014 Y105.500 E1.53159
G1 X94.279 Y106.318 E1.58135
G1 X93.265 Y106.927 E1.63489
G1 X91.985 Y107.297 E1.69520
G1 X90.424 Y107.423 E1.76605
G1 X83.457 Y107.423 E2.08130
G1 X83.457 Y92.577 E2.75307
G1 X85.078 Y92.577 E2.82642
G1 X85.078 Y95.721 E2.96867
G1 X85.078 Y100.127 F7800.000
G1 X90.324 Y100.127 E3.20602 F378.000
G1 X91.368 Y100.215 E3.25344
G1 X92.265 Y100.485 E3.29584
G1 X93.000 Y100.943 E3.33504
G1 X93.544 Y101.573 E3.37271
G1 X93.869 Y102.349 E3.41078
G1 X93.976 Y103.258 E3.45216
G1 X93.867 Y104.137 E3.49224
G1 X93.535 Y104.880 E3.52906
G1 X92.981 Y105.469 E3.56568
G1 X92.233 Y105.888 E3.60449
G1 X91.314 Y106.134 E3.64753
G1 X90.235 Y106.214 E3.69647
G1 X85.078 Y106.214 E3.92983
G1 X85.078 Y100.358 E4.19481
G1 X83.683 Y98.753 F7800.000
G1 X84.852 Y99.922 E4.27017 F540.000
G1 X84.852 Y100.472 E4.29521
G1 X83.683 Y99.303 E4.37057
G1 X83.683 Y99.852 E4.39561
G1 X84.852 Y101.021 E4.47097
G1 X84.852 Y101.570 E4.49601
G1 X83.683 Y100.401 E4.57137
G1 X83.683 Y100.951 E4.59641
G1 X84.852 Y102.120 E4.67177
G1 X84.852 Y102.669 E4.69681
G1 X83.683 Y101.500 E4.77217
G1 X83.683 Y102.049 E4.79721
G1 X84.852 Y103.218 E4.87257
G1 X84.852 Y103.768 E4.89761
G1 X83.683 Y102.599 E4.97297
G1 X83.683 Y103.148 E4.99801
G1 X84.852 Y104.317 E5.07337
G1 X84.852 Y104.866 E5.09841
G1 X83.683 Y103.697 E5.17377
G1 X83.683 Y104.247 E5.19881
G1 X84.852 Y105.416 E5.27417
G1 X84.852 Y105.965 E5.29921
G1 X83.683 Y104.796 E5.37457
G1 X83.683 Y105.345 E5.39961
G1 X85.535 Y107.197 E5.51897
G1 X84.985 Y107.197 E5.54401
G1 X83.683 Y105.895 E5.62795
G1 X83.683 Y106.444 E5.65299
G1 X84.436 Y107.197 E5.70153
G1 X83.887 Y107.197 E5.72657
G1 X83.683 Y106.993 E5.73969
G1 X85.327 Y106.440 F7800.000
G1 X86.084 Y107.197 E5.78849 F540.000
G1 X86.633 Y107.197 E5.81353
G1 X85.876 Y106.440 E5.86233
G1 X86.426 Y106.440 E5.88737
G1 X87.183 Y107.197 E5.93618
G1 X87.732 Y107.197 E5.96122
G1 X86.975 Y106.440 E6.01002
G1 X87.524 Y106.440 E6.03506
G1 X88.281 Y107.197 E6.08386
G1 X88.831 Y107.197 E6.10890
G1 X88.074 Y106.440 E6.15770
G1 X88.623 Y106.440 E6.18274
G1 X89.380 Y107.197 E6.23155
G1 X89.929 Y107.197 E6.25659
G1 X89.172 Y106.440 E6.30539
G1 X89.722 Y106.440 E6.33043
G1 X90.479 Y107.197 E6.37923
G1 X90.988 Y107.157 E6.40252
G1 X90.264 Y106.433 E6.44923
G1 X90.775 Y106.395 E6.47261
G1 X91.497 Y107.116 E6.51911
G1 X92.005 Y107.075 E6.54236
G1 X91.286 Y106.356 E6.58869
G1 X91.720 Y106.241 E6.60914
G1 X92.432 Y106.953 E6.65507
G1 X92.858 Y106.830 E6.67528
G1 X92.153 Y106.125 E6.72073
G1 X92.527 Y105.949 E6.73955
G1 X93.272 Y106.694 E6.78760
G1 X93.615 Y106.488 E6.80585
G1 X92.879 Y105.752 E6.85332
G1 X93.197 Y105.520 E6.87124
G1 X93.959 Y106.282 E6.92034
G1 X94.260 Y106.034 E6.93813
G1 X93.463 Y105.237 E6.98948
G1 X93.724 Y104.948 E7.00721
G1 X94.528 Y105.753 E7.05908
G1 X94.788 Y105.464 E7.07681
G1 X93.893 Y104.569 E7.13450
G1 X94.063 Y104.189 E7.15345
G1 X94.972 Y105.098 E7.21204
G1 X95.139 Y104.716 E7.23105
G1 X94.138 Y103.714 E7.29560
G1 X94.198 Y103.225 E7.31806
G1 X95.262 Y104.290 E7.38666
G1 X95.322 Y103.800 E7.40913
G1 X94.138 Y102.616 E7.48545
G1 X93.964 Y101.893 E7.51937
G1 X95.371 Y103.300 E7.61007
G1 X92.303 Y100.232 F7800.000
G1 X91.299 Y99.227 E7.67484 F540.000
G1 X91.585 Y98.964 E7.69256
G1 X90.866 Y98.245 E7.73889
G1 X91.077 Y97.907 E7.75706
G1 X91.803 Y98.633 E7.80383
G1 X92.021 Y98.302 E7.82191
G1 X91.288 Y97.569 E7.86912
G1 X91.500 Y97.231 E7.88729
G1 X92.239 Y97.970 E7.93494
G1 X92.457 Y97.639 E7.95302
G1 X91.711 Y96.893 E8.00110
G1 X91.922 Y96.555 E8.01927
G1 X92.675 Y97.308 E8.06780
G1 X92.893 Y96.976 E8.08588
G1 X92.133 Y96.217 E8.13484
G1 X92.345 Y95.879 E8.15301
G1 X93.111 Y96.645 E8.20241
G1 X93.329 Y96.314 E8.22049
G1 X92.556 Y95.541 E8.27033
G1 X92.767 Y95.203 E8.28850
G1 X93.547 Y95.983 E8.33878
G1 X93.765 Y95.651 E8.35686
G1 X92.979 Y94.864 E8.40758
G1 X93.190 Y94.526 E8.42575
G1 X93.983 Y95.320 E8.47690
G1 X94.201 Y94.989 E8.49498
G1 X93.401 Y94.188 E8.54658
G1 X93.612 Y93.850 E8.56475
G1 X94.419 Y94.657 E8.61678
G1 X94.638 Y94.326 E8.63486
G1 X93.824 Y93.512 E8.68733
G1 X94.035 Y93.174 E8.70550
G1 X94.856 Y93.995 E8.75841
G1 X95.074 Y93.664 E8.77649
G1 X94.246 Y92.836 E8.82984
G1 X94.762 Y92.803 E8.85342
G1 X95.292 Y93.332 E8.88754
G1 X95.312 Y92.803 E8.91169
G1 X95.510 Y93.001 E8.92446
G92 E0
G1 X94.351 Y101.494 F7800.000
G1 X94.351 Y101.494 F7800.000
G1 X92.814 Y99.645 F7800.000
G1 X95.123 Y101.953 E0.14879 F540.000
G1 X95.308 Y102.688 E0.18334
G1 X92.057 Y99.436 E0.39295
G1 X91.367 Y99.295 E0.42504
G1 X90.655 Y98.583 E0.47093
G1 X90.443 Y98.921 E0.48910
G1 X91.517 Y99.995 E0.55833
G1 X90.915 Y99.943 E0.58588
G1 X90.139 Y99.166 E0.63595
G1 X89.589 Y99.166 E0.66099
G1 X90.324 Y99.901 E0.70838
G1 X89.775 Y99.901 E0.73342
G1 X89.040 Y99.166 E0.78080
G1 X88.490 Y99.166 E0.80584
G1 X89.226 Y99.901 E0.85323
G1 X88.676 Y99.901 E0.87827
G1 X87.941 Y99.166 E0.92565
G1 X87.392 Y99.166 E0.95069
G1 X88.127 Y99.901 E0.99807
G1 X87.578 Y99.901 E1.02311
G1 X86.842 Y99.166 E1.07050
G1 X86.293 Y99.166 E1.09554
G1 X87.028 Y99.901 E1.14292
G1 X86.479 Y99.901 E1.16796
G1 X85.744 Y99.166 E1.21535
G1 X85.194 Y99.166 E1.24039
G1 X85.930 Y99.901 E1.28777
G1 X85.380 Y99.901 E1.31281
G1 X83.683 Y98.204 E1.42221
G1 X83.683 Y97.655 E1.44725
G1 X84.852 Y98.824 E1.52261
G1 X84.852 Y98.274 E1.54765
G1 X83.683 Y97.105 E1.62301
G1 X83.683 Y96.556 E1.64805
G1 X84.852 Y97.725 E1.72341
G1 X84.852 Y97.176 E1.74845
G1 X83.683 Y96.007 E1.82381
G1 X83.683 Y95.457 E1.84885
G1 X84.852 Y96.626 E1.92421
G1 X84.852 Y96.077 E1.94925
G1 X83.683 Y94.908 E2.02461
G1 X83.683 Y94.359 E2.04965
G1 X84.852 Y95.528 E2.12501
G1 X84.852 Y94.978 E2.15005
G1 X83.683 Y93.809 E2.22541
G1 X83.683 Y93.260 E2.25045
G1 X84.852 Y94.429 E2.32581
G1 X84.852 Y93.880 E2.35085
G1 X83.776 Y92.803 E2.42025
G1 X84.325 Y92.803 E2.44529
G1 X84.852 Y93.330 E2.47928
M106 S255
G92 E0
G1 Z0.600 F7800.000
G1 X104.701 Y93.461 F7800.000
G1 X105.664 Y93.181 E0.30026 F600.000
G1 X109.140 Y93.183 E1.34183
G1 X110.218 Y93.258 E1.66579
G1 X110.602 Y93.314 E1.78197
G1 X111.352 Y93.498 E2.01330
G1 X111.750 Y93.627 E2.13872
G1 X112.415 Y93.926 E2.35726
G1 X112.767 Y94.118 E2.47722
G1 X113.376 Y94.547 E2.70058
G1 X113.638 Y94.762 E2.80224
G1 X114.357 Y95.547 E3.12097
G1 X114.940 Y96.488 E3.45264
G1 X115.371 Y97.575 E3.80317
G1 X115.635 Y98.794 E4.17697
G1 X115.725 Y100.137 E4.58031
G1 X115.521 Y102.128 E5.17988
G1 X114.938 Y103.711 E5.68536
G1 X114.781 Y103.947 E5.77032
G1 X113.985 Y104.976 E6.16013
G1 X113.654 Y105.257 E6.29028
G1 X112.643 Y105.949 E6.65727
G1 X112.435 Y106.052 E6.72693
G1 X112.202 Y106.147 E6.80220
G1 X110.875 Y106.582 E7.22073
G1 X110.501 Y106.649 E7.33463
G1 X108.616 Y106.818 E7.90159
G1 X105.664 Y106.818 E8.78632
G1 X104.701 Y106.539 E9.08658
G1 X104.628 Y105.989 E9.25294
G1 X104.628 Y94.011 E12.84210
G1 X104.701 Y93.461 E13.00847
G92 E0
G1 X103.593 Y92.352 F7800.000
G1 X94.053 Y91.352 F7800.000
G1 X88.869 Y93.918 F7800.000
G1 X87.303 Y92.352 F7800.000
G1 X85.303 Y92.352 F7800.000
G1 X84.268 Y92.352 F7800.000
G1 X84.268 Y98.715 E1.90665 F600.000
G1 X85.118 Y103.021 E3.22178
G92 E0
G1 X84.303 Y106.648 F7800.000
G1 X84.303 Y106.648 F7800.000
G1 X90.098 Y98.681 F7800.000
G1 X91.401 Y99.535 E0.46678 F600.000
G1 X91.571 Y99.623 E0.52394
G1 X91.876 Y99.745 E0.62257
G1 X92.619 Y99.974 E0.85543
G1 X92.848 Y100.075 E0.93036
G1 X93.328 Y100.352 E1.09667
G1 X93.551 Y100.504 E1.17750
G1 X94.091 Y101.058 E1.40909
G1 X94.255 Y101.314 E1.50046
G1 X94.465 Y101.708 E1.63417
G1 X94.583 Y102.016 E1.73297
G1 X94.699 Y102.431 E1.86220
G1 X94.787 Y103.269 E2.11448
G1 X94.665 Y104.275 E2.41823
G1 X94.332 Y105.060 E2.67376
G1 X94.265 Y105.164 E2.71087
G1 X94.062 Y105.426 E2.81032
G1 X93.789 Y105.723 E2.93105
G1 X93.292 Y106.096 E3.11711
G1 X92.981 Y106.276 E3.22480
G1 X92.372 Y106.516 E3.42117
G1 X91.867 Y106.657 E3.57799
G1 X91.493 Y106.721 E3.69190
G1 X90.227 Y106.818 E4.07228
G1 X85.303 Y106.818 E5.54774
G1 X84.341 Y106.539 E5.84799
G1 X84.268 Y105.989 E6.01436
G1 X84.268 Y100.352 E7.70347
G1 X84.429 Y99.533 E7.95347
G1 X90.077 Y99.533 E9.64580
G1 X90.385 Y99.506 E9.73846
G1 X91.032 Y99.293 E9.94243
G1 X91.327 Y98.448 E10.21058
G1 X95.237 Y92.352 E12.38070
G92 E0
G1 Z0.900 F7800.000
G1 X104.701 Y93.461 F7800.000
G1 X105.664 Y93.181 E0.30026 F600.000
G1 X109.140 Y93.183 E1.34183
G1 X110.218 Y93.258 E1.66579
G1 X110.602 Y93.314 E1.78197
G1 X111.352 Y93.498 E2.01330
G1 X111.750 Y93.627 E2.13872
G1 X112.415 Y93.926 E2.35726
G1 X112.767 Y94.118 E2.47722
G1 X113.376 Y94.547 E2.70058
G1 X113.638 Y94.762 E2.80224
G1 X114.357 Y95.547 E3.12097
G1 X114.940 Y96.488 E3.45264
G1 X115.371 Y97.575 E3.80317
G1 X115.635 Y98.794 E4.17697
G1 X115.725 Y100.137 E4.58031
G1 X115.521 Y102.128 E5.17988
G1 X114.938 Y103.711 E5.68536
G1 X114.781 Y103.947 E5.77032
G1 X113.985 Y104.976 E6.16013
G1 X113.654 Y105.257 E6.29028
G1 X112.643 Y105.949 E6.65727
G1 X112.435 Y106.052 E6.72693
G1 X112.202 Y106.147 E6.80220
G1 X110.875 Y106.582 E7.22073
G1 X110.501 Y106.649 E7.33463
G1 X108.616 Y106.818 E7.90159
G1 X105.664 Y106.818 E8.78632
G1 X104.701 Y106.539 E9.08658
