; generated by Slic3r 1.2.9 on 2016-03-11 at 01:29:32

; external perimeters extrusion width = 1.54mm
; perimeters extrusion width = 2.62mm
; infill extrusion width = 6.27mm
; solid infill extrusion width = 2.62mm
; top infill extrusion width = 2.62mm

M107
M104 S30 ; set temperature
G28 ; home all axes
G1 Z5 F5000 ; lift nozzle
M302
M92 E10000
M500
M501
G1 E100
M109 S30 ; wait for temperature to be reached
G21 ; set units to millimeters
G90 ; use absolute coordinates
M82 ; use absolute distances for extrusion
G92 E0
G1 Z0.300 F7800.000
G1 X104.975 Y101.653 F7800.000
G1 X104.975 Y92.577 E0.41070 F378.000
G1 X106.596 Y92.577 E0.48405
G1 X106.596 Y98.800 E0.76564
G1 X115.121 Y98.800 E1.15139 F378.000
G1 X115.121 Y100.063 E1.20854
G1 X106.596 Y100.063 E1.59429
G1 X106.596 Y106.181 E1.87112
G1 X115.382 Y106.181 E2.26868
G1 X115.382 Y107.423 E2.32488
G1 X104.975 Y107.423 E2.79579
G1 X104.975 Y101.884 E3.04641
G1 X106.370 Y98.888 F7800.000
G1 X105.201 Y97.719 E3.12125 F540.000
G1 X105.201 Y97.173 E3.14594
G1 X106.370 Y98.342 E3.22079
G1 X106.370 Y97.797 E3.24548
G1 X105.201 Y96.628 E3.32032
G1 X105.201 Y96.082 E3.34502
G1 X106.370 Y97.251 E3.41986
G1 X106.370 Y96.706 E3.44456
G1 X105.201 Y95.537 E3.51940
G1 X105.201 Y94.991 E3.54410
G1 X106.370 Y96.160 E3.61894
G1 X106.370 Y95.615 E3.64363
G1 X105.201 Y94.446 E3.71848
G1 X105.201 Y93.900 E3.74317
G1 X106.370 Y95.069 E3.81801
G1 X106.370 Y94.523 E3.84271
G1 X105.201 Y93.354 E3.91755
G1 X105.218 Y92.826 E3.94149
G1 X106.370 Y93.978 E4.01524
G1 X106.370 Y93.432 E4.03994
G1 X105.741 Y92.803 E4.08023
G92 E0
G1 X105.821 Y93.352 F7800.000
G1 X105.821 Y93.352 F7800.000
G1 X114.895 Y99.230 F7800.000
G1 X114.692 Y99.026 E0.01303 F540.000
G1 X114.146 Y99.026 E0.03773
G1 X114.895 Y99.775 E0.08569
G1 X114.412 Y99.837 E0.10776
G1 X113.601 Y99.026 E0.15969
G1 X113.055 Y99.026 E0.18438
G1 X113.866 Y99.837 E0.23631
G1 X113.321 Y99.837 E0.26100
G1 X112.510 Y99.026 E0.31293
G1 X111.964 Y99.026 E0.33762
G1 X112.775 Y99.837 E0.38955
G1 X112.230 Y99.837 E0.41424
G1 X111.418 Y99.026 E0.46617
G1 X110.873 Y99.026 E0.49086
G1 X111.684 Y99.837 E0.54279
G1 X111.138 Y99.837 E0.56748
G1 X110.327 Y99.026 E0.61941
G1 X109.782 Y99.026 E0.64410
G1 X110.593 Y99.837 E0.69603
G1 X110.047 Y99.837 E0.72072
G1 X109.236 Y99.026 E0.77265
G1 X108.691 Y99.026 E0.79734
G1 X109.502 Y99.837 E0.84927
G1 X108.956 Y99.837 E0.87396
G1 X108.145 Y99.026 E0.92588
G1 X107.599 Y99.026 E0.95058
G1 X108.411 Y99.837 E1.00250
G1 X107.865 Y99.837 E1.02720
G1 X107.054 Y99.026 E1.07912
G1 X106.508 Y99.026 E1.10382
G1 X107.319 Y99.837 E1.15574
G1 X106.774 Y99.837 E1.18044
G1 X105.201 Y98.264 E1.28111
G1 X105.201 Y98.810 E1.30581
G1 X106.370 Y99.979 E1.38065
G1 X106.370 Y100.525 E1.40535
G1 X105.201 Y99.356 E1.48019
G1 X105.201 Y99.901 E1.50489
G1 X106.370 Y101.070 E1.57973
G1 X106.370 Y101.616 E1.60442
G1 X105.201 Y100.447 E1.67927
G1 X105.201 Y100.992 E1.70396
G1 X106.370 Y102.161 E1.77880
G1 X106.370 Y102.707 E1.80350
G1 X105.201 Y101.538 E1.87834
G1 X105.201 Y102.083 E1.90304
G1 X106.370 Y103.252 E1.97788
G1 X106.370 Y103.798 E2.00258
G1 X105.201 Y102.629 E2.07742
G1 X105.201 Y103.175 E2.10211
G1 X106.370 Y104.344 E2.17696
G1 X106.370 Y104.889 E2.20165
G1 X105.201 Y103.720 E2.27649
G1 X105.201 Y104.266 E2.30119
G1 X106.370 Y105.435 E2.37603
G1 X106.370 Y105.980 E2.40073
G1 X105.201 Y104.811 E2.47557
G1 X105.201 Y105.357 E2.50026
G1 X107.042 Y107.197 E2.61807
G1 X107.587 Y107.197 E2.64277
G1 X106.797 Y106.407 E2.69335
G1 X107.343 Y106.407 E2.71805
G1 X108.133 Y107.197 E2.76862
G1 X108.678 Y107.197 E2.79332
G1 X107.888 Y106.407 E2.84390
G1 X108.434 Y106.407 E2.86860
G1 X109.224 Y107.197 E2.91918
G1 X109.769 Y107.197 E2.94387
G1 X108.979 Y106.407 E2.99445
G1 X109.525 Y106.407 E3.01915
G1 X110.315 Y107.197 E3.06973
G1 X110.861 Y107.197 E3.09442
G1 X110.070 Y106.407 E3.14500
G1 X110.616 Y106.407 E3.16970
G1 X111.406 Y107.197 E3.22028
G1 X111.952 Y107.197 E3.24497
G1 X111.162 Y106.407 E3.29555
G1 X111.707 Y106.407 E3.32025
G1 X112.497 Y107.197 E3.37083
G1 X113.043 Y107.197 E3.39552
G1 X112.253 Y106.407 E3.44610
G1 X112.798 Y106.407 E3.47080
G1 X113.588 Y107.197 E3.52138
G1 X114.134 Y107.197 E3.54608
G1 X113.344 Y106.407 E3.59666
G1 X113.889 Y106.407 E3.62135
G1 X114.679 Y107.197 E3.67193
G1 X115.156 Y107.128 E3.69374
G1 X114.435 Y106.407 E3.73993
G1 X114.980 Y106.407 E3.76463
G1 X115.156 Y106.583 E3.77589
G1 X106.496 Y107.197 F7800.000
G1 X105.201 Y105.902 E3.85877 F540.000
G1 X105.201 Y106.448 E3.88347
G1 X105.950 Y107.197 E3.93142
G1 X105.405 Y107.197 E3.95612
G1 X105.201 Y106.993 E3.96915
G92 E0
G1 X104.750 Y107.648 F7800.000
G1 X102.750 Y107.648 F7800.000
G1 X100.168 Y106.010 F7800.000
G1 X96.835 Y104.552 F7800.000
G1 X96.336 Y101.336 F7800.000
G1 X96.660 Y102.254 E0.04405 F378.000
G1 X96.765 Y103.277 E0.09059
G1 X96.616 Y104.492 E0.14598
G1 X96.175 Y105.500 E0.19577
G1 X95.440 Y106.318 E0.24552
G1 X94.426 Y106.927 E0.29906
G1 X93.145 Y107.297 E0.35937
G1 X91.585 Y107.423 E0.43022
G1 X84.618 Y107.423 E0.74547
G1 X84.618 Y92.577 E1.41724
G1 X86.239 Y92.577 E1.49059
G1 X86.239 Y98.940 E1.77851
G1 X91.362 Y98.940 E2.01035 F378.000
G1 X95.338 Y92.577 E2.34986
G1 X97.182 Y92.577 E2.43329
G1 X92.897 Y99.088 E2.78600
G1 X94.253 Y99.461 E2.84965
G1 X95.120 Y99.924 E2.89415
G1 X95.826 Y100.565 E2.93726
G1 X96.209 Y101.143 E2.96864
G1 X94.776 Y101.743 F7800.000
G1 X95.030 Y102.349 E2.99838 F378.000
G1 X95.136 Y103.258 E3.03976
G1 X95.028 Y104.137 E3.07984
G1 X94.696 Y104.880 E3.11667
G1 X94.142 Y105.469 E3.15328
G1 X93.393 Y105.888 E3.19209
G1 X92.474 Y106.134 E3.23513
G1 X91.396 Y106.214 E3.28407
G1 X86.239 Y106.214 E3.51743
G1 X86.239 Y100.127 E3.79286
G1 X91.484 Y100.127 E4.03022 F378.000
G1 X92.528 Y100.215 E4.07763
G1 X93.426 Y100.485 E4.12003
G1 X94.161 Y100.943 E4.15923
G1 X94.674 Y101.538 E4.19478
G1 X95.125 Y101.893 F7800.000
G1 X96.532 Y103.300 E4.28548 F540.000
G1 X96.483 Y103.800 E4.30840
G1 X95.299 Y102.616 E4.38473
G1 X95.358 Y103.225 E4.41262
G1 X96.423 Y104.290 E4.48122
G1 X96.300 Y104.716 E4.50144
G1 X95.298 Y103.714 E4.56599
G1 X95.223 Y104.189 E4.58789
G1 X96.132 Y105.098 E4.64648
G1 X95.949 Y105.464 E4.66513
G1 X95.054 Y104.569 E4.72282
G1 X94.884 Y104.948 E4.74177
G1 X95.689 Y105.753 E4.79364
G1 X95.420 Y106.034 E4.81135
G1 X94.624 Y105.237 E4.86270
G1 X94.357 Y105.520 E4.88042
G1 X95.119 Y106.282 E4.92951
G1 X94.776 Y106.488 E4.94776
G1 X94.039 Y105.752 E4.99523
G1 X93.687 Y105.949 E5.01363
G1 X94.433 Y106.694 E5.06168
G1 X94.019 Y106.830 E5.08154
G1 X93.314 Y106.125 E5.12698
G1 X92.880 Y106.241 E5.14744
G1 X93.593 Y106.953 E5.19336
G1 X93.166 Y107.075 E5.21360
G1 X92.447 Y106.356 E5.25994
G1 X91.936 Y106.395 E5.28329
G1 X92.657 Y107.116 E5.32980
G1 X92.149 Y107.157 E5.35305
G1 X91.424 Y106.433 E5.39975
G1 X90.882 Y106.440 E5.42446
G1 X91.639 Y107.197 E5.47326
G1 X91.090 Y107.197 E5.49830
G1 X90.333 Y106.440 E5.54711
G1 X89.784 Y106.440 E5.57215
G1 X90.541 Y107.197 E5.62095
G1 X89.991 Y107.197 E5.64599
G1 X89.234 Y106.440 E5.69479
G1 X88.685 Y106.440 E5.71983
G1 X89.442 Y107.197 E5.76863
G1 X88.893 Y107.197 E5.79367
G1 X88.135 Y106.440 E5.84248
G1 X87.586 Y106.440 E5.86752
G1 X88.343 Y107.197 E5.91632
G1 X87.794 Y107.197 E5.94136
G1 X87.037 Y106.440 E5.99016
G1 X86.487 Y106.440 E6.01520
G1 X87.245 Y107.197 E6.06400
G1 X86.695 Y107.197 E6.08904
G1 X84.844 Y105.345 E6.20840
G1 X84.844 Y104.796 E6.23344
G1 X86.013 Y105.965 E6.30880
G1 X86.013 Y105.416 E6.33384
G1 X84.844 Y104.247 E6.40920
G1 X84.844 Y103.697 E6.43424
G1 X86.013 Y104.866 E6.50960
G1 X86.013 Y104.317 E6.53464
G1 X84.844 Y103.148 E6.61000
G1 X84.844 Y102.599 E6.63504
G1 X86.013 Y103.768 E6.71040
G1 X86.013 Y103.218 E6.73544
G1 X84.844 Y102.049 E6.81080
G1 X84.844 Y101.500 E6.83584
G1 X86.013 Y102.669 E6.91120
G1 X86.013 Y102.120 E6.93624
G1 X84.844 Y100.951 E7.01160
G1 X84.844 Y100.401 E7.03664
G1 X86.013 Y101.570 E7.11200
G1 X86.013 Y101.021 E7.13704
G1 X84.844 Y99.852 E7.21240
G1 X84.844 Y99.303 E7.23744
G1 X86.013 Y100.472 E7.31280
G1 X86.013 Y99.922 E7.33784
G1 X84.844 Y98.753 E7.41320
G1 X84.844 Y98.204 E7.43824
G1 X86.541 Y99.901 E7.54764
G1 X87.090 Y99.901 E7.57268
G1 X86.355 Y99.166 E7.62006
G1 X86.904 Y99.166 E7.64510
G1 X87.639 Y99.901 E7.69249
G1 X88.189 Y99.901 E7.71753
G1 X87.454 Y99.166 E7.76491
G1 X88.003 Y99.166 E7.78995
G1 X88.738 Y99.901 E7.83733
G1 X89.287 Y99.901 E7.86237
G1 X88.552 Y99.166 E7.90976
G1 X89.102 Y99.166 E7.93480
G1 X89.837 Y99.901 E7.98218
G1 X90.386 Y99.901 E8.00722
G1 X89.651 Y99.166 E8.05461
G1 X90.200 Y99.166 E8.07965
G1 X90.935 Y99.901 E8.12703
G1 X91.485 Y99.901 E8.15207
G1 X90.750 Y99.166 E8.19946
G1 X91.299 Y99.166 E8.22449
G1 X92.076 Y99.943 E8.27457
G1 X92.678 Y99.995 E8.30212
G1 X91.604 Y98.921 E8.37135
G1 X91.815 Y98.583 E8.38952
G1 X92.527 Y99.295 E8.43541
G1 X93.217 Y99.436 E8.46750
G1 X96.469 Y102.688 E8.67711
G1 X96.283 Y101.953 E8.71166
G1 X93.975 Y99.645 E8.86045
G1 X93.464 Y100.232 F7800.000
G1 X92.459 Y99.227 E8.92522 F540.000
G1 X92.745 Y98.964 E8.94294
G1 X92.026 Y98.245 E8.98927
G1 X92.238 Y97.907 E9.00744
G1 X92.963 Y98.633 E9.05421
G1 X93.181 Y98.302 E9.07229
G1 X92.449 Y97.569 E9.11950
G1 X92.660 Y97.231 E9.13767
G1 X93.399 Y97.970 E9.18532
G1 X93.617 Y97.639 E9.20340
G1 X92.871 Y96.893 E9.25148
G1 X93.083 Y96.555 E9.26965
G1 X93.835 Y97.308 E9.31818
G1 X94.054 Y96.976 E9.33626
G1 X93.294 Y96.217 E9.38522
G1 X93.505 Y95.879 E9.40339
G1 X94.272 Y96.645 E9.45279
G1 X94.490 Y96.314 E9.47087
G1 X93.716 Y95.541 E9.52071
G1 X93.928 Y95.203 E9.53888
G1 X94.708 Y95.983 E9.58916
G1 X94.926 Y95.651 E9.60724
G1 X94.139 Y94.864 E9.65796
G1 X94.350 Y94.526 E9.67613
G1 X95.144 Y95.320 E9.72729
G1 X95.362 Y94.989 E9.74536
G1 X94.562 Y94.188 E9.79696
G1 X94.773 Y93.850 E9.81513
G1 X95.580 Y94.657 E9.86716
G1 X95.798 Y94.326 E9.88524
G1 X94.984 Y93.512 E9.93771
G1 X95.195 Y93.174 E9.95588
G1 X96.016 Y93.995 E10.00879
G1 X96.234 Y93.664 E10.02687
G1 X95.407 Y92.836 E10.08022
G1 X95.923 Y92.803 E10.10381
G1 X96.452 Y93.332 E10.13793
G1 X96.472 Y92.803 E10.16207
G1 X96.670 Y93.001 E10.17484
G92 E0
G1 X85.464 Y93.352 F7800.000
G1 X85.464 Y93.352 F7800.000
G1 X85.485 Y92.803 F7800.000
G1 X86.013 Y93.330 E0.03399 F540.000
G1 X86.013 Y93.880 E0.05903
G1 X84.936 Y92.803 E0.12844
G1 X84.844 Y93.260 E0.14968
G1 X86.013 Y94.429 E0.22504
G1 X86.013 Y94.978 E0.25008
G1 X84.844 Y93.809 E0.32544
G1 X84.844 Y94.359 E0.35048
G1 X86.013 Y95.528 E0.42585
G1 X86.013 Y96.077 E0.45088
G1 X84.844 Y94.908 E0.52625
G1 X84.844 Y95.457 E0.55129
G1 X86.013 Y96.626 E0.62665
G1 X86.013 Y97.176 E0.65169
G1 X84.844 Y96.007 E0.72705
G1 X84.844 Y96.556 E0.75209
G1 X86.013 Y97.725 E0.82745
G1 X86.013 Y98.274 E0.85249
G1 X84.844 Y97.105 E0.92785
G1 X84.844 Y97.655 E0.95289
G1 X86.013 Y98.824 E1.02825
G1 X84.844 Y105.895 F7800.000
G1 X86.146 Y107.197 E1.11219 F540.000
G1 X85.597 Y107.197 E1.13723
G1 X84.844 Y106.444 E1.18577
G1 X84.844 Y106.993 E1.21080
G1 X85.047 Y107.197 E1.22393
M106 S255
G92 E0
G1 Z0.600 F7800.000
G1 X106.683 Y102.912 F7800.000
G1 X105.786 Y98.575 E1.32720 F600.000
G1 X105.786 Y92.352 E3.19190
G1 X105.821 Y93.352 F7800.000
G1 X105.786 Y93.387 F7800.000
G1 X105.786 Y106.612 F7800.000
G1 X105.821 Y106.648 F7800.000
G1 X115.607 Y106.802 F7800.000
G1 X106.821 Y106.802 E5.82459 F600.000
G1 X105.866 Y106.532 E6.12204
G1 X105.786 Y105.956 E6.29639
G1 X105.786 Y100.288 E7.99479
G1 X105.963 Y99.431 E8.25686
G1 X115.346 Y99.431 E11.06856
G92 E0
G1 X106.821 Y98.575 F7800.000
G1 X106.821 Y98.575 F7800.000
G1 X110.933 Y94.463 F7800.000
G1 X108.821 Y92.352 F7800.000
G1 X106.821 Y91.352 F7800.000
G1 X104.750 Y91.352 F7800.000
G1 X102.750 Y92.352 F7800.000
G1 X100.948 Y94.155 F7800.000
G1 X97.600 Y91.352 F7800.000
G1 X95.214 Y91.352 F7800.000
G1 X94.105 Y91.659 F7800.000
G1 X90.030 Y93.918 F7800.000
G1 X88.464 Y92.352 F7800.000
G1 X86.464 Y92.352 F7800.000
G1 X85.428 Y92.352 F7800.000
G1 X85.428 Y98.715 E1.90665 F600.000
G1 X86.279 Y103.021 E3.22178
G92 E0
G1 X85.464 Y106.648 F7800.000
G1 X85.464 Y106.648 F7800.000
G1 X91.259 Y98.681 F7800.000
G1 X92.562 Y99.535 E0.46678 F600.000
G1 X92.731 Y99.623 E0.52394
G1 X93.037 Y99.745 E0.62257
G1 X93.779 Y99.974 E0.85543
G1 X94.008 Y100.075 E0.93036
G1 X94.489 Y100.352 E1.09667
G1 X94.712 Y100.504 E1.17750
G1 X95.251 Y101.058 E1.40909
G1 X95.416 Y101.314 E1.50046
G1 X95.626 Y101.708 E1.63417
G1 X95.744 Y102.016 E1.73297
G1 X95.859 Y102.431 E1.86220
G1 X95.947 Y103.269 E2.11448
G1 X95.825 Y104.275 E2.41823
G1 X95.493 Y105.060 E2.67376
G1 X95.425 Y105.164 E2.71087
G1 X95.222 Y105.426 E2.81032
G1 X94.949 Y105.723 E2.93105
G1 X94.453 Y106.096 E3.11711
G1 X94.142 Y106.276 E3.22480
G1 X93.532 Y106.516 E3.42117
G1 X93.028 Y106.657 E3.57799
G1 X92.653 Y106.721 E3.69190
G1 X91.388 Y106.818 E4.07228
G1 X86.464 Y106.818 E5.54774
G1 X85.501 Y106.539 E5.84799
G1 X85.428 Y105.989 E6.01436
G1 X85.428 Y100.352 E7.70347
G1 X85.590 Y99.533 E7.95347
G1 X91.238 Y99.533 E9.64580
G1 X91.546 Y99.506 E9.73846
G1 X92.192 Y99.293 E9.94243
G1 X92.487 Y98.448 E10.21058
G1 X96.398 Y92.352 E12.38070
G92 E0
G1 Z0.900 F7800.000
G1 X106.683 Y102.912 F7800.000
G1 X105.786 Y98.575 E1.32720 F600.000
G1 X105.786 Y92.352 E3.19190
G1 X105.821 Y93.352 F7800.000
G1 X105.786 Y93.387 F7800.000
G1 X105.786 Y106.612 F7800.000
G1 X105.821 Y106.648 F7800.000
G1 X115.607 Y106.802 F7800.000
G1 X106.821 Y106.802 E5.82459 F600.000
G1 X105.866 Y106.532 E6.12204
G1 X105.786 Y105.956 E6.29639
G1 X105.786 Y100.288 E7.99479
G1 X105.963 Y99.431 E8.25686
G1 X115.346 Y99.431 E11.06856
G92 E0
G1 X106.821 Y98.575 F7800.000
G1 X106.821 Y98.575 F7800.000
G1 X110.933 Y94.463 F7800.000
G1 X108.821 Y92.352 F7800.000
G1 X106.821 Y91.352 F7800.000
G1 X104.750 Y91.352 F7800.000
G1 X102.750 Y92.352 F7800.000
G1 X100.948 Y94.155 F7800.000
G1 X97.600 Y91.352 F7800.000
G1 X95.214 Y91.352 F7800.000
G1 X94.105 Y91.659 F7800.000
G1 X90.030 Y93.918 F7800.000
G1 X88.464 Y92.352 F7800.000
G1 X86.464 Y92.352 F7800.000
G1 X85.428 Y92.352 F7800.000
G1 X85.428 Y98.715 E1.90665 F600.000
G1 X86.279 Y103.021 E3.22178
G92 E0
G1 X85.464 Y106.648 F7800.000
G1 X85.464 Y106.648 F7800.000
G1 X91.259 Y98.681 F7800.000
G1 X92.562 Y99.535 E0.46678 F600.000
G1 X92.731 Y99.623 E0.52394
G1 X93.037 Y99.745 E0.62257
G1 X93.779 Y99.974 E0.85543
G1 X94.008 Y100.075 E0.93036
G1 X94.489 Y100.352 E1.09667
G1 X94.712 Y100.504 E1.17750
G1 X95.251 Y101.058 E1.40909
G1 X95.416 Y101.314 E1.50046
G1 X95.626 Y101.708 E1.63417
G1 X95.744 Y102.016 E1.73297
G1 X95.859 Y102.431 E1.86220
G1 X95.947 Y103.269 E2.11448
G1 X95.825 Y104.275 E2.41823
G1 X95.493 Y105.060 E2.67376
G1 X95.425 Y105.164 E2.71087
G1 X95.222 Y105.426 E2.81032
G1 X94.949 Y105.723 E2.93105
G1 X94.453 Y106.096 E3.11711
G1 X94.142 Y106.276 E3.22480
G1 X93.532 Y106.516 E3.42117
G1 X93.028 Y106.657 E3.57799
G1 X92.653 Y106.721 E3.69190
G1 X91.388 Y106.818 E4.07228
G1 X86.464 Y106.818 E5.54774
G1 X85.501 Y106.539 E5.84799
G1 X85.428 Y105.989 E6.01436
G1 X85.428 Y100.352 E7.70347
G1 X85.590 Y99.533 E7.95347
G1 X91.238 Y99.533 E9.64580
G1 X91.546 Y99.506 E9.73846
G1 X92.192 Y99.293 E9.94243
G1 X92.487 Y98.448 E10.21058
G1 X96.398 Y92.352 E12.38070
G92 E0
G1 Z1.200 F7800.000
G1 X106.683 Y102.912 F7800.000
G1 X105.786 Y98.575 E1.32720 F600.000
G1 X105.786 Y92.352 E3.19190
G1 X105.821 Y93.352 F7800.000
G1 X105.786 Y93.387 F7800.000
G1 X105.786 Y106.612 F7800.000
G1 X105.821 Y106.648 F7800.000
G1 X115.607 Y106.802 F7800.000
G1 X106.821 Y106.802 E5.82459 F600.000
G1 X105.866 Y106.532 E6.12204
G1 X105.786 Y105.956 E6.29639
G1 X105.786 Y100.288 E7.99479
G1 X105.963 Y99.431 E8.25686
G1 X115.346 Y99.431 E11.06856
G92 E0
G1 X106.821 Y98.575 F7800.000
G1 X106.821 Y98.575 F7800.000
G1 X110.933 Y94.463 F7800.000
G1 X108.821 Y92.352 F7800.000
G1 X106.821 Y91.352 F7800.000
G1 X104.750 Y91.352 F7800.000
G1 X102.750 Y92.352 F7800.000
G1 X100.948 Y94.155 F7800.000
G1 X97.600 Y91.352 F7800.000
G1 X95.214 Y91.352 F7800.000
G1 X94.105 Y91.659 F7800.000
G1 X90.030 Y93.918 F7800.000
G1 X88.464 Y92.352 F7800.000
G1 X86.464 Y92.352 F7800.000
G1 X85.428 Y92.352 F7800.000
G1 X85.428 Y98.715 E1.90665 F600.000
G1 X86.279 Y103.021 E3.22178
G92 E0
