; generated by Slic3r 1.2.9 on 2016-03-11 at 01:29:34

; external perimeters extrusion width = 1.54mm
; perimeters extrusion width = 2.62mm
; infill extrusion width = 6.27mm
; solid infill extrusion width = 2.62mm
; top infill extrusion width = 2.62mm

M107
M104 S30 ; set temperature
G28 ; home all axes
G1 Z5 F5000 ; lift nozzle
M302
M92 E10000
M500
M501
G1 E100
M109 S30 ; wait for temperature to be reached
G21 ; set units to millimeters
G90 ; use absolute coordinates
M82 ; use absolute distances for extrusion
G92 E0
G1 Z0.300 F7800.000
G1 X105.814 Y96.926 F7800.000
G1 X105.814 Y99.674 E0.12434 F378.000
G1 X114.547 Y99.674 E0.51950 F378.000
G1 X114.547 Y92.577 E0.84064
G1 X116.168 Y92.577 E0.91398
G1 X116.168 Y107.423 E1.58576
G1 X114.547 Y107.423 E1.65910
G1 X114.547 Y100.959 E1.95160
G1 X105.814 Y100.959 E2.34676
G1 X105.814 Y107.423 E2.63925
G1 X104.193 Y107.423 E2.71260
G1 X104.193 Y92.577 E3.38437
G1 X105.814 Y92.577 E3.45772
G1 X105.814 Y96.695 E3.64406
G1 X105.588 Y99.844 F7800.000
G1 X104.419 Y98.675 E3.72014 F540.000
G1 X104.419 Y98.120 E3.74565
G1 X105.588 Y99.290 E3.82173
G1 X105.588 Y98.735 E3.84725
G1 X104.419 Y97.566 E3.92333
G1 X104.419 Y97.011 E3.94884
G1 X105.588 Y98.180 E4.02492
G1 X105.588 Y97.626 E4.05044
G1 X104.419 Y96.457 E4.12652
G1 X104.419 Y95.902 E4.15203
G1 X105.588 Y97.071 E4.22811
G1 X105.588 Y96.517 E4.25363
G1 X104.419 Y95.348 E4.32970
G1 X104.419 Y94.793 E4.35522
G1 X105.588 Y95.962 E4.43130
G1 X105.588 Y95.408 E4.45682
G1 X104.419 Y94.238 E4.53289
G1 X104.419 Y93.684 E4.55841
G1 X105.588 Y94.853 E4.63449
G1 X105.588 Y94.298 E4.66001
G1 X104.419 Y93.129 E4.73608
G1 X104.647 Y92.803 E4.75441
G1 X105.588 Y93.744 E4.81564
G1 X105.588 Y93.189 E4.84115
G1 X105.202 Y92.803 E4.86630
G92 E0
G1 X115.322 Y93.352 F7800.000
G1 X115.322 Y93.352 F7800.000
G1 X115.357 Y93.387 F7800.000
G1 X115.393 Y93.352 F7800.000
G1 X115.942 Y93.007 F7800.000
G1 X115.738 Y92.803 E0.01325 F540.000
G1 X115.184 Y92.803 E0.03877
G1 X115.942 Y93.561 E0.08810
G1 X115.942 Y94.116 E0.11362
G1 X114.773 Y92.947 E0.18970
G1 X114.773 Y93.501 E0.21522
G1 X115.942 Y94.670 E0.29129
G1 X115.942 Y95.225 E0.31681
G1 X114.773 Y94.056 E0.39289
G1 X114.773 Y94.610 E0.41841
G1 X115.942 Y95.779 E0.49448
G1 X115.942 Y96.334 E0.52000
G1 X114.773 Y95.165 E0.59608
G1 X114.773 Y95.719 E0.62160
G1 X115.942 Y96.889 E0.69767
G1 X115.942 Y97.443 E0.72319
G1 X114.773 Y96.274 E0.79927
G1 X114.773 Y96.829 E0.82479
G1 X115.942 Y97.998 E0.90086
G1 X115.942 Y98.552 E0.92638
G1 X114.773 Y97.383 E1.00246
G1 X114.773 Y97.938 E1.02798
G1 X115.942 Y99.107 E1.10405
G1 X115.942 Y99.661 E1.12957
G1 X114.773 Y98.492 E1.20565
G1 X114.773 Y99.047 E1.23117
G1 X115.942 Y100.216 E1.30724
G1 X115.942 Y100.770 E1.33276
G1 X114.773 Y99.601 E1.40884
G1 X114.517 Y99.900 F7800.000
G1 X115.942 Y101.325 E1.50157 F540.000
G1 X115.942 Y101.880 E1.52709
G1 X113.962 Y99.900 E1.65591
G1 X113.408 Y99.900 E1.68143
G1 X114.241 Y100.733 E1.73564
G1 X113.686 Y100.733 E1.76116
G1 X112.853 Y99.900 E1.81537
G1 X112.299 Y99.900 E1.84089
G1 X113.132 Y100.733 E1.89510
G1 X112.577 Y100.733 E1.92062
G1 X111.744 Y99.900 E1.97483
G1 X111.189 Y99.900 E2.00035
G1 X112.023 Y100.733 E2.05456
G1 X111.468 Y100.733 E2.08008
G1 X110.635 Y99.900 E2.13429
G1 X110.080 Y99.900 E2.15981
G1 X110.913 Y100.733 E2.21402
G1 X110.359 Y100.733 E2.23954
G1 X109.526 Y99.900 E2.29375
G1 X108.971 Y99.900 E2.31927
G1 X109.804 Y100.733 E2.37348
G1 X109.250 Y100.733 E2.39900
G1 X108.417 Y99.900 E2.45321
G1 X107.862 Y99.900 E2.47873
G1 X108.695 Y100.733 E2.53294
G1 X108.141 Y100.733 E2.55846
G1 X107.307 Y99.900 E2.61267
G1 X106.753 Y99.900 E2.63819
G1 X107.586 Y100.733 E2.69240
G1 X107.031 Y100.733 E2.71792
G1 X106.198 Y99.900 E2.77213
G1 X105.644 Y99.900 E2.79765
G1 X106.477 Y100.733 E2.85186
G1 X105.922 Y100.733 E2.87738
G1 X104.419 Y99.230 E2.97522
G1 X104.419 Y99.784 E3.00074
G1 X105.588 Y100.953 E3.07682
G1 X105.588 Y101.508 E3.10233
G1 X104.419 Y100.339 E3.17841
G1 X104.419 Y100.893 E3.20393
G1 X105.588 Y102.062 E3.28000
G1 X105.588 Y102.617 E3.30552
G1 X104.419 Y101.448 E3.38160
G1 X104.419 Y102.002 E3.40712
G1 X105.588 Y103.171 E3.48319
G1 X105.588 Y103.726 E3.50871
G1 X104.419 Y102.557 E3.58479
G1 X104.419 Y103.112 E3.61031
G1 X105.588 Y104.281 E3.68638
G1 X105.588 Y104.835 E3.71190
G1 X104.419 Y103.666 E3.78798
G1 X104.419 Y104.221 E3.81350
G1 X105.588 Y105.390 E3.88957
G1 X105.588 Y105.944 E3.91509
G1 X104.419 Y104.775 E3.99117
G1 X104.419 Y105.330 E4.01669
G1 X105.588 Y106.499 E4.09276
G1 X105.588 Y107.053 E4.11828
G1 X104.419 Y105.884 E4.19436
G1 X104.419 Y106.439 E4.21988
G1 X105.177 Y107.197 E4.26921
G1 X104.622 Y107.197 E4.29473
G1 X104.419 Y106.993 E4.30798
G92 E0
G1 X105.039 Y106.648 F7800.000
G1 X105.039 Y106.648 F7800.000
G1 X115.159 Y107.197 F7800.000
G1 X114.773 Y106.811 E0.02514 F540.000
G1 X114.773 Y106.256 E0.05066
G1 X115.714 Y107.197 E0.11188
G1 X115.942 Y106.871 E0.13021
G1 X114.773 Y105.702 E0.20628
G1 X114.773 Y105.147 E0.23180
G1 X115.942 Y106.316 E0.30788
G1 X115.942 Y105.762 E0.33340
G1 X114.773 Y104.592 E0.40947
G1 X114.773 Y104.038 E0.43499
G1 X115.942 Y105.207 E0.51107
G1 X115.942 Y104.652 E0.53659
G1 X114.773 Y103.483 E0.61266
G1 X114.773 Y102.929 E0.63818
G1 X115.942 Y104.098 E0.71426
G1 X115.942 Y103.543 E0.73978
G1 X114.773 Y102.374 E0.81585
G1 X114.773 Y101.820 E0.84137
G1 X115.942 Y102.989 E0.91745
G1 X115.942 Y102.434 E0.94297
G1 X114.773 Y101.265 E1.01904
G92 E0
G1 X106.039 Y99.449 F7800.000
G1 X110.180 Y94.493 F7800.000
G1 X106.039 Y91.352 F7800.000
G1 X101.968 Y92.352 F7800.000
G1 X99.138 Y97.605 F7800.000
G1 X99.494 Y98.780 F7800.000
G1 X95.764 Y101.250 F7800.000
G1 X94.407 Y99.990 F7800.000
G1 X95.040 Y100.565 E0.03871 F378.000
G1 X95.561 Y101.351 E0.08139
G1 X95.875 Y102.254 E0.12463
G1 X95.980 Y103.277 E0.17116
G1 X95.831 Y104.492 E0.22655
G1 X95.389 Y105.500 E0.27634
G1 X94.654 Y106.318 E0.32609
G1 X93.640 Y106.927 E0.37963
G1 X92.360 Y107.297 E0.43994
G1 X90.799 Y107.423 E0.51079
G1 X83.832 Y107.423 E0.82604
G1 X83.832 Y92.577 E1.49781
G1 X85.453 Y92.577 E1.57116
G1 X85.453 Y98.940 E1.85908
G1 X90.577 Y98.940 E2.09092 F378.000
G1 X94.553 Y92.577 E2.43043
G1 X96.397 Y92.577 E2.51386
G1 X92.111 Y99.088 E2.86657
G1 X93.467 Y99.461 E2.93022
G1 X94.217 Y99.861 E2.96867
G1 X93.375 Y100.943 F7800.000
G1 X93.919 Y101.573 E3.00634 F378.000
G1 X94.244 Y102.349 E3.04441
G1 X94.351 Y103.258 E3.08579
G1 X94.242 Y104.137 E3.12587
G1 X93.910 Y104.880 E3.16270
G1 X93.356 Y105.469 E3.19931
G1 X92.608 Y105.888 E3.23812
G1 X91.689 Y106.134 E3.28116
G1 X90.610 Y106.214 E3.33010
G1 X85.453 Y106.214 E3.56346
G1 X85.453 Y100.127 E3.83889
G1 X90.699 Y100.127 E4.07625 F378.000
G1 X91.743 Y100.215 E4.12366
G1 X92.640 Y100.485 E4.16606
G1 X93.179 Y100.821 E4.19481
G1 X92.678 Y100.232 F7800.000
G1 X91.674 Y99.227 E4.25958 F540.000
G1 X91.960 Y98.964 E4.27730
G1 X91.241 Y98.245 E4.32363
G1 X91.452 Y97.907 E4.34180
G1 X92.178 Y98.633 E4.38857
G1 X92.396 Y98.302 E4.40665
G1 X91.663 Y97.569 E4.45386
G1 X91.875 Y97.231 E4.47203
G1 X92.614 Y97.970 E4.51968
G1 X92.832 Y97.639 E4.53776
G1 X92.086 Y96.893 E4.58584
G1 X92.297 Y96.555 E4.60401
G1 X93.050 Y97.308 E4.65254
G1 X93.268 Y96.976 E4.67062
G1 X92.508 Y96.217 E4.71958
G1 X92.720 Y95.879 E4.73775
G1 X93.486 Y96.645 E4.78715
G1 X93.704 Y96.314 E4.80523
G1 X92.931 Y95.541 E4.85507
G1 X93.142 Y95.203 E4.87324
G1 X93.922 Y95.983 E4.92352
G1 X94.140 Y95.651 E4.94160
G1 X93.354 Y94.864 E4.99232
G1 X93.565 Y94.526 E5.01049
G1 X94.358 Y95.320 E5.06165
G1 X94.576 Y94.989 E5.07972
G1 X93.776 Y94.188 E5.13132
G1 X93.987 Y93.850 E5.14949
G1 X94.794 Y94.657 E5.20152
G1 X95.013 Y94.326 E5.21960
G1 X94.199 Y93.512 E5.27207
G1 X94.410 Y93.174 E5.29024
G1 X95.231 Y93.995 E5.34316
G1 X95.449 Y93.664 E5.36123
G1 X94.621 Y92.836 E5.41458
G1 X95.137 Y92.803 E5.43817
G1 X95.667 Y93.332 E5.47229
G1 X95.687 Y92.803 E5.49643
G1 X95.885 Y93.001 E5.50920
G92 E0
G1 X94.726 Y101.494 F7800.000
G1 X94.726 Y101.494 F7800.000
G1 X93.189 Y99.645 F7800.000
G1 X95.498 Y101.953 E0.14879 F540.000
G1 X95.683 Y102.688 E0.18334
G1 X92.432 Y99.436 E0.39295
G1 X91.742 Y99.295 E0.42504
G1 X91.030 Y98.583 E0.47093
G1 X90.818 Y98.921 E0.48910
G1 X91.892 Y99.995 E0.55833
G1 X91.290 Y99.943 E0.58588
G1 X90.514 Y99.166 E0.63595
G1 X89.964 Y99.166 E0.66099
G1 X90.699 Y99.901 E0.70838
G1 X90.150 Y99.901 E0.73342
G1 X89.415 Y99.166 E0.78080
G1 X88.865 Y99.166 E0.80584
G1 X89.601 Y99.901 E0.85323
G1 X89.051 Y99.901 E0.87827
G1 X88.316 Y99.166 E0.92565
G1 X87.767 Y99.166 E0.95069
G1 X88.502 Y99.901 E0.99807
G1 X87.953 Y99.901 E1.02311
G1 X87.217 Y99.166 E1.07050
G1 X86.668 Y99.166 E1.09554
G1 X87.403 Y99.901 E1.14292
G1 X86.854 Y99.901 E1.16796
G1 X86.119 Y99.166 E1.21535
G1 X85.569 Y99.166 E1.24039
G1 X86.305 Y99.901 E1.28777
G1 X85.755 Y99.901 E1.31281
G1 X84.058 Y98.204 E1.42221
G1 X84.058 Y97.655 E1.44725
G1 X85.227 Y98.824 E1.52261
G1 X85.227 Y98.274 E1.54765
G1 X84.058 Y97.105 E1.62301
G1 X84.058 Y96.556 E1.64805
G1 X85.227 Y97.725 E1.72341
G1 X85.227 Y97.176 E1.74845
G1 X84.058 Y96.007 E1.82381
G1 X84.058 Y95.457 E1.84885
G1 X85.227 Y96.626 E1.92421
G1 X85.227 Y96.077 E1.94925
G1 X84.058 Y94.908 E2.02461
G1 X84.058 Y94.359 E2.04965
G1 X85.227 Y95.528 E2.12501
G1 X85.227 Y94.978 E2.15005
G1 X84.058 Y93.809 E2.22541
G1 X84.058 Y93.260 E2.25045
G1 X85.227 Y94.429 E2.32581
G1 X85.227 Y93.880 E2.35085
G1 X84.151 Y92.803 E2.42025
G1 X84.700 Y92.803 E2.44529
G1 X85.227 Y93.330 E2.47928
G1 X84.058 Y98.753 F7800.000
G1 X85.227 Y99.922 E2.55464 F540.000
G1 X85.227 Y100.472 E2.57968
G1 X84.058 Y99.303 E2.65504
G1 X84.058 Y99.852 E2.68008
G1 X85.227 Y101.021 E2.75544
G1 X85.227 Y101.570 E2.78048
G1 X84.058 Y100.401 E2.85584
G1 X84.058 Y100.951 E2.88088
G1 X85.227 Y102.120 E2.95624
G1 X85.227 Y102.669 E2.98128
G1 X84.058 Y101.500 E3.05665
G1 X84.058 Y102.049 E3.08168
G1 X85.227 Y103.218 E3.15705
G1 X85.227 Y103.768 E3.18208
G1 X84.058 Y102.599 E3.25745
G1 X84.058 Y103.148 E3.28249
G1 X85.227 Y104.317 E3.35785
G1 X85.227 Y104.866 E3.38289
G1 X84.058 Y103.697 E3.45825
G1 X84.058 Y104.247 E3.48329
G1 X85.227 Y105.416 E3.55865
G1 X85.227 Y105.965 E3.58369
G1 X84.058 Y104.796 E3.65905
G1 X84.058 Y105.345 E3.68409
G1 X85.910 Y107.197 E3.80344
G1 X85.360 Y107.197 E3.82848
G1 X84.058 Y105.895 E3.91243
G1 X84.058 Y106.444 E3.93747
G1 X84.811 Y107.197 E3.98600
G1 X84.262 Y107.197 E4.01104
G1 X84.058 Y106.993 E4.02416
G1 X85.702 Y106.440 F7800.000
G1 X86.459 Y107.197 E4.07296 F540.000
G1 X87.008 Y107.197 E4.09800
G1 X86.251 Y106.440 E4.14681
G1 X86.801 Y106.440 E4.17185
G1 X87.558 Y107.197 E4.22065
G1 X88.107 Y107.197 E4.24569
G1 X87.350 Y106.440 E4.29449
G1 X87.899 Y106.440 E4.31953
G1 X88.656 Y107.197 E4.36833
G1 X89.206 Y107.197 E4.39337
G1 X88.449 Y106.440 E4.44218
G1 X88.998 Y106.440 E4.46722
G1 X89.755 Y107.197 E4.51602
G1 X90.304 Y107.197 E4.54106
G1 X89.547 Y106.440 E4.58986
G1 X90.097 Y106.440 E4.61490
G1 X90.854 Y107.197 E4.66370
G1 X91.363 Y107.157 E4.68700
G1 X90.639 Y106.433 E4.73370
G1 X91.150 Y106.395 E4.75708
G1 X91.872 Y107.116 E4.80358
G1 X92.380 Y107.075 E4.82683
G1 X91.661 Y106.356 E4.87317
G1 X92.095 Y106.241 E4.89362
G1 X92.807 Y106.953 E4.93954
G1 X93.233 Y106.830 E4.95975
G1 X92.528 Y106.125 E5.00520
G1 X92.902 Y105.949 E5.02402
G1 X93.647 Y106.694 E5.07207
G1 X93.990 Y106.488 E5.09032
G1 X93.254 Y105.752 E5.13779
G1 X93.572 Y105.520 E5.15572
G1 X94.334 Y106.282 E5.20481
G1 X94.635 Y106.034 E5.22260
G1 X93.838 Y105.237 E5.27396
G1 X94.099 Y104.948 E5.29169
G1 X94.903 Y105.753 E5.34355
G1 X95.163 Y105.464 E5.36128
G1 X94.268 Y104.569 E5.41897
G1 X94.438 Y104.189 E5.43792
G1 X95.347 Y105.098 E5.49651
G1 X95.514 Y104.716 E5.51553
G1 X94.513 Y103.714 E5.58007
G1 X94.573 Y103.225 E5.60254
G1 X95.637 Y104.290 E5.67113
G1 X95.697 Y103.800 E5.69360
G1 X94.513 Y102.616 E5.76993
G1 X94.339 Y101.893 E5.80384
G1 X95.746 Y103.300 E5.89454
M106 S255
G92 E0
G1 Z0.600 F7800.000
G1 X105.003 Y92.352 F7800.000
G1 X105.003 Y99.449 E2.12659 F600.000
G1 X105.914 Y103.796 E3.45730
G92 E0
G1 X115.322 Y106.648 F7800.000
G1 X115.322 Y106.648 F7800.000
G1 X115.357 Y107.648 F7800.000
G1 X115.357 Y101.184 E1.93691 F600.000
G1 X115.176 Y100.316 E2.20250
G1 X115.357 Y99.449 E2.46808
G1 X115.357 Y92.352 E4.59467
G92 E0
G1 X105.039 Y93.352 F7800.000
G1 X105.003 Y93.387 F7800.000
G1 X105.003 Y106.612 F7800.000
G1 X105.039 Y106.648 F7800.000
G1 X105.003 Y107.648 F7800.000
G1 X105.003 Y101.184 E1.93691 F600.000
G1 X105.185 Y100.316 E2.20250
G1 X116.393 Y100.316 E5.56087
G92 E0
G1 X106.039 Y99.449 F7800.000
G1 X106.039 Y99.449 F7800.000
G1 X110.180 Y95.307 F7800.000
G1 X110.180 Y94.493 F7800.000
G1 X108.039 Y92.352 F7800.000
G1 X106.039 Y91.352 F7800.000
G1 X103.968 Y91.352 F7800.000
G1 X101.968 Y92.352 F7800.000
G1 X100.163 Y94.156 F7800.000
G1 X96.814 Y91.352 F7800.000
G1 X94.428 Y91.352 F7800.000
G1 X93.320 Y91.659 F7800.000
G1 X89.244 Y93.918 F7800.000
G1 X88.750 Y95.644 F7800.000
G1 X85.678 Y98.715 F7800.000
G1 X84.643 Y92.352 F7800.000
G1 X84.643 Y98.715 E1.90665 F600.000
G1 X85.493 Y103.021 E3.22178
G92 E0
G1 X84.678 Y106.648 F7800.000
G1 X84.678 Y106.648 F7800.000
G1 X90.473 Y98.681 F7800.000
G1 X91.776 Y99.535 E0.46678 F600.000
G1 X91.946 Y99.623 E0.52394
G1 X92.251 Y99.745 E0.62257
G1 X92.994 Y99.974 E0.85543
G1 X93.223 Y100.075 E0.93036
G1 X93.703 Y100.352 E1.09667
G1 X93.926 Y100.504 E1.17750
G1 X94.466 Y101.058 E1.40909
G1 X94.630 Y101.314 E1.50046
G1 X94.840 Y101.708 E1.63417
G1 X94.958 Y102.016 E1.73297
G1 X95.074 Y102.431 E1.86220
G1 X95.162 Y103.269 E2.11448
G1 X95.040 Y104.275 E2.41823
G1 X94.707 Y105.060 E2.67376
G1 X94.640 Y105.164 E2.71087
G1 X94.437 Y105.426 E2.81032
G1 X94.164 Y105.723 E2.93105
G1 X93.667 Y106.096 E3.11711
G1 X93.356 Y106.276 E3.22480
G1 X92.747 Y106.516 E3.42117
G1 X92.242 Y106.657 E3.57799
G1 X91.868 Y106.721 E3.69190
G1 X90.602 Y106.818 E4.07228
G1 X85.678 Y106.818 E5.54774
G1 X84.716 Y106.539 E5.84799
G1 X84.643 Y105.989 E6.01436
G1 X84.643 Y100.352 E7.70347
G1 X84.804 Y99.533 E7.95347
G1 X90.452 Y99.533 E9.64580
G1 X90.760 Y99.506 E9.73846
G1 X91.407 Y99.293 E9.94243
G1 X91.702 Y98.448 E10.21058
G1 X95.612 Y92.352 E12.38070
G92 E0
G1 Z0.900 F7800.000
G1 X105.003 Y92.352 F7800.000
G1 X105.003 Y99.449 E2.12659 F600.000
G1 X105.914 Y103.796 E3.45730
G92 E0
G1 X115.322 Y106.648 F7800.000
G1 X115.322 Y106.648 F7800.000
G1 X115.357 Y107.648 F7800.000
G1 X115.357 Y101.184 E1.93691 F600.000
G1 X115.176 Y100.316 E2.20250
G1 X115.357 Y99.449 E2.46808
G1 X115.357 Y92.352 E4.59467
G92 E0
G1 X105.039 Y93.352 F7800.000
G1 X105.003 Y93.387 F7800.000
G1 X105.003 Y106.612 F7800.000
G1 X105.039 Y106.648 F7800.000
G1 X105.003 Y107.648 F7800.000
G1 X105.003 Y101.184 E1.93691 F600.000
G1 X105.185 Y100.316 E2.20250
G1 X116.393 Y100.316 E5.56087
G92 E0
G1 X106.039 Y99.449 F7800.000
G1 X106.039 Y99.449 F7800.000
G1 X110.180 Y95.307 F7800.000
G1 X110.180 Y94.493 F7800.000
G1 X108.039 Y92.352 F7800.000
G1 X106.039 Y91.352 F7800.000
G1 X103.968 Y91.352 F7800.000
G1 X101.968 Y92.352 F7800.000
G1 X100.163 Y94.156 F7800.000
G1 X96.814 Y91.352 F7800.000
G1 X94.428 Y91.352 F7800.000
G1 X93.320 Y91.659 F7800.000
G1 X89.244 Y93.918 F7800.000
G1 X88.750 Y95.644 F7800.000
G1 X85.678 Y98.715 F7800.000
G1 X84.643 Y92.352 F7800.000
G1 X84.643 Y98.715 E1.90665 F600.000
G1 X85.493 Y103.021 E3.22178
G92 E0
G1 X84.678 Y106.648 F7800.000
G1 X84.678 Y106.648 F7800.000
G1 X90.473 Y98.681 F7800.000
G1 X91.776 Y99.535 E0.46678 F600.000
G1 X91.946 Y99.623 E0.52394
G1 X92.251 Y99.745 E0.62257
G1 X92.994 Y99.974 E0.85543
G1 X93.223 Y100.075 E0.93036
G1 X93.703 Y100.352 E1.09667
G1 X93.926 Y100.504 E1.17750
G1 X94.466 Y101.058 E1.40909
G1 X94.630 Y101.314 E1.50046
G1 X94.840 Y101.708 E1.63417
G1 X94.958 Y102.016 E1.73297
G1 X95.074 Y102.431 E1.86220
G1 X95.162 Y103.269 E2.11448
G1 X95.040 Y104.275 E2.41823
G1 X94.707 Y105.060 E2.67376
G1 X94.640 Y105.164 E2.71087
G1 X94.437 Y105.426 E2.81032
G1 X94.164 Y105.723 E2.93105
G1 X93.667 Y106.096 E3.11711
G1 X93.356 Y106.276 E3.22480
G1 X92.747 Y106.516 E3.42117
G1 X92.242 Y106.657 E3.57799
G1 X91.868 Y106.721 E3.69190
G1 X90.602 Y106.818 E4.07228
