; generated by Slic3r 1.2.9 on 2016-03-11 at 01:29:35

; external perimeters extrusion width = 1.54mm
; perimeters extrusion width = 2.62mm
; infill extrusion width = 6.27mm
; solid infill extrusion width = 2.62mm
; top infill extrusion width = 2.62mm

M107
M104 S30 ; set temperature
G28 ; home all axes
G1 Z5 F5000 ; lift nozzle
M302
M92 E10000
M500
M501
G1 E100
M109 S30 ; wait for temperature to be reached
G21 ; set units to millimeters
G90 ; use absolute coordinates
M82 ; use absolute distances for extrusion
G92 E0
G1 Z0.300 F7800.000
G1 X109.477 Y100.809 F7800.000
G1 X109.477 Y92.577 E0.37248 F378.000
G1 X111.099 Y92.577 E0.44587
G1 X111.099 Y107.423 E1.11764
G1 X109.477 Y107.423 E1.19104 F378.000
G1 X109.477 Y101.040 E1.47988
G1 X109.907 Y107.197 F7800.000
G1 X109.703 Y106.993 E1.49329 F540.000
G1 X109.703 Y106.432 E1.51944
G1 X110.468 Y107.197 E1.56983
G1 X110.873 Y107.041 E1.59005
G1 X109.703 Y105.871 E1.66713
G1 X109.703 Y105.309 E1.69327
G1 X110.873 Y106.479 E1.77035
G1 X110.873 Y105.918 E1.79650
G1 X109.703 Y104.748 E1.87358
G1 X109.703 Y104.187 E1.89972
G1 X110.873 Y105.357 E1.97680
G1 X110.873 Y104.795 E2.00295
G1 X109.703 Y103.625 E2.08002
G1 X109.703 Y103.064 E2.10617
G1 X110.873 Y104.234 E2.18325
G1 X110.873 Y103.673 E2.20940
G1 X109.703 Y102.502 E2.28647
G1 X109.703 Y101.941 E2.31262
G1 X110.873 Y103.111 E2.38970
G1 X110.873 Y102.550 E2.41585
G1 X109.703 Y101.380 E2.49292
G1 X109.703 Y100.818 E2.51907
G1 X110.873 Y101.988 E2.59615
G1 X110.873 Y101.427 E2.62229
G1 X109.703 Y100.257 E2.69937
G1 X109.703 Y99.696 E2.72552
G1 X110.873 Y100.866 E2.80260
G1 X110.873 Y100.304 E2.82874
G1 X109.703 Y99.134 E2.90582
G1 X109.703 Y98.573 E2.93197
G1 X110.873 Y99.743 E3.00904
G1 X110.873 Y99.182 E3.03519
G1 X109.703 Y98.012 E3.11227
G1 X109.703 Y97.450 E3.13842
G1 X110.873 Y98.620 E3.21549
G1 X110.873 Y98.059 E3.24164
G1 X109.703 Y96.889 E3.31872
G1 X109.703 Y96.327 E3.34487
G1 X110.873 Y97.498 E3.42194
G1 X110.873 Y96.936 E3.44809
G1 X109.703 Y95.766 E3.52517
G1 X109.703 Y95.205 E3.55131
G1 X110.873 Y96.375 E3.62839
G1 X110.873 Y95.813 E3.65454
G1 X109.703 Y94.643 E3.73162
G1 X109.703 Y94.082 E3.75776
G1 X110.873 Y95.252 E3.83484
G1 X110.873 Y94.691 E3.86099
G1 X109.703 Y93.521 E3.93806
G1 X109.703 Y92.959 E3.96421
G1 X110.873 Y94.129 E4.04129
G1 X110.873 Y93.568 E4.06744
G1 X110.108 Y92.803 E4.11783
G1 X110.670 Y92.803 E4.14398
G1 X110.873 Y93.007 E4.15739
G92 E0
G1 X109.252 Y92.352 F7800.000
G1 X104.325 Y97.603 F7800.000
G1 X100.440 Y98.042 F7800.000
G1 X99.080 Y98.388 F7800.000
G1 X98.620 Y99.251 F7800.000
G1 X88.901 Y105.762 F7800.000
G1 X88.901 Y92.577 E0.59660 F378.000
G1 X90.522 Y92.577 E0.66994
G1 X90.522 Y98.940 E0.95787
G1 X95.645 Y98.940 E1.18971 F378.000
G1 X99.621 Y92.577 E1.52922
G1 X101.465 Y92.577 E1.61265
G1 X97.180 Y99.088 E1.96535
G1 X98.536 Y99.461 E2.02901
G1 X99.403 Y99.924 E2.07351
G1 X100.109 Y100.565 E2.11661
G1 X100.630 Y101.351 E2.15930
G1 X100.943 Y102.254 E2.20253
G1 X101.048 Y103.277 E2.24907
G1 X100.899 Y104.492 E2.30446
G1 X100.458 Y105.500 E2.35425
G1 X99.723 Y106.318 E2.40400
G1 X98.709 Y106.927 E2.45754
G1 X97.428 Y107.297 E2.51785
G1 X95.868 Y107.423 E2.58870
G1 X88.901 Y107.423 E2.90395
G1 X88.901 Y105.993 E2.96867
G1 X90.522 Y105.993 F7800.000
G1 X90.522 Y100.127 E3.23409 F378.000
G1 X95.767 Y100.127 E3.47144 F378.000
G1 X96.811 Y100.215 E3.51885
G1 X97.709 Y100.485 E3.56125
G1 X98.444 Y100.943 E3.60045
G1 X98.988 Y101.573 E3.63813
G1 X99.313 Y102.349 E3.67619
G1 X99.419 Y103.258 E3.71757
G1 X99.311 Y104.137 E3.75766
G1 X98.979 Y104.880 E3.79448
G1 X98.425 Y105.469 E3.83109
G1 X97.676 Y105.888 E3.86990
G1 X96.757 Y106.134 E3.91295
G1 X95.679 Y106.214 E3.96188
G1 X90.531 Y106.214 E4.19481
G1 X90.770 Y106.440 F7800.000
G1 X91.528 Y107.197 E4.24361 F540.000
G1 X92.077 Y107.197 E4.26865
G1 X91.320 Y106.440 E4.31746
G1 X91.869 Y106.440 E4.34249
G1 X92.626 Y107.197 E4.39130
G1 X93.176 Y107.197 E4.41634
G1 X92.418 Y106.440 E4.46514
G1 X92.968 Y106.440 E4.49018
G1 X93.725 Y107.197 E4.53898
G1 X94.274 Y107.197 E4.56402
G1 X93.517 Y106.440 E4.61282
G1 X94.067 Y106.440 E4.63786
G1 X94.824 Y107.197 E4.68667
G1 X95.373 Y107.197 E4.71171
G1 X94.616 Y106.440 E4.76051
G1 X95.165 Y106.440 E4.78555
G1 X95.922 Y107.197 E4.83435
G1 X96.432 Y107.157 E4.85765
G1 X95.707 Y106.433 E4.90435
G1 X96.219 Y106.395 E4.92773
G1 X96.940 Y107.116 E4.97423
G1 X97.449 Y107.075 E4.99748
G1 X96.730 Y106.356 E5.04382
G1 X97.163 Y106.241 E5.06427
G1 X97.876 Y106.953 E5.11019
G1 X98.302 Y106.830 E5.13040
G1 X97.597 Y106.125 E5.17585
G1 X97.970 Y105.949 E5.19467
G1 X98.716 Y106.694 E5.24272
G1 X99.059 Y106.488 E5.26097
G1 X98.322 Y105.752 E5.30844
G1 X98.640 Y105.520 E5.32636
G1 X99.402 Y106.282 E5.37546
G1 X99.703 Y106.034 E5.39325
G1 X98.907 Y105.237 E5.44460
G1 X99.167 Y104.948 E5.46233
G1 X99.972 Y105.753 E5.51420
G1 X100.232 Y105.464 E5.53193
G1 X99.337 Y104.569 E5.58962
G1 X99.506 Y104.189 E5.60857
G1 X100.415 Y105.098 E5.66716
G1 X100.583 Y104.716 E5.68617
G1 X99.581 Y103.714 E5.75072
G1 X99.641 Y103.225 E5.77318
G1 X100.706 Y104.290 E5.84178
G1 X100.766 Y103.800 E5.86425
G1 X99.582 Y102.616 E5.94057
G1 X99.408 Y101.893 E5.97449
G1 X100.815 Y103.300 E6.06519
G1 X97.747 Y100.232 F7800.000
G1 X96.742 Y99.227 E6.12996 F540.000
G1 X97.028 Y98.964 E6.14768
G1 X96.309 Y98.245 E6.19401
G1 X96.521 Y97.907 E6.21218
G1 X97.246 Y98.633 E6.25895
G1 X97.464 Y98.302 E6.27703
G1 X96.732 Y97.569 E6.32424
G1 X96.943 Y97.231 E6.34241
G1 X97.682 Y97.970 E6.39006
G1 X97.900 Y97.639 E6.40814
G1 X97.154 Y96.893 E6.45622
G1 X97.366 Y96.555 E6.47439
G1 X98.118 Y97.308 E6.52292
G1 X98.337 Y96.976 E6.54100
G1 X97.577 Y96.217 E6.58996
G1 X97.788 Y95.879 E6.60813
G1 X98.555 Y96.645 E6.65753
G1 X98.773 Y96.314 E6.67561
G1 X97.999 Y95.541 E6.72545
G1 X98.211 Y95.203 E6.74362
G1 X98.991 Y95.983 E6.79390
G1 X99.209 Y95.651 E6.81198
G1 X98.422 Y94.864 E6.86270
G1 X98.633 Y94.526 E6.88087
G1 X99.427 Y95.320 E6.93203
G1 X99.645 Y94.989 E6.95010
G1 X98.845 Y94.188 E7.00170
G1 X99.056 Y93.850 E7.01987
G1 X99.863 Y94.657 E7.07190
G1 X100.081 Y94.326 E7.08998
G1 X99.267 Y93.512 E7.14245
G1 X99.478 Y93.174 E7.16062
G1 X100.299 Y93.995 E7.21353
G1 X100.517 Y93.664 E7.23161
G1 X99.690 Y92.836 E7.28496
G1 X100.206 Y92.803 E7.30855
G1 X100.735 Y93.332 E7.34267
G1 X100.755 Y92.803 E7.36681
G1 X100.953 Y93.001 E7.37958
G92 E0
G1 X99.795 Y101.494 F7800.000
G1 X99.795 Y101.494 F7800.000
G1 X98.258 Y99.645 F7800.000
G1 X100.566 Y101.953 E0.14879 F540.000
G1 X100.752 Y102.688 E0.18334
G1 X97.500 Y99.436 E0.39295
G1 X96.810 Y99.295 E0.42504
G1 X96.098 Y98.583 E0.47093
G1 X95.887 Y98.921 E0.48910
G1 X96.961 Y99.995 E0.55833
G1 X96.359 Y99.943 E0.58588
G1 X95.582 Y99.166 E0.63595
G1 X95.033 Y99.166 E0.66099
G1 X95.768 Y99.901 E0.70838
G1 X95.218 Y99.901 E0.73342
G1 X94.483 Y99.166 E0.78080
G1 X93.934 Y99.166 E0.80584
G1 X94.669 Y99.901 E0.85323
G1 X94.120 Y99.901 E0.87827
G1 X93.385 Y99.166 E0.92565
G1 X92.835 Y99.166 E0.95069
G1 X93.570 Y99.901 E0.99807
G1 X93.021 Y99.901 E1.02311
G1 X92.286 Y99.166 E1.07050
G1 X91.737 Y99.166 E1.09554
G1 X92.472 Y99.901 E1.14292
G1 X91.922 Y99.901 E1.16796
G1 X91.187 Y99.166 E1.21535
G1 X90.638 Y99.166 E1.24039
G1 X91.373 Y99.901 E1.28777
G1 X90.824 Y99.901 E1.31281
G1 X89.127 Y98.204 E1.42221
G1 X89.127 Y97.655 E1.44725
G1 X90.296 Y98.824 E1.52261
G1 X90.296 Y98.274 E1.54765
G1 X89.127 Y97.105 E1.62301
G1 X89.127 Y96.556 E1.64805
G1 X90.296 Y97.725 E1.72341
G1 X90.296 Y97.176 E1.74845
G1 X89.127 Y96.007 E1.82381
G1 X89.127 Y95.457 E1.84885
G1 X90.296 Y96.626 E1.92421
G1 X90.296 Y96.077 E1.94925
G1 X89.127 Y94.908 E2.02461
G1 X89.127 Y94.359 E2.04965
G1 X90.296 Y95.528 E2.12501
G1 X90.296 Y94.978 E2.15005
G1 X89.127 Y93.809 E2.22541
G1 X89.127 Y93.260 E2.25045
G1 X90.296 Y94.429 E2.32581
G1 X90.296 Y93.880 E2.35085
G1 X89.219 Y92.803 E2.42025
G1 X89.768 Y92.803 E2.44529
G1 X90.296 Y93.330 E2.47928
G1 X89.127 Y98.753 F7800.000
G1 X90.296 Y99.922 E2.55464 F540.000
G1 X90.296 Y100.472 E2.57968
G1 X89.127 Y99.303 E2.65504
G1 X89.127 Y99.852 E2.68008
G1 X90.296 Y101.021 E2.75544
G1 X90.296 Y101.570 E2.78048
G1 X89.127 Y100.401 E2.85584
G1 X89.127 Y100.951 E2.88088
G1 X90.296 Y102.120 E2.95624
G1 X90.296 Y102.669 E2.98128
G1 X89.127 Y101.500 E3.05664
G1 X89.127 Y102.049 E3.08168
G1 X90.296 Y103.218 E3.15705
G1 X90.296 Y103.768 E3.18208
G1 X89.127 Y102.599 E3.25745
G1 X89.127 Y103.148 E3.28249
G1 X90.296 Y104.317 E3.35785
G1 X90.296 Y104.866 E3.38289
G1 X89.127 Y103.697 E3.45825
G1 X89.127 Y104.247 E3.48329
G1 X90.296 Y105.416 E3.55865
G1 X90.296 Y105.965 E3.58369
G1 X89.127 Y104.796 E3.65905
G1 X89.127 Y105.345 E3.68409
G1 X90.978 Y107.197 E3.80344
G1 X90.429 Y107.197 E3.82848
G1 X89.127 Y105.895 E3.91243
G1 X89.127 Y106.444 E3.93747
G1 X89.880 Y107.197 E3.98600
G1 X89.330 Y107.197 E4.01104
G1 X89.127 Y106.993 E4.02416
M106 S255
G92 E0
G1 Z0.600 F7800.000
G1 X110.288 Y107.648 F7800.000
G1 X110.288 Y92.352 E4.58339 F600.000
G92 E0
G1 X101.883 Y91.352 F7800.000
G1 X94.313 Y93.918 F7800.000
G1 X92.747 Y92.352 F7800.000
G1 X90.747 Y92.352 F7800.000
G1 X89.711 Y92.352 F7800.000
G1 X89.711 Y98.715 E1.90665 F600.000
G1 X90.562 Y103.021 E3.22178
G92 E0
G1 X89.747 Y106.648 F7800.000
G1 X89.747 Y106.648 F7800.000
G1 X95.542 Y98.681 F7800.000
G1 X96.845 Y99.535 E0.46678 F600.000
G1 X97.014 Y99.623 E0.52394
G1 X97.320 Y99.745 E0.62257
G1 X98.062 Y99.974 E0.85543
G1 X98.291 Y100.075 E0.93036
G1 X98.772 Y100.352 E1.09667
G1 X98.995 Y100.504 E1.17750
G1 X99.534 Y101.058 E1.40909
G1 X99.699 Y101.314 E1.50046
G1 X99.909 Y101.708 E1.63417
G1 X100.027 Y102.016 E1.73297
G1 X100.142 Y102.431 E1.86220
G1 X100.230 Y103.269 E2.11448
G1 X100.108 Y104.275 E2.41823
G1 X99.776 Y105.060 E2.67376
G1 X99.708 Y105.164 E2.71087
G1 X99.505 Y105.426 E2.81032
G1 X99.232 Y105.723 E2.93105
G1 X98.736 Y106.096 E3.11711
G1 X98.425 Y106.276 E3.22480
G1 X97.815 Y106.516 E3.42117
G1 X97.311 Y106.657 E3.57799
G1 X96.936 Y106.721 E3.69190
G1 X95.671 Y106.818 E4.07228
G1 X90.747 Y106.818 E5.54774
G1 X89.784 Y106.539 E5.84799
G1 X89.711 Y105.989 E6.01436
G1 X89.711 Y100.352 E7.70347
G1 X89.873 Y99.533 E7.95347
G1 X95.521 Y99.533 E9.64580
G1 X95.829 Y99.506 E9.73846
G1 X96.475 Y99.293 E9.94243
G1 X96.770 Y98.448 E10.21058
G1 X100.681 Y92.352 E12.38070
G92 E0
G1 Z0.900 F7800.000
G1 X110.288 Y107.648 F7800.000
G1 X110.288 Y92.352 E4.58339 F600.000
G92 E0
G1 X101.883 Y91.352 F7800.000
G1 X94.313 Y93.918 F7800.000
G1 X92.747 Y92.352 F7800.000
G1 X90.747 Y92.352 F7800.000
G1 X89.711 Y92.352 F7800.000
G1 X89.711 Y98.715 E1.90665 F600.000
G1 X90.562 Y103.021 E3.22178
G92 E0
G1 X89.747 Y106.648 F7800.000
G1 X89.747 Y106.648 F7800.000
G1 X95.542 Y98.681 F7800.000
G1 X96.845 Y99.535 E0.46678 F600.000
G1 X97.014 Y99.623 E0.52394
G1 X97.320 Y99.745 E0.62257
G1 X98.062 Y99.974 E0.85543
G1 X98.291 Y100.075 E0.93036
G1 X98.772 Y100.352 E1.09667
G1 X98.995 Y100.504 E1.17750
G1 X99.534 Y101.058 E1.40909
G1 X99.699 Y101.314 E1.50046
G1 X99.909 Y101.708 E1.63417
G1 X100.027 Y102.016 E1.73297
G1 X100.142 Y102.431 E1.86220
G1 X100.230 Y103.269 E2.11448
G1 X100.108 Y104.275 E2.41823
G1 X99.776 Y105.060 E2.67376
G1 X99.708 Y105.164 E2.71087
G1 X99.505 Y105.426 E2.81032
G1 X99.232 Y105.723 E2.93105
G1 X98.736 Y106.096 E3.11711
G1 X98.425 Y106.276 E3.22480
G1 X97.815 Y106.516 E3.42117
G1 X97.311 Y106.657 E3.57799
G1 X96.936 Y106.721 E3.69190
G1 X95.671 Y106.818 E4.07228
G1 X90.747 Y106.818 E5.54774
G1 X89.784 Y106.539 E5.84799
G1 X89.711 Y105.989 E6.01436
G1 X89.711 Y100.352 E7.70347
G1 X89.873 Y99.533 E7.95347
G1 X95.521 Y99.533 E9.64580
G1 X95.829 Y99.506 E9.73846
G1 X96.475 Y99.293 E9.94243
G1 X96.770 Y98.448 E10.21058
G1 X100.681 Y92.352 E12.38070
G92 E0
G1 Z1.200 F7800.000
G1 X110.288 Y107.648 F7800.000
G1 X110.288 Y92.352 E4.58339 F600.000
G92 E0
G1 X101.883 Y91.352 F7800.000
G1 X94.313 Y93.918 F7800.000
G1 X92.747 Y92.352 F7800.000
G1 X90.747 Y92.352 F7800.000
G1 X89.711 Y92.352 F7800.000
G1 X89.711 Y98.715 E1.90665 F600.000
G1 X90.562 Y103.021 E3.22178
G92 E0
G1 X89.747 Y106.648 F7800.000
G1 X89.747 Y106.648 F7800.000
G1 X95.542 Y98.681 F7800.000
G1 X96.845 Y99.535 E0.46678 F600.000
G1 X97.014 Y99.623 E0.52394
G1 X97.320 Y99.745 E0.62257
G1 X98.062 Y99.974 E0.85543
G1 X98.291 Y100.075 E0.93036
G1 X98.772 Y100.352 E1.09667
G1 X98.995 Y100.504 E1.17750
G1 X99.534 Y101.058 E1.40909
G1 X99.699 Y101.314 E1.50046
G1 X99.909 Y101.708 E1.63417
G1 X100.027 Y102.016 E1.73297
G1 X100.142 Y102.431 E1.86220
G1 X100.230 Y103.269 E2.11448
G1 X100.108 Y104.275 E2.41823
G1 X99.776 Y105.060 E2.67376
G1 X99.708 Y105.164 E2.71087
G1 X99.505 Y105.426 E2.81032
G1 X99.232 Y105.723 E2.93105
G1 X98.736 Y106.096 E3.11711
G1 X98.425 Y106.276 E3.22480
G1 X97.815 Y106.516 E3.42117
G1 X97.311 Y106.657 E3.57799
G1 X96.936 Y106.721 E3.69190
G1 X95.671 Y106.818 E4.07228
G1 X90.747 Y106.818 E5.54774
G1 X89.784 Y106.539 E5.84799
G1 X89.711 Y105.989 E6.01436
G1 X89.711 Y100.352 E7.70347
G1 X89.873 Y99.533 E7.95347
G1 X95.521 Y99.533 E9.64580
G1 X95.829 Y99.506 E9.73846
G1 X96.475 Y99.293 E9.94243
G1 X96.770 Y98.448 E10.21058
G1 X100.681 Y92.352 E12.38070
G92 E0
G1 Z1.500 F7800.000
G1 X110.288 Y107.648 F7800.000
G1 X110.288 Y92.352 E4.58339 F600.000
G92 E0
G1 X101.883 Y91.352 F7800.000
G1 X94.313 Y93.918 F7800.000
G1 X92.747 Y92.352 F7800.000
G1 X90.747 Y92.352 F7800.000
G1 X89.711 Y92.352 F7800.000
G1 X89.711 Y98.715 E1.90665 F600.000
G1 X90.562 Y103.021 E3.22178
G92 E0
G1 X89.747 Y106.648 F7800.000
G1 X89.747 Y106.648 F7800.000
G1 X95.542 Y98.681 F7800.000
G1 X96.845 Y99.535 E0.46678 F600.000
G1 X97.014 Y99.623 E0.52394
G1 X97.320 Y99.745 E0.62257
G1 X98.062 Y99.974 E0.85543
G1 X98.291 Y100.075 E0.93036
G1 X98.772 Y100.352 E1.09667
G1 X98.995 Y100.504 E1.17750
G1 X99.534 Y101.058 E1.40909
G1 X99.699 Y101.314 E1.50046
G1 X99.909 Y101.708 E1.63417
G1 X100.027 Y102.016 E1.73297
G1 X100.142 Y102.431 E1.86220
G1 X100.230 Y103.269 E2.11448
G1 X100.108 Y104.275 E2.41823
G1 X99.776 Y105.060 E2.67376
G1 X99.708 Y105.164 E2.71087
G1 X99.505 Y105.426 E2.81032
G1 X99.232 Y105.723 E2.93105
G1 X98.736 Y106.096 E3.11711
G1 X98.425 Y106.276 E3.22480
G1 X97.815 Y106.516 E3.42117
G1 X97.311 Y106.657 E3.57799
G1 X96.936 Y106.721 E3.69190
G1 X95.671 Y106.818 E4.07228
G1 X90.747 Y106.818 E5.54774
G1 X89.784 Y106.539 E5.84799
G1 X89.711 Y105.989 E6.01436
G1 X89.711 Y100.352 E7.70347
G1 X89.873 Y99.533 E7.95347
G1 X95.521 Y99.533 E9.64580
G1 X95.829 Y99.506 E9.73846
G1 X96.475 Y99.293 E9.94243
G1 X96.770 Y98.448 E10.21058
G1 X100.681 Y92.352 E12.38070
G92 E0
G1 Z1.800 F7800.000
G1 X110.288 Y107.648 F7800.000
G1 X110.288 Y92.352 E4.58339 F600.000
G92 E0
G1 X101.883 Y91.352 F7800.000
G1 X94.313 Y93.918 F7800.000
G1 X92.747 Y92.352 F7800.000
G1 X90.747 Y92.352 F7800.000
G1 X89.711 Y92.352 F7800.000
G1 X89.711 Y98.715 E1.90665 F600.000
G1 X90.562 Y103.021 E3.22178
G92 E0
G1 X89.747 Y106.648 F7800.000
G1 X89.747 Y106.648 F7800.000
G1 X95.542 Y98.681 F7800.000
G1 X96.845 Y99.535 E0.46678 F600.000
G1 X97.014 Y99.623 E0.52394
G1 X97.320 Y99.745 E0.62257
G1 X98.062 Y99.974 E0.85543
G1 X98.291 Y100.075 E0.93036
G1 X98.772 Y100.352 E1.09667
G1 X98.995 Y100.504 E1.17750
G1 X99.534 Y101.058 E1.40909
G1 X99.699 Y101.314 E1.50046
G1 X99.909 Y101.708 E1.63417
G1 X100.027 Y102.016 E1.73297
G1 X100.142 Y102.431 E1.86220
G1 X100.230 Y103.269 E2.11448
G1 X100.108 Y104.275 E2.41823
G1 X99.776 Y105.060 E2.67376
G1 X99.708 Y105.164 E2.71087
G1 X99.505 Y105.426 E2.81032
G1 X99.232 Y105.723 E2.93105
G1 X98.736 Y106.096 E3.11711
G1 X98.425 Y106.276 E3.22480
G1 X97.815 Y106.516 E3.42117
G1 X97.311 Y106.657 E3.57799
G1 X96.936 Y106.721 E3.69190
G1 X95.671 Y106.818 E4.07228
G1 X90.747 Y106.818 E5.54774
G1 X89.784 Y106.539 E5.84799
G1 X89.711 Y105.989 E6.01436
G1 X89.711 Y100.352 E7.70347
G1 X89.873 Y99.533 E7.95347
G1 X95.521 Y99.533 E9.64580
G1 X95.829 Y99.506 E9.73846
G1 X96.475 Y99.293 E9.94243
G1 X96.770 Y98.448 E10.21058
G1 X100.681 Y92.352 E12.38070
G92 E0
G1 Z2.100 F7800.000
G1 X110.288 Y107.648 F7800.000
G1 X110.288 Y92.352 E4.58339 F600.000
G92 E0
G1 X101.883 Y91.352 F7800.000
G1 X94.313 Y93.918 F7800.000
G1 X92.747 Y92.352 F7800.000
