; generated by Slic3r 1.2.9 on 2016-03-11 at 01:29:36

; external perimeters extrusion width = 1.54mm
; perimeters extrusion width = 2.62mm
; infill extrusion width = 6.27mm
; solid infill extrusion width = 2.62mm
; top infill extrusion width = 2.62mm

M107
M104 S30 ; set temperature
G28 ; home all axes
G1 Z5 F5000 ; lift nozzle
M302
M92 E10000
M500
M501
G1 E100
M109 S30 ; wait for temperature to be reached
G21 ; set units to millimeters
G90 ; use absolute coordinates
M82 ; use absolute distances for extrusion
G92 E0
G1 Z0.300 F7800.000
G1 X112.173 Y98.331 F7800.000
G1 X112.173 Y96.973 E0.06145 F378.000
G1 X112.098 Y96.025 E0.10449
G1 X111.866 Y95.217 E0.14252
G1 X111.469 Y94.566 E0.17704
G1 X110.927 Y94.089 E0.20969
G1 X110.269 Y93.804 E0.24214
G1 X109.508 Y93.710 E0.27686
G1 X108.798 Y93.796 E0.30918
G1 X108.167 Y94.055 E0.34008
G1 X107.622 Y94.484 E0.37145
G1 X107.187 Y95.060 E0.40411
G1 X106.873 Y95.757 E0.43872
G1 X106.732 Y96.352 E0.46636
G1 X105.181 Y96.095 E0.53749
G1 X105.903 Y94.173 E0.63036
G1 X107.355 Y92.911 E0.71743
G1 X109.506 Y92.483 E0.81668
G1 X110.675 Y92.611 E0.86986
G1 X110.743 Y92.618 E0.87298 F378.000
G1 X111.786 Y93.020 E0.92356
G1 X112.637 Y93.686 E0.97246
G1 X113.271 Y94.587 E1.02230
G1 X113.654 Y95.697 E1.07545
G1 X113.784 Y97.036 E1.13631
G1 X113.784 Y107.519 E1.61066
G1 X109.221 Y107.519 E1.81713
G1 X109.221 Y106.277 E1.87333
G1 X112.173 Y106.277 E2.00691
G1 X112.173 Y98.562 E2.35600
G1 X112.166 Y95.351 F7800.000
G1 X113.516 Y96.701 E2.44410 F540.000
G1 X113.558 Y97.299 E2.47176
G1 X112.336 Y96.077 E2.55154
G1 X112.384 Y96.680 E2.57949
G1 X113.558 Y97.855 E2.65614
G1 X113.558 Y98.411 E2.68180
G1 X112.399 Y97.252 E2.75742
G1 X112.399 Y97.808 E2.78308
G1 X113.558 Y98.967 E2.85871
G1 X113.558 Y99.523 E2.88436
G1 X112.399 Y98.364 E2.95999
G1 X112.399 Y98.920 E2.98565
G1 X113.558 Y100.079 E3.06128
G1 X113.558 Y100.636 E3.08693
G1 X112.399 Y99.476 E3.16256
G1 X112.399 Y100.033 E3.18821
G1 X113.558 Y101.192 E3.26384
G1 X113.558 Y101.748 E3.28950
G1 X112.399 Y100.589 E3.36513
G1 X112.399 Y101.145 E3.39078
G1 X113.558 Y102.304 E3.46641
G1 X113.558 Y102.860 E3.49206
G1 X112.399 Y101.701 E3.56769
G1 X112.399 Y102.257 E3.59335
G1 X113.558 Y103.416 E3.66898
G1 X113.558 Y103.972 E3.69463
G1 X112.399 Y102.813 E3.77026
G1 X112.399 Y103.369 E3.79591
G1 X113.558 Y104.528 E3.87154
G1 X113.558 Y105.084 E3.89720
G1 X112.399 Y103.925 E3.97283
G1 X112.399 Y104.481 E3.99848
G1 X113.558 Y105.640 E4.07411
G1 X113.558 Y106.196 E4.09976
G1 X112.399 Y105.037 E4.17539
G1 X112.399 Y105.593 E4.20105
G1 X113.558 Y106.752 E4.27668
G1 X113.531 Y107.281 E4.30109
G1 X112.399 Y106.149 E4.37492
G1 X112.197 Y106.503 F7800.000
G1 X112.987 Y107.293 E4.42647 F540.000
G1 X112.431 Y107.293 E4.45213
G1 X111.641 Y106.503 E4.50368
G1 X111.085 Y106.503 E4.52934
G1 X111.875 Y107.293 E4.58089
G1 X111.319 Y107.293 E4.60654
G1 X110.529 Y106.503 E4.65810
G1 X109.973 Y106.503 E4.68375
G1 X110.763 Y107.293 E4.73530
G1 X110.207 Y107.293 E4.76096
G1 X109.447 Y106.533 E4.81052
G1 X109.447 Y107.089 E4.83618
G1 X109.651 Y107.293 E4.84946
G92 E0
G1 X112.948 Y96.942 F7800.000
G1 X112.879 Y95.884 F7800.000
G1 X112.876 Y95.867 F7800.000
G1 X112.691 Y95.283 F7800.000
G1 X106.155 Y96.012 F7800.000
G1 X105.627 Y95.484 E0.03447 F540.000
G1 X105.778 Y95.080 E0.05439
G1 X106.619 Y95.921 E0.10927
G1 X106.765 Y95.511 E0.12935
G1 X105.930 Y94.676 E0.18385
G1 X106.097 Y94.286 E0.20339
G1 X106.938 Y95.127 E0.25826
G1 X107.152 Y94.785 E0.27687
G1 X106.380 Y94.013 E0.32724
G1 X106.678 Y93.755 E0.34543
G1 X107.392 Y94.469 E0.39202
G1 X107.675 Y94.197 E0.41017
G1 X106.975 Y93.496 E0.45586
G1 X107.273 Y93.238 E0.47405
G1 X107.986 Y93.951 E0.52060
G1 X108.352 Y93.761 E0.53963
G1 X107.658 Y93.067 E0.58494
G1 X108.122 Y92.975 E0.60676
G1 X108.747 Y93.600 E0.64755
G1 X109.229 Y93.526 E0.67005
G1 X108.585 Y92.882 E0.71202
G1 X109.049 Y92.790 E0.73384
G1 X109.762 Y93.503 E0.78038
G1 X110.396 Y93.581 E0.80984
G1 X109.539 Y92.724 E0.86578
G1 X110.163 Y92.791 E0.89474
G1 X113.456 Y96.085 E1.10963
G1 X113.254 Y95.327 E1.14585
G1 X110.876 Y92.949 E1.30102
G1 X112.199 Y93.715 F7800.000
G1 X112.561 Y94.078 E1.32467 F540.000
G92 E0
G1 X107.253 Y92.702 F7800.000
G1 X102.327 Y93.585 F7800.000
G1 X100.848 Y97.728 F7800.000
G1 X100.058 Y97.802 F7800.000
G1 X97.596 Y100.513 F7800.000
G1 X98.266 Y102.424 F7800.000
G1 X98.363 Y103.373 E0.04318 F378.000
G1 X98.214 Y104.588 E0.09856
G1 X97.773 Y105.596 E0.14835
G1 X97.038 Y106.414 E0.19811
G1 X96.024 Y107.023 E0.25164
G1 X94.743 Y107.393 E0.31196
G1 X93.183 Y107.519 E0.38280
G1 X86.216 Y107.519 E0.69805
G1 X86.216 Y92.673 E1.36982
G1 X87.837 Y92.673 E1.44317
G1 X87.837 Y99.036 E1.73109
G1 X92.960 Y99.036 E1.96294 F378.000
G1 X96.936 Y92.673 E2.30245
G1 X98.780 Y92.673 E2.38588
G1 X94.495 Y99.184 E2.73858
G1 X95.851 Y99.557 E2.80224
G1 X96.718 Y100.020 E2.84673
G1 X97.424 Y100.661 E2.88984
G1 X97.945 Y101.447 E2.93253
G1 X98.207 Y102.202 E2.96867
G1 X96.628 Y102.445 F7800.000
G1 X96.734 Y103.354 E3.01005 F378.000
G1 X96.626 Y104.233 E3.05013
G1 X96.294 Y104.976 E3.08696
G1 X95.740 Y105.565 E3.12357
G1 X94.991 Y105.984 E3.16238
G1 X94.072 Y106.230 E3.20542
G1 X92.994 Y106.310 E3.25436
G1 X87.837 Y106.310 E3.48772
G1 X87.837 Y100.223 E3.76315
G1 X93.082 Y100.223 E4.00050 F378.000
G1 X94.126 Y100.311 E4.04792
G1 X95.024 Y100.581 E4.09032
G1 X95.759 Y101.039 E4.12952
G1 X96.303 Y101.669 E4.16720
G1 X96.538 Y102.232 E4.19481
G1 X98.130 Y103.396 F7800.000
G1 X96.723 Y101.989 E4.28551 F540.000
G1 X96.897 Y102.712 E4.31943
G1 X98.081 Y103.896 E4.39575
G1 X98.021 Y104.386 E4.41822
G1 X96.956 Y103.321 E4.48682
G1 X96.896 Y103.810 E4.50928
G1 X97.898 Y104.812 E4.57383
G1 X97.730 Y105.194 E4.59284
G1 X96.821 Y104.285 E4.65143
G1 X96.652 Y104.665 E4.67038
G1 X97.547 Y105.560 E4.72807
G1 X97.287 Y105.849 E4.74580
G1 X96.482 Y105.044 E4.79766
G1 X96.222 Y105.333 E4.81539
G1 X97.018 Y106.130 E4.86675
G1 X96.717 Y106.378 E4.88454
G1 X95.955 Y105.616 E4.93363
G1 X95.637 Y105.848 E4.95156
G1 X96.374 Y106.584 E4.99903
G1 X96.031 Y106.790 E5.01728
G1 X95.285 Y106.045 E5.06533
G1 X94.912 Y106.221 E5.08415
G1 X95.617 Y106.926 E5.12960
G1 X95.191 Y107.049 E5.14981
G1 X94.478 Y106.337 E5.19573
G1 X94.045 Y106.452 E5.21618
G1 X94.764 Y107.171 E5.26252
G1 X94.255 Y107.212 E5.28577
G1 X93.534 Y106.491 E5.33227
G1 X93.022 Y106.529 E5.35565
G1 X93.747 Y107.253 E5.40235
G1 X93.237 Y107.293 E5.42565
G1 X92.480 Y106.536 E5.47445
G1 X91.931 Y106.536 E5.49949
G1 X92.688 Y107.293 E5.54829
G1 X92.139 Y107.293 E5.57333
G1 X91.382 Y106.536 E5.62213
G1 X90.832 Y106.536 E5.64717
G1 X91.589 Y107.293 E5.69598
G1 X91.040 Y107.293 E5.72102
G1 X90.283 Y106.536 E5.76982
G1 X89.733 Y106.536 E5.79486
G1 X90.491 Y107.293 E5.84366
G1 X89.941 Y107.293 E5.86870
G1 X89.184 Y106.536 E5.91750
G1 X88.635 Y106.536 E5.94254
G1 X89.392 Y107.293 E5.99135
G1 X88.843 Y107.293 E6.01639
G1 X88.085 Y106.536 E6.06519
G1 X86.442 Y107.089 F7800.000
G1 X86.645 Y107.293 E6.07831 F540.000
G1 X87.195 Y107.293 E6.10335
G1 X86.442 Y106.540 E6.15188
G1 X86.442 Y105.991 E6.17692
G1 X87.744 Y107.293 E6.26087
G1 X88.293 Y107.293 E6.28591
G1 X86.442 Y105.441 E6.40526
G1 X86.442 Y104.892 E6.43030
G1 X87.611 Y106.061 E6.50566
G1 X87.611 Y105.512 E6.53070
G1 X86.442 Y104.343 E6.60606
G1 X86.442 Y103.793 E6.63110
G1 X87.611 Y104.962 E6.70647
G1 X87.611 Y104.413 E6.73150
G1 X86.442 Y103.244 E6.80687
G1 X86.442 Y102.695 E6.83190
G1 X87.611 Y103.864 E6.90727
G1 X87.611 Y103.314 E6.93231
G1 X86.442 Y102.145 E7.00767
G1 X86.442 Y101.596 E7.03271
G1 X87.611 Y102.765 E7.10807
G1 X87.611 Y102.216 E7.13311
G1 X86.442 Y101.047 E7.20847
G1 X86.442 Y100.497 E7.23351
G1 X87.611 Y101.666 E7.30887
G1 X87.611 Y101.117 E7.33391
G1 X86.442 Y99.948 E7.40927
G1 X86.442 Y99.399 E7.43431
G1 X87.611 Y100.568 E7.50967
G1 X87.611 Y100.018 E7.53471
G1 X86.442 Y98.849 E7.61007
G1 X87.611 Y93.426 F7800.000
G1 X87.083 Y92.899 E7.64406 F540.000
G1 X86.534 Y92.899 E7.66910
G1 X87.611 Y93.976 E7.73850
G1 X87.611 Y94.525 E7.76354
G1 X86.442 Y93.356 E7.83890
G1 X86.442 Y93.905 E7.86394
G1 X87.611 Y95.074 E7.93930
G1 X87.611 Y95.624 E7.96434
G1 X86.442 Y94.455 E8.03970
G1 X86.442 Y95.004 E8.06474
G1 X87.611 Y96.173 E8.14010
G1 X87.611 Y96.722 E8.16514
G1 X86.442 Y95.553 E8.24050
G1 X86.442 Y96.103 E8.26554
G1 X87.611 Y97.272 E8.34090
G1 X87.611 Y97.821 E8.36594
G1 X86.442 Y96.652 E8.44130
G1 X86.442 Y97.201 E8.46634
G1 X87.611 Y98.370 E8.54170
G1 X87.611 Y98.920 E8.56674
G1 X86.442 Y97.751 E8.64210
G1 X86.442 Y98.300 E8.66714
G1 X88.139 Y99.997 E8.77654
G1 X88.688 Y99.997 E8.80158
G1 X87.953 Y99.262 E8.84896
G1 X88.502 Y99.262 E8.87400
G1 X89.237 Y99.997 E8.92139
G1 X89.787 Y99.997 E8.94643
G1 X89.052 Y99.262 E8.99381
G1 X89.601 Y99.262 E9.01885
G1 X90.336 Y99.997 E9.06624
G1 X90.885 Y99.997 E9.09128
G1 X90.150 Y99.262 E9.13866
G1 X90.700 Y99.262 E9.16370
G1 X91.435 Y99.997 E9.21108
G1 X91.984 Y99.997 E9.23612
G1 X91.249 Y99.262 E9.28351
G1 X91.798 Y99.262 E9.30855
G1 X92.533 Y99.997 E9.35593
G1 X93.083 Y99.997 E9.38097
G1 X92.348 Y99.262 E9.42836
G1 X92.897 Y99.262 E9.45340
G1 X93.674 Y100.039 E9.50347
G1 X94.276 Y100.091 E9.53102
G1 X93.202 Y99.017 E9.60025
G1 X93.413 Y98.679 E9.61842
G1 X94.125 Y99.391 E9.66431
G1 X94.815 Y99.532 E9.69641
G1 X98.067 Y102.784 E9.90601
G1 X97.881 Y102.049 E9.94056
G1 X95.573 Y99.740 E10.08935
G1 X95.062 Y100.328 F7800.000
G1 X94.057 Y99.323 E10.15412 F540.000
G1 X94.343 Y99.060 E10.17184
G1 X93.624 Y98.341 E10.21817
G1 X93.836 Y98.003 E10.23634
G1 X94.561 Y98.729 E10.28312
G1 X94.779 Y98.398 E10.30119
G1 X94.047 Y97.665 E10.34840
G1 X94.258 Y97.327 E10.36657
G1 X94.997 Y98.066 E10.41422
G1 X95.215 Y97.735 E10.43230
G1 X94.469 Y96.989 E10.48038
G1 X94.681 Y96.651 E10.49856
G1 X95.433 Y97.404 E10.54708
G1 X95.652 Y97.072 E10.56516
G1 X94.892 Y96.313 E10.61412
G1 X95.103 Y95.975 E10.63229
G1 X95.870 Y96.741 E10.68170
G1 X96.088 Y96.410 E10.69977
G1 X95.314 Y95.637 E10.74961
G1 X95.526 Y95.299 E10.76779
G1 X96.306 Y96.079 E10.81806
G1 X96.524 Y95.747 E10.83614
G1 X95.737 Y94.960 E10.88686
G1 X95.948 Y94.622 E10.90503
G1 X96.742 Y95.416 E10.95619
G1 X96.960 Y95.085 E10.97427
G1 X96.160 Y94.284 E11.02586
G1 X96.371 Y93.946 E11.04403
G1 X97.178 Y94.753 E11.09606
G1 X97.396 Y94.422 E11.11414
G1 X96.582 Y93.608 E11.16661
G1 X96.793 Y93.270 E11.18479
G1 X97.614 Y94.091 E11.23770
G1 X97.832 Y93.760 E11.25577
G1 X97.005 Y92.932 E11.30912
G1 X97.521 Y92.899 E11.33271
G1 X98.050 Y93.428 E11.36683
G1 X98.070 Y92.899 E11.39097
G1 X98.268 Y93.097 E11.40374
M106 S255
G92 E0
G1 Z0.600 F7800.000
G1 X105.805 Y96.426 F7800.000
G1 X106.554 Y94.626 E0.58426 F600.000
G1 X107.222 Y93.931 E0.87319
G1 X107.672 Y93.558 E1.04833
G1 X107.952 Y93.448 E1.13847
G1 X108.760 Y93.220 E1.38993
G1 X109.534 Y93.101 E1.62451
G1 X110.312 Y93.189 E1.85917
G1 X110.591 Y93.245 E1.94452
G1 X111.154 Y93.476 E2.12695
G1 X111.443 Y93.625 E2.22431
G1 X111.910 Y94.013 E2.40606
G1 X112.100 Y94.195 E2.48521
G1 X112.495 Y94.798 E2.70120
G1 X112.580 Y94.940 E2.75058
G1 X112.850 Y95.785 E3.01630
G1 X112.888 Y95.985 E3.07744
G1 X112.979 Y97.075 E3.40517
G1 X112.979 Y106.052 E6.09507
G1 X112.897 Y106.632 E6.27055
G1 X111.948 Y106.898 E6.56585
G1 X108.996 Y106.898 E7.45041
G92 E0
G1 X101.667 Y99.015 F7800.000
G1 X99.198 Y91.352 F7800.000
G1 X91.671 Y93.865 F7800.000
G1 X91.133 Y95.740 F7800.000
G1 X88.062 Y98.811 F7800.000
G1 X87.026 Y92.448 F7800.000
G1 X87.026 Y98.811 E1.90665 F600.000
G1 X87.877 Y103.117 E3.22178
G92 E0
G1 X87.062 Y106.744 F7800.000
G1 X87.062 Y106.744 F7800.000
G1 X92.857 Y98.777 F7800.000
G1 X94.160 Y99.631 E0.46678 F600.000
G1 X94.329 Y99.719 E0.52394
G1 X94.635 Y99.841 E0.62257
G1 X95.377 Y100.070 E0.85543
G1 X95.606 Y100.171 E0.93036
G1 X96.087 Y100.448 E1.09667
G1 X96.310 Y100.600 E1.17750
G1 X96.849 Y101.154 E1.40909
G1 X97.014 Y101.410 E1.50046
G1 X97.224 Y101.804 E1.63417
G1 X97.342 Y102.112 E1.73297
G1 X97.457 Y102.527 E1.86220
G1 X97.545 Y103.365 E2.11448
G1 X97.423 Y104.371 E2.41823
G1 X97.091 Y105.156 E2.67376
G1 X97.023 Y105.260 E2.71087
G1 X96.820 Y105.522 E2.81032
G1 X96.547 Y105.819 E2.93105
G1 X96.051 Y106.192 E3.11711
G1 X95.740 Y106.372 E3.22480
G1 X95.130 Y106.612 E3.42117
G1 X94.626 Y106.753 E3.57799
G1 X94.251 Y106.817 E3.69190
G1 X92.986 Y106.914 E4.07228
G1 X88.062 Y106.914 E5.54774
G1 X87.099 Y106.635 E5.84799
G1 X87.026 Y106.085 E6.01436
G1 X87.026 Y100.448 E7.70347
G1 X87.188 Y99.629 E7.95347
G1 X92.836 Y99.629 E9.64580
G1 X93.144 Y99.602 E9.73846
G1 X93.790 Y99.389 E9.94243
G1 X94.085 Y98.544 E10.21058
G1 X97.996 Y92.448 E12.38070
G92 E0
G1 Z0.900 F7800.000
G1 X105.805 Y96.426 F7800.000
G1 X106.554 Y94.626 E0.58426 F600.000
G1 X107.222 Y93.931 E0.87319
G1 X107.672 Y93.558 E1.04833
G1 X107.952 Y93.448 E1.13847
G1 X108.760 Y93.220 E1.38993
G1 X109.534 Y93.101 E1.62451
G1 X110.312 Y93.189 E1.85917
G1 X110.591 Y93.245 E1.94452
G1 X111.154 Y93.476 E2.12695
G1 X111.443 Y93.625 E2.22432
G1 X111.910 Y94.013 E2.40606
G1 X112.100 Y94.195 E2.48521
G1 X112.495 Y94.798 E2.70120
G1 X112.580 Y94.940 E2.75058
G1 X112.850 Y95.785 E3.01630
G1 X112.888 Y95.985 E3.07744
G1 X112.979 Y97.075 E3.40517
G1 X112.979 Y106.052 E6.09507
G1 X112.897 Y106.632 E6.27055
G1 X111.948 Y106.898 E6.56585
G1 X108.996 Y106.898 E7.45041
G92 E0
G1 X101.667 Y99.015 F7800.000
G1 X99.198 Y91.352 F7800.000
G1 X91.671 Y93.865 F7800.000
G1 X91.133 Y95.740 F7800.000
G1 X88.062 Y98.811 F7800.000
G1 X87.026 Y92.448 F7800.000
G1 X87.026 Y98.811 E1.90665 F600.000
G1 X87.877 Y103.117 E3.22178
G92 E0
G1 X87.062 Y106.744 F7800.000
G1 X87.062 Y106.744 F7800.000
G1 X92.857 Y98.777 F7800.000
G1 X94.160 Y99.631 E0.46678 F600.000
G1 X94.329 Y99.719 E0.52394
G1 X94.635 Y99.841 E0.62257
G1 X95.377 Y100.070 E0.85543
G1 X95.606 Y100.171 E0.93036
G1 X96.087 Y100.448 E1.09667
G1 X96.310 Y100.600 E1.17750
G1 X96.849 Y101.154 E1.40909
G1 X97.014 Y101.410 E1.50046
G1 X97.224 Y101.804 E1.63417
G1 X97.342 Y102.112 E1.73297
G1 X97.457 Y102.527 E1.86220
G1 X97.545 Y103.365 E2.11448
G1 X97.423 Y104.371 E2.41823
G1 X97.091 Y105.156 E2.67376
G1 X97.023 Y105.260 E2.71087
G1 X96.820 Y105.522 E2.81032
G1 X96.547 Y105.819 E2.93105
G1 X96.051 Y106.192 E3.11711
G1 X95.740 Y106.372 E3.22480
G1 X95.130 Y106.612 E3.42117
G1 X94.626 Y106.753 E3.57799
G1 X94.251 Y106.817 E3.69190
G1 X92.986 Y106.914 E4.07228
G1 X88.062 Y106.914 E5.54774
G1 X87.099 Y106.635 E5.84799
G1 X87.026 Y106.085 E6.01436
G1 X87.026 Y100.448 E7.70347
G1 X87.188 Y99.629 E7.95347
G1 X92.836 Y99.629 E9.64580
G1 X93.144 Y99.602 E9.73846
G1 X93.790 Y99.389 E9.94243
G1 X94.085 Y98.544 E10.21058
G1 X97.996 Y92.448 E12.38070
G92 E0
G1 Z1.200 F7800.000
G1 X105.805 Y96.426 F7800.000
G1 X106.554 Y94.626 E0.58426 F600.000
G1 X107.222 Y93.931 E0.87319
G1 X107.672 Y93.558 E1.04833
G1 X107.952 Y93.448 E1.13847
G1 X108.760 Y93.220 E1.38993
G1 X109.534 Y93.101 E1.62451
G1 X110.312 Y93.189 E1.85917
G1 X110.591 Y93.245 E1.94452
G1 X111.154 Y93.476 E2.12695
G1 X111.443 Y93.625 E2.22432
G1 X111.910 Y94.013 E2.40606
G1 X112.100 Y94.195 E2.48521
G1 X112.495 Y94.798 E2.70120
G1 X112.580 Y94.940 E2.75058
G1 X112.850 Y95.785 E3.01629
G1 X112.888 Y95.985 E3.07744
G1 X112.979 Y97.075 E3.40517
G1 X112.979 Y106.052 E6.09507
G1 X112.897 Y106.632 E6.27055
G1 X111.948 Y106.898 E6.56585
G1 X108.996 Y106.898 E7.45041
G92 E0
G1 X101.667 Y99.015 F7800.000
G1 X99.198 Y91.352 F7800.000
G1 X91.671 Y93.865 F7800.000
G1 X91.133 Y95.740 F7800.000
G1 X88.062 Y98.811 F7800.000
G1 X87.026 Y92.448 F7800.000
G1 X87.026 Y98.811 E1.90665 F600.000
G1 X87.877 Y103.117 E3.22178
G92 E0
G1 X87.062 Y106.744 F7800.000
G1 X87.062 Y106.744 F7800.000
G1 X92.857 Y98.777 F7800.000
G1 X94.160 Y99.631 E0.46678 F600.000
G1 X94.329 Y99.719 E0.52394
G1 X94.635 Y99.841 E0.62257
G1 X95.377 Y100.070 E0.85543
G1 X95.606 Y100.171 E0.93036
G1 X96.087 Y100.448 E1.09667
G1 X96.310 Y100.600 E1.17750
G1 X96.849 Y101.154 E1.40909
G1 X97.014 Y101.410 E1.50046
G1 X97.224 Y101.804 E1.63417
G1 X97.342 Y102.112 E1.73297
G1 X97.457 Y102.527 E1.86220
G1 X97.545 Y103.365 E2.11448
G1 X97.423 Y104.371 E2.41823
G1 X97.091 Y105.156 E2.67376
G1 X97.023 Y105.260 E2.71087
G1 X96.820 Y105.522 E2.81032
