; generated by Slic3r 1.2.9 on 2016-03-11 at 01:29:37

; external perimeters extrusion width = 1.54mm
; perimeters extrusion width = 2.62mm
; infill extrusion width = 6.27mm
; solid infill extrusion width = 2.62mm
; top infill extrusion width = 2.62mm

M107
M104 S30 ; set temperature
G28 ; home all axes
G1 Z5 F5000 ; lift nozzle
M302
M92 E10000
M500
M501
G1 E100
M109 S30 ; wait for temperature to be reached
G21 ; set units to millimeters
G90 ; use absolute coordinates
M82 ; use absolute distances for extrusion
G92 E0
G1 Z0.300 F7800.000
G1 X104.043 Y95.208 F7800.000
G1 X104.043 Y92.577 E0.11906 F378.000
G1 X105.664 Y92.577 E0.19241
G1 X105.664 Y98.325 E0.45252
G1 X107.914 Y100.044 E0.58063 F378.000
G1 X114.071 Y92.577 E1.01859
G1 X116.049 Y92.577 E1.10805
G1 X108.872 Y101.015 E1.60927
G1 X115.135 Y107.423 E2.01472
G1 X113.325 Y107.423 E2.09660
G1 X105.664 Y99.424 E2.59779
G1 X105.664 Y107.423 E2.95974
G1 X104.043 Y107.423 E3.03309
G1 X104.043 Y95.439 E3.57535
G1 X105.438 Y93.007 F7800.000
G1 X105.235 Y92.803 E3.58876 F540.000
G1 X104.673 Y92.803 E3.61490
G1 X105.438 Y93.568 E3.66529
G1 X105.438 Y94.129 E3.69143
G1 X104.269 Y92.960 E3.76844
G1 X104.269 Y93.521 E3.79458
G1 X105.438 Y94.691 E3.87159
G1 X105.438 Y95.252 E3.89773
G1 X104.269 Y94.083 E3.97474
G1 X104.269 Y94.644 E4.00088
G1 X105.438 Y95.813 E4.07789
G1 X105.438 Y96.375 E4.10403
G1 X104.269 Y95.205 E4.18104
G1 X104.269 Y95.767 E4.20718
G1 X105.438 Y96.936 E4.28419
G1 X105.438 Y97.497 E4.31033
G1 X104.269 Y96.328 E4.38734
G1 X104.269 Y96.889 E4.41348
G1 X105.438 Y98.059 E4.49049
G1 X105.341 Y98.522 E4.51255
G1 X104.269 Y97.451 E4.58311
G1 X104.269 Y98.012 E4.60926
G1 X105.076 Y98.818 E4.66236
G1 X104.269 Y98.573 E4.70161
G1 X105.438 Y99.743 E4.77862
G1 X105.438 Y100.304 E4.80476
G1 X104.269 Y99.135 E4.88176
G1 X104.269 Y99.696 E4.90791
G1 X105.438 Y100.865 E4.98491
G1 X105.438 Y101.427 E5.01106
G1 X104.269 Y100.257 E5.08806
G1 X104.269 Y100.819 E5.11421
G1 X105.438 Y101.988 E5.19121
G1 X105.438 Y102.549 E5.21736
G1 X104.269 Y101.380 E5.29436
G1 X104.269 Y101.941 E5.32051
G1 X105.438 Y103.111 E5.39751
G1 X105.438 Y103.672 E5.42366
G1 X104.269 Y102.503 E5.50066
G1 X104.269 Y103.064 E5.52681
G1 X105.438 Y104.233 E5.60381
G1 X105.438 Y104.795 E5.62996
G1 X104.269 Y103.625 E5.70696
G1 X104.269 Y104.187 E5.73311
G1 X105.438 Y105.356 E5.81011
G1 X105.438 Y105.917 E5.83626
G1 X104.269 Y104.748 E5.91326
G1 X104.269 Y105.309 E5.93941
G1 X105.438 Y106.479 E6.01641
G1 X105.438 Y107.040 E6.04256
G1 X104.269 Y105.871 E6.11956
G1 X104.269 Y106.432 E6.14571
G1 X105.034 Y107.197 E6.19609
G1 X104.473 Y107.197 E6.22224
G1 X104.269 Y106.993 E6.23564
G92 E0
G1 X104.889 Y106.648 F7800.000
G1 X104.889 Y106.648 F7800.000
G1 X106.353 Y99.452 F7800.000
G1 X105.472 Y98.664 E0.11596 F540.000
G1 X106.507 Y99.583 F7800.000
G1 X114.121 Y107.197 E0.61086 F540.000
G1 X113.567 Y107.197 E0.63633
G1 X112.729 Y106.359 E0.69081
G1 X107.814 Y100.336 F7800.000
G1 X108.561 Y101.083 E0.73936 F540.000
G1 X108.816 Y100.784 E0.75743
G1 X108.124 Y100.092 E0.80237
G1 X108.375 Y99.789 E0.82046
G1 X109.070 Y100.484 E0.86569
G1 X109.325 Y100.185 E0.88375
G1 X108.625 Y99.485 E0.92925
G1 X108.875 Y99.181 E0.94734
G1 X109.579 Y99.886 E0.99312
G1 X109.834 Y99.586 E1.01118
G1 X109.126 Y98.878 E1.05723
G1 X109.376 Y98.574 E1.07532
G1 X110.089 Y99.287 E1.12165
G1 X110.343 Y98.988 E1.13972
G1 X109.626 Y98.271 E1.18633
G1 X109.877 Y97.967 E1.20441
G1 X110.598 Y98.688 E1.25130
G1 X110.853 Y98.389 E1.26936
G1 X110.127 Y97.663 E1.31653
G1 X110.377 Y97.360 E1.33461
G1 X111.107 Y98.090 E1.38206
G1 X111.362 Y97.790 E1.40012
G1 X110.628 Y97.056 E1.44784
G1 X110.878 Y96.753 E1.46592
G1 X111.616 Y97.491 E1.51392
G1 X111.871 Y97.192 E1.53198
G1 X111.128 Y96.449 E1.58025
G1 X111.379 Y96.145 E1.59834
G1 X112.126 Y96.892 E1.64689
G1 X112.380 Y96.593 E1.66495
G1 X111.629 Y95.842 E1.71378
G1 X111.879 Y95.538 E1.73187
G1 X112.635 Y96.294 E1.78097
G1 X112.889 Y95.994 E1.79903
G1 X112.130 Y95.235 E1.84841
G1 X112.380 Y94.931 E1.86650
G1 X113.144 Y95.695 E1.91616
G1 X113.399 Y95.396 E1.93422
G1 X112.630 Y94.627 E1.98415
G1 X112.881 Y94.324 E2.00224
G1 X113.653 Y95.096 E2.05245
G1 X113.908 Y94.797 E2.07052
G1 X113.131 Y94.020 E2.12101
G1 X113.381 Y93.716 E2.13909
G1 X114.162 Y94.497 E2.18986
G1 X114.417 Y94.198 E2.20792
G1 X113.632 Y93.413 E2.25896
G1 X113.882 Y93.109 E2.27705
G1 X114.672 Y93.899 E2.32837
G1 X114.926 Y93.599 E2.34643
G1 X114.133 Y92.806 E2.39803
G1 X114.684 Y92.803 E2.42337
G1 X115.181 Y93.300 E2.45568
G1 X115.238 Y92.803 E2.47868
G1 X115.436 Y93.001 E2.49154
G92 E0
G1 X107.878 Y99.734 F7800.000
G1 X109.006 Y93.468 F7800.000
G1 X105.889 Y91.352 F7800.000
G1 X101.818 Y92.352 F7800.000
G1 X98.992 Y97.605 F7800.000
G1 X99.047 Y97.782 F7800.000
G1 X95.070 Y100.417 F7800.000
G1 X83.690 Y100.513 F7800.000
G1 X83.690 Y92.577 E0.35909 F378.000
G1 X85.311 Y92.577 E0.43243
G1 X85.311 Y98.940 E0.72036
G1 X90.434 Y98.940 E0.95220 F378.000
G1 X94.410 Y92.577 E1.29171
G1 X96.254 Y92.577 E1.37514
G1 X91.969 Y99.088 E1.72784
G1 X93.325 Y99.461 E1.79150
G1 X94.192 Y99.924 E1.83600
G1 X94.898 Y100.565 E1.87910
G1 X95.419 Y101.351 E1.92179
G1 X95.732 Y102.254 E1.96502
G1 X95.837 Y103.277 E2.01156
G1 X95.688 Y104.492 E2.06695
G1 X95.247 Y105.500 E2.11674
G1 X94.512 Y106.318 E2.16649
G1 X93.498 Y106.927 E2.22003
G1 X92.217 Y107.297 E2.28034
G1 X90.657 Y107.423 E2.35119
G1 X83.690 Y107.423 E2.66644
G1 X83.690 Y100.744 E2.96867
G1 X85.311 Y100.744 F7800.000
G1 X85.311 Y100.127 E2.99658 F378.000
G1 X90.556 Y100.127 E3.23393 F378.000
G1 X91.600 Y100.215 E3.28134
G1 X92.498 Y100.485 E3.32374
G1 X93.233 Y100.943 E3.36294
G1 X93.777 Y101.573 E3.40062
G1 X94.102 Y102.349 E3.43868
G1 X94.208 Y103.258 E3.48006
G1 X94.100 Y104.137 E3.52015
G1 X93.768 Y104.880 E3.55697
G1 X93.214 Y105.469 E3.59358
G1 X92.465 Y105.888 E3.63239
G1 X91.546 Y106.134 E3.67544
G1 X90.468 Y106.214 E3.72437
G1 X85.311 Y106.214 E3.95774
G1 X85.311 Y100.975 E4.19481
G1 X83.916 Y98.753 F7800.000
G1 X85.085 Y99.922 E4.27017 F540.000
G1 X85.085 Y100.472 E4.29521
G1 X83.916 Y99.303 E4.37057
G1 X83.916 Y99.852 E4.39561
G1 X85.085 Y101.021 E4.47097
G1 X85.085 Y101.570 E4.49601
G1 X83.916 Y100.401 E4.57137
G1 X83.916 Y100.951 E4.59641
G1 X85.085 Y102.120 E4.67177
G1 X85.085 Y102.669 E4.69681
G1 X83.916 Y101.500 E4.77217
G1 X83.916 Y102.049 E4.79721
G1 X85.085 Y103.218 E4.87257
G1 X85.085 Y103.768 E4.89761
G1 X83.916 Y102.599 E4.97297
G1 X83.916 Y103.148 E4.99801
G1 X85.085 Y104.317 E5.07337
G1 X85.085 Y104.866 E5.09841
G1 X83.916 Y103.697 E5.17377
G1 X83.916 Y104.247 E5.19881
G1 X85.085 Y105.416 E5.27417
G1 X85.085 Y105.965 E5.29921
G1 X83.916 Y104.796 E5.37457
G1 X83.916 Y105.345 E5.39961
G1 X85.767 Y107.197 E5.51897
G1 X85.218 Y107.197 E5.54401
G1 X83.916 Y105.895 E5.62795
G1 X83.916 Y106.444 E5.65299
G1 X84.669 Y107.197 E5.70153
G1 X84.119 Y107.197 E5.72657
G1 X83.916 Y106.993 E5.73969
G1 X85.559 Y106.440 F7800.000
G1 X86.317 Y107.197 E5.78849 F540.000
G1 X86.866 Y107.197 E5.81353
G1 X86.109 Y106.440 E5.86233
G1 X86.658 Y106.440 E5.88737
G1 X87.415 Y107.197 E5.93618
G1 X87.965 Y107.197 E5.96122
G1 X87.207 Y106.440 E6.01002
G1 X87.757 Y106.440 E6.03506
G1 X88.514 Y107.197 E6.08386
G1 X89.063 Y107.197 E6.10890
G1 X88.306 Y106.440 E6.15770
G1 X88.856 Y106.440 E6.18274
G1 X89.613 Y107.197 E6.23155
G1 X90.162 Y107.197 E6.25659
G1 X89.405 Y106.440 E6.30539
G1 X89.954 Y106.440 E6.33043
G1 X90.711 Y107.197 E6.37923
G1 X91.221 Y107.157 E6.40252
G1 X90.496 Y106.433 E6.44923
G1 X91.008 Y106.395 E6.47261
G1 X91.729 Y107.116 E6.51911
G1 X92.238 Y107.075 E6.54236
G1 X91.519 Y106.356 E6.58869
G1 X91.952 Y106.241 E6.60915
G1 X92.665 Y106.953 E6.65507
G1 X93.091 Y106.830 E6.67528
G1 X92.386 Y106.125 E6.72073
G1 X92.759 Y105.949 E6.73955
G1 X93.505 Y106.694 E6.78760
G1 X93.848 Y106.488 E6.80585
G1 X93.111 Y105.752 E6.85332
G1 X93.429 Y105.520 E6.87124
G1 X94.191 Y106.282 E6.92034
G1 X94.492 Y106.034 E6.93813
G1 X93.696 Y105.237 E6.98948
G1 X93.956 Y104.948 E7.00721
G1 X94.761 Y105.753 E7.05908
G1 X95.021 Y105.464 E7.07681
G1 X94.126 Y104.569 E7.13450
G1 X94.295 Y104.189 E7.15345
G1 X95.204 Y105.098 E7.21204
G1 X95.372 Y104.716 E7.23105
G1 X94.370 Y103.714 E7.29560
G1 X94.430 Y103.225 E7.31806
G1 X95.495 Y104.290 E7.38666
G1 X95.555 Y103.800 E7.40913
G1 X94.371 Y102.616 E7.48545
G1 X94.197 Y101.893 E7.51937
G1 X95.604 Y103.300 E7.61007
G1 X92.536 Y100.232 F7800.000
G1 X91.531 Y99.227 E7.67484 F540.000
G1 X91.817 Y98.964 E7.69256
G1 X91.098 Y98.245 E7.73889
G1 X91.310 Y97.907 E7.75706
G1 X92.035 Y98.633 E7.80383
G1 X92.253 Y98.302 E7.82191
G1 X91.521 Y97.569 E7.86912
G1 X91.732 Y97.231 E7.88729
G1 X92.471 Y97.970 E7.93494
G1 X92.689 Y97.639 E7.95302
G1 X91.943 Y96.893 E8.00110
G1 X92.155 Y96.555 E8.01927
G1 X92.907 Y97.308 E8.06780
G1 X93.126 Y96.976 E8.08588
G1 X92.366 Y96.217 E8.13484
G1 X92.577 Y95.879 E8.15301
G1 X93.344 Y96.645 E8.20241
G1 X93.562 Y96.314 E8.22049
G1 X92.788 Y95.541 E8.27033
G1 X93.000 Y95.203 E8.28850
G1 X93.780 Y95.983 E8.33878
G1 X93.998 Y95.651 E8.35686
G1 X93.211 Y94.864 E8.40758
G1 X93.422 Y94.526 E8.42575
G1 X94.216 Y95.320 E8.47690
G1 X94.434 Y94.989 E8.49498
G1 X93.634 Y94.188 E8.54658
G1 X93.845 Y93.850 E8.56475
G1 X94.652 Y94.657 E8.61678
G1 X94.870 Y94.326 E8.63486
G1 X94.056 Y93.512 E8.68733
G1 X94.267 Y93.174 E8.70550
G1 X95.088 Y93.995 E8.75841
G1 X95.306 Y93.664 E8.77649
G1 X94.479 Y92.836 E8.82984
G1 X94.995 Y92.803 E8.85342
G1 X95.524 Y93.332 E8.88754
G1 X95.544 Y92.803 E8.91169
G1 X95.742 Y93.001 E8.92446
G92 E0
G1 X94.584 Y101.494 F7800.000
G1 X94.584 Y101.494 F7800.000
G1 X93.047 Y99.645 F7800.000
G1 X95.355 Y101.953 E0.14879 F540.000
G1 X95.541 Y102.688 E0.18334
G1 X92.289 Y99.436 E0.39295
G1 X91.599 Y99.295 E0.42504
G1 X90.887 Y98.583 E0.47093
G1 X90.676 Y98.921 E0.48910
G1 X91.750 Y99.995 E0.55833
G1 X91.148 Y99.943 E0.58588
G1 X90.371 Y99.166 E0.63595
G1 X89.822 Y99.166 E0.66099
G1 X90.557 Y99.901 E0.70838
G1 X90.007 Y99.901 E0.73342
G1 X89.272 Y99.166 E0.78080
G1 X88.723 Y99.166 E0.80584
G1 X89.458 Y99.901 E0.85323
G1 X88.909 Y99.901 E0.87827
G1 X88.174 Y99.166 E0.92565
G1 X87.624 Y99.166 E0.95069
G1 X88.359 Y99.901 E0.99808
G1 X87.810 Y99.901 E1.02311
G1 X87.075 Y99.166 E1.07050
G1 X86.526 Y99.166 E1.09554
G1 X87.261 Y99.901 E1.14292
G1 X86.711 Y99.901 E1.16796
G1 X85.976 Y99.166 E1.21535
G1 X85.427 Y99.166 E1.24039
G1 X86.162 Y99.901 E1.28777
G1 X85.613 Y99.901 E1.31281
G1 X83.916 Y98.204 E1.42221
G1 X83.916 Y97.655 E1.44725
G1 X85.085 Y98.824 E1.52261
G1 X85.085 Y98.274 E1.54765
G1 X83.916 Y97.105 E1.62301
G1 X83.916 Y96.556 E1.64805
G1 X85.085 Y97.725 E1.72341
G1 X85.085 Y97.176 E1.74845
G1 X83.916 Y96.007 E1.82381
G1 X83.916 Y95.457 E1.84885
G1 X85.085 Y96.626 E1.92421
G1 X85.085 Y96.077 E1.94925
G1 X83.916 Y94.908 E2.02461
G1 X83.916 Y94.359 E2.04965
G1 X85.085 Y95.528 E2.12501
G1 X85.085 Y94.978 E2.15005
G1 X83.916 Y93.809 E2.22541
G1 X83.916 Y93.260 E2.25045
G1 X85.085 Y94.429 E2.32581
G1 X85.085 Y93.880 E2.35085
G1 X84.008 Y92.803 E2.42025
G1 X84.557 Y92.803 E2.44529
G1 X85.085 Y93.330 E2.47928
M106 S255
G92 E0
G1 Z0.600 F7800.000
G1 X115.242 Y92.352 F7800.000
G1 X108.577 Y100.310 E3.11048 F600.000
G1 X108.130 Y100.775 E3.30375
G1 X108.580 Y101.587 E3.58188
G1 X114.443 Y107.648 E6.10884
G92 E0
G1 X104.889 Y106.648 F7800.000
G1 X104.889 Y106.648 F7800.000
G1 X105.786 Y102.575 F7800.000
G1 X104.854 Y98.214 E1.33630 F600.000
G1 X104.854 Y92.352 E3.09283
G1 X104.854 Y107.648 F7800.000
G1 X104.854 Y99.984 E5.38932 F600.000
G1 X105.043 Y99.099 E5.66049
G1 X105.213 Y99.099 E5.71145
G1 X106.400 Y99.495 E6.08643
G1 X107.387 Y100.377 E6.48307
G1 X109.855 Y101.699 E7.32204
G92 E0
G1 X105.889 Y98.214 F7800.000
G1 X105.889 Y98.214 F7800.000
G1 X107.606 Y97.365 F7800.000
G1 X109.006 Y93.468 F7800.000
G1 X107.889 Y92.352 F7800.000
G1 X105.889 Y91.352 F7800.000
G1 X103.818 Y91.352 F7800.000
G1 X101.818 Y92.352 F7800.000
G1 X100.018 Y94.152 F7800.000
G1 X96.672 Y91.352 F7800.000
G1 X94.286 Y91.352 F7800.000
G1 X93.177 Y91.659 F7800.000
G1 X89.102 Y93.918 F7800.000
G1 X87.536 Y92.352 F7800.000
G1 X85.536 Y92.352 F7800.000
G1 X84.500 Y92.352 F7800.000
G1 X84.500 Y98.715 E1.90665 F600.000
G1 X85.351 Y103.021 E3.22178
G92 E0
G1 X84.536 Y106.648 F7800.000
G1 X84.536 Y106.648 F7800.000
G1 X90.331 Y98.681 F7800.000
G1 X91.634 Y99.535 E0.46678 F600.000
G1 X91.803 Y99.623 E0.52394
G1 X92.109 Y99.745 E0.62257
G1 X92.851 Y99.974 E0.85543
G1 X93.080 Y100.075 E0.93036
G1 X93.561 Y100.352 E1.09667
G1 X93.784 Y100.504 E1.17750
G1 X94.323 Y101.058 E1.40909
G1 X94.488 Y101.314 E1.50046
G1 X94.698 Y101.708 E1.63417
G1 X94.816 Y102.016 E1.73297
G1 X94.931 Y102.431 E1.86220
G1 X95.019 Y103.269 E2.11448
G1 X94.897 Y104.275 E2.41823
G1 X94.565 Y105.060 E2.67376
G1 X94.497 Y105.164 E2.71087
G1 X94.294 Y105.426 E2.81032
G1 X94.021 Y105.723 E2.93105
G1 X93.525 Y106.096 E3.11711
G1 X93.214 Y106.276 E3.22480
G1 X92.604 Y106.516 E3.42117
G1 X92.100 Y106.657 E3.57799
G1 X91.725 Y106.721 E3.69190
G1 X90.460 Y106.818 E4.07228
G1 X85.536 Y106.818 E5.54774
G1 X84.573 Y106.539 E5.84799
G1 X84.500 Y105.989 E6.01436
G1 X84.500 Y100.352 E7.70347
G1 X84.662 Y99.533 E7.95347
G1 X90.310 Y99.533 E9.64580
G1 X90.618 Y99.506 E9.73846
G1 X91.264 Y99.293 E9.94243
G1 X91.559 Y98.448 E10.21058
G1 X95.470 Y92.352 E12.38070
G92 E0
G1 Z0.900 F7800.000
G1 X115.242 Y92.352 F7800.000
G1 X108.577 Y100.310 E3.11048 F600.000
G1 X108.130 Y100.775 E3.30375
G1 X108.580 Y101.587 E3.58188
G1 X114.443 Y107.648 E6.10884
G92 E0
G1 X104.889 Y106.648 F7800.000
G1 X104.889 Y106.648 F7800.000
G1 X105.786 Y102.575 F7800.000
G1 X104.854 Y98.214 E1.33630 F600.000
G1 X104.854 Y92.352 E3.09283
G1 X104.854 Y107.648 F7800.000
G1 X104.854 Y99.984 E5.38932 F600.000
G1 X105.043 Y99.099 E5.66049
G1 X105.213 Y99.099 E5.71145
G1 X106.400 Y99.495 E6.08643
G1 X107.387 Y100.377 E6.48307
G1 X109.855 Y101.699 E7.32204
G92 E0
G1 X105.889 Y98.214 F7800.000
G1 X105.889 Y98.214 F7800.000
G1 X107.606 Y97.365 F7800.000
G1 X109.006 Y93.468 F7800.000
G1 X107.889 Y92.352 F7800.000
G1 X105.889 Y91.352 F7800.000
G1 X103.818 Y91.352 F7800.000
G1 X101.818 Y92.352 F7800.000
G1 X100.018 Y94.152 F7800.000
G1 X96.672 Y91.352 F7800.000
G1 X94.286 Y91.352 F7800.000
G1 X93.177 Y91.659 F7800.000
G1 X89.102 Y93.918 F7800.000
G1 X87.536 Y92.352 F7800.000
G1 X85.536 Y92.352 F7800.000
G1 X84.500 Y92.352 F7800.000
G1 X84.500 Y98.715 E1.90665 F600.000
G1 X85.351 Y103.021 E3.22178
G92 E0
G1 X84.536 Y106.648 F7800.000
G1 X84.536 Y106.648 F7800.000
G1 X90.331 Y98.681 F7800.000
G1 X91.634 Y99.535 E0.46678 F600.000
G1 X91.803 Y99.623 E0.52394
G1 X92.109 Y99.745 E0.62257
G1 X92.851 Y99.974 E0.85543
G1 X93.080 Y100.075 E0.93036
G1 X93.561 Y100.352 E1.09667
G1 X93.784 Y100.504 E1.17750
G1 X94.323 Y101.058 E1.40909
G1 X94.488 Y101.314 E1.50046
G1 X94.698 Y101.708 E1.63417
G1 X94.816 Y102.016 E1.73297
G1 X94.931 Y102.431 E1.86220
G1 X95.019 Y103.269 E2.11448
G1 X94.897 Y104.275 E2.41823
G1 X94.565 Y105.060 E2.67376
G1 X94.497 Y105.164 E2.71087
G1 X94.294 Y105.426 E2.81032
G1 X94.021 Y105.723 E2.93105
G1 X93.525 Y106.096 E3.11711
G1 X93.214 Y106.276 E3.22480
G1 X92.604 Y106.516 E3.42117
G1 X92.100 Y106.657 E3.57799
G1 X91.725 Y106.721 E3.69190
G1 X90.460 Y106.818 E4.07228
G1 X85.536 Y106.818 E5.54774
G1 X84.573 Y106.539 E5.84799
G1 X84.500 Y105.989 E6.01436
G1 X84.500 Y100.352 E7.70347
G1 X84.662 Y99.533 E7.95347
G1 X90.310 Y99.533 E9.64580
G1 X90.618 Y99.506 E9.73846
G1 X91.264 Y99.293 E9.94243
G1 X91.559 Y98.448 E10.21058
G1 X95.470 Y92.352 E12.38070
G92 E0
G1 Z1.200 F7800.000
G1 X115.242 Y92.352 F7800.000
G1 X108.577 Y100.310 E3.11048 F600.000
G1 X108.130 Y100.775 E3.30375
G1 X108.580 Y101.587 E3.58188
G1 X114.443 Y107.648 E6.10884
G92 E0
G1 X104.889 Y106.648 F7800.000
G1 X104.889 Y106.648 F7800.000
G1 X105.786 Y102.575 F7800.000
G1 X104.854 Y98.214 E1.33630 F600.000
G1 X104.854 Y92.352 E3.09283
G1 X104.854 Y107.648 F7800.000
G1 X104.854 Y99.984 E5.38932 F600.000
G1 X105.043 Y99.099 E5.66049
G1 X105.213 Y99.099 E5.71145
G1 X106.400 Y99.495 E6.08643
G1 X107.387 Y100.377 E6.48307
G1 X109.855 Y101.699 E7.32204
G92 E0
G1 X105.889 Y98.214 F7800.000
