; generated by Slic3r 1.2.9 on 2016-03-11 at 01:29:39

; external perimeters extrusion width = 1.54mm
; perimeters extrusion width = 2.62mm
; infill extrusion width = 6.27mm
; solid infill extrusion width = 2.62mm
; top infill extrusion width = 2.62mm

M107
M104 S30 ; set temperature
G28 ; home all axes
G1 Z5 F5000 ; lift nozzle
M302
M92 E10000
M500
M501
G1 E100
M109 S30 ; wait for temperature to be reached
G21 ; set units to millimeters
G90 ; use absolute coordinates
M82 ; use absolute distances for extrusion
G92 E0
G1 Z0.300 F7800.000
G1 X115.403 Y105.113 F7800.000
G1 X115.568 Y105.691 E0.02719 F378.000
G1 X116.050 Y105.611 E0.04928
G1 X115.976 Y103.667 E0.13728
G1 X115.965 Y102.557 E0.18754
G1 X115.965 Y92.577 E0.63912
G1 X117.380 Y92.577 E0.70315
G1 X117.380 Y107.423 E1.37492
G1 X115.104 Y107.423 E1.47792
G1 X111.087 Y96.741 E1.99431
G1 X110.637 Y95.324 E2.06157
G1 X110.435 Y94.557 E2.09748
G1 X110.009 Y94.559 E2.11676
G1 X109.604 Y96.083 E2.18809
G1 X109.326 Y96.966 E2.23000
G1 X105.319 Y107.423 E2.73673
G1 X102.976 Y107.423 E2.84271
G1 X102.976 Y92.577 E3.51448
G1 X104.369 Y92.577 E3.57752
G1 X104.369 Y102.555 E4.02903
G1 X104.298 Y105.674 E4.17018 F378.000
G1 X104.773 Y105.750 E4.19193
G1 X105.091 Y104.688 E4.24209
G1 X105.695 Y102.851 E4.32964
G1 X109.639 Y92.577 E4.82758
G1 X110.782 Y92.577 E4.87929
G1 X114.672 Y102.853 E5.37646
G1 X114.964 Y103.672 E5.41581
G1 X115.340 Y104.891 E5.47353
G1 X115.307 Y105.950 F7800.000
G1 X116.554 Y107.197 E5.55366 F540.000
G1 X116.006 Y107.197 E5.57856
G1 X114.870 Y106.061 E5.65160
G1 X115.200 Y106.939 F7800.000
G1 X115.458 Y107.197 E5.66820 F540.000
G1 X114.700 Y103.700 F7800.000
G1 X113.549 Y102.549 E5.74221 F540.000
G1 X114.056 Y101.960 F7800.000
G1 X112.888 Y100.792 E5.81729 F540.000
G1 X113.389 Y100.197 F7800.000
G1 X112.228 Y99.036 E5.89191 F540.000
G1 X112.721 Y98.434 F7800.000
G1 X111.567 Y97.280 E5.96608 F540.000
G1 X112.054 Y96.671 F7800.000
G1 X110.996 Y95.614 E6.03406 F540.000
G1 X111.720 Y95.789 F7800.000
G1 X110.767 Y94.836 E6.09532 F540.000
G1 X111.386 Y94.908 E6.12365
G1 X109.633 Y93.155 E6.23632
G1 X109.829 Y92.803 E6.25463
G1 X111.052 Y94.026 E6.33326
G1 X110.263 Y94.332 F7800.000
G1 X109.482 Y93.551 E6.38348 F540.000
G1 X109.330 Y93.947 E6.40275
G1 X109.825 Y94.443 E6.43462
G1 X109.710 Y94.875 E6.45497
G1 X109.178 Y94.343 E6.48920
G1 X109.026 Y94.739 E6.50848
G1 X109.595 Y95.308 E6.54508
G1 X109.480 Y95.741 E6.56543
G1 X108.874 Y95.135 E6.60441
G1 X108.722 Y95.530 E6.62368
G1 X109.361 Y96.170 E6.66480
G1 X109.230 Y96.587 E6.68465
G1 X108.570 Y95.926 E6.72710
G1 X108.418 Y96.322 E6.74638
G1 X109.096 Y97.000 E6.78998
G1 X108.944 Y97.396 E6.80926
G1 X108.266 Y96.718 E6.85288
G1 X108.114 Y97.114 E6.87215
G1 X108.793 Y97.793 E6.91578
G1 X108.641 Y98.189 E6.93506
G1 X107.962 Y97.510 E6.97870
G1 X107.810 Y97.906 E6.99797
G1 X108.489 Y98.585 E7.04162
G1 X108.337 Y98.981 E7.06090
G1 X107.658 Y98.301 E7.10456
G1 X107.506 Y98.697 E7.12384
G1 X108.186 Y99.377 E7.16751
G1 X108.034 Y99.773 E7.18679
G1 X107.354 Y99.093 E7.23048
G1 X107.202 Y99.489 E7.24976
G1 X107.882 Y100.169 E7.29346
G1 X107.730 Y100.565 E7.31274
G1 X107.050 Y99.885 E7.35645
G1 X106.898 Y100.281 E7.37572
G1 X107.578 Y100.961 E7.41945
G1 X107.427 Y101.357 E7.43873
G1 X106.746 Y100.677 E7.48246
G1 X106.594 Y101.072 E7.50174
G1 X107.275 Y101.753 E7.54549
G1 X107.123 Y102.149 E7.56476
G1 X106.442 Y101.468 E7.60853
G1 X106.290 Y101.864 E7.62780
G1 X106.971 Y102.545 E7.67157
G1 X106.820 Y102.941 E7.69085
G1 X106.138 Y102.260 E7.73464
G1 X105.986 Y102.656 E7.75391
G1 X106.668 Y103.337 E7.79771
G1 X106.516 Y103.733 E7.81699
G1 X105.842 Y103.059 E7.86032
G1 X105.706 Y103.472 E7.88005
G1 X106.364 Y104.129 E7.92234
G1 X106.213 Y104.525 E7.94162
G1 X105.571 Y103.884 E7.98286
G1 X105.435 Y104.296 E8.00259
G1 X106.061 Y104.922 E8.04279
G1 X105.909 Y105.318 E8.06207
G1 X105.300 Y104.709 E8.10122
G1 X105.174 Y105.130 E8.12122
G1 X105.757 Y105.714 E8.15874
G1 X105.605 Y106.110 E8.17802
G1 X105.047 Y105.551 E8.21390
G1 X104.921 Y105.973 E8.23390
G1 X105.454 Y106.506 E8.26815
G1 X105.302 Y106.902 E8.28743
G1 X104.321 Y105.921 E8.35051
G1 X104.074 Y105.674 F7800.000
G1 X103.202 Y104.802 E8.40653 F540.000
G1 X103.202 Y105.350 E8.43143
G1 X105.049 Y107.197 E8.55017
G1 X104.502 Y107.197 E8.57507
G1 X103.202 Y105.898 E8.65858
G1 X103.202 Y106.446 E8.68348
G1 X103.954 Y107.197 E8.73179
G1 X103.406 Y107.197 E8.75669
G1 X103.202 Y106.993 E8.76977
G1 X104.086 Y105.138 F7800.000
G1 X103.202 Y104.254 E8.82659 F540.000
G1 X103.202 Y103.707 E8.85149
G1 X104.098 Y104.603 E8.90909
G1 X104.111 Y104.067 E8.93344
G1 X103.202 Y103.159 E8.99183
G1 X103.202 Y102.611 E9.01673
G1 X104.123 Y103.531 E9.07590
G1 X104.135 Y102.996 E9.10025
G1 X103.202 Y102.063 E9.16022
G1 X103.202 Y101.515 E9.18512
G1 X104.143 Y102.456 E9.24562
G1 X104.143 Y101.909 E9.27052
G1 X103.202 Y100.967 E9.33101
G1 X103.202 Y100.420 E9.35591
G1 X104.143 Y101.361 E9.41641
G1 X104.143 Y100.813 E9.44131
G1 X103.202 Y99.872 E9.50181
G1 X103.202 Y99.324 E9.52671
G1 X104.143 Y100.265 E9.58720
G1 X104.143 Y99.717 E9.61210
G1 X103.202 Y98.776 E9.67260
G1 X103.202 Y98.228 E9.69750
G1 X104.143 Y99.169 E9.75800
G1 X104.143 Y98.622 E9.78290
G1 X103.202 Y97.680 E9.84339
G1 X103.202 Y97.133 E9.86829
G1 X104.143 Y98.074 E9.92879
G1 X104.143 Y97.526 E9.95369
G1 X103.202 Y96.585 E10.01419
G1 X103.202 Y96.037 E10.03909
G1 X104.143 Y96.978 E10.09958
G1 X104.143 Y96.430 E10.12449
G1 X103.202 Y95.489 E10.18498
G1 X103.202 Y94.941 E10.20988
G1 X104.143 Y95.882 E10.27038
G1 X104.143 Y95.335 E10.29528
G1 X103.202 Y94.394 E10.35578
G1 X103.202 Y93.846 E10.38068
G1 X104.143 Y94.787 E10.44117
G1 X104.143 Y94.239 E10.46607
G1 X103.202 Y93.298 E10.52657
G1 X103.255 Y92.803 E10.54919
G1 X104.143 Y93.691 E10.60629
G1 X104.143 Y93.143 E10.63119
G1 X103.803 Y92.803 E10.65307
G92 E0
G1 X110.006 Y93.784 F7800.000
G1 X110.209 Y93.644 F7800.000
G1 X110.209 Y93.406 F7800.000
G1 X110.172 Y93.352 F7800.000
G1 X110.377 Y92.803 F7800.000
G1 X110.719 Y93.145 E0.02197 F540.000
G1 X111.251 Y96.416 F7800.000
G1 X112.387 Y97.553 E0.09504 F540.000
G1 X111.898 Y98.158 F7800.000
G1 X113.055 Y99.316 E0.16944 F540.000
G1 X112.558 Y99.914 F7800.000
G1 X113.722 Y101.079 E0.24429 F540.000
G1 X113.218 Y101.671 F7800.000
G1 X114.390 Y102.842 E0.31960 F540.000
G1 X113.879 Y103.427 F7800.000
G1 X114.960 Y104.508 E0.38908 F540.000
G1 X114.209 Y104.305 E0.42443
G1 X115.192 Y105.287 E0.48759
G1 X114.539 Y105.183 E0.51762
G1 X115.410 Y106.053 E0.57357
G1 X115.777 Y105.873 E0.59218
G1 X117.101 Y107.197 E0.67731
G1 X117.154 Y106.702 E0.69994
G1 X116.247 Y105.795 E0.75827
G1 X116.266 Y105.266 E0.78233
G1 X117.154 Y106.154 E0.83944
G1 X117.154 Y105.606 E0.86435
G1 X116.244 Y104.696 E0.92285
G1 X116.223 Y104.127 E0.94875
G1 X117.154 Y105.059 E1.00863
G1 X117.154 Y104.511 E1.03354
G1 X116.202 Y103.558 E1.09477
G1 X116.196 Y103.005 E1.11992
G1 X117.154 Y103.963 E1.18150
G1 X117.154 Y103.415 E1.20640
G1 X116.191 Y102.452 E1.26831
G1 X116.191 Y101.904 E1.29321
G1 X117.154 Y102.867 E1.35512
G1 X117.154 Y102.320 E1.38002
G1 X116.191 Y101.356 E1.44193
G1 X116.191 Y100.809 E1.46683
G1 X117.154 Y101.772 E1.52874
G1 X117.154 Y101.224 E1.55364
G1 X116.191 Y100.261 E1.61555
G1 X116.191 Y99.713 E1.64045
G1 X117.154 Y100.676 E1.70236
G1 X117.154 Y100.128 E1.72726
G1 X116.191 Y99.165 E1.78917
G1 X116.191 Y98.617 E1.81407
G1 X117.154 Y99.580 E1.87598
G1 X117.154 Y99.033 E1.90088
G1 X116.191 Y98.070 E1.96279
G1 X116.191 Y97.522 E1.98770
G1 X117.154 Y98.485 E2.04961
G1 X117.154 Y97.937 E2.07451
G1 X116.191 Y96.974 E2.13642
G1 X116.191 Y96.426 E2.16132
G1 X117.154 Y97.389 E2.22323
G1 X117.154 Y96.841 E2.24813
G1 X116.191 Y95.878 E2.31004
G1 X116.191 Y95.330 E2.33494
G1 X117.154 Y96.293 E2.39685
G1 X117.154 Y95.746 E2.42175
G1 X116.191 Y94.783 E2.48366
G1 X116.191 Y94.235 E2.50856
G1 X117.154 Y95.198 E2.57047
G1 X117.154 Y94.650 E2.59537
G1 X116.191 Y93.687 E2.65728
G1 X116.191 Y93.139 E2.68219
G1 X117.154 Y94.102 E2.74410
G1 X117.154 Y93.554 E2.76900
G1 X116.403 Y92.803 E2.81730
G1 X116.951 Y92.803 E2.84220
G1 X117.154 Y93.007 E2.85529
G92 E0
G1 X115.740 Y92.352 F7800.000
G1 X106.594 Y92.352 F7800.000
G1 X95.602 Y91.352 F7800.000
G1 X88.032 Y93.918 F7800.000
G1 X86.466 Y92.352 F7800.000
G1 X84.466 Y92.352 F7800.000
G1 X84.241 Y95.737 F7800.000
G1 X84.241 Y98.940 E0.14494 F378.000
G1 X89.364 Y98.940 E0.37678 F378.000
G1 X93.340 Y92.577 E0.71629
G1 X95.184 Y92.577 E0.79972
G1 X90.899 Y99.088 E1.15242
G1 X92.255 Y99.461 E1.21608
G1 X93.122 Y99.924 E1.26058
G1 X93.828 Y100.565 E1.30368
G1 X94.349 Y101.351 E1.34637
G1 X94.662 Y102.254 E1.38960
G1 X94.767 Y103.277 E1.43614
G1 X94.618 Y104.492 E1.49153
G1 X94.177 Y105.500 E1.54132
G1 X93.442 Y106.318 E1.59107
G1 X92.428 Y106.927 E1.64461
G1 X91.147 Y107.297 E1.70492
G1 X89.587 Y107.423 E1.77577
G1 X82.620 Y107.423 E2.09102
G1 X82.620 Y92.577 E2.76279
G1 X84.241 Y92.577 E2.83614
G1 X84.241 Y95.506 E2.96867
G1 X84.241 Y100.127 F7800.000
G1 X89.486 Y100.127 E3.20602 F378.000
G1 X90.530 Y100.215 E3.25344
G1 X91.428 Y100.485 E3.29584
G1 X92.163 Y100.943 E3.33504
G1 X92.707 Y101.573 E3.37271
G1 X93.032 Y102.349 E3.41078
G1 X93.138 Y103.258 E3.45216
G1 X93.030 Y104.137 E3.49224
G1 X92.698 Y104.880 E3.52906
G1 X92.144 Y105.469 E3.56568
G1 X91.395 Y105.888 E3.60449
G1 X90.476 Y106.134 E3.64753
G1 X89.398 Y106.214 E3.69647
G1 X84.241 Y106.214 E3.92983
G1 X84.241 Y100.358 E4.19481
G1 X82.846 Y98.753 F7800.000
G1 X84.015 Y99.922 E4.27017 F540.000
G1 X84.015 Y100.472 E4.29521
G1 X82.846 Y99.303 E4.37057
G1 X82.846 Y99.852 E4.39561
G1 X84.015 Y101.021 E4.47097
G1 X84.015 Y101.570 E4.49601
G1 X82.846 Y100.401 E4.57137
G1 X82.846 Y100.951 E4.59641
G1 X84.015 Y102.120 E4.67177
G1 X84.015 Y102.669 E4.69681
G1 X82.846 Y101.500 E4.77217
G1 X82.846 Y102.049 E4.79721
G1 X84.015 Y103.218 E4.87257
G1 X84.015 Y103.768 E4.89761
G1 X82.846 Y102.599 E4.97297
G1 X82.846 Y103.148 E4.99801
G1 X84.015 Y104.317 E5.07337
G1 X84.015 Y104.866 E5.09841
G1 X82.846 Y103.697 E5.17377
G1 X82.846 Y104.247 E5.19881
G1 X84.015 Y105.416 E5.27417
G1 X84.015 Y105.965 E5.29921
G1 X82.846 Y104.796 E5.37457
G1 X82.846 Y105.345 E5.39961
G1 X84.697 Y107.197 E5.51897
G1 X84.148 Y107.197 E5.54401
G1 X82.846 Y105.895 E5.62795
G1 X82.846 Y106.444 E5.65299
G1 X83.599 Y107.197 E5.70153
G1 X83.049 Y107.197 E5.72657
G1 X82.846 Y106.993 E5.73969
G1 X84.489 Y106.440 F7800.000
G1 X85.247 Y107.197 E5.78849 F540.000
G1 X85.796 Y107.197 E5.81353
G1 X85.039 Y106.440 E5.86233
G1 X85.588 Y106.440 E5.88737
G1 X86.345 Y107.197 E5.93618
G1 X86.895 Y107.197 E5.96122
G1 X86.137 Y106.440 E6.01002
G1 X86.687 Y106.440 E6.03506
G1 X87.444 Y107.197 E6.08386
G1 X87.993 Y107.197 E6.10890
G1 X87.236 Y106.440 E6.15770
G1 X87.786 Y106.440 E6.18274
G1 X88.543 Y107.197 E6.23155
G1 X89.092 Y107.197 E6.25659
G1 X88.335 Y106.440 E6.30539
G1 X88.884 Y106.440 E6.33043
G1 X89.641 Y107.197 E6.37923
G1 X90.151 Y107.157 E6.40252
G1 X89.426 Y106.433 E6.44923
G1 X89.938 Y106.395 E6.47261
G1 X90.659 Y107.116 E6.51911
G1 X91.168 Y107.075 E6.54236
G1 X90.449 Y106.356 E6.58870
G1 X90.882 Y106.241 E6.60915
G1 X91.595 Y106.953 E6.65507
G1 X92.021 Y106.830 E6.67528
G1 X91.316 Y106.125 E6.72073
G1 X91.689 Y105.949 E6.73955
G1 X92.435 Y106.694 E6.78760
G1 X92.778 Y106.488 E6.80585
G1 X92.041 Y105.752 E6.85332
G1 X92.359 Y105.520 E6.87124
G1 X93.121 Y106.282 E6.92034
G1 X93.422 Y106.034 E6.93813
G1 X92.626 Y105.237 E6.98948
G1 X92.886 Y104.948 E7.00721
G1 X93.691 Y105.753 E7.05908
G1 X93.951 Y105.464 E7.07681
G1 X93.056 Y104.569 E7.13450
G1 X93.225 Y104.189 E7.15345
G1 X94.134 Y105.098 E7.21204
G1 X94.302 Y104.716 E7.23105
G1 X93.300 Y103.714 E7.29560
G1 X93.360 Y103.225 E7.31806
G1 X94.425 Y104.290 E7.38666
G1 X94.485 Y103.800 E7.40913
G1 X93.301 Y102.616 E7.48545
G1 X93.127 Y101.893 E7.51937
G1 X94.534 Y103.300 E7.61007
G1 X91.466 Y100.232 F7800.000
G1 X90.461 Y99.227 E7.67484 F540.000
G1 X90.747 Y98.964 E7.69256
G1 X90.028 Y98.245 E7.73889
G1 X90.240 Y97.907 E7.75706
G1 X90.965 Y98.633 E7.80383
G1 X91.183 Y98.302 E7.82191
G1 X90.451 Y97.569 E7.86912
G1 X90.662 Y97.231 E7.88729
G1 X91.401 Y97.970 E7.93494
G1 X91.619 Y97.639 E7.95302
G1 X90.873 Y96.893 E8.00110
G1 X91.085 Y96.555 E8.01927
G1 X91.837 Y97.308 E8.06780
G1 X92.056 Y96.976 E8.08588
G1 X91.296 Y96.217 E8.13484
G1 X91.507 Y95.879 E8.15301
G1 X92.274 Y96.645 E8.20241
G1 X92.492 Y96.314 E8.22049
G1 X91.718 Y95.541 E8.27033
G1 X91.930 Y95.203 E8.28850
G1 X92.710 Y95.983 E8.33878
G1 X92.928 Y95.651 E8.35686
G1 X92.141 Y94.864 E8.40758
G1 X92.352 Y94.526 E8.42575
G1 X93.146 Y95.320 E8.47690
G1 X93.364 Y94.989 E8.49498
G1 X92.564 Y94.188 E8.54658
G1 X92.775 Y93.850 E8.56475
G1 X93.582 Y94.657 E8.61678
G1 X93.800 Y94.326 E8.63486
G1 X92.986 Y93.512 E8.68733
G1 X93.197 Y93.174 E8.70550
G1 X94.018 Y93.995 E8.75841
G1 X94.236 Y93.664 E8.77649
G1 X93.409 Y92.836 E8.82984
G1 X93.925 Y92.803 E8.85342
G1 X94.454 Y93.332 E8.88755
G1 X94.474 Y92.803 E8.91169
G1 X94.672 Y93.001 E8.92446
G92 E0
G1 X93.514 Y101.494 F7800.000
G1 X93.514 Y101.494 F7800.000
G1 X91.977 Y99.645 F7800.000
G1 X94.285 Y101.953 E0.14879 F540.000
G1 X94.471 Y102.688 E0.18334
G1 X91.219 Y99.436 E0.39295
G1 X90.529 Y99.295 E0.42504
G1 X89.817 Y98.583 E0.47093
G1 X89.606 Y98.921 E0.48910
G1 X90.680 Y99.995 E0.55833
G1 X90.078 Y99.943 E0.58588
G1 X89.301 Y99.166 E0.63595
G1 X88.752 Y99.166 E0.66099
G1 X89.487 Y99.901 E0.70838
G1 X88.937 Y99.901 E0.73342
G1 X88.202 Y99.166 E0.78080
G1 X87.653 Y99.166 E0.80584
G1 X88.388 Y99.901 E0.85323
G1 X87.839 Y99.901 E0.87827
G1 X87.104 Y99.166 E0.92565
G1 X86.554 Y99.166 E0.95069
G1 X87.289 Y99.901 E0.99808
G1 X86.740 Y99.901 E1.02311
G1 X86.005 Y99.166 E1.07050
G1 X85.456 Y99.166 E1.09554
G1 X86.191 Y99.901 E1.14292
G1 X85.641 Y99.901 E1.16796
G1 X84.906 Y99.166 E1.21535
G1 X84.357 Y99.166 E1.24039
G1 X85.092 Y99.901 E1.28777
G1 X84.543 Y99.901 E1.31281
G1 X82.846 Y98.204 E1.42221
G1 X82.846 Y97.655 E1.44725
G1 X84.015 Y98.824 E1.52261
G1 X84.015 Y98.274 E1.54765
G1 X82.846 Y97.105 E1.62301
G1 X82.846 Y96.556 E1.64805
G1 X84.015 Y97.725 E1.72341
G1 X84.015 Y97.176 E1.74845
G1 X82.846 Y96.007 E1.82381
G1 X82.846 Y95.457 E1.84885
G1 X84.015 Y96.626 E1.92421
G1 X84.015 Y96.077 E1.94925
G1 X82.846 Y94.908 E2.02461
G1 X82.846 Y94.359 E2.04965
G1 X84.015 Y95.528 E2.12501
G1 X84.015 Y94.978 E2.15005
G1 X82.846 Y93.809 E2.22541
G1 X82.846 Y93.260 E2.25045
G1 X84.015 Y94.429 E2.32581
G1 X84.015 Y93.880 E2.35085
G1 X82.938 Y92.803 E2.42025
G1 X83.487 Y92.803 E2.44529
G1 X84.015 Y93.330 E2.47928
M106 S255
G92 E0
G1 Z0.600 F7800.000
G1 X116.673 Y92.352 F7800.000
G1 X116.673 Y102.553 E3.05684 F600.000
G1 X116.711 Y105.387 E3.90611
G1 X116.412 Y106.455 E4.23829
G1 X116.000 Y106.527 E4.36362
G1 X115.714 Y106.542 E4.44953
G1 X115.002 Y105.643 E4.79316
G1 X114.400 Y103.861 E5.35686
G1 X114.107 Y103.060 E5.61227
G1 X111.649 Y96.547 E7.69838
G1 X110.985 Y94.592 E8.31689
G1 X110.257 Y93.677 E8.66743
G1 X110.209 Y93.644 E8.68492
G1 X109.444 Y94.587 E9.04859
G1 X108.721 Y96.755 E9.73345
G1 X106.301 Y103.066 E11.75884
G1 X105.368 Y105.723 E12.60259
G1 X104.731 Y106.569 E12.91989
G1 X104.355 Y106.559 E13.03285
G1 X103.919 Y106.480 E13.16539
G1 X103.640 Y105.463 E13.48158
G1 X103.673 Y102.547 E14.35514
G1 X103.673 Y92.352 E17.41018
G92 E0
G1 X95.602 Y91.352 F7800.000
G1 X88.032 Y93.918 F7800.000
G1 X86.466 Y92.352 F7800.000
G1 X84.466 Y92.352 F7800.000
G1 X83.430 Y92.352 F7800.000
G1 X83.430 Y98.715 E1.90665 F600.000
G1 X84.281 Y103.021 E3.22178
G92 E0
G1 X83.466 Y106.648 F7800.000
G1 X83.466 Y106.648 F7800.000
G1 X89.261 Y98.681 F7800.000
G1 X90.564 Y99.535 E0.46678 F600.000
G1 X90.733 Y99.623 E0.52394
G1 X91.039 Y99.745 E0.62257
G1 X91.781 Y99.974 E0.85543
G1 X92.010 Y100.075 E0.93036
G1 X92.491 Y100.352 E1.09667
G1 X92.714 Y100.504 E1.17750
G1 X93.253 Y101.058 E1.40909
G1 X93.418 Y101.314 E1.50046
G1 X93.628 Y101.708 E1.63417
G1 X93.746 Y102.016 E1.73297
G1 X93.861 Y102.431 E1.86220
G1 X93.949 Y103.269 E2.11448
G1 X93.827 Y104.275 E2.41823
G1 X93.495 Y105.060 E2.67376
G1 X93.427 Y105.164 E2.71087
G1 X93.224 Y105.426 E2.81032
G1 X92.951 Y105.723 E2.93105
