; generated by Slic3r 1.2.9 on 2016-03-11 at 01:29:40

; external perimeters extrusion width = 1.54mm
; perimeters extrusion width = 2.62mm
; infill extrusion width = 6.27mm
; solid infill extrusion width = 2.62mm
; top infill extrusion width = 2.62mm

M107
M104 S30 ; set temperature
G28 ; home all axes
G1 Z5 F5000 ; lift nozzle
M302
M92 E10000
M500
M501
G1 E100
M109 S30 ; wait for temperature to be reached
G21 ; set units to millimeters
G90 ; use absolute coordinates
M82 ; use absolute distances for extrusion
G92 E0
G1 Z0.300 F7800.000
G1 X114.753 Y104.462 F7800.000
G1 X114.753 Y97.618 E0.30970 F378.000
G1 X114.767 Y96.856 E0.34419
G1 X114.883 Y94.524 E0.44984
G1 X114.478 Y94.395 E0.46904
G1 X106.251 Y107.423 E1.16627
G1 X104.193 Y107.423 E1.25939
G1 X104.193 Y92.577 E1.93116
G1 X105.586 Y92.577 E1.99420
G1 X105.586 Y102.512 E2.44373
G1 X105.532 Y104.320 E2.52559 F378.000
G1 X105.477 Y105.392 E2.57414
G1 X105.882 Y105.520 E2.59337
G1 X114.023 Y92.577 E3.28523
G1 X116.168 Y92.577 E3.38228
G1 X116.168 Y107.423 E4.05405
G1 X114.753 Y107.423 E4.11808
G1 X114.753 Y104.693 E4.24159
G1 X115.159 Y107.197 F7800.000
G1 X114.979 Y107.017 E4.25332 F540.000
G1 X114.979 Y106.462 E4.27884
G1 X115.714 Y107.197 E4.32666
G1 X115.942 Y106.871 E4.34499
G1 X114.979 Y105.908 E4.40766
G1 X114.979 Y105.353 E4.43318
G1 X115.942 Y106.316 E4.49585
G1 X115.942 Y105.762 E4.52137
G1 X114.979 Y104.798 E4.58404
G1 X114.979 Y104.244 E4.60955
G1 X115.942 Y105.207 E4.67223
G1 X115.942 Y104.652 E4.69774
G1 X114.979 Y103.689 E4.76042
G1 X114.979 Y103.135 E4.78593
G1 X115.942 Y104.098 E4.84861
G1 X115.942 Y103.543 E4.87412
G1 X114.979 Y102.580 E4.93680
G1 X114.979 Y102.026 E4.96231
G1 X115.942 Y102.989 E5.02498
G1 X115.942 Y102.434 E5.05050
G1 X114.979 Y101.471 E5.11317
G1 X114.979 Y100.917 E5.13869
G1 X115.942 Y101.880 E5.20136
G1 X115.942 Y101.325 E5.22688
G1 X114.979 Y100.362 E5.28955
G1 X114.979 Y99.807 E5.31507
G1 X115.942 Y100.770 E5.37774
G1 X115.942 Y100.216 E5.40326
G1 X114.979 Y99.253 E5.46593
G1 X114.979 Y98.698 E5.49145
G1 X115.942 Y99.661 E5.55412
G1 X115.942 Y99.107 E5.57964
G1 X114.979 Y98.144 E5.64231
G1 X114.979 Y97.589 E5.66783
G1 X115.942 Y98.552 E5.73050
G1 X115.942 Y97.998 E5.75602
G1 X114.988 Y97.044 E5.81808
G1 X115.007 Y96.508 E5.84276
G1 X115.942 Y97.443 E5.90361
G1 X115.942 Y96.889 E5.92913
G1 X115.033 Y95.979 E5.98829
G1 X115.059 Y95.451 E6.01263
G1 X115.942 Y96.334 E6.07009
G1 X115.942 Y95.779 E6.09560
G1 X115.085 Y94.923 E6.15136
G1 X115.942 Y93.007 F7800.000
G1 X115.738 Y92.803 E6.16461 F540.000
G1 X115.184 Y92.803 E6.19013
G1 X115.942 Y93.561 E6.23946
G1 X115.942 Y94.116 E6.26498
G1 X114.629 Y92.803 E6.35041
G1 X114.097 Y92.826 E6.37491
G1 X115.942 Y94.670 E6.49495
G1 X115.942 Y95.225 E6.52047
G1 X113.883 Y93.166 E6.65445
G1 X113.669 Y93.506 E6.67296
G1 X114.368 Y94.205 E6.71843
G1 X114.153 Y94.545 E6.73693
G1 X113.455 Y93.847 E6.78236
G1 X113.241 Y94.187 E6.80087
G1 X113.938 Y94.885 E6.84627
G1 X113.724 Y95.225 E6.86477
G1 X113.026 Y94.528 E6.91014
G1 X112.812 Y94.868 E6.92864
G1 X113.509 Y95.565 E6.97398
G1 X113.294 Y95.905 E6.99248
G1 X112.598 Y95.209 E7.03778
G1 X112.384 Y95.549 E7.05628
G1 X113.080 Y96.245 E7.10155
G1 X112.865 Y96.584 E7.12005
G1 X112.170 Y95.889 E7.16528
G1 X111.956 Y96.230 E7.18379
G1 X112.650 Y96.924 E7.22899
G1 X112.436 Y97.264 E7.24748
G1 X111.742 Y96.570 E7.29265
G1 X111.528 Y96.911 E7.31115
G1 X112.221 Y97.604 E7.35628
G1 X112.006 Y97.944 E7.37478
G1 X111.313 Y97.251 E7.41988
G1 X111.099 Y97.592 E7.43838
G1 X111.792 Y98.284 E7.48345
G1 X111.577 Y98.624 E7.50195
G1 X110.885 Y97.932 E7.54697
G1 X110.671 Y98.272 E7.56548
G1 X111.362 Y98.964 E7.61047
G1 X111.148 Y99.304 E7.62897
G1 X110.457 Y98.613 E7.67393
G1 X110.243 Y98.953 E7.69244
G1 X110.933 Y99.644 E7.73736
G1 X110.718 Y99.984 E7.75586
G1 X110.029 Y99.294 E7.80075
G1 X109.814 Y99.634 E7.81926
G1 X110.504 Y100.323 E7.86412
G1 X110.289 Y100.663 E7.88262
G1 X109.600 Y99.975 E7.92744
G1 X109.386 Y100.315 E7.94595
G1 X110.074 Y101.003 E7.99074
G1 X109.860 Y101.343 E8.00923
G1 X109.172 Y100.655 E8.05399
G1 X108.958 Y100.996 E8.07250
G1 X109.645 Y101.683 E8.11722
G1 X109.431 Y102.023 E8.13572
G1 X108.744 Y101.336 E8.18040
G1 X108.530 Y101.677 E8.19891
G1 X109.216 Y102.363 E8.24356
G1 X109.001 Y102.703 E8.26206
G1 X108.316 Y102.017 E8.30668
G1 X108.101 Y102.358 E8.32519
G1 X108.787 Y103.043 E8.36977
G1 X108.572 Y103.383 E8.38827
G1 X107.887 Y102.698 E8.43282
G1 X107.673 Y103.038 E8.45133
G1 X108.357 Y103.723 E8.49584
G1 X108.143 Y104.062 E8.51434
G1 X107.459 Y103.379 E8.55883
G1 X107.245 Y103.719 E8.57733
G1 X107.928 Y104.402 E8.62178
G1 X107.713 Y104.742 E8.64028
G1 X107.031 Y104.060 E8.68469
G1 X106.817 Y104.400 E8.70320
G1 X107.499 Y105.082 E8.74758
G1 X107.284 Y105.422 E8.76608
G1 X106.602 Y104.741 E8.81043
G1 X106.388 Y105.081 E8.82893
G1 X107.069 Y105.762 E8.87324
G1 X106.855 Y106.102 E8.89174
G1 X106.174 Y105.421 E8.93602
G1 X105.960 Y105.762 E8.95453
G1 X106.640 Y106.442 E8.99877
G1 X106.425 Y106.782 E9.01727
G1 X104.419 Y104.775 E9.14784
G1 X104.419 Y105.330 E9.17336
G1 X106.211 Y107.122 E9.28996
G1 X105.732 Y107.197 E9.31228
G1 X104.419 Y105.884 E9.39770
G1 X104.419 Y106.439 E9.42322
G1 X105.177 Y107.197 E9.47255
G1 X104.622 Y107.197 E9.49807
G1 X104.419 Y106.993 E9.51132
G1 X105.271 Y105.073 F7800.000
G1 X104.419 Y104.221 E9.56679 F540.000
G1 X104.419 Y103.666 E9.59231
G1 X105.298 Y104.546 E9.64954
G1 X105.318 Y104.010 E9.67418
G1 X104.419 Y103.112 E9.73267
G1 X104.419 Y102.557 E9.75819
G1 X105.334 Y103.472 E9.81772
G1 X105.350 Y102.933 E9.84251
G1 X104.419 Y102.002 E9.90308
G1 X104.419 Y101.448 E9.92860
G1 X105.360 Y102.389 E9.98984
G1 X105.360 Y101.834 E10.01536
G1 X104.419 Y100.893 E10.07660
G1 X104.419 Y100.339 E10.10212
G1 X105.360 Y101.280 E10.16336
G1 X105.360 Y100.725 E10.18888
G1 X104.419 Y99.784 E10.25012
G1 X104.419 Y99.230 E10.27563
G1 X105.360 Y100.171 E10.33687
G1 X105.360 Y99.616 E10.36239
G1 X104.419 Y98.675 E10.42363
G1 X104.419 Y98.120 E10.44915
G1 X105.360 Y99.062 E10.51039
G1 X105.360 Y98.507 E10.53591
G1 X104.419 Y97.566 E10.59715
G1 X104.419 Y97.011 E10.62267
G1 X105.360 Y97.952 E10.68391
G1 X105.360 Y97.398 E10.70943
G1 X104.419 Y96.457 E10.77067
G1 X104.419 Y95.902 E10.79618
G1 X105.360 Y96.843 E10.85742
G1 X105.360 Y96.289 E10.88294
G1 X104.419 Y95.348 E10.94418
G1 X104.419 Y94.793 E10.96970
G1 X105.360 Y95.734 E11.03094
G1 X105.360 Y95.180 E11.05646
G1 X104.419 Y94.238 E11.11770
G1 X104.419 Y93.684 E11.14322
G1 X105.360 Y94.625 E11.20446
G1 X105.360 Y94.070 E11.22998
G1 X104.419 Y93.129 E11.29122
G1 X104.647 Y92.803 E11.30954
G1 X105.360 Y93.516 E11.35593
G92 E0
G1 X105.811 Y102.515 F7800.000
G1 X107.811 Y92.352 F7800.000
G1 X103.968 Y91.352 F7800.000
G1 X99.749 Y99.866 F7800.000
G1 X100.077 Y102.881 F7800.000
G1 X99.994 Y105.036 F7800.000
G1 X96.050 Y104.552 F7800.000
G1 X86.191 Y107.423 F7800.000
G1 X83.832 Y107.423 E0.10675 F378.000
G1 X83.832 Y92.577 E0.77852
G1 X85.453 Y92.577 E0.85187
G1 X85.453 Y98.940 E1.13979
G1 X90.577 Y98.940 E1.37164 F378.000
G1 X94.553 Y92.577 E1.71115
G1 X96.397 Y92.577 E1.79458
G1 X92.111 Y99.088 E2.14728
G1 X93.467 Y99.461 E2.21094
G1 X94.335 Y99.924 E2.25543
G1 X95.040 Y100.565 E2.29854
G1 X95.561 Y101.351 E2.34123
G1 X95.875 Y102.254 E2.38446
G1 X95.980 Y103.277 E2.43100
G1 X95.831 Y104.492 E2.48638
G1 X95.389 Y105.500 E2.53617
G1 X94.654 Y106.318 E2.58593
G1 X93.640 Y106.927 E2.63946
G1 X92.360 Y107.297 E2.69978
G1 X90.799 Y107.423 E2.77062
G1 X86.422 Y107.423 E2.96867
G1 X86.422 Y106.214 F7800.000
G1 X85.453 Y106.214 E3.01252 F378.000
G1 X85.453 Y100.127 E3.28796
G1 X90.699 Y100.127 E3.52531 F378.000
G1 X91.743 Y100.215 E3.57272
G1 X92.640 Y100.485 E3.61512
G1 X93.375 Y100.943 E3.65432
G1 X93.919 Y101.573 E3.69200
G1 X94.244 Y102.349 E3.73007
G1 X94.351 Y103.258 E3.77145
G1 X94.242 Y104.137 E3.81153
G1 X93.910 Y104.880 E3.84835
G1 X93.356 Y105.469 E3.88496
G1 X92.608 Y105.888 E3.92378
G1 X91.689 Y106.134 E3.96682
G1 X90.610 Y106.214 E4.01575
G1 X86.653 Y106.214 E4.19481
G1 X85.702 Y106.440 F7800.000
G1 X86.459 Y107.197 E4.24361 F540.000
G1 X87.008 Y107.197 E4.26865
G1 X86.251 Y106.440 E4.31746
G1 X86.801 Y106.440 E4.34249
G1 X87.558 Y107.197 E4.39130
G1 X88.107 Y107.197 E4.41634
G1 X87.350 Y106.440 E4.46514
G1 X87.899 Y106.440 E4.49018
G1 X88.656 Y107.197 E4.53898
G1 X89.206 Y107.197 E4.56402
G1 X88.449 Y106.440 E4.61282
G1 X88.998 Y106.440 E4.63786
G1 X89.755 Y107.197 E4.68667
G1 X90.304 Y107.197 E4.71171
G1 X89.547 Y106.440 E4.76051
G1 X90.097 Y106.440 E4.78555
G1 X90.854 Y107.197 E4.83435
G1 X91.363 Y107.157 E4.85765
G1 X90.639 Y106.433 E4.90435
G1 X91.150 Y106.395 E4.92773
G1 X91.872 Y107.116 E4.97423
G1 X92.380 Y107.075 E4.99748
G1 X91.661 Y106.356 E5.04382
G1 X92.095 Y106.241 E5.06427
G1 X92.807 Y106.953 E5.11019
G1 X93.233 Y106.830 E5.13040
G1 X92.528 Y106.125 E5.17585
G1 X92.902 Y105.949 E5.19467
G1 X93.647 Y106.694 E5.24272
G1 X93.990 Y106.488 E5.26097
G1 X93.254 Y105.752 E5.30844
G1 X93.572 Y105.520 E5.32636
G1 X94.334 Y106.282 E5.37546
G1 X94.635 Y106.034 E5.39325
G1 X93.838 Y105.237 E5.44460
G1 X94.099 Y104.948 E5.46233
G1 X94.903 Y105.753 E5.51420
G1 X95.163 Y105.464 E5.53193
G1 X94.268 Y104.569 E5.58962
G1 X94.438 Y104.189 E5.60857
G1 X95.347 Y105.098 E5.66716
G1 X95.514 Y104.716 E5.68617
G1 X94.513 Y103.714 E5.75072
G1 X94.573 Y103.225 E5.77318
G1 X95.637 Y104.290 E5.84178
G1 X95.697 Y103.800 E5.86425
G1 X94.513 Y102.616 E5.94057
G1 X94.339 Y101.893 E5.97449
G1 X95.746 Y103.300 E6.06519
G1 X92.678 Y100.232 F7800.000
G1 X91.674 Y99.227 E6.12996 F540.000
G1 X91.960 Y98.964 E6.14768
G1 X91.241 Y98.245 E6.19401
G1 X91.452 Y97.907 E6.21218
G1 X92.178 Y98.633 E6.25895
G1 X92.396 Y98.302 E6.27703
G1 X91.663 Y97.569 E6.32424
G1 X91.875 Y97.231 E6.34241
G1 X92.614 Y97.970 E6.39006
G1 X92.832 Y97.639 E6.40814
G1 X92.086 Y96.893 E6.45622
G1 X92.297 Y96.555 E6.47439
G1 X93.050 Y97.308 E6.52292
G1 X93.268 Y96.976 E6.54100
G1 X92.508 Y96.217 E6.58996
G1 X92.720 Y95.879 E6.60813
G1 X93.486 Y96.645 E6.65753
G1 X93.704 Y96.314 E6.67561
G1 X92.931 Y95.541 E6.72545
G1 X93.142 Y95.203 E6.74362
G1 X93.922 Y95.983 E6.79390
G1 X94.140 Y95.651 E6.81198
G1 X93.354 Y94.864 E6.86270
G1 X93.565 Y94.526 E6.88087
G1 X94.358 Y95.320 E6.93203
G1 X94.576 Y94.989 E6.95010
G1 X93.776 Y94.188 E7.00170
G1 X93.987 Y93.850 E7.01987
G1 X94.794 Y94.657 E7.07190
G1 X95.013 Y94.326 E7.08998
G1 X94.199 Y93.512 E7.14245
G1 X94.410 Y93.174 E7.16062
G1 X95.231 Y93.995 E7.21353
G1 X95.449 Y93.664 E7.23161
G1 X94.621 Y92.836 E7.28496
G1 X95.137 Y92.803 E7.30855
G1 X95.667 Y93.332 E7.34267
G1 X95.687 Y92.803 E7.36681
G1 X95.885 Y93.001 E7.37958
G92 E0
G1 X94.726 Y101.494 F7800.000
G1 X94.726 Y101.494 F7800.000
G1 X93.189 Y99.645 F7800.000
G1 X95.498 Y101.953 E0.14879 F540.000
G1 X95.683 Y102.688 E0.18334
G1 X92.432 Y99.436 E0.39295
G1 X91.742 Y99.295 E0.42504
G1 X91.030 Y98.583 E0.47093
G1 X90.818 Y98.921 E0.48910
G1 X91.892 Y99.995 E0.55833
G1 X91.290 Y99.943 E0.58588
G1 X90.514 Y99.166 E0.63595
G1 X89.964 Y99.166 E0.66099
G1 X90.699 Y99.901 E0.70838
G1 X90.150 Y99.901 E0.73342
G1 X89.415 Y99.166 E0.78080
G1 X88.865 Y99.166 E0.80584
G1 X89.601 Y99.901 E0.85323
G1 X89.051 Y99.901 E0.87827
G1 X88.316 Y99.166 E0.92565
G1 X87.767 Y99.166 E0.95069
G1 X88.502 Y99.901 E0.99807
G1 X87.953 Y99.901 E1.02311
G1 X87.217 Y99.166 E1.07050
G1 X86.668 Y99.166 E1.09554
G1 X87.403 Y99.901 E1.14292
G1 X86.854 Y99.901 E1.16796
G1 X86.119 Y99.166 E1.21535
G1 X85.569 Y99.166 E1.24039
G1 X86.305 Y99.901 E1.28777
G1 X85.755 Y99.901 E1.31281
G1 X84.058 Y98.204 E1.42221
G1 X84.058 Y97.655 E1.44725
G1 X85.227 Y98.824 E1.52261
G1 X85.227 Y98.274 E1.54765
G1 X84.058 Y97.105 E1.62301
G1 X84.058 Y96.556 E1.64805
G1 X85.227 Y97.725 E1.72341
G1 X85.227 Y97.176 E1.74845
G1 X84.058 Y96.007 E1.82381
G1 X84.058 Y95.457 E1.84885
G1 X85.227 Y96.626 E1.92421
G1 X85.227 Y96.077 E1.94925
G1 X84.058 Y94.908 E2.02461
G1 X84.058 Y94.359 E2.04965
G1 X85.227 Y95.528 E2.12501
G1 X85.227 Y94.978 E2.15005
G1 X84.058 Y93.809 E2.22541
G1 X84.058 Y93.260 E2.25045
G1 X85.227 Y94.429 E2.32581
G1 X85.227 Y93.880 E2.35085
G1 X84.151 Y92.803 E2.42025
G1 X84.700 Y92.803 E2.44529
G1 X85.227 Y93.330 E2.47928
G1 X84.058 Y98.753 F7800.000
G1 X85.227 Y99.922 E2.55464 F540.000
G1 X85.227 Y100.472 E2.57968
G1 X84.058 Y99.303 E2.65504
G1 X84.058 Y99.852 E2.68008
G1 X85.227 Y101.021 E2.75544
G1 X85.227 Y101.570 E2.78048
G1 X84.058 Y100.401 E2.85584
G1 X84.058 Y100.951 E2.88088
G1 X85.227 Y102.120 E2.95624
G1 X85.227 Y102.669 E2.98128
G1 X84.058 Y101.500 E3.05665
G1 X84.058 Y102.049 E3.08168
G1 X85.227 Y103.218 E3.15705
G1 X85.227 Y103.768 E3.18208
G1 X84.058 Y102.599 E3.25745
G1 X84.058 Y103.148 E3.28249
G1 X85.227 Y104.317 E3.35785
G1 X85.227 Y104.866 E3.38289
G1 X84.058 Y103.697 E3.45825
G1 X84.058 Y104.247 E3.48329
G1 X85.227 Y105.416 E3.55865
G1 X85.227 Y105.965 E3.58369
G1 X84.058 Y104.796 E3.65905
G1 X84.058 Y105.345 E3.68409
G1 X85.910 Y107.197 E3.80344
G1 X85.360 Y107.197 E3.82848
G1 X84.058 Y105.895 E3.91243
G1 X84.058 Y106.444 E3.93747
G1 X84.811 Y107.197 E3.98600
G1 X84.262 Y107.197 E4.01104
G1 X84.058 Y106.993 E4.02416
M106 S255
G92 E0
G1 Z0.600 F7800.000
G1 X104.889 Y92.352 F7800.000
G1 X104.889 Y102.501 E3.04120 F600.000
G1 X104.840 Y105.185 E3.84543
G1 X105.226 Y106.390 E4.22466
G1 X105.414 Y106.422 E4.28198
G1 X105.714 Y106.449 E4.37217
G1 X106.537 Y105.726 E4.70041
G1 X113.813 Y94.181 E8.78972
G1 X114.537 Y93.507 E9.08590
G1 X114.936 Y93.535 E9.20580
G1 X115.168 Y93.577 E9.27644
G1 X115.521 Y94.729 E9.63745
G1 X115.460 Y97.625 E10.50545
G1 X115.460 Y107.648 E13.50886
G92 E0
G1 X106.375 Y108.648 F7800.000
G1 X101.968 Y107.648 F7800.000
G1 X99.193 Y97.780 F7800.000
G1 X100.070 Y94.495 F7800.000
G1 X96.814 Y91.352 F7800.000
G1 X89.244 Y93.918 F7800.000
G1 X87.678 Y92.352 F7800.000
G1 X85.678 Y92.352 F7800.000
G1 X84.643 Y92.352 F7800.000
G1 X84.643 Y98.715 E1.90665 F600.000
G1 X85.493 Y103.021 E3.22178
G92 E0
G1 X84.678 Y106.648 F7800.000
G1 X84.678 Y106.648 F7800.000
G1 X90.473 Y98.681 F7800.000
G1 X91.776 Y99.535 E0.46678 F600.000
G1 X91.946 Y99.623 E0.52394
G1 X92.251 Y99.745 E0.62257
G1 X92.994 Y99.974 E0.85543
G1 X93.223 Y100.075 E0.93036
G1 X93.703 Y100.352 E1.09667
G1 X93.926 Y100.504 E1.17750
G1 X94.466 Y101.058 E1.40909
G1 X94.630 Y101.314 E1.50046
G1 X94.840 Y101.708 E1.63417
G1 X94.958 Y102.016 E1.73297
G1 X95.074 Y102.431 E1.86220
G1 X95.162 Y103.269 E2.11448
G1 X95.040 Y104.275 E2.41823
G1 X94.707 Y105.060 E2.67376
G1 X94.640 Y105.164 E2.71087
G1 X94.437 Y105.426 E2.81032
G1 X94.164 Y105.723 E2.93105
G1 X93.667 Y106.096 E3.11711
G1 X93.356 Y106.276 E3.22480
G1 X92.747 Y106.516 E3.42117
G1 X92.242 Y106.657 E3.57799
G1 X91.868 Y106.721 E3.69190
G1 X90.602 Y106.818 E4.07228
G1 X85.678 Y106.818 E5.54774
G1 X84.716 Y106.539 E5.84799
G1 X84.643 Y105.989 E6.01436
G1 X84.643 Y100.352 E7.70347
G1 X84.804 Y99.533 E7.95347
G1 X90.452 Y99.533 E9.64580
G1 X90.760 Y99.506 E9.73846
G1 X91.407 Y99.293 E9.94243
G1 X91.702 Y98.448 E10.21058
G1 X95.612 Y92.352 E12.38070
G92 E0
G1 Z0.900 F7800.000
G1 X104.889 Y92.352 F7800.000
G1 X104.889 Y102.501 E3.04120 F600.000
G1 X104.840 Y105.185 E3.84543
G1 X105.226 Y106.390 E4.22466
G1 X105.414 Y106.422 E4.28198
G1 X105.714 Y106.449 E4.37217
G1 X106.537 Y105.726 E4.70041
G1 X113.813 Y94.181 E8.78972
G1 X114.537 Y93.507 E9.08590
G1 X114.936 Y93.535 E9.20579
G1 X115.168 Y93.577 E9.27644
G1 X115.521 Y94.729 E9.63745
G1 X115.460 Y97.625 E10.50545
G1 X115.460 Y107.648 E13.50886
G92 E0
G1 X106.375 Y108.648 F7800.000
G1 X101.968 Y107.648 F7800.000
G1 X99.193 Y97.780 F7800.000
G1 X100.070 Y94.495 F7800.000
G1 X96.814 Y91.352 F7800.000
G1 X89.244 Y93.918 F7800.000
G1 X87.678 Y92.352 F7800.000
G1 X85.678 Y92.352 F7800.000
G1 X84.643 Y92.352 F7800.000
G1 X84.643 Y98.715 E1.90665 F600.000
G1 X85.493 Y103.021 E3.22178
G92 E0
G1 X84.678 Y106.648 F7800.000
G1 X84.678 Y106.648 F7800.000
G1 X90.473 Y98.681 F7800.000
G1 X91.776 Y99.535 E0.46678 F600.000
G1 X91.946 Y99.623 E0.52394
G1 X92.251 Y99.745 E0.62257
G1 X92.994 Y99.974 E0.85543
G1 X93.223 Y100.075 E0.93036
G1 X93.703 Y100.352 E1.09667
