; generated by Slic3r 1.2.9 on 2016-03-11 at 01:29:46

; external perimeters extrusion width = 1.54mm
; perimeters extrusion width = 2.62mm
; infill extrusion width = 6.27mm
; solid infill extrusion width = 2.62mm
; top infill extrusion width = 2.62mm

M107
M104 S30 ; set temperature
G28 ; home all axes
G1 Z5 F5000 ; lift nozzle
M302
M92 E10000
M500
M501
G1 E100
M109 S30 ; wait for temperature to be reached
G21 ; set units to millimeters
G90 ; use absolute coordinates
M82 ; use absolute distances for extrusion
G92 E0
G1 Z0.300 F7800.000
G1 X108.457 Y96.351 F7800.000
G1 X108.457 Y92.577 E0.17079 F378.000
G1 X110.068 Y92.577 E0.24368
G1 X110.068 Y106.181 E0.85925
G1 X115.317 Y106.181 E1.09677 F378.000
G1 X115.317 Y107.423 E1.15297
G1 X103.208 Y107.423 E1.70090
G1 X103.208 Y106.181 E1.75709
G1 X108.457 Y106.181 E1.99461
G1 X108.457 Y96.582 E2.42894
G1 X109.842 Y93.007 F7800.000
G1 X109.639 Y92.803 E2.44211 F540.000
G1 X109.088 Y92.803 E2.46732
G1 X109.842 Y93.558 E2.51615
G1 X109.842 Y94.109 E2.54136
G1 X108.683 Y92.950 E2.61633
G1 X108.683 Y93.501 E2.64154
G1 X109.842 Y94.660 E2.71651
G1 X109.842 Y95.211 E2.74172
G1 X108.683 Y94.052 E2.81669
G1 X108.683 Y94.604 E2.84190
G1 X109.842 Y95.763 E2.91687
G1 X109.842 Y96.314 E2.94209
G1 X108.683 Y95.155 E3.01706
G1 X108.683 Y95.706 E3.04227
G1 X109.842 Y96.865 E3.11724
G1 X109.842 Y97.416 E3.14245
G1 X108.683 Y96.257 E3.21742
G1 X108.683 Y96.808 E3.24263
G1 X109.842 Y97.968 E3.31760
G1 X109.842 Y98.519 E3.34281
G1 X108.683 Y97.360 E3.41778
G1 X108.683 Y97.911 E3.44299
G1 X109.842 Y99.070 E3.51797
G1 X109.842 Y99.621 E3.54318
G1 X108.683 Y98.462 E3.61815
G1 X108.683 Y99.013 E3.64336
G1 X109.842 Y100.172 E3.71833
G1 X109.842 Y100.724 E3.74354
G1 X108.683 Y99.565 E3.81851
G1 X108.683 Y100.116 E3.84372
G1 X109.842 Y101.275 E3.91869
G1 X109.842 Y101.826 E3.94390
G1 X108.683 Y100.667 E4.01888
G1 X108.683 Y101.218 E4.04409
G1 X109.842 Y102.377 E4.11906
G1 X109.842 Y102.928 E4.14427
G1 X108.683 Y101.769 E4.21924
G1 X108.683 Y102.321 E4.24445
G1 X109.842 Y103.480 E4.31942
G1 X109.842 Y104.031 E4.34463
G1 X108.683 Y102.872 E4.41960
G1 X108.683 Y103.423 E4.44481
G1 X109.842 Y104.582 E4.51979
G1 X109.842 Y105.133 E4.54500
G1 X108.683 Y103.974 E4.61997
G1 X108.683 Y104.526 E4.64518
G1 X109.842 Y105.685 E4.72015
G1 X109.842 Y106.236 E4.74536
G1 X108.683 Y105.077 E4.82033
G1 X108.683 Y105.628 E4.84554
G1 X110.252 Y107.197 E4.94703
G1 X109.701 Y107.197 E4.97224
G1 X108.683 Y106.179 E5.03808
G1 X108.360 Y106.407 F7800.000
G1 X109.150 Y107.197 E5.08919 F540.000
G1 X108.599 Y107.197 E5.11440
G1 X107.809 Y106.407 E5.16550
G1 X107.257 Y106.407 E5.19071
G1 X108.048 Y107.197 E5.24181
G1 X107.496 Y107.197 E5.26703
G1 X106.706 Y106.407 E5.31813
G1 X106.155 Y106.407 E5.34334
G1 X106.945 Y107.197 E5.39444
G1 X106.394 Y107.197 E5.41965
G1 X105.604 Y106.407 E5.47076
G1 X105.053 Y106.407 E5.49597
G1 X105.843 Y107.197 E5.54707
G1 X105.291 Y107.197 E5.57228
G1 X104.501 Y106.407 E5.62339
G1 X103.950 Y106.407 E5.64860
G1 X104.740 Y107.197 E5.69970
G1 X104.189 Y107.197 E5.72491
G1 X103.434 Y106.442 E5.77373
G1 X103.434 Y106.993 E5.79894
G1 X103.638 Y107.197 E5.81211
G1 X110.014 Y106.407 F7800.000
G1 X110.804 Y107.197 E5.86322 F540.000
G1 X111.355 Y107.197 E5.88843
G1 X110.565 Y106.407 E5.93953
G1 X111.116 Y106.407 E5.96474
G1 X111.906 Y107.197 E6.01585
G1 X112.457 Y107.197 E6.04106
G1 X111.667 Y106.407 E6.09216
G1 X112.218 Y106.407 E6.11737
G1 X113.009 Y107.197 E6.16848
G1 X113.560 Y107.197 E6.19369
G1 X112.770 Y106.407 E6.24479
G1 X113.321 Y106.407 E6.27000
G1 X114.111 Y107.197 E6.32110
G1 X114.662 Y107.197 E6.34631
G1 X113.872 Y106.407 E6.39742
G1 X114.423 Y106.407 E6.42263
G1 X115.091 Y107.075 E6.46584
G92 E0
G1 X102.983 Y105.956 F7800.000
G1 X101.851 Y97.599 F7800.000
G1 X96.222 Y98.042 F7800.000
G1 X94.618 Y98.464 F7800.000
G1 X93.320 Y98.953 F7800.000
G1 X94.485 Y96.773 F7800.000
G1 X92.962 Y99.088 E0.12538 F378.000
G1 X94.318 Y99.461 E0.18904
G1 X95.185 Y99.924 E0.23354
G1 X95.891 Y100.565 E0.27664
G1 X96.412 Y101.351 E0.31933
G1 X96.725 Y102.254 E0.36256
G1 X96.830 Y103.277 E0.40910
G1 X96.681 Y104.492 E0.46449
G1 X96.240 Y105.500 E0.51427
G1 X95.505 Y106.318 E0.56403
G1 X94.491 Y106.927 E0.61757
G1 X93.210 Y107.297 E0.67788
G1 X91.650 Y107.423 E0.74873
G1 X84.683 Y107.423 E1.06398
G1 X84.683 Y92.577 E1.73575
G1 X86.304 Y92.577 E1.80910
G1 X86.304 Y98.940 E2.09702
G1 X91.427 Y98.940 E2.32886 F378.000
G1 X95.403 Y92.577 E2.66837
G1 X97.247 Y92.577 E2.75180
G1 X94.612 Y96.580 E2.96867
G92 E0
G1 X95.577 Y101.494 F7800.000
G1 X95.577 Y101.494 F7800.000
G1 X93.441 Y100.470 F7800.000
G1 X93.491 Y100.485 E0.00234 F378.000
G1 X94.226 Y100.943 E0.04154
G1 X94.770 Y101.573 E0.07921
G1 X95.095 Y102.349 E0.11728
G1 X95.201 Y103.258 E0.15866
G1 X95.093 Y104.137 E0.19874
G1 X94.761 Y104.880 E0.23557
G1 X94.207 Y105.469 E0.27218
G1 X93.458 Y105.888 E0.31099
G1 X92.539 Y106.134 E0.35403
G1 X91.461 Y106.214 E0.40297
G1 X86.304 Y106.214 E0.63633
G1 X86.304 Y100.127 E0.91176
G1 X91.549 Y100.127 E1.14912 F378.000
G1 X92.593 Y100.215 E1.19653
G1 X93.220 Y100.403 E1.22614
G1 X93.529 Y100.232 F7800.000
G1 X92.524 Y99.227 E1.29091 F540.000
G1 X92.810 Y98.964 E1.30863
G1 X92.091 Y98.245 E1.35496
G1 X92.303 Y97.907 E1.37313
G1 X93.028 Y98.633 E1.41990
G1 X93.246 Y98.302 E1.43798
G1 X92.514 Y97.569 E1.48519
G1 X92.725 Y97.231 E1.50336
G1 X93.464 Y97.970 E1.55101
G1 X93.682 Y97.639 E1.56909
G1 X92.936 Y96.893 E1.61717
G1 X93.148 Y96.555 E1.63535
G1 X93.900 Y97.308 E1.68387
G1 X94.119 Y96.976 E1.70195
G1 X93.359 Y96.217 E1.75091
G1 X93.570 Y95.879 E1.76908
G1 X94.337 Y96.645 E1.81848
G1 X94.555 Y96.314 E1.83656
G1 X93.781 Y95.541 E1.88640
G1 X93.993 Y95.203 E1.90457
G1 X94.773 Y95.983 E1.95485
G1 X94.991 Y95.651 E1.97293
G1 X94.204 Y94.864 E2.02365
G1 X94.415 Y94.526 E2.04182
G1 X95.209 Y95.320 E2.09298
G1 X95.427 Y94.989 E2.11105
G1 X94.627 Y94.188 E2.16265
G1 X94.838 Y93.850 E2.18082
G1 X95.645 Y94.657 E2.23285
G1 X95.863 Y94.326 E2.25093
G1 X95.049 Y93.512 E2.30340
G1 X95.260 Y93.174 E2.32157
G1 X96.081 Y93.995 E2.37449
G1 X96.299 Y93.664 E2.39256
G1 X95.472 Y92.836 E2.44591
G1 X95.988 Y92.803 E2.46950
G1 X96.517 Y93.332 E2.50362
G1 X96.537 Y92.803 E2.52776
G1 X96.735 Y93.001 E2.54053
G92 E0
G1 X95.577 Y101.494 F7800.000
G1 X95.577 Y101.494 F7800.000
G1 X94.040 Y99.645 F7800.000
G1 X96.348 Y101.953 E0.14879 F540.000
G1 X96.534 Y102.688 E0.18334
G1 X93.282 Y99.436 E0.39295
G1 X92.592 Y99.295 E0.42504
G1 X91.880 Y98.583 E0.47093
G1 X91.669 Y98.921 E0.48910
G1 X92.743 Y99.995 E0.55833
G1 X92.141 Y99.943 E0.58588
G1 X91.364 Y99.166 E0.63595
G1 X90.815 Y99.166 E0.66099
G1 X91.550 Y99.901 E0.70838
G1 X91.000 Y99.901 E0.73342
G1 X90.265 Y99.166 E0.78080
G1 X89.716 Y99.166 E0.80584
G1 X90.451 Y99.901 E0.85323
G1 X89.902 Y99.901 E0.87827
G1 X89.167 Y99.166 E0.92565
G1 X88.617 Y99.166 E0.95069
G1 X89.352 Y99.901 E0.99808
G1 X88.803 Y99.901 E1.02311
G1 X88.068 Y99.166 E1.07050
G1 X87.519 Y99.166 E1.09554
G1 X88.254 Y99.901 E1.14292
G1 X87.704 Y99.901 E1.16796
G1 X86.969 Y99.166 E1.21535
G1 X86.420 Y99.166 E1.24039
G1 X87.155 Y99.901 E1.28777
G1 X86.606 Y99.901 E1.31281
G1 X84.909 Y98.204 E1.42221
G1 X84.909 Y97.655 E1.44725
G1 X86.078 Y98.824 E1.52261
G1 X86.078 Y98.274 E1.54765
G1 X84.909 Y97.105 E1.62301
G1 X84.909 Y96.556 E1.64805
G1 X86.078 Y97.725 E1.72341
G1 X86.078 Y97.176 E1.74845
G1 X84.909 Y96.007 E1.82381
G1 X84.909 Y95.457 E1.84885
G1 X86.078 Y96.626 E1.92421
G1 X86.078 Y96.077 E1.94925
G1 X84.909 Y94.908 E2.02461
G1 X84.909 Y94.359 E2.04965
G1 X86.078 Y95.528 E2.12501
G1 X86.078 Y94.978 E2.15005
G1 X84.909 Y93.809 E2.22541
G1 X84.909 Y93.260 E2.25045
G1 X86.078 Y94.429 E2.32581
G1 X86.078 Y93.880 E2.35085
G1 X85.001 Y92.803 E2.42025
G1 X85.550 Y92.803 E2.44529
G1 X86.078 Y93.330 E2.47928
G1 X84.909 Y98.753 F7800.000
G1 X86.078 Y99.922 E2.55464 F540.000
G1 X86.078 Y100.472 E2.57968
G1 X84.909 Y99.303 E2.65504
G1 X84.909 Y99.852 E2.68008
G1 X86.078 Y101.021 E2.75544
G1 X86.078 Y101.570 E2.78048
G1 X84.909 Y100.401 E2.85584
G1 X84.909 Y100.951 E2.88088
G1 X86.078 Y102.120 E2.95625
G1 X86.078 Y102.669 E2.98128
G1 X84.909 Y101.500 E3.05665
G1 X84.909 Y102.049 E3.08169
G1 X86.078 Y103.218 E3.15705
G1 X86.078 Y103.768 E3.18209
G1 X84.909 Y102.599 E3.25745
G1 X84.909 Y103.148 E3.28249
G1 X86.078 Y104.317 E3.35785
G1 X86.078 Y104.866 E3.38289
G1 X84.909 Y103.697 E3.45825
G1 X84.909 Y104.247 E3.48329
G1 X86.078 Y105.416 E3.55865
G1 X86.078 Y105.965 E3.58369
G1 X84.909 Y104.796 E3.65905
G1 X84.909 Y105.345 E3.68409
G1 X86.760 Y107.197 E3.80344
G1 X86.211 Y107.197 E3.82848
G1 X84.909 Y105.895 E3.91243
G1 X84.909 Y106.444 E3.93747
G1 X85.662 Y107.197 E3.98600
G1 X85.112 Y107.197 E4.01104
G1 X84.909 Y106.993 E4.02416
G1 X86.552 Y106.440 F7800.000
G1 X87.310 Y107.197 E4.07297 F540.000
G1 X87.859 Y107.197 E4.09801
G1 X87.102 Y106.440 E4.14681
G1 X87.651 Y106.440 E4.17185
G1 X88.408 Y107.197 E4.22065
G1 X88.958 Y107.197 E4.24569
G1 X88.200 Y106.440 E4.29449
G1 X88.750 Y106.440 E4.31953
G1 X89.507 Y107.197 E4.36834
G1 X90.056 Y107.197 E4.39337
G1 X89.299 Y106.440 E4.44218
G1 X89.849 Y106.440 E4.46722
G1 X90.606 Y107.197 E4.51602
G1 X91.155 Y107.197 E4.54106
G1 X90.398 Y106.440 E4.58986
G1 X90.947 Y106.440 E4.61490
G1 X91.704 Y107.197 E4.66371
G1 X92.214 Y107.157 E4.68700
G1 X91.489 Y106.433 E4.73370
G1 X92.001 Y106.395 E4.75708
G1 X92.722 Y107.116 E4.80359
G1 X93.231 Y107.075 E4.82683
G1 X92.512 Y106.356 E4.87317
G1 X92.945 Y106.241 E4.89362
G1 X93.658 Y106.953 E4.93954
G1 X94.084 Y106.830 E4.95976
G1 X93.379 Y106.125 E5.00520
G1 X93.752 Y105.949 E5.02402
G1 X94.498 Y106.694 E5.07207
G1 X94.841 Y106.488 E5.09032
G1 X94.104 Y105.752 E5.13779
G1 X94.422 Y105.520 E5.15572
G1 X95.184 Y106.282 E5.20481
G1 X95.485 Y106.034 E5.22260
G1 X94.689 Y105.237 E5.27396
G1 X94.949 Y104.948 E5.29169
G1 X95.754 Y105.753 E5.34355
G1 X96.014 Y105.464 E5.36128
G1 X95.119 Y104.569 E5.41897
G1 X95.288 Y104.189 E5.43793
G1 X96.197 Y105.098 E5.49652
G1 X96.365 Y104.716 E5.51553
G1 X95.363 Y103.714 E5.58008
G1 X95.423 Y103.225 E5.60254
G1 X96.488 Y104.290 E5.67113
G1 X96.548 Y103.800 E5.69360
G1 X95.364 Y102.616 E5.76993
G1 X95.190 Y101.893 E5.80384
G1 X96.597 Y103.300 E5.89454
M106 S255
G92 E0
G1 Z0.600 F7800.000
G1 X111.010 Y105.956 F7800.000
G1 X108.232 Y106.802 E0.87020 F600.000
G1 X102.983 Y106.802 E2.44307
G1 X115.542 Y106.802 F7800.000
G1 X110.293 Y106.802 E4.01591 F600.000
G1 X109.263 Y106.488 E4.33870
G1 X109.263 Y92.352 E8.57456
G92 E0
G1 X97.665 Y91.352 F7800.000
G1 X90.095 Y93.918 F7800.000
G1 X88.529 Y92.352 F7800.000
G1 X86.529 Y92.352 F7800.000
G1 X85.493 Y92.352 F7800.000
G1 X85.493 Y98.715 E1.90665 F600.000
G1 X86.344 Y103.021 E3.22178
G92 E0
G1 X85.529 Y106.648 F7800.000
G1 X85.529 Y106.648 F7800.000
G1 X91.324 Y98.681 F7800.000
G1 X92.627 Y99.535 E0.46678 F600.000
G1 X92.796 Y99.623 E0.52394
G1 X93.102 Y99.745 E0.62257
G1 X93.844 Y99.974 E0.85543
G1 X94.073 Y100.075 E0.93036
G1 X94.554 Y100.352 E1.09667
G1 X94.777 Y100.504 E1.17750
G1 X95.316 Y101.058 E1.40909
G1 X95.481 Y101.314 E1.50046
G1 X95.691 Y101.708 E1.63417
G1 X95.809 Y102.016 E1.73297
G1 X95.924 Y102.431 E1.86220
G1 X96.012 Y103.269 E2.11448
G1 X95.890 Y104.275 E2.41823
G1 X95.558 Y105.060 E2.67376
G1 X95.490 Y105.164 E2.71087
G1 X95.287 Y105.426 E2.81032
G1 X95.014 Y105.723 E2.93105
G1 X94.518 Y106.096 E3.11711
G1 X94.207 Y106.276 E3.22480
G1 X93.597 Y106.516 E3.42117
G1 X93.093 Y106.657 E3.57799
G1 X92.718 Y106.721 E3.69190
G1 X91.453 Y106.818 E4.07228
G1 X86.529 Y106.818 E5.54774
G1 X85.566 Y106.539 E5.84799
G1 X85.493 Y105.989 E6.01436
G1 X85.493 Y100.352 E7.70347
G1 X85.655 Y99.533 E7.95347
G1 X91.303 Y99.533 E9.64580
G1 X91.611 Y99.506 E9.73846
G1 X92.257 Y99.293 E9.94243
G1 X92.552 Y98.448 E10.21058
G1 X96.463 Y92.352 E12.38070
G92 E0
G1 Z0.900 F7800.000
G1 X111.010 Y105.956 F7800.000
G1 X108.232 Y106.802 E0.87020 F600.000
G1 X102.983 Y106.802 E2.44307
G1 X115.542 Y106.802 F7800.000
G1 X110.293 Y106.802 E4.01591 F600.000
G1 X109.263 Y106.488 E4.33870
G1 X109.263 Y92.352 E8.57456
G92 E0
G1 X97.665 Y91.352 F7800.000
G1 X90.095 Y93.918 F7800.000
G1 X88.529 Y92.352 F7800.000
G1 X86.529 Y92.352 F7800.000
G1 X85.493 Y92.352 F7800.000
G1 X85.493 Y98.715 E1.90665 F600.000
G1 X86.344 Y103.021 E3.22178
G92 E0
G1 X85.529 Y106.648 F7800.000
G1 X85.529 Y106.648 F7800.000
G1 X91.324 Y98.681 F7800.000
G1 X92.627 Y99.535 E0.46678 F600.000
G1 X92.796 Y99.623 E0.52394
G1 X93.102 Y99.745 E0.62257
G1 X93.844 Y99.974 E0.85543
G1 X94.073 Y100.075 E0.93036
G1 X94.554 Y100.352 E1.09667
G1 X94.777 Y100.504 E1.17750
G1 X95.316 Y101.058 E1.40909
G1 X95.481 Y101.314 E1.50046
G1 X95.691 Y101.708 E1.63417
G1 X95.809 Y102.016 E1.73297
G1 X95.924 Y102.431 E1.86220
G1 X96.012 Y103.269 E2.11448
G1 X95.890 Y104.275 E2.41823
G1 X95.558 Y105.060 E2.67376
G1 X95.490 Y105.164 E2.71087
G1 X95.287 Y105.426 E2.81032
G1 X95.014 Y105.723 E2.93105
G1 X94.518 Y106.096 E3.11711
G1 X94.207 Y106.276 E3.22480
G1 X93.597 Y106.516 E3.42117
G1 X93.093 Y106.657 E3.57799
G1 X92.718 Y106.721 E3.69190
G1 X91.453 Y106.818 E4.07228
G1 X86.529 Y106.818 E5.54774
G1 X85.566 Y106.539 E5.84799
G1 X85.493 Y105.989 E6.01436
G1 X85.493 Y100.352 E7.70347
G1 X85.655 Y99.533 E7.95347
G1 X91.303 Y99.533 E9.64580
G1 X91.611 Y99.506 E9.73846
G1 X92.257 Y99.293 E9.94243
G1 X92.552 Y98.448 E10.21058
G1 X96.463 Y92.352 E12.38070
G92 E0
G1 Z1.200 F7800.000
G1 X111.010 Y105.956 F7800.000
G1 X108.232 Y106.802 E0.87020 F600.000
G1 X102.983 Y106.802 E2.44307
G1 X115.542 Y106.802 F7800.000
G1 X110.293 Y106.802 E4.01591 F600.000
G1 X109.263 Y106.488 E4.33870
G1 X109.263 Y92.352 E8.57456
G92 E0
G1 X97.665 Y91.352 F7800.000
G1 X90.095 Y93.918 F7800.000
G1 X88.529 Y92.352 F7800.000
G1 X86.529 Y92.352 F7800.000
G1 X85.493 Y92.352 F7800.000
G1 X85.493 Y98.715 E1.90665 F600.000
G1 X86.344 Y103.021 E3.22178
G92 E0
G1 X85.529 Y106.648 F7800.000
G1 X85.529 Y106.648 F7800.000
G1 X91.324 Y98.681 F7800.000
G1 X92.627 Y99.535 E0.46678 F600.000
G1 X92.796 Y99.623 E0.52394
G1 X93.102 Y99.745 E0.62257
G1 X93.844 Y99.974 E0.85543
G1 X94.073 Y100.075 E0.93036
G1 X94.554 Y100.352 E1.09667
G1 X94.777 Y100.504 E1.17750
G1 X95.316 Y101.058 E1.40909
G1 X95.481 Y101.314 E1.50046
G1 X95.691 Y101.708 E1.63417
G1 X95.809 Y102.016 E1.73297
G1 X95.924 Y102.431 E1.86220
G1 X96.012 Y103.269 E2.11448
G1 X95.890 Y104.275 E2.41823
G1 X95.558 Y105.060 E2.67376
G1 X95.490 Y105.164 E2.71087
G1 X95.287 Y105.426 E2.81032
G1 X95.014 Y105.723 E2.93105
G1 X94.518 Y106.096 E3.11711
G1 X94.207 Y106.276 E3.22480
G1 X93.597 Y106.516 E3.42117
G1 X93.093 Y106.657 E3.57799
G1 X92.718 Y106.721 E3.69190
G1 X91.453 Y106.818 E4.07228
G1 X86.529 Y106.818 E5.54774
G1 X85.566 Y106.539 E5.84799
G1 X85.493 Y105.989 E6.01436
G1 X85.493 Y100.352 E7.70347
G1 X85.655 Y99.533 E7.95347
G1 X91.303 Y99.533 E9.64580
G1 X91.611 Y99.506 E9.73846
G1 X92.257 Y99.293 E9.94243
G1 X92.552 Y98.448 E10.21058
G1 X96.463 Y92.352 E12.38070
G92 E0
G1 Z1.500 F7800.000
G1 X111.010 Y105.956 F7800.000
G1 X108.232 Y106.802 E0.87020 F600.000
G1 X102.983 Y106.802 E2.44307
G1 X115.542 Y106.802 F7800.000
G1 X110.293 Y106.802 E4.01591 F600.000
G1 X109.263 Y106.488 E4.33870
G1 X109.263 Y92.352 E8.57456
G92 E0
G1 X97.665 Y91.352 F7800.000
G1 X90.095 Y93.918 F7800.000
G1 X88.529 Y92.352 F7800.000
G1 X86.529 Y92.352 F7800.000
G1 X85.493 Y92.352 F7800.000
G1 X85.493 Y98.715 E1.90665 F600.000
G1 X86.344 Y103.021 E3.22178
G92 E0
G1 X85.529 Y106.648 F7800.000
G1 X85.529 Y106.648 F7800.000
G1 X91.324 Y98.681 F7800.000
G1 X92.627 Y99.535 E0.46678 F600.000
G1 X92.796 Y99.623 E0.52394
G1 X93.102 Y99.745 E0.62257
G1 X93.844 Y99.974 E0.85543
G1 X94.073 Y100.075 E0.93036
G1 X94.554 Y100.352 E1.09667
G1 X94.777 Y100.504 E1.17750
G1 X95.316 Y101.058 E1.40909
G1 X95.481 Y101.314 E1.50046
G1 X95.691 Y101.708 E1.63417
G1 X95.809 Y102.016 E1.73297
G1 X95.924 Y102.431 E1.86220
G1 X96.012 Y103.269 E2.11448
G1 X95.890 Y104.275 E2.41823
G1 X95.558 Y105.060 E2.67376
G1 X95.490 Y105.164 E2.71087
G1 X95.287 Y105.426 E2.81032
G1 X95.014 Y105.723 E2.93105
G1 X94.518 Y106.096 E3.11711
G1 X94.207 Y106.276 E3.22480
G1 X93.597 Y106.516 E3.42117
