; generated by Slic3r 1.2.9 on 2016-03-11 at 01:29:47

; external perimeters extrusion width = 1.54mm
; perimeters extrusion width = 2.62mm
; infill extrusion width = 6.27mm
; solid infill extrusion width = 2.62mm
; top infill extrusion width = 2.62mm

M107
M104 S30 ; set temperature
G28 ; home all axes
G1 Z5 F5000 ; lift nozzle
M302
M92 E10000
M500
M501
G1 E100
M109 S30 ; wait for temperature to be reached
G21 ; set units to millimeters
G90 ; use absolute coordinates
M82 ; use absolute distances for extrusion
G92 E0
G1 Z0.300 F7800.000
G1 X104.211 Y96.541 F7800.000
G1 X104.366 Y95.920 E0.02895 F378.000
G1 X104.776 Y95.037 E0.07300
G1 X105.333 Y94.275 E0.11572
G1 X106.024 Y93.644 E0.15807
G1 X106.852 Y93.142 E0.20189
G1 X107.804 Y92.776 E0.24803
G1 X108.864 Y92.555 E0.29703
G1 X110.034 Y92.481 E0.35005
G1 X111.125 Y92.551 E0.39955
G1 X111.250 Y92.558 E0.40517 F378.000
G1 X112.347 Y92.788 E0.45591
G1 X113.328 Y93.168 E0.50350
G1 X114.178 Y93.690 E0.54866
G1 X114.888 Y94.345 E0.59233
G1 X115.459 Y95.134 E0.63641
G1 X115.878 Y96.047 E0.68189
G1 X116.131 Y97.074 E0.72973
G1 X116.217 Y98.225 E0.78198
G1 X116.217 Y107.519 E1.20252
G1 X114.606 Y107.519 E1.27541
G1 X114.606 Y98.326 E1.69138
G1 X114.475 Y96.965 E1.75324
G1 X114.072 Y95.815 E1.80840
G1 X113.394 Y94.896 E1.86008
G1 X112.473 Y94.234 E1.91143
G1 X111.346 Y93.840 E1.96543
G1 X110.022 Y93.711 E2.02562
G1 X108.737 Y93.836 E2.08402
G1 X107.654 Y94.218 E2.13598
G1 X106.783 Y94.861 E2.18499
G1 X106.151 Y95.753 E2.23441
G1 X105.778 Y96.867 E2.28761
G1 X105.656 Y98.186 E2.34753
G1 X105.656 Y107.519 E2.76985
G1 X104.035 Y107.519 E2.84320
G1 X104.035 Y98.030 E3.27255
G1 X104.118 Y96.914 E3.32322
G1 X104.156 Y96.765 E3.33016
G92 E0
G1 X105.429 Y95.471 F7800.000
G1 X105.429 Y95.471 F7800.000
G1 X111.527 Y93.631 F7800.000
G1 X110.649 Y92.752 E0.05624 F540.000
G1 X110.066 Y92.715 E0.08265
G1 X110.914 Y93.563 E0.13688
G1 X110.309 Y93.504 E0.16436
G1 X109.540 Y92.734 E0.21360
G1 X109.027 Y92.767 E0.23686
G1 X109.776 Y93.515 E0.28479
G1 X109.279 Y93.564 E0.30739
G1 X108.551 Y92.836 E0.35396
G1 X108.100 Y92.930 E0.37483
G1 X108.782 Y93.612 E0.41849
G1 X108.373 Y93.749 E0.43800
G1 X107.669 Y93.045 E0.48307
G1 X107.275 Y93.196 E0.50217
G1 X107.970 Y93.891 E0.54665
G1 X107.572 Y94.038 E0.56585
G1 X106.884 Y93.351 E0.60985
G1 X106.545 Y93.557 E0.62782
G1 X107.258 Y94.270 E0.67347
G1 X106.944 Y94.502 E0.69112
G1 X106.205 Y93.763 E0.73842
G1 X105.908 Y94.011 E0.75595
G1 X106.634 Y94.737 E0.80243
G1 X106.408 Y95.056 E0.82013
G1 X105.631 Y94.279 E0.86987
G1 X105.365 Y94.559 E0.88733
G1 X106.182 Y95.375 E0.93957
G1 X105.956 Y95.695 E0.95728
G1 X105.135 Y94.874 E1.00982
G1 X104.918 Y95.203 E1.02764
G1 X105.819 Y96.103 E1.08526
G1 X105.682 Y96.511 E1.10475
G1 X104.745 Y95.575 E1.16467
G1 X104.573 Y95.949 E1.18328
G1 X105.552 Y96.928 E1.24593
G1 X105.506 Y97.427 E1.26862
G1 X104.465 Y96.386 E1.33526
G1 X104.356 Y96.822 E1.35563
G1 X105.460 Y97.926 E1.42627
G1 X105.430 Y98.441 E1.44963
G1 X104.309 Y97.320 E1.52138
G1 X104.271 Y97.828 E1.54441
G1 X105.430 Y98.987 E1.61859
G1 X105.430 Y99.532 E1.64327
G1 X104.261 Y98.363 E1.71809
G1 X104.261 Y98.908 E1.74277
G1 X105.430 Y100.078 E1.81759
G1 X105.430 Y100.623 E1.84227
G1 X104.261 Y99.454 E1.91709
G1 X104.261 Y99.999 E1.94177
G1 X105.430 Y101.168 E2.01659
G1 X105.430 Y101.714 E2.04128
G1 X104.261 Y100.545 E2.11609
G1 X104.261 Y101.090 E2.14078
G1 X105.430 Y102.259 E2.21560
G1 X105.430 Y102.805 E2.24028
G1 X104.261 Y101.635 E2.31510
G1 X104.261 Y102.181 E2.33978
G1 X105.430 Y103.350 E2.41460
G1 X105.430 Y103.895 E2.43928
G1 X104.261 Y102.726 E2.51410
G1 X104.261 Y103.272 E2.53878
G1 X105.430 Y104.441 E2.61360
G1 X105.430 Y104.986 E2.63828
G1 X104.261 Y103.817 E2.71310
G1 X104.261 Y104.362 E2.73778
G1 X105.430 Y105.532 E2.81260
G1 X105.430 Y106.077 E2.83728
G1 X104.261 Y104.908 E2.91210
G1 X104.261 Y105.453 E2.93678
G1 X105.430 Y106.622 E3.01160
G1 X105.430 Y107.168 E3.03628
G1 X104.261 Y105.999 E3.11110
G1 X104.261 Y106.544 E3.13578
G1 X105.010 Y107.293 E3.18372
G1 X104.464 Y107.293 E3.20840
G1 X104.261 Y107.089 E3.22143
G92 E0
G1 X104.881 Y106.744 F7800.000
G1 X104.881 Y106.744 F7800.000
G1 X114.832 Y106.752 F7800.000
G1 X115.372 Y107.293 E0.03459 F540.000
G1 X115.918 Y107.293 E0.05928
G1 X114.832 Y106.207 E0.12877
G1 X114.832 Y105.662 E0.15346
G1 X115.991 Y106.821 E0.22764
G1 X115.991 Y106.275 E0.25232
G1 X114.832 Y105.116 E0.32650
G1 X114.832 Y104.571 E0.35118
G1 X115.991 Y105.730 E0.42536
G1 X115.991 Y105.185 E0.45004
G1 X114.832 Y104.025 E0.52422
G1 X114.832 Y103.480 E0.54890
G1 X115.991 Y104.639 E0.62308
G1 X115.991 Y104.094 E0.64776
G1 X114.832 Y102.935 E0.72194
G1 X114.832 Y102.389 E0.74662
G1 X115.991 Y103.548 E0.82080
G1 X115.991 Y103.003 E0.84548
G1 X114.832 Y101.844 E0.91966
G1 X114.832 Y101.298 E0.94434
G1 X115.991 Y102.458 E1.01852
G1 X115.991 Y101.912 E1.04320
G1 X114.832 Y100.753 E1.11738
G1 X114.832 Y100.208 E1.14206
G1 X115.991 Y101.367 E1.21624
G1 X115.991 Y100.821 E1.24092
G1 X114.832 Y99.662 E1.31510
G1 X114.832 Y99.117 E1.33978
G1 X115.991 Y100.276 E1.41396
G1 X115.991 Y99.731 E1.43864
G1 X114.832 Y98.571 E1.51282
G1 X114.810 Y98.004 E1.53850
G1 X115.991 Y99.185 E1.61407
G1 X115.991 Y98.640 E1.63875
G1 X114.752 Y97.401 E1.71804
G1 X114.686 Y96.790 E1.74586
G1 X115.973 Y98.076 E1.82820
G1 X115.929 Y97.487 E1.85494
G1 X114.393 Y95.951 E1.95326
G1 X114.812 Y94.734 F7800.000
G1 X114.207 Y94.129 E1.99198 F540.000
G1 X112.762 Y93.229 F7800.000
G1 X115.587 Y96.054 E2.17281 F540.000
G1 X115.816 Y96.828 E2.20932
G1 X111.940 Y92.953 E2.45736
G1 X111.250 Y92.808 E2.48924
G1 X112.365 Y93.923 E2.56060
G92 E0
G1 X105.889 Y93.463 F7800.000
G1 X100.200 Y94.709 F7800.000
G1 X99.035 Y97.702 F7800.000
G1 X95.322 Y98.138 F7800.000
G1 X93.963 Y98.484 F7800.000
G1 X93.502 Y99.347 F7800.000
G1 X83.783 Y99.225 F7800.000
G1 X83.783 Y92.673 E0.29648 F378.000
G1 X85.404 Y92.673 E0.36983
G1 X85.404 Y99.036 E0.65775
G1 X90.528 Y99.036 E0.88960 F378.000
G1 X94.504 Y92.673 E1.22911
G1 X96.348 Y92.673 E1.31254
G1 X92.062 Y99.184 E1.66524
G1 X93.418 Y99.557 E1.72890
G1 X94.286 Y100.020 E1.77340
G1 X94.991 Y100.661 E1.81650
G1 X95.512 Y101.447 E1.85919
G1 X95.826 Y102.350 E1.90242
G1 X95.931 Y103.373 E1.94896
G1 X95.782 Y104.588 E2.00434
G1 X95.340 Y105.596 E2.05413
G1 X94.605 Y106.414 E2.10389
G1 X93.591 Y107.023 E2.15742
G1 X92.311 Y107.393 E2.21774
G1 X90.750 Y107.519 E2.28858
G1 X83.783 Y107.519 E2.60383
G1 X83.783 Y99.456 E2.96867
G1 X85.404 Y100.223 F7800.000
G1 X90.650 Y100.223 E3.20602 F378.000
G1 X91.694 Y100.311 E3.25344
G1 X92.591 Y100.581 E3.29584
G1 X93.326 Y101.039 E3.33504
G1 X93.870 Y101.669 E3.37271
G1 X94.195 Y102.445 E3.41078
G1 X94.302 Y103.354 E3.45216
G1 X94.193 Y104.233 E3.49224
G1 X93.861 Y104.976 E3.52906
G1 X93.307 Y105.565 E3.56568
G1 X92.559 Y105.984 E3.60449
G1 X91.640 Y106.230 E3.64753
G1 X90.561 Y106.310 E3.69647
G1 X85.404 Y106.310 E3.92983
G1 X85.404 Y100.454 E4.19481
G1 X85.178 Y98.920 F7800.000
G1 X84.009 Y97.751 E4.27017 F540.000
G1 X84.009 Y97.201 E4.29521
G1 X85.178 Y98.370 E4.37057
G1 X85.178 Y97.821 E4.39561
G1 X84.009 Y96.652 E4.47097
G1 X84.009 Y96.103 E4.49601
G1 X85.178 Y97.272 E4.57137
G1 X85.178 Y96.722 E4.59641
G1 X84.009 Y95.553 E4.67177
G1 X84.009 Y95.004 E4.69681
G1 X85.178 Y96.173 E4.77217
G1 X85.178 Y95.624 E4.79721
G1 X84.009 Y94.455 E4.87257
G1 X84.009 Y93.905 E4.89761
G1 X85.178 Y95.074 E4.97297
G1 X85.178 Y94.525 E4.99801
G1 X84.009 Y93.356 E5.07337
G1 X84.102 Y92.899 E5.09462
G1 X85.178 Y93.976 E5.16402
G1 X85.178 Y93.426 E5.18906
G1 X84.651 Y92.899 E5.22306
G92 E0
G1 X84.629 Y93.448 F7800.000
G1 X84.629 Y93.448 F7800.000
G1 X92.629 Y100.328 F7800.000
G1 X91.625 Y99.323 E0.06477 F540.000
G1 X91.911 Y99.060 E0.08249
G1 X91.192 Y98.341 E0.12882
G1 X91.403 Y98.003 E0.14699
G1 X92.129 Y98.729 E0.19376
G1 X92.347 Y98.398 E0.21184
G1 X91.614 Y97.665 E0.25905
G1 X91.826 Y97.327 E0.27722
G1 X92.565 Y98.066 E0.32487
G1 X92.783 Y97.735 E0.34295
G1 X92.037 Y96.989 E0.39103
G1 X92.248 Y96.651 E0.40921
G1 X93.001 Y97.404 E0.45773
G1 X93.219 Y97.072 E0.47581
G1 X92.459 Y96.313 E0.52477
G1 X92.671 Y95.975 E0.54294
G1 X93.437 Y96.741 E0.59234
G1 X93.655 Y96.410 E0.61042
G1 X92.882 Y95.637 E0.66026
G1 X93.093 Y95.299 E0.67843
G1 X93.873 Y96.079 E0.72871
G1 X94.091 Y95.747 E0.74679
G1 X93.305 Y94.960 E0.79751
G1 X93.516 Y94.622 E0.81568
G1 X94.309 Y95.416 E0.86684
G1 X94.527 Y95.085 E0.88491
G1 X93.727 Y94.284 E0.93651
G1 X93.938 Y93.946 E0.95468
G1 X94.745 Y94.753 E1.00671
G1 X94.964 Y94.422 E1.02479
G1 X94.150 Y93.608 E1.07726
G1 X94.361 Y93.270 E1.09544
G1 X95.182 Y94.091 E1.14835
G1 X95.400 Y93.760 E1.16642
G1 X94.572 Y92.932 E1.21977
G1 X95.088 Y92.899 E1.24336
G1 X95.618 Y93.428 E1.27748
G1 X95.638 Y92.899 E1.30162
G1 X95.836 Y93.097 E1.31439
G92 E0
G1 X94.677 Y101.590 F7800.000
G1 X94.677 Y101.590 F7800.000
G1 X93.140 Y99.740 F7800.000
G1 X95.449 Y102.049 E0.14879 F540.000
G1 X95.634 Y102.784 E0.18334
G1 X92.383 Y99.532 E0.39295
G1 X91.693 Y99.391 E0.42504
G1 X90.981 Y98.679 E0.47093
G1 X90.769 Y99.017 E0.48910
G1 X91.843 Y100.091 E0.55833
G1 X91.241 Y100.039 E0.58588
G1 X90.465 Y99.262 E0.63595
G1 X89.915 Y99.262 E0.66099
G1 X90.650 Y99.997 E0.70838
G1 X90.101 Y99.997 E0.73342
G1 X89.366 Y99.262 E0.78080
G1 X88.816 Y99.262 E0.80584
G1 X89.552 Y99.997 E0.85323
G1 X89.002 Y99.997 E0.87827
G1 X88.267 Y99.262 E0.92565
G1 X87.718 Y99.262 E0.95069
G1 X88.453 Y99.997 E0.99808
G1 X87.904 Y99.997 E1.02311
G1 X87.168 Y99.262 E1.07050
G1 X86.619 Y99.262 E1.09554
G1 X87.354 Y99.997 E1.14292
G1 X86.805 Y99.997 E1.16796
G1 X86.070 Y99.262 E1.21535
G1 X85.520 Y99.262 E1.24039
G1 X86.256 Y99.997 E1.28777
G1 X85.706 Y99.997 E1.31281
G1 X84.009 Y98.300 E1.42221
G1 X84.009 Y98.849 E1.44725
G1 X85.178 Y100.018 E1.52261
G1 X85.178 Y100.568 E1.54765
G1 X84.009 Y99.399 E1.62301
G1 X84.009 Y99.948 E1.64805
G1 X85.178 Y101.117 E1.72341
G1 X85.178 Y101.666 E1.74845
G1 X84.009 Y100.497 E1.82381
G1 X84.009 Y101.047 E1.84885
G1 X85.178 Y102.216 E1.92421
G1 X85.178 Y102.765 E1.94925
G1 X84.009 Y101.596 E2.02461
G1 X84.009 Y102.145 E2.04965
G1 X85.178 Y103.314 E2.12501
G1 X85.178 Y103.864 E2.15005
G1 X84.009 Y102.695 E2.22541
G1 X84.009 Y103.244 E2.25045
G1 X85.178 Y104.413 E2.32581
G1 X85.178 Y104.962 E2.35085
G1 X84.009 Y103.793 E2.42621
G1 X84.009 Y104.343 E2.45125
G1 X85.178 Y105.512 E2.52661
G1 X85.178 Y106.061 E2.55165
G1 X84.009 Y104.892 E2.62701
G1 X84.009 Y105.441 E2.65205
G1 X85.861 Y107.293 E2.77141
G1 X86.410 Y107.293 E2.79645
G1 X85.653 Y106.536 E2.84525
G1 X86.202 Y106.536 E2.87029
G1 X86.959 Y107.293 E2.91909
G1 X87.509 Y107.293 E2.94413
G1 X86.752 Y106.536 E2.99293
G1 X87.301 Y106.536 E3.01797
G1 X88.058 Y107.293 E3.06678
G1 X88.607 Y107.293 E3.09181
G1 X87.850 Y106.536 E3.14062
G1 X88.400 Y106.536 E3.16566
G1 X89.157 Y107.293 E3.21446
G1 X89.706 Y107.293 E3.23950
G1 X88.949 Y106.536 E3.28830
G1 X89.498 Y106.536 E3.31334
G1 X90.255 Y107.293 E3.36214
G1 X90.805 Y107.293 E3.38718
G1 X90.048 Y106.536 E3.43599
G1 X90.590 Y106.529 E3.46070
G1 X91.314 Y107.253 E3.50740
G1 X91.823 Y107.212 E3.53065
G1 X91.101 Y106.491 E3.57715
G1 X91.612 Y106.452 E3.60051
G1 X92.331 Y107.171 E3.64685
G1 X92.758 Y107.049 E3.66709
G1 X92.046 Y106.337 E3.71301
G1 X92.479 Y106.221 E3.73346
G1 X93.184 Y106.926 E3.77891
G1 X93.598 Y106.790 E3.79876
G1 X92.853 Y106.045 E3.84682
G1 X93.205 Y105.848 E3.86521
G1 X93.941 Y106.584 E3.91269
G1 X94.285 Y106.378 E3.93093
G1 X93.523 Y105.616 E3.98003
G1 X93.789 Y105.333 E3.99774
G1 X94.586 Y106.130 E4.04910
G1 X94.854 Y105.849 E4.06681
G1 X94.050 Y105.044 E4.11867
G1 X94.219 Y104.665 E4.13763
G1 X95.114 Y105.560 E4.19532
G1 X95.298 Y105.194 E4.21397
G1 X94.389 Y104.285 E4.27256
G1 X94.464 Y103.810 E4.29446
G1 X95.465 Y104.812 E4.35900
G1 X95.588 Y104.386 E4.37923
G1 X94.524 Y103.321 E4.44783
G1 X94.464 Y102.712 E4.47572
G1 X95.648 Y103.896 E4.55205
G1 X95.697 Y103.396 E4.57496
G1 X94.290 Y101.989 E4.66566
G92 E0
G1 X84.629 Y106.744 F7800.000
G1 X84.629 Y106.744 F7800.000
G1 X84.594 Y106.708 F7800.000
G1 X84.558 Y106.744 F7800.000
G1 X84.009 Y105.991 F7800.000
G1 X85.311 Y107.293 E0.08395 F540.000
G1 X84.762 Y107.293 E0.10898
G1 X84.009 Y106.540 E0.15752
G1 X84.009 Y107.089 E0.18256
G1 X84.213 Y107.293 E0.19568
M106 S255
G92 E0
G1 Z0.600 F7800.000
G1 X115.411 Y107.744 F7800.000
G1 X115.410 Y98.255 E2.84327 F600.000
G1 X115.320 Y97.203 E3.15975
G1 X115.216 Y96.677 E3.32027
G1 X115.108 Y96.316 E3.43318
G1 X114.788 Y95.526 E3.68879
G1 X114.313 Y94.854 E3.93515
G1 X113.993 Y94.497 E4.07883
G1 X113.782 Y94.296 E4.16632
G1 X113.022 Y93.785 E4.44068
G1 X112.657 Y93.607 E4.56244
G1 X112.159 Y93.424 E4.72145
G1 X111.576 Y93.262 E4.90265
G1 X111.164 Y93.187 E5.02802
G1 X110.034 Y93.097 E5.36785
G1 X108.949 Y93.182 E5.69389
G1 X108.506 Y93.262 E5.82878
G1 X107.989 Y93.406 E5.98947
G1 X107.471 Y93.597 E6.15493
G1 X107.151 Y93.750 E6.26144
G1 X106.391 Y94.270 E6.53726
G1 X106.177 Y94.476 E6.62627
G1 X105.903 Y94.786 E6.75029
G1 X105.447 Y95.433 E6.98748
G1 X105.141 Y96.193 E7.23305
G1 X105.026 Y96.587 E7.35604
G1 X104.934 Y97.045 E7.49584
G1 X104.848 Y98.101 E7.81325
G1 X104.845 Y107.744 E10.70287
G92 E0
G1 X103.810 Y98.022 F7800.000
G1 X103.810 Y98.022 F7800.000
G1 X99.048 Y97.665 F7800.000
G1 X99.430 Y96.543 F7800.000
G1 X99.705 Y95.836 F7800.000
G1 X100.041 Y95.069 F7800.000
G1 X100.041 Y95.069 F7800.000
G1 X100.139 Y94.846 F7800.000
G1 X100.200 Y94.709 F7800.000
G1 X100.376 Y94.326 F7800.000
G1 X96.765 Y91.352 F7800.000
G1 X94.379 Y91.352 F7800.000
G1 X93.164 Y91.689 F7800.000
G1 X89.238 Y93.865 F7800.000
G1 X87.821 Y92.448 F7800.000
G1 X85.629 Y92.448 F7800.000
G1 X84.594 Y92.448 F7800.000
G1 X84.594 Y98.811 E1.90665 F600.000
G1 X85.444 Y103.117 E3.22178
G92 E0
G1 X84.629 Y106.744 F7800.000
G1 X84.629 Y106.744 F7800.000
G1 X90.424 Y98.777 F7800.000
G1 X91.727 Y99.631 E0.46678 F600.000
G1 X91.897 Y99.719 E0.52394
G1 X92.202 Y99.841 E0.62257
G1 X92.945 Y100.070 E0.85543
G1 X93.174 Y100.171 E0.93036
G1 X93.654 Y100.448 E1.09667
G1 X93.877 Y100.600 E1.17750
G1 X94.417 Y101.154 E1.40909
G1 X94.581 Y101.410 E1.50046
G1 X94.791 Y101.804 E1.63417
G1 X94.909 Y102.112 E1.73297
G1 X95.025 Y102.527 E1.86220
G1 X95.113 Y103.365 E2.11448
G1 X94.991 Y104.371 E2.41823
G1 X94.658 Y105.156 E2.67376
G1 X94.591 Y105.260 E2.71087
G1 X94.388 Y105.522 E2.81032
G1 X94.115 Y105.819 E2.93105
G1 X93.618 Y106.192 E3.11711
G1 X93.307 Y106.372 E3.22480
G1 X92.698 Y106.612 E3.42117
G1 X92.193 Y106.753 E3.57799
G1 X91.819 Y106.817 E3.69190
G1 X90.553 Y106.914 E4.07228
G1 X85.629 Y106.914 E5.54774
G1 X84.667 Y106.635 E5.84799
G1 X84.594 Y106.085 E6.01436
G1 X84.594 Y100.448 E7.70347
G1 X84.755 Y99.629 E7.95347
G1 X90.403 Y99.629 E9.64580
G1 X90.711 Y99.602 E9.73846
G1 X91.358 Y99.389 E9.94243
G1 X91.653 Y98.544 E10.21058
G1 X95.563 Y92.448 E12.38070
G92 E0
G1 Z0.900 F7800.000
G1 X115.411 Y107.744 F7800.000
G1 X115.410 Y98.255 E2.84327 F600.000
G1 X115.320 Y97.203 E3.15975
G1 X115.216 Y96.677 E3.32027
G1 X115.108 Y96.316 E3.43318
G1 X114.788 Y95.526 E3.68879
G1 X114.313 Y94.854 E3.93515
G1 X113.993 Y94.497 E4.07883
G1 X113.782 Y94.296 E4.16632
G1 X113.022 Y93.785 E4.44068
G1 X112.657 Y93.607 E4.56244
G1 X112.159 Y93.424 E4.72145
G1 X111.576 Y93.262 E4.90265
G1 X111.164 Y93.187 E5.02802
G1 X110.034 Y93.097 E5.36784
G1 X108.949 Y93.182 E5.69389
G1 X108.506 Y93.262 E5.82878
G1 X107.989 Y93.406 E5.98947
G1 X107.471 Y93.597 E6.15493
G1 X107.151 Y93.750 E6.26144
G1 X106.391 Y94.270 E6.53726
G1 X106.177 Y94.476 E6.62627
G1 X105.903 Y94.786 E6.75029
G1 X105.447 Y95.433 E6.98748
G1 X105.141 Y96.193 E7.23305
G1 X105.026 Y96.587 E7.35604
G1 X104.934 Y97.045 E7.49584
G1 X104.848 Y98.101 E7.81325
G1 X104.845 Y107.744 E10.70287
G92 E0
G1 X103.810 Y98.022 F7800.000
G1 X103.810 Y98.022 F7800.000
G1 X99.048 Y97.665 F7800.000
G1 X99.430 Y96.543 F7800.000
G1 X99.705 Y95.836 F7800.000
G1 X100.138 Y94.846 F7800.000
G1 X100.200 Y94.709 F7800.000
G1 X100.376 Y94.326 F7800.000
G1 X96.765 Y91.352 F7800.000
G1 X94.379 Y91.352 F7800.000
G1 X93.164 Y91.689 F7800.000
G1 X89.238 Y93.865 F7800.000
G1 X87.821 Y92.448 F7800.000
G1 X85.629 Y92.448 F7800.000
