; generated by Slic3r 1.2.9 on 2016-03-11 at 01:29:51

; external perimeters extrusion width = 1.54mm
; perimeters extrusion width = 2.62mm
; infill extrusion width = 6.27mm
; solid infill extrusion width = 2.62mm
; top infill extrusion width = 2.62mm

M107
M104 S30 ; set temperature
G28 ; home all axes
G1 Z5 F5000 ; lift nozzle
M302
M92 E10000
M500
M501
G1 E100
M109 S30 ; wait for temperature to be reached
G21 ; set units to millimeters
G90 ; use absolute coordinates
M82 ; use absolute distances for extrusion
G92 E0
G1 Z0.300 F7800.000
G1 X105.702 Y105.544 F7800.000
G1 X104.505 Y107.423 E0.10081 F378.000
G1 X102.768 Y107.423 E0.17941
G1 X108.443 Y98.759 E0.64805
G1 X108.443 Y92.577 E0.92779
G1 X110.054 Y92.577 E1.00068
G1 X110.054 Y98.759 E1.28043
G1 X115.745 Y107.423 E1.74947 F378.000
G1 X114.008 Y107.423 E1.82807
G1 X109.270 Y99.942 E2.22873
G1 X105.826 Y105.349 E2.51881
G1 X103.476 Y107.197 F7800.000
G1 X103.278 Y106.999 E2.53171 F540.000
G1 X103.498 Y106.664 E2.55018
G1 X104.032 Y107.197 E2.58494
G1 X104.484 Y107.094 E2.60630
G1 X103.718 Y106.328 E2.65621
G1 X103.938 Y105.993 E2.67468
G1 X104.700 Y106.755 E2.72434
G1 X104.916 Y106.416 E2.74286
G1 X104.157 Y105.657 E2.79229
G1 X104.377 Y105.322 E2.81076
G1 X105.132 Y106.077 E2.85994
G1 X105.348 Y105.737 E2.87846
G1 X104.597 Y104.986 E2.92740
G1 X104.816 Y104.651 E2.94588
G1 X105.564 Y105.398 E2.99458
G1 X105.780 Y105.059 E3.01310
G1 X105.036 Y104.315 E3.06156
G1 X105.256 Y103.980 E3.08004
G1 X105.996 Y104.720 E3.12826
G1 X106.212 Y104.381 E3.14678
G1 X105.476 Y103.644 E3.19476
G1 X105.695 Y103.309 E3.21323
G1 X106.428 Y104.042 E3.26097
G1 X106.644 Y103.703 E3.27950
G1 X105.915 Y102.973 E3.32700
G1 X106.135 Y102.638 E3.34547
G1 X106.860 Y103.363 E3.39273
G1 X107.076 Y103.024 E3.41125
G1 X106.355 Y102.303 E3.45827
G1 X106.574 Y101.967 E3.47675
G1 X107.292 Y102.685 E3.52353
G1 X107.508 Y102.346 E3.54205
G1 X106.794 Y101.632 E3.58859
G1 X107.014 Y101.296 E3.60706
G1 X107.724 Y102.007 E3.65336
G1 X107.940 Y101.668 E3.67188
G1 X107.233 Y100.961 E3.71794
G1 X107.453 Y100.625 E3.73642
G1 X108.156 Y101.328 E3.78223
G1 X108.372 Y100.989 E3.80076
G1 X107.673 Y100.290 E3.84634
G1 X107.893 Y99.954 E3.86481
G1 X108.589 Y100.650 E3.91015
G1 X108.805 Y100.311 E3.92867
G1 X108.112 Y99.619 E3.97377
G1 X108.332 Y99.283 E3.99224
G1 X109.021 Y99.972 E4.03710
G1 X109.237 Y99.633 E4.05562
G1 X108.552 Y98.948 E4.10024
G1 X108.669 Y98.510 E4.12113
G1 X111.236 Y101.077 E4.28840
G1 X110.664 Y101.616 F7800.000
G1 X113.362 Y104.313 E4.46414 F540.000
G1 X112.582 Y104.643 F7800.000
G1 X115.135 Y107.197 E4.63050 F540.000
G1 X114.580 Y107.197 E4.65608
G1 X113.540 Y106.157 E4.72382
G1 X114.425 Y105.931 F7800.000
G1 X111.623 Y103.129 E4.90635 F540.000
G1 X112.299 Y102.695 F7800.000
G1 X109.706 Y100.102 E5.07531 F540.000
G1 X110.173 Y99.459 F7800.000
G1 X108.669 Y97.955 E5.17333 F540.000
G1 X108.669 Y97.399 E5.19891
G1 X109.828 Y98.558 E5.27442
G1 X109.828 Y98.003 E5.29999
G1 X108.669 Y96.844 E5.37550
G1 X108.669 Y96.289 E5.40108
G1 X109.828 Y97.448 E5.47659
G1 X109.828 Y96.893 E5.50217
G1 X108.669 Y95.734 E5.57768
G1 X108.669 Y95.179 E5.60325
G1 X109.828 Y96.338 E5.67876
G1 X109.828 Y95.782 E5.70434
G1 X108.669 Y94.623 E5.77985
G1 X108.669 Y94.068 E5.80542
G1 X109.828 Y95.227 E5.88093
G1 X109.828 Y94.672 E5.90651
G1 X108.669 Y93.513 E5.98202
G1 X108.669 Y92.958 E6.00760
G1 X109.828 Y94.117 E6.08311
G1 X109.828 Y93.562 E6.10868
G1 X109.069 Y92.803 E6.15811
G1 X109.624 Y92.803 E6.18369
G1 X109.828 Y93.007 E6.19695
G92 E0
G1 X108.218 Y98.692 F7800.000
G1 X101.269 Y97.757 F7800.000
G1 X100.820 Y101.743 F7800.000
G1 X100.549 Y102.856 F7800.000
G1 X96.437 Y103.279 F7800.000
G1 X88.312 Y107.423 F7800.000
G1 X84.063 Y107.423 E0.19224 F378.000
G1 X84.063 Y92.577 E0.86401
G1 X85.684 Y92.577 E0.93736
G1 X85.684 Y98.940 E1.22528
G1 X90.808 Y98.940 E1.45713 F378.000
G1 X94.784 Y92.577 E1.79663
G1 X96.628 Y92.577 E1.88007
G1 X92.342 Y99.088 E2.23277
G1 X93.698 Y99.461 E2.29643
G1 X94.566 Y99.924 E2.34092
G1 X95.271 Y100.565 E2.38403
G1 X95.792 Y101.351 E2.42672
G1 X96.106 Y102.254 E2.46995
G1 X96.211 Y103.277 E2.51649
G1 X96.062 Y104.492 E2.57187
G1 X95.620 Y105.500 E2.62166
G1 X94.885 Y106.318 E2.67142
G1 X93.871 Y106.927 E2.72495
G1 X92.591 Y107.297 E2.78527
G1 X91.030 Y107.423 E2.85611
G1 X88.543 Y107.423 E2.96867
G1 X88.543 Y106.214 F7800.000
G1 X85.684 Y106.214 E3.09801 F378.000
G1 X85.684 Y100.127 E3.37345
G1 X90.930 Y100.127 E3.61080 F378.000
G1 X91.974 Y100.215 E3.65821
G1 X92.871 Y100.485 E3.70061
G1 X93.606 Y100.943 E3.73981
G1 X94.150 Y101.573 E3.77749
G1 X94.475 Y102.349 E3.81555
G1 X94.582 Y103.258 E3.85693
G1 X94.473 Y104.137 E3.89702
G1 X94.141 Y104.880 E3.93384
G1 X93.587 Y105.469 E3.97045
G1 X92.839 Y105.888 E4.00926
G1 X91.920 Y106.134 E4.05231
G1 X90.841 Y106.214 E4.10124
G1 X88.774 Y106.214 E4.19481
G1 X85.933 Y106.440 F7800.000
G1 X86.690 Y107.197 E4.24361 F540.000
G1 X87.239 Y107.197 E4.26865
G1 X86.482 Y106.440 E4.31746
G1 X87.032 Y106.440 E4.34249
G1 X87.789 Y107.197 E4.39130
G1 X88.338 Y107.197 E4.41634
G1 X87.581 Y106.440 E4.46514
G1 X88.130 Y106.440 E4.49018
G1 X88.887 Y107.197 E4.53898
G1 X89.437 Y107.197 E4.56402
G1 X88.680 Y106.440 E4.61282
G1 X89.229 Y106.440 E4.63786
G1 X89.986 Y107.197 E4.68667
G1 X90.535 Y107.197 E4.71171
G1 X89.778 Y106.440 E4.76051
G1 X90.328 Y106.440 E4.78555
G1 X91.085 Y107.197 E4.83435
G1 X91.594 Y107.157 E4.85765
G1 X90.870 Y106.433 E4.90435
G1 X91.381 Y106.395 E4.92773
G1 X92.103 Y107.116 E4.97423
G1 X92.611 Y107.075 E4.99748
G1 X91.892 Y106.356 E5.04382
G1 X92.326 Y106.241 E5.06427
G1 X93.038 Y106.953 E5.11019
G1 X93.464 Y106.830 E5.13040
G1 X92.759 Y106.125 E5.17585
G1 X93.133 Y105.949 E5.19467
G1 X93.878 Y106.694 E5.24272
G1 X94.221 Y106.488 E5.26097
G1 X93.485 Y105.752 E5.30844
G1 X93.803 Y105.520 E5.32636
G1 X94.565 Y106.282 E5.37546
G1 X94.866 Y106.034 E5.39325
G1 X94.069 Y105.237 E5.44460
G1 X94.330 Y104.948 E5.46233
G1 X95.134 Y105.753 E5.51420
G1 X95.394 Y105.464 E5.53193
G1 X94.499 Y104.569 E5.58962
G1 X94.669 Y104.189 E5.60857
G1 X95.578 Y105.098 E5.66716
G1 X95.745 Y104.716 E5.68617
G1 X94.744 Y103.714 E5.75072
G1 X94.804 Y103.225 E5.77318
G1 X95.868 Y104.290 E5.84178
G1 X95.928 Y103.800 E5.86425
G1 X94.744 Y102.616 E5.94057
G1 X94.570 Y101.893 E5.97449
G1 X95.977 Y103.300 E6.06519
G1 X92.909 Y100.232 F7800.000
G1 X91.905 Y99.227 E6.12996 F540.000
G1 X92.191 Y98.964 E6.14768
G1 X91.472 Y98.245 E6.19401
G1 X91.683 Y97.907 E6.21218
G1 X92.409 Y98.633 E6.25895
G1 X92.627 Y98.302 E6.27703
G1 X91.894 Y97.569 E6.32424
G1 X92.106 Y97.231 E6.34241
G1 X92.845 Y97.970 E6.39006
G1 X93.063 Y97.639 E6.40814
G1 X92.317 Y96.893 E6.45622
G1 X92.528 Y96.555 E6.47439
G1 X93.281 Y97.308 E6.52292
G1 X93.499 Y96.976 E6.54100
G1 X92.739 Y96.217 E6.58996
G1 X92.951 Y95.879 E6.60813
G1 X93.717 Y96.645 E6.65753
G1 X93.935 Y96.314 E6.67561
G1 X93.162 Y95.541 E6.72545
G1 X93.373 Y95.203 E6.74362
G1 X94.153 Y95.983 E6.79390
G1 X94.371 Y95.651 E6.81198
G1 X93.585 Y94.864 E6.86270
G1 X93.796 Y94.526 E6.88087
G1 X94.589 Y95.320 E6.93203
G1 X94.807 Y94.989 E6.95010
G1 X94.007 Y94.188 E7.00170
G1 X94.218 Y93.850 E7.01987
G1 X95.025 Y94.657 E7.07190
G1 X95.244 Y94.326 E7.08998
G1 X94.430 Y93.512 E7.14245
G1 X94.641 Y93.174 E7.16062
G1 X95.462 Y93.995 E7.21353
G1 X95.680 Y93.664 E7.23161
G1 X94.852 Y92.836 E7.28496
G1 X95.368 Y92.803 E7.30855
G1 X95.898 Y93.332 E7.34267
G1 X95.918 Y92.803 E7.36681
G1 X96.116 Y93.001 E7.37958
G92 E0
G1 X94.957 Y101.494 F7800.000
G1 X94.957 Y101.494 F7800.000
G1 X93.420 Y99.645 F7800.000
G1 X95.729 Y101.953 E0.14879 F540.000
G1 X95.914 Y102.688 E0.18334
G1 X92.663 Y99.436 E0.39295
G1 X91.973 Y99.295 E0.42504
G1 X91.261 Y98.583 E0.47093
G1 X91.049 Y98.921 E0.48910
G1 X92.123 Y99.995 E0.55833
G1 X91.521 Y99.943 E0.58588
G1 X90.745 Y99.166 E0.63595
G1 X90.195 Y99.166 E0.66099
G1 X90.930 Y99.901 E0.70838
G1 X90.381 Y99.901 E0.73342
G1 X89.646 Y99.166 E0.78080
G1 X89.096 Y99.166 E0.80584
G1 X89.832 Y99.901 E0.85323
G1 X89.282 Y99.901 E0.87827
G1 X88.547 Y99.166 E0.92565
G1 X87.998 Y99.166 E0.95069
G1 X88.733 Y99.901 E0.99807
G1 X88.184 Y99.901 E1.02311
G1 X87.448 Y99.166 E1.07050
G1 X86.899 Y99.166 E1.09554
G1 X87.634 Y99.901 E1.14292
G1 X87.085 Y99.901 E1.16796
G1 X86.350 Y99.166 E1.21535
G1 X85.800 Y99.166 E1.24039
G1 X86.536 Y99.901 E1.28777
G1 X85.986 Y99.901 E1.31281
G1 X84.289 Y98.204 E1.42221
G1 X84.289 Y97.655 E1.44725
G1 X85.458 Y98.824 E1.52261
G1 X85.458 Y98.274 E1.54765
G1 X84.289 Y97.105 E1.62301
G1 X84.289 Y96.556 E1.64805
G1 X85.458 Y97.725 E1.72341
G1 X85.458 Y97.176 E1.74845
G1 X84.289 Y96.007 E1.82381
G1 X84.289 Y95.457 E1.84885
G1 X85.458 Y96.626 E1.92421
G1 X85.458 Y96.077 E1.94925
G1 X84.289 Y94.908 E2.02461
G1 X84.289 Y94.359 E2.04965
G1 X85.458 Y95.528 E2.12501
G1 X85.458 Y94.978 E2.15005
G1 X84.289 Y93.809 E2.22541
G1 X84.289 Y93.260 E2.25045
G1 X85.458 Y94.429 E2.32581
G1 X85.458 Y93.880 E2.35085
G1 X84.382 Y92.803 E2.42025
G1 X84.931 Y92.803 E2.44529
G1 X85.458 Y93.330 E2.47928
G1 X84.289 Y98.753 F7800.000
G1 X85.458 Y99.922 E2.55464 F540.000
G1 X85.458 Y100.472 E2.57968
G1 X84.289 Y99.303 E2.65504
G1 X84.289 Y99.852 E2.68008
G1 X85.458 Y101.021 E2.75544
G1 X85.458 Y101.570 E2.78048
G1 X84.289 Y100.401 E2.85584
G1 X84.289 Y100.951 E2.88088
G1 X85.458 Y102.120 E2.95624
G1 X85.458 Y102.669 E2.98128
G1 X84.289 Y101.500 E3.05665
G1 X84.289 Y102.049 E3.08168
G1 X85.458 Y103.218 E3.15705
G1 X85.458 Y103.768 E3.18208
G1 X84.289 Y102.599 E3.25745
G1 X84.289 Y103.148 E3.28249
G1 X85.458 Y104.317 E3.35785
G1 X85.458 Y104.866 E3.38289
G1 X84.289 Y103.697 E3.45825
G1 X84.289 Y104.247 E3.48329
G1 X85.458 Y105.416 E3.55865
G1 X85.458 Y105.965 E3.58369
G1 X84.289 Y104.796 E3.65905
G1 X84.289 Y105.345 E3.68409
G1 X86.141 Y107.197 E3.80344
G1 X85.591 Y107.197 E3.82848
G1 X84.289 Y105.895 E3.91243
G1 X84.289 Y106.444 E3.93747
G1 X85.042 Y107.197 E3.98600
G1 X84.493 Y107.197 E4.01104
G1 X84.289 Y106.993 E4.02416
M106 S255
G92 E0
G1 Z0.600 F7800.000
G1 X109.248 Y92.352 F7800.000
G1 X109.248 Y99.209 E2.05473 F600.000
G1 X109.375 Y99.286 E2.09907
G1 X110.013 Y99.891 E2.36271
G1 X115.017 Y107.648 E5.12860
G1 X109.218 Y98.582 F7800.000
G1 X109.218 Y98.582 F7800.000
G1 X103.495 Y107.648 F7800.000
G1 X108.513 Y99.880 E7.89970 F600.000
G1 X109.126 Y99.287 E8.15526
G1 X110.279 Y98.560 E8.56369
G92 E0
G1 X108.218 Y92.352 F7800.000
G1 X108.218 Y92.352 F7800.000
G1 X106.218 Y92.352 F7800.000
G1 X101.813 Y96.756 F7800.000
G1 X100.756 Y94.795 F7800.000
G1 X97.045 Y91.352 F7800.000
G1 X94.659 Y91.352 F7800.000
G1 X93.551 Y91.659 F7800.000
G1 X89.475 Y93.918 F7800.000
G1 X87.909 Y92.352 F7800.000
G1 X85.909 Y92.352 F7800.000
G1 X84.874 Y92.352 F7800.000
G1 X84.874 Y98.715 E1.90665 F600.000
G1 X85.724 Y103.021 E3.22178
G92 E0
G1 X84.909 Y106.648 F7800.000
G1 X84.909 Y106.648 F7800.000
G1 X90.704 Y98.681 F7800.000
G1 X92.007 Y99.535 E0.46678 F600.000
G1 X92.177 Y99.623 E0.52394
G1 X92.482 Y99.745 E0.62257
G1 X93.225 Y99.974 E0.85543
G1 X93.454 Y100.075 E0.93036
G1 X93.934 Y100.352 E1.09667
G1 X94.157 Y100.504 E1.17750
G1 X94.697 Y101.058 E1.40909
G1 X94.861 Y101.314 E1.50046
G1 X95.071 Y101.708 E1.63417
G1 X95.189 Y102.016 E1.73297
G1 X95.305 Y102.431 E1.86220
G1 X95.393 Y103.269 E2.11448
G1 X95.271 Y104.275 E2.41823
G1 X94.938 Y105.060 E2.67376
G1 X94.871 Y105.164 E2.71087
G1 X94.668 Y105.426 E2.81032
G1 X94.395 Y105.723 E2.93105
G1 X93.898 Y106.096 E3.11711
G1 X93.587 Y106.276 E3.22480
G1 X92.978 Y106.516 E3.42117
G1 X92.473 Y106.657 E3.57799
G1 X92.099 Y106.721 E3.69190
G1 X90.833 Y106.818 E4.07228
G1 X85.909 Y106.818 E5.54774
G1 X84.947 Y106.539 E5.84799
G1 X84.874 Y105.989 E6.01436
G1 X84.874 Y100.352 E7.70347
G1 X85.035 Y99.533 E7.95347
G1 X90.683 Y99.533 E9.64580
G1 X90.991 Y99.506 E9.73846
G1 X91.638 Y99.293 E9.94243
G1 X91.933 Y98.448 E10.21058
G1 X95.843 Y92.352 E12.38070
G92 E0
G1 Z0.900 F7800.000
G1 X109.248 Y92.352 F7800.000
G1 X109.248 Y99.209 E2.05473 F600.000
G1 X109.375 Y99.286 E2.09907
G1 X110.013 Y99.891 E2.36271
G1 X115.017 Y107.648 E5.12860
G1 X109.218 Y98.582 F7800.000
G1 X109.218 Y98.582 F7800.000
G1 X103.495 Y107.648 F7800.000
G1 X108.513 Y99.880 E7.89970 F600.000
G1 X109.126 Y99.287 E8.15526
G1 X110.279 Y98.560 E8.56369
G92 E0
G1 X108.218 Y92.352 F7800.000
G1 X108.218 Y92.352 F7800.000
G1 X106.218 Y92.352 F7800.000
G1 X101.813 Y96.756 F7800.000
G1 X100.756 Y94.795 F7800.000
G1 X97.045 Y91.352 F7800.000
G1 X94.659 Y91.352 F7800.000
G1 X93.551 Y91.659 F7800.000
G1 X89.475 Y93.918 F7800.000
G1 X87.909 Y92.352 F7800.000
G1 X85.909 Y92.352 F7800.000
G1 X84.874 Y92.352 F7800.000
G1 X84.874 Y98.715 E1.90665 F600.000
G1 X85.724 Y103.021 E3.22178
G92 E0
G1 X84.909 Y106.648 F7800.000
G1 X84.909 Y106.648 F7800.000
G1 X90.704 Y98.681 F7800.000
G1 X92.007 Y99.535 E0.46678 F600.000
G1 X92.177 Y99.623 E0.52394
G1 X92.482 Y99.745 E0.62257
G1 X93.225 Y99.974 E0.85543
G1 X93.454 Y100.075 E0.93036
G1 X93.934 Y100.352 E1.09667
G1 X94.157 Y100.504 E1.17750
G1 X94.697 Y101.058 E1.40909
G1 X94.861 Y101.314 E1.50046
G1 X95.071 Y101.708 E1.63417
G1 X95.189 Y102.016 E1.73297
G1 X95.305 Y102.431 E1.86220
G1 X95.393 Y103.269 E2.11448
G1 X95.271 Y104.275 E2.41823
G1 X94.938 Y105.060 E2.67376
G1 X94.871 Y105.164 E2.71087
G1 X94.668 Y105.426 E2.81032
G1 X94.395 Y105.723 E2.93105
G1 X93.898 Y106.096 E3.11711
G1 X93.587 Y106.276 E3.22480
G1 X92.978 Y106.516 E3.42117
G1 X92.473 Y106.657 E3.57799
G1 X92.099 Y106.721 E3.69190
G1 X90.833 Y106.818 E4.07228
G1 X85.909 Y106.818 E5.54774
G1 X84.947 Y106.539 E5.84799
G1 X84.874 Y105.989 E6.01436
G1 X84.874 Y100.352 E7.70347
G1 X85.035 Y99.533 E7.95347
G1 X90.683 Y99.533 E9.64580
G1 X90.991 Y99.506 E9.73846
G1 X91.638 Y99.293 E9.94243
G1 X91.933 Y98.448 E10.21058
G1 X95.843 Y92.352 E12.38070
G92 E0
G1 Z1.200 F7800.000
G1 X109.248 Y92.352 F7800.000
G1 X109.248 Y99.209 E2.05473 F600.000
G1 X109.375 Y99.286 E2.09907
G1 X110.013 Y99.891 E2.36271
G1 X115.017 Y107.648 E5.12860
G1 X109.218 Y98.582 F7800.000
G1 X109.218 Y98.582 F7800.000
G1 X103.495 Y107.648 F7800.000
G1 X108.513 Y99.880 E7.89970 F600.000
G1 X109.126 Y99.287 E8.15526
G1 X110.279 Y98.560 E8.56369
G92 E0
G1 X108.218 Y92.352 F7800.000
G1 X108.218 Y92.352 F7800.000
G1 X106.218 Y92.352 F7800.000
G1 X101.813 Y96.756 F7800.000
G1 X100.756 Y94.795 F7800.000
G1 X97.045 Y91.352 F7800.000
G1 X94.659 Y91.352 F7800.000
G1 X93.551 Y91.659 F7800.000
G1 X89.475 Y93.918 F7800.000
G1 X87.909 Y92.352 F7800.000
G1 X85.909 Y92.352 F7800.000
G1 X84.874 Y92.352 F7800.000
G1 X84.874 Y98.715 E1.90665 F600.000
G1 X85.724 Y103.021 E3.22178
G92 E0
G1 X84.909 Y106.648 F7800.000
G1 X84.909 Y106.648 F7800.000
G1 X90.704 Y98.681 F7800.000
G1 X92.007 Y99.535 E0.46678 F600.000
G1 X92.177 Y99.623 E0.52394
G1 X92.482 Y99.745 E0.62257
G1 X93.225 Y99.974 E0.85543
G1 X93.454 Y100.075 E0.93036
G1 X93.934 Y100.352 E1.09667
G1 X94.157 Y100.504 E1.17750
G1 X94.697 Y101.058 E1.40909
G1 X94.861 Y101.314 E1.50046
G1 X95.071 Y101.708 E1.63417
G1 X95.189 Y102.016 E1.73297
G1 X95.305 Y102.431 E1.86220
G1 X95.393 Y103.269 E2.11448
G1 X95.271 Y104.275 E2.41823
G1 X94.938 Y105.060 E2.67376
G1 X94.871 Y105.164 E2.71087
G1 X94.668 Y105.426 E2.81032
G1 X94.395 Y105.723 E2.93105
G1 X93.898 Y106.096 E3.11711
G1 X93.587 Y106.276 E3.22480
G1 X92.978 Y106.516 E3.42117
G1 X92.473 Y106.657 E3.57799
G1 X92.099 Y106.721 E3.69190
G1 X90.833 Y106.818 E4.07228
G1 X85.909 Y106.818 E5.54774
G1 X84.947 Y106.539 E5.84799
G1 X84.874 Y105.989 E6.01436
G1 X84.874 Y100.352 E7.70347
G1 X85.035 Y99.533 E7.95347
G1 X90.683 Y99.533 E9.64580
G1 X90.991 Y99.506 E9.73846
G1 X91.638 Y99.293 E9.94243
G1 X91.933 Y98.448 E10.21058
G1 X95.843 Y92.352 E12.38070
G92 E0
G1 Z1.500 F7800.000
G1 X109.248 Y92.352 F7800.000
G1 X109.248 Y99.209 E2.05473 F600.000
G1 X109.375 Y99.286 E2.09907
G1 X110.013 Y99.891 E2.36271
G1 X115.017 Y107.648 E5.12860
G1 X109.218 Y98.582 F7800.000
G1 X109.218 Y98.582 F7800.000
G1 X103.495 Y107.648 F7800.000
G1 X108.513 Y99.880 E7.89970 F600.000
G1 X109.126 Y99.287 E8.15526
G1 X110.279 Y98.560 E8.56369
G92 E0
G1 X108.218 Y92.352 F7800.000
G1 X108.218 Y92.352 F7800.000
G1 X106.218 Y92.352 F7800.000
