; generated by Slic3r 1.2.9 on 2016-03-11 at 01:29:52

; external perimeters extrusion width = 1.54mm
; perimeters extrusion width = 2.62mm
; infill extrusion width = 6.27mm
; solid infill extrusion width = 2.62mm
; top infill extrusion width = 2.62mm

M107
M104 S30 ; set temperature
G28 ; home all axes
G1 Z5 F5000 ; lift nozzle
M302
M92 E10000
M500
M501
G1 E100
M109 S30 ; wait for temperature to be reached
G21 ; set units to millimeters
G90 ; use absolute coordinates
M82 ; use absolute distances for extrusion
G92 E0
G1 Z0.300 F7800.000
G1 X110.326 Y106.181 F7800.000
G1 X113.300 Y106.181 E0.13457 F378.000
G1 X103.761 Y93.826 E0.84085
G1 X103.761 Y92.577 E0.89738
G1 X115.480 Y92.577 E1.42765
G1 X115.480 Y93.819 E1.48385
G1 X105.432 Y93.819 E1.93851 F378.000
G1 X114.970 Y106.218 E2.64634
G1 X114.970 Y107.423 E2.70089
G1 X104.553 Y107.423 E3.17225
G1 X104.553 Y106.181 E3.22845
G1 X110.095 Y106.181 E3.47922
G92 E0
G1 X112.642 Y104.849 F7800.000
G1 X114.744 Y106.951 E0.13714 F540.000
G1 X114.715 Y106.367 E0.16413
G1 X110.758 Y102.410 E0.42227
G1 X111.008 Y101.547 F7800.000
G1 X106.992 Y97.531 E0.68428 F540.000
G1 X107.300 Y96.728 F7800.000
G1 X103.987 Y93.415 E0.90045 F540.000
G1 X103.987 Y92.859 E0.92609
G1 X105.447 Y94.318 E1.02133
G1 X105.277 Y93.593 F7800.000
G1 X104.487 Y92.803 E1.07287 F540.000
G1 X105.043 Y92.803 E1.09852
G1 X105.833 Y93.593 E1.15006
G1 X106.389 Y93.593 E1.17571
G1 X105.599 Y92.803 E1.22725
G1 X106.155 Y92.803 E1.25290
G1 X106.945 Y93.593 E1.30444
G1 X107.501 Y93.593 E1.33008
G1 X106.711 Y92.803 E1.38163
G1 X107.267 Y92.803 E1.40727
G1 X108.057 Y93.593 E1.45881
G1 X108.613 Y93.593 E1.48446
G1 X107.823 Y92.803 E1.53600
G1 X108.379 Y92.803 E1.56165
G1 X109.169 Y93.593 E1.61319
G1 X109.725 Y93.593 E1.63884
G1 X108.935 Y92.803 E1.69038
G1 X109.491 Y92.803 E1.71602
G1 X110.281 Y93.593 E1.76757
G1 X110.837 Y93.593 E1.79321
G1 X110.047 Y92.803 E1.84475
G1 X110.603 Y92.803 E1.87040
G1 X111.393 Y93.593 E1.92194
G1 X111.949 Y93.593 E1.94759
G1 X111.159 Y92.803 E1.99913
G1 X111.715 Y92.803 E2.02478
G1 X112.505 Y93.593 E2.07632
G1 X113.061 Y93.593 E2.10196
G1 X112.271 Y92.803 E2.15351
G1 X112.826 Y92.803 E2.17915
G1 X113.617 Y93.593 E2.23070
G1 X114.173 Y93.593 E2.25634
G1 X113.382 Y92.803 E2.30788
G1 X113.938 Y92.803 E2.33353
G1 X114.728 Y93.593 E2.38507
G1 X115.254 Y93.563 E2.40935
G1 X114.494 Y92.803 E2.45890
G1 X115.050 Y92.803 E2.48455
G1 X115.254 Y93.007 E2.49783
G92 E0
G1 X109.154 Y99.138 F7800.000
G1 X105.108 Y95.092 E0.26394 F540.000
G1 X108.875 Y99.971 F7800.000
G1 X112.862 Y103.957 E0.52402 F540.000
G1 X113.644 Y106.407 F7800.000
G1 X114.434 Y107.197 E0.57556 F540.000
G1 X113.878 Y107.197 E0.60120
G1 X113.088 Y106.407 E0.65275
G1 X112.532 Y106.407 E0.67839
G1 X113.322 Y107.197 E0.72994
G1 X112.766 Y107.197 E0.75558
G1 X111.976 Y106.407 E0.80712
G1 X111.420 Y106.407 E0.83277
G1 X112.210 Y107.197 E0.88431
G1 X111.654 Y107.197 E0.90996
G1 X110.864 Y106.407 E0.96150
G1 X110.308 Y106.407 E0.98715
G1 X111.098 Y107.197 E1.03869
G1 X110.542 Y107.197 E1.06434
G1 X109.752 Y106.407 E1.11588
G1 X109.196 Y106.407 E1.14152
G1 X109.986 Y107.197 E1.19307
G1 X109.430 Y107.197 E1.21871
G1 X108.640 Y106.407 E1.27026
G1 X108.084 Y106.407 E1.29590
G1 X108.874 Y107.197 E1.34744
G1 X108.318 Y107.197 E1.37309
G1 X107.528 Y106.407 E1.42463
G1 X106.972 Y106.407 E1.45028
G1 X107.762 Y107.197 E1.50182
G1 X107.206 Y107.197 E1.52747
G1 X106.416 Y106.407 E1.57901
G1 X105.860 Y106.407 E1.60466
G1 X106.650 Y107.197 E1.65620
G1 X106.094 Y107.197 E1.68185
G1 X105.304 Y106.407 E1.73339
G1 X105.538 Y107.197 F7800.000
G1 X104.779 Y106.438 E1.78294 F540.000
G1 X104.779 Y106.993 E1.80858
G1 X104.982 Y107.197 E1.82186
G92 E0
G1 X104.328 Y105.956 F7800.000
G1 X100.636 Y105.956 F7800.000
G1 X100.070 Y106.010 F7800.000
G1 X96.738 Y104.552 F7800.000
G1 X84.520 Y101.427 F7800.000
G1 X84.520 Y92.577 E0.40044 F378.000
G1 X86.141 Y92.577 E0.47379
G1 X86.141 Y98.940 E0.76171
G1 X91.265 Y98.940 E0.99355 F378.000
G1 X95.241 Y92.577 E1.33306
G1 X97.085 Y92.577 E1.41649
G1 X92.799 Y99.088 E1.76920
G1 X94.155 Y99.461 E1.83286
G1 X95.023 Y99.924 E1.87735
G1 X95.728 Y100.565 E1.92046
G1 X96.249 Y101.351 E1.96315
G1 X96.563 Y102.254 E2.00638
G1 X96.668 Y103.277 E2.05292
G1 X96.519 Y104.492 E2.10830
G1 X96.077 Y105.500 E2.15809
G1 X95.342 Y106.318 E2.20785
G1 X94.328 Y106.927 E2.26138
G1 X93.048 Y107.297 E2.32170
G1 X91.487 Y107.423 E2.39254
G1 X84.520 Y107.423 E2.70779
G1 X84.520 Y101.658 E2.96867
G1 X86.141 Y101.658 F7800.000
G1 X86.141 Y100.127 E3.03793 F378.000
G1 X91.387 Y100.127 E3.27528 F378.000
G1 X92.431 Y100.215 E3.32270
G1 X93.328 Y100.485 E3.36510
G1 X94.063 Y100.943 E3.40430
G1 X94.607 Y101.573 E3.44197
G1 X94.932 Y102.349 E3.48004
G1 X95.039 Y103.258 E3.52142
G1 X94.930 Y104.137 E3.56150
G1 X94.598 Y104.880 E3.59833
G1 X94.044 Y105.469 E3.63494
G1 X93.296 Y105.888 E3.67375
G1 X92.377 Y106.134 E3.71679
G1 X91.298 Y106.214 E3.76573
G1 X86.141 Y106.214 E3.99909
G1 X86.141 Y101.889 E4.19481
G1 X85.915 Y98.824 F7800.000
G1 X84.746 Y97.655 E4.27017 F540.000
G1 X84.746 Y97.105 E4.29521
G1 X85.915 Y98.274 E4.37057
G1 X85.915 Y97.725 E4.39561
G1 X84.746 Y96.556 E4.47097
G1 X84.746 Y96.007 E4.49601
G1 X85.915 Y97.176 E4.57137
G1 X85.915 Y96.626 E4.59641
G1 X84.746 Y95.457 E4.67177
G1 X84.746 Y94.908 E4.69681
G1 X85.915 Y96.077 E4.77217
G1 X85.915 Y95.528 E4.79721
G1 X84.746 Y94.359 E4.87257
G1 X84.746 Y93.809 E4.89761
G1 X85.915 Y94.978 E4.97297
G1 X85.915 Y94.429 E4.99801
G1 X84.746 Y93.260 E5.07337
G1 X84.839 Y92.803 E5.09462
G1 X85.915 Y93.880 E5.16403
G1 X85.915 Y93.330 E5.18906
G1 X85.388 Y92.803 E5.22306
G92 E0
G1 X85.366 Y93.352 F7800.000
G1 X85.366 Y93.352 F7800.000
G1 X93.366 Y100.232 F7800.000
G1 X92.362 Y99.227 E0.06477 F540.000
G1 X92.648 Y98.964 E0.08249
G1 X91.929 Y98.245 E0.12882
G1 X92.140 Y97.907 E0.14699
G1 X92.866 Y98.633 E0.19376
G1 X93.084 Y98.302 E0.21184
G1 X92.351 Y97.569 E0.25905
G1 X92.563 Y97.231 E0.27722
G1 X93.302 Y97.970 E0.32487
G1 X93.520 Y97.639 E0.34295
G1 X92.774 Y96.893 E0.39103
G1 X92.985 Y96.555 E0.40921
G1 X93.738 Y97.308 E0.45773
G1 X93.956 Y96.976 E0.47581
G1 X93.196 Y96.217 E0.52477
G1 X93.408 Y95.879 E0.54294
G1 X94.174 Y96.645 E0.59234
G1 X94.392 Y96.314 E0.61042
G1 X93.619 Y95.541 E0.66026
G1 X93.830 Y95.203 E0.67843
G1 X94.610 Y95.983 E0.72871
G1 X94.828 Y95.651 E0.74679
G1 X94.042 Y94.864 E0.79751
G1 X94.253 Y94.526 E0.81568
G1 X95.046 Y95.320 E0.86684
G1 X95.264 Y94.989 E0.88491
G1 X94.464 Y94.188 E0.93651
G1 X94.675 Y93.850 E0.95468
G1 X95.482 Y94.657 E1.00671
G1 X95.701 Y94.326 E1.02479
G1 X94.887 Y93.512 E1.07726
G1 X95.098 Y93.174 E1.09543
G1 X95.919 Y93.995 E1.14835
G1 X96.137 Y93.664 E1.16642
G1 X95.309 Y92.836 E1.21977
G1 X95.825 Y92.803 E1.24336
G1 X96.355 Y93.332 E1.27748
G1 X96.375 Y92.803 E1.30162
G1 X96.573 Y93.001 E1.31439
G92 E0
G1 X95.414 Y101.494 F7800.000
G1 X95.414 Y101.494 F7800.000
G1 X93.877 Y99.645 F7800.000
G1 X96.186 Y101.953 E0.14879 F540.000
G1 X96.371 Y102.688 E0.18334
G1 X93.120 Y99.436 E0.39295
G1 X92.430 Y99.295 E0.42504
G1 X91.718 Y98.583 E0.47093
G1 X91.506 Y98.921 E0.48910
G1 X92.580 Y99.995 E0.55833
G1 X91.978 Y99.943 E0.58588
G1 X91.202 Y99.166 E0.63595
G1 X90.652 Y99.166 E0.66099
G1 X91.387 Y99.901 E0.70838
G1 X90.838 Y99.901 E0.73342
G1 X90.103 Y99.166 E0.78080
G1 X89.553 Y99.166 E0.80584
G1 X90.289 Y99.901 E0.85323
G1 X89.739 Y99.901 E0.87827
G1 X89.004 Y99.166 E0.92565
G1 X88.455 Y99.166 E0.95069
G1 X89.190 Y99.901 E0.99808
G1 X88.641 Y99.901 E1.02311
G1 X87.905 Y99.166 E1.07050
G1 X87.356 Y99.166 E1.09554
G1 X88.091 Y99.901 E1.14292
G1 X87.542 Y99.901 E1.16796
G1 X86.807 Y99.166 E1.21535
G1 X86.257 Y99.166 E1.24039
G1 X86.993 Y99.901 E1.28777
G1 X86.443 Y99.901 E1.31281
G1 X84.746 Y98.204 E1.42221
G1 X84.746 Y98.753 E1.44725
G1 X85.915 Y99.922 E1.52261
G1 X85.915 Y100.472 E1.54765
G1 X84.746 Y99.303 E1.62301
G1 X84.746 Y99.852 E1.64805
G1 X85.915 Y101.021 E1.72341
G1 X85.915 Y101.570 E1.74845
G1 X84.746 Y100.401 E1.82381
G1 X84.746 Y100.951 E1.84885
G1 X85.915 Y102.120 E1.92421
G1 X85.915 Y102.669 E1.94925
G1 X84.746 Y101.500 E2.02461
G1 X84.746 Y102.049 E2.04965
G1 X85.915 Y103.218 E2.12501
G1 X85.915 Y103.768 E2.15005
G1 X84.746 Y102.599 E2.22541
G1 X84.746 Y103.148 E2.25045
G1 X85.915 Y104.317 E2.32581
G1 X85.915 Y104.866 E2.35085
G1 X84.746 Y103.697 E2.42621
G1 X84.746 Y104.247 E2.45125
G1 X85.915 Y105.416 E2.52661
G1 X85.915 Y105.965 E2.55165
G1 X84.746 Y104.796 E2.62701
G1 X84.746 Y105.345 E2.65205
G1 X86.598 Y107.197 E2.77141
G1 X87.147 Y107.197 E2.79645
G1 X86.390 Y106.440 E2.84525
G1 X86.939 Y106.440 E2.87029
G1 X87.696 Y107.197 E2.91909
G1 X88.246 Y107.197 E2.94413
G1 X87.489 Y106.440 E2.99293
G1 X88.038 Y106.440 E3.01797
G1 X88.795 Y107.197 E3.06678
G1 X89.344 Y107.197 E3.09182
G1 X88.587 Y106.440 E3.14062
G1 X89.137 Y106.440 E3.16566
G1 X89.894 Y107.197 E3.21446
G1 X90.443 Y107.197 E3.23950
G1 X89.686 Y106.440 E3.28830
G1 X90.235 Y106.440 E3.31334
G1 X90.992 Y107.197 E3.36215
G1 X91.542 Y107.197 E3.38719
G1 X90.785 Y106.440 E3.43599
G1 X91.327 Y106.433 E3.46070
G1 X92.051 Y107.157 E3.50740
G1 X92.560 Y107.116 E3.53065
G1 X91.838 Y106.395 E3.57715
G1 X92.349 Y106.356 E3.60051
G1 X93.068 Y107.075 E3.64685
G1 X93.495 Y106.953 E3.66709
G1 X92.783 Y106.241 E3.71301
G1 X93.216 Y106.125 E3.73346
G1 X93.921 Y106.830 E3.77891
G1 X94.335 Y106.694 E3.79877
G1 X93.590 Y105.949 E3.84682
G1 X93.942 Y105.752 E3.86521
G1 X94.678 Y106.488 E3.91269
G1 X95.022 Y106.282 E3.93094
G1 X94.260 Y105.520 E3.98003
G1 X94.526 Y105.237 E3.99774
G1 X95.323 Y106.034 E4.04910
G1 X95.591 Y105.753 E4.06681
G1 X94.787 Y104.948 E4.11867
G1 X94.956 Y104.569 E4.13763
G1 X95.851 Y105.464 E4.19532
G1 X96.035 Y105.098 E4.21397
G1 X95.126 Y104.189 E4.27256
G1 X95.201 Y103.714 E4.29446
G1 X96.202 Y104.716 E4.35901
G1 X96.325 Y104.290 E4.37923
G1 X95.261 Y103.225 E4.44783
G1 X95.201 Y102.616 E4.47572
G1 X96.385 Y103.800 E4.55205
G1 X96.434 Y103.300 E4.57497
G1 X95.027 Y101.893 E4.66567
G92 E0
G1 X85.366 Y106.648 F7800.000
G1 X85.366 Y106.648 F7800.000
G1 X85.331 Y106.612 F7800.000
G1 X85.295 Y106.648 F7800.000
G1 X84.746 Y105.895 F7800.000
G1 X86.048 Y107.197 E0.08395 F540.000
G1 X85.499 Y107.197 E0.10898
G1 X84.746 Y106.444 E0.15752
G1 X84.746 Y106.993 E0.18256
G1 X84.950 Y107.197 E0.19568
M106 S255
G92 E0
G1 Z0.600 F7800.000
G1 X115.705 Y93.198 F7800.000
G1 X105.889 Y93.198 E2.94133 F600.000
G1 X104.789 Y93.556 E3.28802
G1 X105.185 Y94.586 E3.61865
G1 X113.535 Y105.421 E7.71765
G1 X113.928 Y106.453 E8.04874
G1 X112.842 Y106.802 E8.39055
G1 X104.328 Y106.802 E10.94174
G92 E0
G1 X100.053 Y97.602 F7800.000
G1 X100.253 Y94.163 F7800.000
G1 X97.502 Y91.352 F7800.000
G1 X89.932 Y93.918 F7800.000
G1 X89.438 Y95.644 F7800.000
G1 X86.366 Y98.715 F7800.000
G1 X85.331 Y92.352 F7800.000
G1 X85.331 Y98.715 E1.90665 F600.000
G1 X86.181 Y103.021 E3.22178
G92 E0
G1 X85.366 Y106.648 F7800.000
G1 X85.366 Y106.648 F7800.000
G1 X91.161 Y98.681 F7800.000
G1 X92.464 Y99.535 E0.46678 F600.000
G1 X92.634 Y99.623 E0.52394
G1 X92.939 Y99.745 E0.62257
G1 X93.682 Y99.974 E0.85543
G1 X93.911 Y100.075 E0.93036
G1 X94.391 Y100.352 E1.09667
G1 X94.614 Y100.504 E1.17750
G1 X95.154 Y101.058 E1.40909
G1 X95.318 Y101.314 E1.50046
G1 X95.528 Y101.708 E1.63417
G1 X95.646 Y102.016 E1.73297
G1 X95.762 Y102.431 E1.86220
G1 X95.850 Y103.269 E2.11448
G1 X95.728 Y104.275 E2.41823
G1 X95.395 Y105.060 E2.67376
G1 X95.328 Y105.164 E2.71087
G1 X95.125 Y105.426 E2.81032
G1 X94.852 Y105.723 E2.93105
G1 X94.355 Y106.096 E3.11711
G1 X94.044 Y106.276 E3.22480
G1 X93.435 Y106.516 E3.42117
G1 X92.930 Y106.657 E3.57799
G1 X92.556 Y106.721 E3.69190
G1 X91.290 Y106.818 E4.07228
G1 X86.366 Y106.818 E5.54774
G1 X85.404 Y106.539 E5.84799
G1 X85.331 Y105.989 E6.01436
G1 X85.331 Y100.352 E7.70347
G1 X85.492 Y99.533 E7.95347
G1 X91.140 Y99.533 E9.64580
G1 X91.448 Y99.506 E9.73846
G1 X92.095 Y99.293 E9.94243
G1 X92.390 Y98.448 E10.21058
G1 X96.300 Y92.352 E12.38070
G92 E0
G1 Z0.900 F7800.000
G1 X115.705 Y93.198 F7800.000
G1 X105.889 Y93.198 E2.94133 F600.000
G1 X104.789 Y93.556 E3.28802
G1 X105.185 Y94.586 E3.61865
G1 X113.535 Y105.421 E7.71765
G1 X113.928 Y106.453 E8.04874
G1 X112.842 Y106.802 E8.39055
G1 X104.328 Y106.802 E10.94174
G92 E0
G1 X100.053 Y97.602 F7800.000
G1 X100.253 Y94.163 F7800.000
G1 X97.502 Y91.352 F7800.000
G1 X89.932 Y93.918 F7800.000
G1 X89.438 Y95.644 F7800.000
G1 X86.366 Y98.715 F7800.000
G1 X85.331 Y92.352 F7800.000
G1 X85.331 Y98.715 E1.90665 F600.000
G1 X86.181 Y103.021 E3.22178
G92 E0
G1 X85.366 Y106.648 F7800.000
G1 X85.366 Y106.648 F7800.000
G1 X91.161 Y98.681 F7800.000
G1 X92.464 Y99.535 E0.46678 F600.000
G1 X92.634 Y99.623 E0.52394
G1 X92.939 Y99.745 E0.62257
G1 X93.682 Y99.974 E0.85543
G1 X93.911 Y100.075 E0.93036
G1 X94.391 Y100.352 E1.09667
G1 X94.614 Y100.504 E1.17750
G1 X95.154 Y101.058 E1.40909
G1 X95.318 Y101.314 E1.50046
G1 X95.528 Y101.708 E1.63417
G1 X95.646 Y102.016 E1.73297
G1 X95.762 Y102.431 E1.86220
G1 X95.850 Y103.269 E2.11448
G1 X95.728 Y104.275 E2.41823
G1 X95.395 Y105.060 E2.67376
G1 X95.328 Y105.164 E2.71087
G1 X95.125 Y105.426 E2.81032
G1 X94.852 Y105.723 E2.93105
G1 X94.355 Y106.096 E3.11711
G1 X94.044 Y106.276 E3.22480
G1 X93.435 Y106.516 E3.42117
G1 X92.930 Y106.657 E3.57799
G1 X92.556 Y106.721 E3.69190
G1 X91.290 Y106.818 E4.07228
G1 X86.366 Y106.818 E5.54774
G1 X85.404 Y106.539 E5.84799
G1 X85.331 Y105.989 E6.01436
G1 X85.331 Y100.352 E7.70347
G1 X85.492 Y99.533 E7.95347
G1 X91.140 Y99.533 E9.64580
G1 X91.448 Y99.506 E9.73846
G1 X92.095 Y99.293 E9.94243
G1 X92.390 Y98.448 E10.21058
G1 X96.300 Y92.352 E12.38070
G92 E0
G1 Z1.200 F7800.000
G1 X115.705 Y93.198 F7800.000
G1 X105.889 Y93.198 E2.94133 F600.000
G1 X104.789 Y93.556 E3.28802
G1 X105.185 Y94.586 E3.61865
G1 X113.535 Y105.421 E7.71765
G1 X113.928 Y106.453 E8.04874
G1 X112.842 Y106.802 E8.39055
G1 X104.328 Y106.802 E10.94174
G92 E0
G1 X100.053 Y97.602 F7800.000
G1 X100.253 Y94.163 F7800.000
G1 X97.502 Y91.352 F7800.000
G1 X89.932 Y93.918 F7800.000
G1 X89.438 Y95.644 F7800.000
G1 X86.366 Y98.715 F7800.000
G1 X85.331 Y92.352 F7800.000
G1 X85.331 Y98.715 E1.90665 F600.000
G1 X86.181 Y103.021 E3.22178
G92 E0
G1 X85.366 Y106.648 F7800.000
G1 X85.366 Y106.648 F7800.000
G1 X91.161 Y98.681 F7800.000
G1 X92.464 Y99.535 E0.46678 F600.000
G1 X92.634 Y99.623 E0.52394
G1 X92.939 Y99.745 E0.62257
G1 X93.682 Y99.974 E0.85543
G1 X93.911 Y100.075 E0.93036
G1 X94.391 Y100.352 E1.09667
G1 X94.614 Y100.504 E1.17750
G1 X95.154 Y101.058 E1.40909
G1 X95.318 Y101.314 E1.50046
G1 X95.528 Y101.708 E1.63417
G1 X95.646 Y102.016 E1.73297
G1 X95.762 Y102.431 E1.86220
G1 X95.850 Y103.269 E2.11448
G1 X95.728 Y104.275 E2.41823
G1 X95.395 Y105.060 E2.67376
G1 X95.328 Y105.164 E2.71087
G1 X95.125 Y105.426 E2.81032
G1 X94.852 Y105.723 E2.93105
G1 X94.355 Y106.096 E3.11711
G1 X94.044 Y106.276 E3.22480
G1 X93.435 Y106.516 E3.42117
G1 X92.930 Y106.657 E3.57799
G1 X92.556 Y106.721 E3.69190
G1 X91.290 Y106.818 E4.07228
G1 X86.366 Y106.818 E5.54774
G1 X85.404 Y106.539 E5.84799
G1 X85.331 Y105.989 E6.01436
G1 X85.331 Y100.352 E7.70347
G1 X85.492 Y99.533 E7.95347
G1 X91.140 Y99.533 E9.64580
G1 X91.448 Y99.506 E9.73846
G1 X92.095 Y99.293 E9.94243
G1 X92.390 Y98.448 E10.21058
G1 X96.300 Y92.352 E12.38070
G92 E0
G1 Z1.500 F7800.000
G1 X115.705 Y93.198 F7800.000
G1 X105.889 Y93.198 E2.94133 F600.000
G1 X104.789 Y93.556 E3.28802
G1 X105.185 Y94.586 E3.61865
G1 X113.535 Y105.421 E7.71765
G1 X113.928 Y106.453 E8.04874
G1 X112.842 Y106.802 E8.39055
G1 X104.328 Y106.802 E10.94174
G92 E0
G1 X100.053 Y97.602 F7800.000
G1 X100.253 Y94.163 F7800.000
G1 X97.502 Y91.352 F7800.000
G1 X89.932 Y93.918 F7800.000
G1 X89.438 Y95.644 F7800.000
G1 X86.366 Y98.715 F7800.000
G1 X85.331 Y92.352 F7800.000
G1 X85.331 Y98.715 E1.90665 F600.000
G1 X86.181 Y103.021 E3.22178
G92 E0
G1 X85.366 Y106.648 F7800.000
G1 X85.366 Y106.648 F7800.000
G1 X91.161 Y98.681 F7800.000
G1 X92.464 Y99.535 E0.46678 F600.000
G1 X92.634 Y99.623 E0.52394
G1 X92.939 Y99.745 E0.62257
G1 X93.682 Y99.974 E0.85543
G1 X93.911 Y100.075 E0.93036
G1 X94.391 Y100.352 E1.09667
G1 X94.614 Y100.504 E1.17750
