; generated by Slic3r 1.2.9 on 2016-03-11 at 01:29:53

; external perimeters extrusion width = 1.54mm
; perimeters extrusion width = 2.62mm
; infill extrusion width = 6.27mm
; solid infill extrusion width = 2.62mm
; top infill extrusion width = 2.62mm

M107
M104 S30 ; set temperature
G28 ; home all axes
G1 Z5 F5000 ; lift nozzle
M302
M92 E10000
M500
M501
G1 E100
M109 S30 ; wait for temperature to be reached
G21 ; set units to millimeters
G90 ; use absolute coordinates
M82 ; use absolute distances for extrusion
G92 E0
G1 Z0.300 F7800.000
G1 X90.105 Y93.560 F7800.000
G1 X89.037 Y93.624 E0.04839 F378.000
G1 X87.979 Y93.847 E0.09731
G1 X87.093 Y94.225 E0.14093
G1 X86.381 Y94.774 E0.18157
G1 X85.855 Y95.498 E0.22210
G1 X85.594 Y96.185 E0.25533
G1 X84.067 Y95.880 E0.32581
G1 X85.013 Y94.045 E0.41921
G1 X87.072 Y92.808 E0.52790
G1 X90.199 Y92.386 E0.67066
G1 X91.762 Y92.495 E0.74158
G1 X92.005 Y92.512 E0.75259 F378.000
G1 X93.510 Y92.886 E0.82276
G1 X94.707 Y93.502 E0.88370
G1 X95.573 Y94.330 E0.93790
G1 X96.089 Y95.351 E0.98967
G1 X96.264 Y96.593 E1.04643
G1 X96.240 Y97.090 E1.06894
G1 X96.167 Y97.546 E1.08984
G1 X96.046 Y97.953 E1.10905
G1 X95.883 Y98.320 E1.12723
G1 X95.683 Y98.653 E1.14479
G1 X95.446 Y98.952 E1.16203
G1 X95.174 Y99.220 E1.17933
G1 X94.871 Y99.461 E1.19688
G1 X94.532 Y99.675 E1.21497
G1 X94.168 Y99.867 E1.23359
G1 X93.372 Y100.205 E1.27275
G1 X92.512 Y100.480 E1.31359
G1 X89.412 Y101.222 E1.45782
G1 X88.465 Y101.487 E1.50232
G1 X87.819 Y101.724 E1.53349
G1 X87.359 Y101.967 E1.55700
G1 X86.972 Y102.246 E1.57860
G1 X86.656 Y102.568 E1.59901
G1 X86.421 Y102.947 E1.61917
G1 X86.281 Y103.384 E1.63995
G1 X86.235 Y103.877 E1.66235
G1 X86.351 Y104.675 E1.69885
G1 X86.710 Y105.346 E1.73329
G1 X87.300 Y105.864 E1.76881
G1 X88.089 Y106.224 E1.80808
G1 X89.060 Y106.434 E1.85302
G1 X90.213 Y106.503 E1.90529
G1 X91.273 Y106.441 E1.95331
G1 X92.179 Y106.250 E1.99524
G1 X92.934 Y105.925 E2.03242
G1 X93.542 Y105.449 E2.06737
G1 X94.002 Y104.813 E2.10289
G1 X94.236 Y104.221 E2.13167
G1 X95.821 Y104.500 E2.20448
G1 X95.474 Y105.373 E2.24700
G1 X94.865 Y106.231 E2.29458
G1 X94.089 Y106.848 E2.33944
G1 X93.087 Y107.270 E2.38866
G1 X91.801 Y107.528 E2.44800
G1 X90.236 Y107.615 E2.51894
G1 X88.551 Y107.499 E2.59533
G1 X87.166 Y107.157 E2.65992
G1 X86.076 Y106.595 E2.71540
G1 X85.295 Y105.839 E2.76458
G1 X84.829 Y104.901 E2.81198
G1 X84.670 Y103.754 E2.86439
G1 X84.700 Y103.243 E2.88756
G1 X84.789 Y102.768 E2.90940
G1 X84.937 Y102.338 E2.92999
G1 X85.142 Y101.947 E2.94998
G1 X85.399 Y101.589 E2.96992
G1 X85.710 Y101.265 E2.99022
G1 X86.091 Y100.966 E3.01215
G1 X86.562 Y100.681 E3.03705
G1 X87.123 Y100.413 E3.06518
G1 X87.827 Y100.153 E3.09914
G1 X88.728 Y99.890 E3.14161
G1 X91.727 Y99.180 E3.28106
G1 X92.281 Y99.030 E3.30705
G1 X92.787 Y98.855 E3.33127
G1 X93.244 Y98.655 E3.35384
G1 X93.650 Y98.420 E3.37508
G1 X93.998 Y98.141 E3.39524
G1 X94.285 Y97.817 E3.41486
G1 X94.499 Y97.431 E3.43481
G1 X94.626 Y96.981 E3.45596
G1 X94.668 Y96.467 E3.47928
G1 X94.537 Y95.589 E3.51947
G1 X94.137 Y94.847 E3.55761
G1 X93.478 Y94.270 E3.59724
G1 X92.601 Y93.866 E3.64094
G1 X91.531 Y93.629 E3.69053
G1 X90.335 Y93.555 E3.74474
G1 X93.328 Y93.099 F7800.000
G1 X95.893 Y95.664 E3.90992 F540.000
G1 X95.983 Y96.303 E3.93932
G1 X94.357 Y94.677 E4.04402
G1 X94.068 Y94.388 F7800.000
G1 X92.594 Y92.914 E4.13896 F540.000
G1 X91.865 Y92.734 E4.17314
G1 X92.789 Y93.658 E4.23263
G1 X92.081 Y93.499 E4.26567
G1 X91.276 Y92.693 E4.31757
G1 X90.686 Y92.652 E4.34450
G1 X91.424 Y93.390 E4.39204
G1 X90.839 Y93.354 E4.41874
G1 X90.101 Y92.617 E4.46623
G1 X89.618 Y92.682 E4.48845
G1 X90.265 Y93.329 E4.53012
G1 X89.747 Y93.360 E4.55375
G1 X89.134 Y92.747 E4.59321
G1 X88.651 Y92.813 E4.61544
G1 X89.229 Y93.391 E4.65268
G1 X88.757 Y93.468 E4.67447
G1 X88.167 Y92.878 E4.71245
G1 X87.683 Y92.943 E4.73467
G1 X88.303 Y93.563 E4.77460
G1 X87.868 Y93.677 E4.79510
G1 X87.200 Y93.009 E4.83813
G1 X86.826 Y93.184 E4.85692
G1 X87.483 Y93.841 E4.89923
G1 X87.098 Y94.005 E4.91828
G1 X86.483 Y93.390 E4.95789
G1 X86.140 Y93.596 E4.97611
G1 X86.773 Y94.228 E5.01683
G1 X86.463 Y94.467 E5.03465
G1 X85.798 Y93.802 E5.07750
G1 X85.455 Y94.008 E5.09572
G1 X86.175 Y94.728 E5.14212
G1 X85.944 Y95.046 E5.16002
G1 X85.137 Y94.239 E5.21200
G1 X84.949 Y94.600 E5.23053
G1 X85.713 Y95.364 E5.27973
G1 X85.545 Y95.745 E5.29869
G1 X84.762 Y94.962 E5.34909
G1 X84.576 Y95.324 E5.36764
G1 X85.086 Y95.835 E5.40053
G92 E0
G1 X86.564 Y101.585 F7800.000
G1 X86.564 Y101.585 F7800.000
G1 X87.135 Y100.628 F7800.000
G1 X87.962 Y101.455 E0.05329 F540.000
G1 X87.583 Y101.625 E0.07220
G1 X86.763 Y100.805 E0.12501
G1 X86.410 Y101.001 E0.14340
G1 X87.230 Y101.821 E0.19621
G1 X86.912 Y102.051 E0.21411
G1 X86.080 Y101.220 E0.26769
G1 X85.780 Y101.469 E0.28544
G1 X86.631 Y102.320 E0.34023
G1 X86.390 Y102.627 E0.35803
G1 X85.518 Y101.755 E0.41420
G1 X85.294 Y102.081 E0.43218
G1 X86.195 Y102.981 E0.49018
G1 X86.062 Y103.397 E0.51006
G1 X85.114 Y102.450 E0.57105
G1 X84.986 Y102.870 E0.59107
G1 X86.013 Y103.897 E0.65722
G1 X86.087 Y104.521 E0.68581
G1 X84.915 Y103.349 E0.76130
G1 X84.932 Y103.915 E0.78709
G1 X86.438 Y105.420 E0.88408
G1 X87.072 Y106.054 F7800.000
G1 X88.166 Y107.149 E0.95459 F540.000
G1 X88.028 Y106.461 E0.98651
G1 X88.854 Y107.288 E1.03972
G1 X89.444 Y107.328 E1.06662
G1 X88.729 Y106.613 E1.11264
G1 X89.348 Y106.683 E1.14099
G1 X90.033 Y107.368 E1.18513
G1 X90.587 Y107.373 E1.21035
G1 X89.931 Y106.718 E1.25255
G1 X90.472 Y106.710 E1.27718
G1 X91.107 Y107.344 E1.31805
G1 X91.627 Y107.315 E1.34177
G1 X90.990 Y106.679 E1.38276
G1 X91.474 Y106.614 E1.40499
G1 X92.110 Y107.250 E1.44596
G1 X92.567 Y107.158 E1.46719
G1 X91.927 Y106.518 E1.50840
G1 X92.352 Y106.394 E1.52854
G1 X93.024 Y107.067 E1.57187
G1 X93.419 Y106.912 E1.59116
G1 X92.735 Y106.229 E1.63519
G1 X93.098 Y106.042 E1.65374
G1 X93.805 Y106.750 E1.69932
G1 X94.154 Y106.550 E1.71764
G1 X93.405 Y105.801 E1.76587
G1 X93.706 Y105.552 E1.78363
G1 X94.460 Y106.307 E1.83221
G1 X94.747 Y106.045 E1.84990
G1 X93.936 Y105.234 E1.90211
G1 X94.167 Y104.916 E1.92002
G1 X94.982 Y105.731 E1.97253
G1 X95.210 Y105.410 E1.99046
G1 X94.331 Y104.531 E2.04710
G1 X94.939 Y104.590 E2.07493
G1 X95.389 Y105.040 E2.10394
G92 E0
G1 X94.226 Y98.952 F7800.000
G1 X94.226 Y98.952 F7800.000
G1 X93.553 Y99.910 F7800.000
G1 X92.732 Y99.089 E0.05287 F540.000
G1 X93.119 Y98.928 E0.07198
G1 X93.938 Y99.747 E0.12472
G1 X94.310 Y99.569 E0.14347
G1 X93.483 Y98.743 E0.19669
G1 X93.820 Y98.531 E0.21482
G1 X94.656 Y99.367 E0.26863
G1 X94.972 Y99.135 E0.28652
G1 X94.125 Y98.287 E0.34111
G1 X94.383 Y97.996 E0.35882
G1 X95.256 Y98.869 E0.41506
G1 X95.504 Y98.568 E0.43282
G1 X94.596 Y97.661 E0.49127
G1 X94.758 Y97.274 E0.51038
G1 X95.707 Y98.223 E0.57150
G1 X95.866 Y97.833 E0.59067
G1 X94.859 Y96.825 E0.65557
G1 X94.884 Y96.302 E0.67943
G1 X95.975 Y97.393 E0.74965
G1 X96.027 Y96.896 E0.77238
G1 X94.789 Y95.658 E0.85215
G1 X95.433 Y94.655 F7800.000
G1 X94.591 Y93.813 E0.90637 F540.000
G1 X95.447 Y96.442 F7800.000
G1 X95.435 Y97.006 F7800.000
G1 X95.368 Y97.364 F7800.000
G1 X95.251 Y97.745 F7800.000
G1 X94.945 Y98.287 F7800.000
G1 X94.643 Y98.620 F7800.000
G1 X94.545 Y98.713 F7800.000
G1 X94.535 Y98.704 F7800.000
G1 X92.324 Y99.230 F7800.000
G1 X93.153 Y100.060 E0.95980 F540.000
G1 X92.738 Y100.193 E0.97967
G1 X91.894 Y99.350 E1.03401
G1 X91.455 Y99.459 E1.05461
G1 X92.309 Y100.314 E1.10964
G1 X91.867 Y100.420 E1.13039
G1 X91.011 Y99.564 E1.18548
G1 X90.567 Y99.670 E1.20625
G1 X91.424 Y100.526 E1.26140
G1 X90.981 Y100.632 E1.28214
G1 X90.124 Y99.775 E1.33735
G1 X89.680 Y99.880 E1.35812
G1 X90.538 Y100.738 E1.41339
G1 X90.095 Y100.844 E1.43413
G1 X89.236 Y99.985 E1.48945
G1 X88.792 Y100.090 E1.51022
G1 X89.652 Y100.950 E1.56561
G1 X89.216 Y101.062 E1.58613
G1 X88.364 Y100.211 E1.64096
G1 X87.939 Y100.335 E1.66111
G1 X88.787 Y101.182 E1.71568
G1 X88.364 Y101.308 E1.73577
G1 X87.533 Y100.478 E1.78926
G1 X85.020 Y104.551 F7800.000
G1 X87.437 Y106.968 E1.94493 F540.000
G1 X86.350 Y106.430 F7800.000
G1 X85.437 Y105.517 E2.00374 F540.000
G92 E0
G1 X93.153 Y107.486 F7800.000
G1 X98.630 Y106.657 F7800.000
G1 X99.882 Y97.280 F7800.000
G1 X98.655 Y93.197 F7800.000
G1 X101.572 Y91.256 F7800.000
G1 X107.740 Y93.488 F7800.000
G1 X105.830 Y96.288 F7800.000
G1 X105.471 Y96.816 F7800.000
G1 X114.042 Y97.312 F7800.000
G1 X109.995 Y107.423 E0.49281 F378.000
G1 X107.945 Y107.423 E0.58554
G1 X101.906 Y92.577 E1.31076
G1 X103.565 Y92.577 E1.38584
G1 X105.130 Y96.563 E1.57962
G1 X105.317 Y97.041 E1.60283 F378.000
G1 X112.568 Y97.041 E1.93090
G1 X114.309 Y92.577 E2.14771
G1 X115.937 Y92.577 E2.22141
G1 X114.128 Y97.098 E2.44174
G1 X112.126 Y98.207 F7800.000
G1 X109.850 Y104.086 E2.72701 F378.000
G1 X109.141 Y106.198 E2.82781
G1 X108.742 Y106.197 E2.84587
G1 X108.423 Y105.195 E2.89345
G1 X107.834 Y103.544 E2.97276
G1 X105.770 Y98.207 E3.23171
G1 X111.895 Y98.207 E3.50889 F378.000
G1 X111.004 Y97.267 F7800.000
G1 X111.718 Y97.981 E3.55504 F540.000
G1 X111.167 Y97.981 E3.58020
G1 X110.453 Y97.267 E3.62635
G1 X109.902 Y97.267 E3.65151
G1 X110.617 Y97.981 E3.69766
G1 X110.066 Y97.981 E3.72283
G1 X109.352 Y97.267 E3.76897
G1 X108.801 Y97.267 E3.79414
G1 X109.515 Y97.981 E3.84028
G1 X108.964 Y97.981 E3.86545
G1 X108.250 Y97.267 E3.91160
G1 X107.700 Y97.267 E3.93676
G1 X108.414 Y97.981 E3.98291
G1 X107.863 Y97.981 E4.00807
G1 X107.149 Y97.267 E4.05422
G1 X106.598 Y97.267 E4.07938
G1 X107.312 Y97.981 E4.12553
G1 X106.762 Y97.981 E4.15070
G1 X106.047 Y97.267 E4.19684
G1 X105.497 Y97.267 E4.22201
G1 X106.211 Y97.981 E4.26815
G1 X105.660 Y97.981 E4.29332
G1 X103.516 Y95.837 E4.43187
G1 X103.894 Y96.765 F7800.000
G1 X105.587 Y98.459 E4.54131 F540.000
G1 X104.649 Y98.622 F7800.000
G1 X106.282 Y100.255 E4.64683 F540.000
G1 X105.404 Y100.479 F7800.000
G1 X106.976 Y102.051 E4.74844 F540.000
G1 X106.159 Y102.335 F7800.000
G1 X107.666 Y103.842 E4.84579 F540.000
G1 X106.915 Y104.192 F7800.000
G1 X108.267 Y105.544 E4.93319 F540.000
G1 X107.670 Y106.049 F7800.000
G1 X108.818 Y107.197 E5.00739 F540.000
G1 X109.369 Y107.197 E5.03256
G1 X108.595 Y106.423 E5.08258
G1 X109.147 Y106.424 E5.10780
G1 X109.877 Y107.154 E5.15499
G1 X110.040 Y106.767 E5.17420
G1 X109.385 Y106.112 E5.21652
G1 X109.524 Y105.700 E5.23639
G1 X110.198 Y106.374 E5.27993
G1 X110.355 Y105.980 E5.29929
G1 X109.662 Y105.288 E5.34405
G1 X109.801 Y104.875 E5.36393
G1 X110.512 Y105.587 E5.40992
G1 X110.670 Y105.194 E5.42927
G1 X109.939 Y104.463 E5.47649
G1 X110.080 Y104.053 E5.49630
G1 X110.827 Y104.800 E5.54460
G1 X110.985 Y104.407 E5.56396
G1 X110.234 Y103.656 E5.61251
G1 X110.387 Y103.259 E5.63196
G1 X111.142 Y104.014 E5.68075
G1 X111.300 Y103.621 E5.70011
G1 X110.541 Y102.862 E5.74914
G1 X110.695 Y102.465 E5.76859
G1 X111.457 Y103.227 E5.81786
G1 X111.615 Y102.834 E5.83722
G1 X110.848 Y102.068 E5.88674
G1 X111.002 Y101.671 E5.90619
G1 X111.772 Y102.441 E5.95595
G1 X111.929 Y102.047 E5.97531
G1 X111.156 Y101.274 E6.02531
G1 X111.309 Y100.877 E6.04476
G1 X112.087 Y101.654 E6.09500
G1 X112.244 Y101.261 E6.11436
G1 X111.463 Y100.480 E6.16485
G1 X111.617 Y100.083 E6.18430
G1 X112.402 Y100.868 E6.23503
G1 X112.559 Y100.474 E6.25438
G1 X111.770 Y99.686 E6.30535
G1 X111.924 Y99.289 E6.32481
G1 X112.717 Y100.081 E6.37602
G1 X112.874 Y99.688 E6.39538
G1 X112.078 Y98.892 E6.44683
G1 X112.231 Y98.495 E6.46629
G1 X113.031 Y99.294 E6.51798
G1 X113.189 Y98.901 E6.53734
G1 X111.555 Y97.267 E6.64295
G1 X112.105 Y97.267 E6.66812
G1 X113.346 Y98.508 E6.74831
G1 X113.504 Y98.115 E6.76767
G1 X112.656 Y97.267 E6.82245
G1 X112.839 Y96.900 E6.84121
G1 X113.661 Y97.721 E6.89432
G1 X113.819 Y97.328 E6.91367
G1 X112.994 Y96.503 E6.96697
G1 X113.148 Y96.107 E6.98640
G1 X113.976 Y96.935 E7.03988
G1 X114.133 Y96.541 E7.05924
G1 X113.303 Y95.711 E7.11291
G1 X113.457 Y95.315 E7.13234
G1 X114.291 Y96.148 E7.18620
G1 X114.448 Y95.755 E7.20556
G1 X113.612 Y94.919 E7.25960
G1 X113.766 Y94.522 E7.27904
G1 X114.606 Y95.362 E7.33327
G1 X114.763 Y94.968 E7.35263
G1 X113.921 Y94.126 E7.40705
G1 X114.076 Y93.730 E7.42648
G1 X114.921 Y94.575 E7.48110
G1 X115.078 Y94.182 E7.50045
G1 X114.230 Y93.334 E7.55525
G1 X114.385 Y92.938 E7.57468
G1 X115.235 Y93.789 E7.62967
G1 X115.393 Y93.395 E7.64903
G1 X114.801 Y92.803 E7.68730
G1 X115.351 Y92.803 E7.71247
G1 X115.550 Y93.002 E7.72533
G92 E0
G1 X104.885 Y96.655 F7800.000
G1 X103.138 Y94.909 E0.11288 F540.000
G1 X102.761 Y93.980 F7800.000
G1 X104.529 Y95.749 E0.22717 F540.000
G1 X104.174 Y94.842 F7800.000
G1 X102.383 Y93.052 E0.34287 F540.000
G1 X103.462 Y93.029 F7800.000
G1 X103.236 Y92.803 E0.35751 F540.000
G1 X102.685 Y92.803 E0.38267
G1 X103.818 Y93.936 E0.45589
G1 X104.271 Y97.694 F7800.000
G1 X105.934 Y99.357 E0.56337 F540.000
G1 X105.027 Y99.550 F7800.000
G1 X106.629 Y101.153 E0.66693 F540.000
G1 X105.782 Y101.407 F7800.000
G1 X107.324 Y102.949 E0.76659 F540.000
G1 X106.537 Y103.264 F7800.000
G1 X107.972 Y104.698 E0.85929 F540.000
G1 X107.292 Y105.120 F7800.000
G1 X108.524 Y106.352 E0.93890 F540.000
G1 X108.048 Y106.977 F7800.000
G1 X108.267 Y107.197 E0.95312 F540.000
M106 S255
G92 E0
G1 Z0.600 F7800.000
G1 X95.383 Y104.194 F7800.000
G1 X94.304 Y105.700 E0.55491 F600.000
G1 X93.960 Y106.033 E0.69861
G1 X93.719 Y106.223 E0.79047
G1 X93.367 Y106.430 E0.91290
G1 X92.896 Y106.647 E1.06843
G1 X92.279 Y106.831 E1.26132
G1 X91.727 Y106.944 E1.43013
G1 X91.289 Y106.998 E1.56234
G1 X90.239 Y107.058 E1.87734
G1 X89.045 Y106.983 E2.23604
G1 X88.641 Y106.930 E2.35814
G1 X87.993 Y106.780 E2.55716
G1 X87.383 Y106.577 E2.74987
G1 X86.867 Y106.307 E2.92443
G1 X86.474 Y106.040 E3.06681
G1 X86.298 Y105.878 E3.13853
G1 X86.080 Y105.636 E3.23612
G1 X85.899 Y105.397 E3.32585
G1 X85.723 Y105.055 E3.44122
G1 X85.573 Y104.671 E3.56452
G1 X85.480 Y104.014 E3.76346
G1 X85.459 Y103.723 E3.85101
G1 X85.489 Y103.334 E3.96773
G1 X85.568 Y102.975 E4.07801
G1 X85.676 Y102.656 E4.17894
G1 X85.756 Y102.501 E4.23119
G1 X86.013 Y102.100 E4.37392
G1 X86.244 Y101.855 E4.47475
G1 X86.533 Y101.606 E4.58915
G1 X86.922 Y101.349 E4.72877
G1 X87.460 Y101.077 E4.90935
G1 X88.277 Y100.782 E5.16988
G1 X89.212 Y100.523 E5.46061
G1 X92.316 Y99.777 E6.41695
G1 X93.089 Y99.524 E6.66081
G1 X93.626 Y99.291 E6.83614
G1 X94.145 Y99.010 E7.01302
G1 X94.476 Y98.768 E7.13578
G1 X94.842 Y98.410 E7.28921
G1 X95.011 Y98.188 E7.37288
G1 X95.154 Y97.941 E7.45825
G1 X95.279 Y97.670 E7.54786
G1 X95.368 Y97.364 E7.64339
G1 X95.435 Y97.006 E7.75243
G1 X95.459 Y96.630 E7.86529
G1 X95.437 Y96.327 E7.95632
G1 X95.330 Y95.589 E8.17976
G1 X95.176 Y95.199 E8.30541
G1 X94.959 Y94.785 E8.44550
G1 X94.778 Y94.547 E8.53511
G1 X94.557 Y94.305 E8.63322
G1 X94.302 Y94.072 E8.73701
G1 X93.709 Y93.690 E8.94806
G1 X93.285 Y93.484 E9.08945
G1 X92.704 Y93.289 E9.27307
G1 X91.911 Y93.103 E9.51706
G1 X91.673 Y93.068 E9.58913
G1 X90.217 Y92.971 E10.02639
G1 X88.910 Y93.102 E10.42013
G1 X87.728 Y93.314 E10.78003
G1 X87.292 Y93.434 E10.91553
G1 X86.877 Y93.646 E11.05523
G1 X86.001 Y94.228 E11.37028
G1 X85.586 Y94.582 E11.53378
G1 X85.179 Y95.275 E11.77441
G1 X84.747 Y96.245 E12.09277
G92 E0
G1 X90.191 Y92.160 F7800.000
G1 X90.191 Y92.160 F7800.000
G1 X90.261 Y91.161 F7800.000
G1 X91.697 Y91.211 F7800.000
G1 X92.114 Y91.226 F7800.000
G1 X92.301 Y91.240 F7800.000
G1 X93.898 Y91.436 F7800.000
G1 X94.198 Y91.491 F7800.000
G1 X95.603 Y91.831 F7800.000
G1 X96.106 Y91.993 F7800.000
G1 X97.375 Y92.502 F7800.000
G1 X98.237 Y92.940 F7800.000
G1 X98.655 Y93.197 F7800.000
G1 X98.779 Y93.488 F7800.000
G1 X101.572 Y92.352 F7800.000
G1 X106.949 Y100.633 F7800.000
G1 X104.573 Y97.168 E1.25890 F600.000
G1 X102.648 Y92.352 E2.81311
G92 E0
G1 X113.334 Y94.457 F7800.000
G1 X112.680 Y98.774 E1.30813 F600.000
G1 X110.497 Y104.320 E3.09418
G1 X109.789 Y106.245 E3.70873
G1 X109.521 Y106.723 E3.87305
G1 X108.977 Y106.810 E4.03792
G1 X108.407 Y106.736 E4.21017
G1 X108.114 Y106.225 E4.38676
G1 X107.197 Y103.781 E5.16887
G1 X105.211 Y98.775 E6.78269
G1 X105.074 Y97.900 E7.04820
G1 X105.471 Y97.746 E7.17570
G1 X106.098 Y97.624 E7.36708
G1 X111.798 Y97.624 E9.07507
G1 X112.414 Y97.741 E9.26297
G1 X112.813 Y97.894 E9.39110
G1 X113.309 Y97.165 E9.65512
