; generated by Slic3r 1.2.9 on 2016-03-11 at 01:29:57

; external perimeters extrusion width = 1.54mm
; perimeters extrusion width = 2.62mm
; infill extrusion width = 6.27mm
; solid infill extrusion width = 2.62mm
; top infill extrusion width = 2.62mm

M107
M104 S30 ; set temperature
G28 ; home all axes
G1 Z5 F5000 ; lift nozzle
M302
M92 E10000
M500
M501
G1 E100
M109 S30 ; wait for temperature to be reached
G21 ; set units to millimeters
G90 ; use absolute coordinates
M82 ; use absolute distances for extrusion
G92 E0
G1 Z0.300 F7800.000
G1 X92.729 Y93.985 F7800.000
G1 X92.471 Y93.866 E0.01282 F378.000
G1 X91.402 Y93.629 E0.06241
G1 X90.138 Y93.551 E0.11969
G1 X88.908 Y93.624 E0.17546
G1 X87.850 Y93.847 E0.22438
G1 X86.963 Y94.225 E0.26800
G1 X86.252 Y94.774 E0.30865
G1 X85.725 Y95.498 E0.34918
G1 X85.465 Y96.185 E0.38240
G1 X83.937 Y95.880 E0.45288
G1 X84.883 Y94.045 E0.54628
G1 X86.943 Y92.808 E0.65498
G1 X90.069 Y92.386 E0.79773
G1 X91.633 Y92.495 E0.86866
G1 X91.875 Y92.512 E0.87967 F378.000
G1 X93.380 Y92.886 E0.94984
G1 X94.578 Y93.502 E1.01077
G1 X95.444 Y94.330 E1.06498
G1 X95.960 Y95.351 E1.11674
G1 X96.135 Y96.593 E1.17351
G1 X96.111 Y97.090 E1.19602
G1 X96.037 Y97.546 E1.21692
G1 X95.916 Y97.953 E1.23612
G1 X95.753 Y98.320 E1.25431
G1 X95.553 Y98.653 E1.27187
G1 X95.317 Y98.952 E1.28911
G1 X95.045 Y99.220 E1.30641
G1 X94.741 Y99.461 E1.32395
G1 X94.403 Y99.675 E1.34205
G1 X94.039 Y99.867 E1.36067
G1 X93.242 Y100.205 E1.39983
G1 X92.383 Y100.480 E1.44067
G1 X89.283 Y101.222 E1.58490
G1 X88.336 Y101.487 E1.62939
G1 X87.689 Y101.724 E1.66057
G1 X87.230 Y101.967 E1.68408
G1 X86.843 Y102.246 E1.70568
G1 X86.527 Y102.568 E1.72609
G1 X86.292 Y102.947 E1.74624
G1 X86.151 Y103.384 E1.76703
G1 X86.105 Y103.877 E1.78943
G1 X86.222 Y104.675 E1.82593
G1 X86.580 Y105.346 E1.86037
G1 X87.170 Y105.864 E1.89589
G1 X87.960 Y106.224 E1.93515
G1 X88.931 Y106.434 E1.98010
G1 X90.084 Y106.503 E2.03237
G1 X91.143 Y106.441 E2.08039
G1 X92.050 Y106.250 E2.12232
G1 X92.804 Y105.925 E2.15949
G1 X93.412 Y105.449 E2.19444
G1 X93.873 Y104.813 E2.22997
G1 X94.107 Y104.221 E2.25874
G1 X95.691 Y104.500 E2.33156
G1 X95.344 Y105.373 E2.37408
G1 X94.736 Y106.231 E2.42166
G1 X93.960 Y106.848 E2.46652
G1 X92.957 Y107.270 E2.51574
G1 X91.672 Y107.528 E2.57508
G1 X90.106 Y107.615 E2.64602
G1 X88.422 Y107.499 E2.72241
G1 X87.036 Y107.157 E2.78699
G1 X85.946 Y106.595 E2.84248
G1 X85.165 Y105.839 E2.89166
G1 X84.699 Y104.901 E2.93906
G1 X84.541 Y103.754 E2.99146
G1 X84.570 Y103.243 E3.01464
G1 X84.660 Y102.768 E3.03648
G1 X84.808 Y102.338 E3.05707
G1 X85.012 Y101.947 E3.07706
G1 X85.270 Y101.589 E3.09700
G1 X85.580 Y101.265 E3.11729
G1 X85.961 Y100.966 E3.13923
G1 X86.432 Y100.681 E3.16413
G1 X86.993 Y100.413 E3.19226
G1 X87.697 Y100.153 E3.22621
G1 X88.598 Y99.890 E3.26869
G1 X91.597 Y99.180 E3.40813
G1 X92.151 Y99.030 E3.43412
G1 X92.657 Y98.855 E3.45835
G1 X93.114 Y98.655 E3.48091
G1 X93.521 Y98.420 E3.50215
G1 X93.869 Y98.141 E3.52232
G1 X94.156 Y97.817 E3.54194
G1 X94.370 Y97.431 E3.56189
G1 X94.496 Y96.981 E3.58304
G1 X94.538 Y96.467 E3.60636
G1 X94.408 Y95.589 E3.64655
G1 X94.007 Y94.847 E3.68469
G1 X93.348 Y94.270 E3.72432
G1 X92.938 Y94.081 E3.74474
G1 X93.199 Y93.099 F7800.000
G1 X95.763 Y95.664 E3.90992 F540.000
G1 X95.853 Y96.303 E3.93932
G1 X94.228 Y94.677 E4.04402
G1 X93.939 Y94.388 F7800.000
G1 X92.465 Y92.914 E4.13896 F540.000
G1 X91.736 Y92.734 E4.17314
G1 X92.660 Y93.658 E4.23263
G1 X91.952 Y93.499 E4.26567
G1 X91.146 Y92.693 E4.31757
G1 X90.556 Y92.652 E4.34450
G1 X91.294 Y93.390 E4.39204
G1 X90.709 Y93.354 E4.41873
G1 X89.972 Y92.617 E4.46623
G1 X89.488 Y92.682 E4.48845
G1 X90.135 Y93.329 E4.53012
G1 X89.617 Y93.360 E4.55375
G1 X89.005 Y92.747 E4.59321
G1 X88.521 Y92.813 E4.61544
G1 X89.099 Y93.391 E4.65268
G1 X88.627 Y93.468 E4.67447
G1 X88.037 Y92.878 E4.71245
G1 X87.554 Y92.943 E4.73467
G1 X88.174 Y93.563 E4.77460
G1 X87.738 Y93.677 E4.79510
G1 X87.070 Y93.009 E4.83813
G1 X86.697 Y93.184 E4.85692
G1 X87.354 Y93.841 E4.89923
G1 X86.969 Y94.005 E4.91828
G1 X86.354 Y93.390 E4.95789
G1 X86.011 Y93.596 E4.97611
G1 X86.643 Y94.228 E5.01683
G1 X86.333 Y94.467 E5.03465
G1 X85.668 Y93.802 E5.07750
G1 X85.325 Y94.008 E5.09572
G1 X86.046 Y94.728 E5.14212
G1 X85.815 Y95.046 E5.16002
G1 X85.008 Y94.239 E5.21200
G1 X84.820 Y94.600 E5.23053
G1 X85.584 Y95.364 E5.27973
G1 X85.415 Y95.745 E5.29869
G1 X84.633 Y94.962 E5.34909
G1 X84.446 Y95.324 E5.36764
G1 X84.957 Y95.835 E5.40053
G92 E0
G1 X86.434 Y101.585 F7800.000
G1 X86.434 Y101.585 F7800.000
G1 X87.005 Y100.628 F7800.000
G1 X87.833 Y101.455 E0.05329 F540.000
G1 X87.454 Y101.625 E0.07220
G1 X86.634 Y100.805 E0.12501
G1 X86.281 Y101.001 E0.14340
G1 X87.101 Y101.821 E0.19621
G1 X86.782 Y102.051 E0.21411
G1 X85.950 Y101.220 E0.26769
G1 X85.651 Y101.469 E0.28543
G1 X86.501 Y102.320 E0.34023
G1 X86.260 Y102.627 E0.35803
G1 X85.388 Y101.755 E0.41420
G1 X85.165 Y102.081 E0.43218
G1 X86.065 Y102.981 E0.49018
G1 X85.932 Y103.397 E0.51006
G1 X84.985 Y102.450 E0.57105
G1 X84.857 Y102.870 E0.59107
G1 X85.884 Y103.897 E0.65722
G1 X85.958 Y104.521 E0.68581
G1 X84.786 Y103.349 E0.76130
G1 X84.803 Y103.915 E0.78709
G1 X86.309 Y105.420 E0.88408
G1 X86.942 Y106.054 F7800.000
G1 X88.037 Y107.149 E0.95459 F540.000
G1 X87.899 Y106.461 E0.98651
G1 X88.725 Y107.288 E1.03972
G1 X89.314 Y107.328 E1.06662
G1 X88.600 Y106.613 E1.11264
G1 X89.218 Y106.683 E1.14099
G1 X89.903 Y107.368 E1.18513
G1 X90.457 Y107.373 E1.21035
G1 X89.802 Y106.718 E1.25255
G1 X90.343 Y106.710 E1.27718
G1 X90.977 Y107.344 E1.31805
G1 X91.497 Y107.315 E1.34177
G1 X90.861 Y106.679 E1.38276
G1 X91.344 Y106.614 E1.40498
G1 X91.981 Y107.250 E1.44596
G1 X92.438 Y107.158 E1.46719
G1 X91.798 Y106.518 E1.50840
G1 X92.222 Y106.394 E1.52854
G1 X92.895 Y107.067 E1.57186
G1 X93.289 Y106.912 E1.59116
G1 X92.606 Y106.229 E1.63518
G1 X92.968 Y106.042 E1.65374
G1 X93.676 Y106.750 E1.69932
G1 X94.025 Y106.550 E1.71763
G1 X93.276 Y105.801 E1.76587
G1 X93.576 Y105.552 E1.78363
G1 X94.331 Y106.307 E1.83221
G1 X94.617 Y106.045 E1.84990
G1 X93.807 Y105.234 E1.90211
G1 X94.037 Y104.916 E1.92001
G1 X94.853 Y105.731 E1.97253
G1 X95.081 Y105.410 E1.99046
G1 X94.201 Y104.531 E2.04710
G1 X94.809 Y104.590 E2.07493
G1 X95.260 Y105.040 E2.10394
G92 E0
G1 X94.097 Y98.952 F7800.000
G1 X94.097 Y98.952 F7800.000
G1 X93.423 Y99.910 F7800.000
G1 X92.602 Y99.089 E0.05287 F540.000
G1 X92.990 Y98.928 E0.07198
G1 X93.808 Y99.747 E0.12472
G1 X94.180 Y99.569 E0.14347
G1 X93.354 Y98.743 E0.19669
G1 X93.691 Y98.531 E0.21482
G1 X94.526 Y99.367 E0.26863
G1 X94.843 Y99.135 E0.28652
G1 X93.995 Y98.287 E0.34111
G1 X94.253 Y97.996 E0.35882
G1 X95.127 Y98.869 E0.41506
G1 X95.374 Y98.568 E0.43282
G1 X94.467 Y97.661 E0.49127
G1 X94.629 Y97.274 E0.51038
G1 X95.578 Y98.223 E0.57150
G1 X95.737 Y97.833 E0.59067
G1 X94.729 Y96.825 E0.65557
G1 X94.755 Y96.302 E0.67943
G1 X95.845 Y97.393 E0.74965
G1 X95.898 Y96.896 E0.77238
G1 X94.659 Y95.658 E0.85215
G1 X95.303 Y94.655 F7800.000
G1 X94.462 Y93.813 E0.90637 F540.000
G1 X95.318 Y96.442 F7800.000
G1 X95.305 Y97.006 F7800.000
G1 X95.238 Y97.364 F7800.000
G1 X95.122 Y97.745 F7800.000
G1 X94.815 Y98.287 F7800.000
G1 X94.513 Y98.620 F7800.000
G1 X94.415 Y98.713 F7800.000
G1 X94.405 Y98.704 F7800.000
G1 X92.194 Y99.230 F7800.000
G1 X93.024 Y100.060 E0.95980 F540.000
G1 X92.608 Y100.193 E0.97967
G1 X91.765 Y99.350 E1.03400
G1 X91.326 Y99.459 E1.05461
G1 X92.180 Y100.314 E1.10964
G1 X91.737 Y100.420 E1.13039
G1 X90.882 Y99.564 E1.18548
G1 X90.438 Y99.670 E1.20625
G1 X91.294 Y100.526 E1.26140
G1 X90.851 Y100.632 E1.28214
G1 X89.994 Y99.775 E1.33735
G1 X89.550 Y99.880 E1.35812
G1 X90.408 Y100.738 E1.41339
G1 X89.965 Y100.844 E1.43413
G1 X89.106 Y99.985 E1.48945
G1 X88.662 Y100.090 E1.51022
G1 X89.522 Y100.950 E1.56561
G1 X89.086 Y101.062 E1.58613
G1 X88.235 Y100.211 E1.64096
G1 X87.810 Y100.335 E1.66111
G1 X88.657 Y101.182 E1.71568
G1 X88.234 Y101.308 E1.73577
G1 X87.404 Y100.478 E1.78926
G1 X84.891 Y104.551 F7800.000
G1 X87.308 Y106.968 E1.94493 F540.000
G1 X86.221 Y106.430 F7800.000
G1 X85.307 Y105.517 E2.00374 F540.000
G92 E0
G1 X93.024 Y107.486 F7800.000
G1 X96.106 Y107.903 F7800.000
G1 X98.501 Y106.657 F7800.000
G1 X101.032 Y107.648 F7800.000
G1 X103.224 Y107.648 F7800.000
G1 X109.529 Y107.310 F7800.000
G1 X108.275 Y107.423 E0.05697 F378.000
G1 X103.449 Y107.423 E0.27533
G1 X103.449 Y92.577 E0.94710
G1 X108.940 Y92.577 E1.19555
G1 X110.198 Y92.670 E1.25265
G1 X110.333 Y92.680 E1.25874 F378.000
G1 X111.598 Y92.986 E1.31766
G1 X112.748 Y93.493 E1.37452
G1 X113.756 Y94.190 E1.42998
G1 X114.598 Y95.065 E1.48491
G1 X115.276 Y96.120 E1.54167
G1 X115.774 Y97.333 E1.60097
G1 X116.073 Y98.678 E1.66332
G1 X116.173 Y100.153 E1.73022
G1 X115.944 Y102.317 E1.82872
G1 X115.262 Y104.105 E1.91528
G1 X114.132 Y105.532 E1.99767
G1 X112.581 Y106.578 E2.08229
G1 X110.635 Y107.210 E2.17488
G1 X109.759 Y107.289 E2.21468
G1 X109.649 Y106.086 F7800.000
G1 X108.252 Y106.214 E2.27818 F378.000
G1 X105.070 Y106.214 E2.42213
G1 X105.070 Y93.786 E2.98449
G1 X108.717 Y93.786 E3.14949 F378.000
G1 X109.822 Y93.870 E3.19966
G1 X110.848 Y94.126 E3.24750
G1 X111.784 Y94.553 E3.29405
G1 X112.606 Y95.145 E3.33987
G1 X113.290 Y95.887 E3.38557
G1 X113.835 Y96.778 E3.43280
G1 X114.229 Y97.796 E3.48221
G1 X114.465 Y98.923 E3.53429
G1 X114.543 Y100.161 E3.59043
G1 X114.365 Y101.954 E3.67196
G1 X113.824 Y103.459 E3.74432
G1 X112.915 Y104.660 E3.81249
G1 X111.664 Y105.529 E3.88142
G1 X110.103 Y106.045 E3.95580
G1 X109.879 Y106.065 E3.96597
G1 X105.856 Y106.440 F7800.000
G1 X106.613 Y107.197 E4.01455 F540.000
G1 X107.160 Y107.197 E4.03936
G1 X106.403 Y106.440 E4.08793
G1 X106.949 Y106.440 E4.11274
G1 X107.707 Y107.197 E4.16132
G1 X108.253 Y107.197 E4.18613
G1 X107.496 Y106.440 E4.23471
G1 X108.043 Y106.440 E4.25952
G1 X108.762 Y107.159 E4.30566
G1 X109.264 Y107.114 E4.32851
G1 X108.556 Y106.406 E4.37393
G1 X109.057 Y106.360 E4.39675
G1 X109.765 Y107.068 E4.44220
G1 X110.267 Y107.023 E4.46505
G1 X109.558 Y106.314 E4.51052
G1 X110.059 Y106.269 E4.53335
G1 X110.748 Y106.958 E4.57756
G1 X111.161 Y106.824 E4.59725
G1 X110.474 Y106.137 E4.64129
G1 X110.885 Y106.001 E4.66093
G1 X111.574 Y106.690 E4.70508
G1 X111.986 Y106.556 E4.72478
G1 X111.296 Y105.866 E4.76905
G1 X111.707 Y105.730 E4.78869
G1 X112.399 Y106.421 E4.83308
G1 X112.752 Y106.228 E4.85135
G1 X112.033 Y105.509 E4.89751
G1 X112.356 Y105.285 E4.91534
G1 X113.079 Y106.008 E4.96174
G1 X113.406 Y105.787 E4.97961
G1 X112.679 Y105.061 E5.02625
G1 X113.001 Y104.836 E5.04408
G1 X113.732 Y105.567 E5.09096
G1 X114.035 Y105.323 E5.10861
G1 X113.250 Y104.538 E5.15899
G1 X113.485 Y104.227 E5.17670
G1 X114.286 Y105.027 E5.22806
G1 X114.527 Y104.722 E5.24572
G1 X113.721 Y103.915 E5.29747
G1 X113.956 Y103.604 E5.31518
G1 X114.769 Y104.417 E5.36733
G1 X115.011 Y104.112 E5.38499
G1 X114.124 Y103.225 E5.44190
G1 X114.269 Y102.823 E5.46129
G1 X115.185 Y103.739 E5.52011
G1 X115.336 Y103.344 E5.53933
G1 X114.413 Y102.421 E5.59856
G1 X114.558 Y102.018 E5.61795
G1 X115.487 Y102.948 E5.67759
G1 X115.638 Y102.552 E5.69681
G1 X114.626 Y101.539 E5.76178
G1 X114.675 Y101.042 E5.78446
G1 X115.746 Y102.113 E5.85321
G1 X115.799 Y101.619 E5.87577
G1 X114.724 Y100.544 E5.94472
G1 X114.767 Y100.040 E5.96767
G1 X115.851 Y101.125 E6.03724
G1 X115.904 Y100.630 E6.05979
G1 X114.730 Y99.457 E6.13510
G1 X114.693 Y98.873 E6.16164
G1 X115.939 Y100.119 E6.24157
G1 X115.899 Y99.532 E6.26825
G1 X114.562 Y98.195 E6.35402
G1 X114.382 Y97.468 E6.38800
G1 X115.859 Y98.945 E6.48278
G1 X115.731 Y98.270 E6.51397
G1 X114.036 Y96.576 E6.62269
G1 X115.212 Y96.658 F7800.000
G1 X112.014 Y93.460 E6.82786 F540.000
G1 X111.667 Y94.206 F7800.000
G1 X110.415 Y92.954 E6.90817 F540.000
G1 X111.136 Y93.128 E6.94182
G1 X115.574 Y97.566 E7.22657
G1 X114.363 Y95.262 F7800.000
G1 X113.382 Y94.281 E7.28953 F540.000
G1 X110.763 Y93.849 F7800.000
G1 X109.786 Y92.872 E7.35217 F540.000
G1 X109.196 Y92.829 E7.37903
G1 X110.034 Y93.667 E7.43283
G1 X109.427 Y93.607 E7.46050
G1 X108.623 Y92.803 E7.51209
G1 X108.076 Y92.803 E7.53690
G1 X108.835 Y93.562 E7.58560
G1 X108.287 Y93.560 E7.61050
G1 X107.530 Y92.803 E7.65908
G1 X106.983 Y92.803 E7.68389
G1 X107.740 Y93.560 E7.73247
G1 X107.193 Y93.560 E7.75728
G1 X106.436 Y92.803 E7.80585
G1 X105.889 Y92.803 E7.83066
G1 X106.646 Y93.560 E7.87924
G1 X106.099 Y93.560 E7.90405
G1 X105.342 Y92.803 E7.95263
G1 X104.796 Y92.803 E7.97744
G1 X105.553 Y93.560 E8.02602
G1 X105.006 Y93.560 E8.05083
G1 X104.249 Y92.803 E8.09941
G1 X103.709 Y92.810 E8.12392
G1 X104.844 Y93.945 E8.19679
G1 X104.844 Y94.492 E8.22160
G1 X103.675 Y93.323 E8.29661
G1 X103.675 Y93.870 E8.32142
G1 X104.844 Y95.039 E8.39644
G1 X104.844 Y95.586 E8.42125
G1 X103.675 Y94.417 E8.49626
G1 X103.675 Y94.964 E8.52107
G1 X104.844 Y96.133 E8.59608
G1 X104.844 Y96.679 E8.62089
G1 X103.675 Y95.510 E8.69591
G1 X103.675 Y96.057 E8.72072
G1 X104.844 Y97.226 E8.79573
G1 X104.844 Y97.773 E8.82054
G1 X103.675 Y96.604 E8.89555
G1 X103.675 Y97.151 E8.92036
G1 X104.844 Y98.320 E8.99538
G1 X104.844 Y98.867 E9.02019
G1 X103.675 Y97.698 E9.09520
G1 X103.675 Y98.244 E9.12001
G1 X104.844 Y99.414 E9.19502
G1 X104.844 Y99.960 E9.21983
G1 X103.675 Y98.791 E9.29485
G1 X103.675 Y99.338 E9.31966
G1 X104.844 Y100.507 E9.39467
G1 X104.844 Y101.054 E9.41948
G1 X103.675 Y99.885 E9.49449
G1 X103.675 Y100.432 E9.51930
G1 X104.844 Y101.601 E9.59432
G1 X104.844 Y102.148 E9.61913
G1 X103.675 Y100.978 E9.69414
G1 X103.675 Y101.525 E9.71895
G1 X104.844 Y102.694 E9.79396
G1 X104.844 Y103.241 E9.81877
G1 X103.675 Y102.072 E9.89379
G1 X103.675 Y102.619 E9.91860
G1 X104.844 Y103.788 E9.99361
G1 X104.844 Y104.335 E10.01842
G1 X103.675 Y103.166 E10.09343
G1 X103.675 Y103.713 E10.11824
G1 X104.844 Y104.882 E10.19326
G1 X104.844 Y105.428 E10.21807
G1 X103.675 Y104.259 E10.29308
G1 X103.675 Y104.806 E10.31789
G1 X104.844 Y105.975 E10.39290
G1 X104.762 Y106.440 E10.41431
G1 X105.519 Y107.197 E10.46289
G1 X106.066 Y107.197 E10.48770
G1 X105.309 Y106.440 E10.53628
G1 X104.844 Y106.522 E10.55769
G1 X103.675 Y105.353 E10.63270
G1 X103.675 Y105.900 E10.65751
G1 X104.972 Y107.197 E10.74075
G1 X104.426 Y107.197 E10.76555
G1 X103.675 Y106.447 E10.81370
G1 X103.675 Y106.993 E10.83851
G1 X103.879 Y107.197 E10.85157
M106 S255
G92 E0
G1 Z0.600 F7800.000
G1 X95.254 Y104.194 F7800.000
G1 X94.175 Y105.700 E0.55491 F600.000
G1 X93.830 Y106.033 E0.69861
G1 X93.590 Y106.223 E0.79047
G1 X93.238 Y106.430 E0.91290
G1 X92.766 Y106.647 E1.06843
G1 X92.149 Y106.831 E1.26132
G1 X91.597 Y106.944 E1.43013
G1 X91.159 Y106.998 E1.56234
G1 X90.110 Y107.058 E1.87734
G1 X88.915 Y106.983 E2.23604
G1 X88.511 Y106.930 E2.35814
G1 X87.864 Y106.780 E2.55716
G1 X87.254 Y106.577 E2.74987
G1 X86.738 Y106.307 E2.92443
G1 X86.345 Y106.040 E3.06681
G1 X86.169 Y105.878 E3.13853
G1 X85.950 Y105.636 E3.23612
G1 X85.770 Y105.397 E3.32585
G1 X85.594 Y105.055 E3.44122
G1 X85.444 Y104.671 E3.56452
G1 X85.350 Y104.014 E3.76346
G1 X85.330 Y103.723 E3.85101
G1 X85.360 Y103.334 E3.96773
G1 X85.439 Y102.975 E4.07801
G1 X85.546 Y102.656 E4.17894
G1 X85.626 Y102.501 E4.23119
G1 X85.884 Y102.100 E4.37392
G1 X86.114 Y101.855 E4.47475
G1 X86.404 Y101.606 E4.58915
G1 X86.792 Y101.349 E4.72877
G1 X87.330 Y101.077 E4.90935
G1 X88.148 Y100.782 E5.16988
G1 X89.083 Y100.523 E5.46061
G1 X92.186 Y99.777 E6.41695
G1 X92.960 Y99.524 E6.66081
G1 X93.496 Y99.291 E6.83614
G1 X94.015 Y99.010 E7.01302
G1 X94.346 Y98.768 E7.13578
G1 X94.712 Y98.410 E7.28921
G1 X94.882 Y98.188 E7.37288
G1 X95.024 Y97.941 E7.45825
G1 X95.149 Y97.670 E7.54786
G1 X95.238 Y97.364 E7.64339
G1 X95.305 Y97.006 E7.75243
G1 X95.330 Y96.630 E7.86529
G1 X95.308 Y96.327 E7.95632
G1 X95.201 Y95.589 E8.17976
G1 X95.046 Y95.199 E8.30541
G1 X94.830 Y94.785 E8.44550
G1 X94.648 Y94.547 E8.53511
G1 X94.428 Y94.305 E8.63322
G1 X94.172 Y94.072 E8.73701
G1 X93.580 Y93.690 E8.94806
G1 X93.156 Y93.484 E9.08945
G1 X92.575 Y93.289 E9.27307
G1 X91.782 Y93.103 E9.51706
G1 X91.544 Y93.068 E9.58913
G1 X90.088 Y92.971 E10.02639
G1 X88.781 Y93.102 E10.42013
G1 X87.598 Y93.314 E10.78003
G1 X87.162 Y93.434 E10.91553
G1 X86.747 Y93.646 E11.05523
G1 X85.871 Y94.228 E11.37028
