; generated by Slic3r 1.2.9 on 2016-03-11 at 01:29:58

; external perimeters extrusion width = 1.54mm
; perimeters extrusion width = 2.62mm
; infill extrusion width = 6.27mm
; solid infill extrusion width = 2.62mm
; top infill extrusion width = 2.62mm

M107
M104 S30 ; set temperature
G28 ; home all axes
G1 Z5 F5000 ; lift nozzle
M302
M92 E10000
M500
M501
G1 E100
M109 S30 ; wait for temperature to be reached
G21 ; set units to millimeters
G90 ; use absolute coordinates
M82 ; use absolute distances for extrusion
G92 E0
G1 Z0.300 F7800.000
G1 X85.854 Y101.589 F7800.000
G1 X86.164 Y101.265 E0.02030 F378.000
G1 X86.545 Y100.966 E0.04223
G1 X87.016 Y100.681 E0.06714
G1 X87.577 Y100.413 E0.09526
G1 X88.281 Y100.153 E0.12922
G1 X89.182 Y99.890 E0.17169
G1 X92.181 Y99.180 E0.31114
G1 X92.735 Y99.030 E0.33713
G1 X93.241 Y98.855 E0.36135
G1 X93.698 Y98.655 E0.38392
G1 X94.105 Y98.420 E0.40516
G1 X94.453 Y98.141 E0.42532
G1 X94.740 Y97.817 E0.44494
G1 X94.954 Y97.431 E0.46489
G1 X95.080 Y96.981 E0.48605
G1 X95.122 Y96.467 E0.50936
G1 X94.992 Y95.589 E0.54955
G1 X94.591 Y94.847 E0.58770
G1 X93.932 Y94.270 E0.62732
G1 X93.055 Y93.866 E0.67102
G1 X91.986 Y93.629 E0.72061
G1 X90.722 Y93.551 E0.77789
G1 X89.492 Y93.624 E0.83366
G1 X88.434 Y93.847 E0.88258
G1 X87.547 Y94.225 E0.92620
G1 X86.836 Y94.774 E0.96685
G1 X86.309 Y95.498 E1.00738
G1 X86.049 Y96.185 E1.04060
G1 X84.521 Y95.880 E1.11108
G1 X85.467 Y94.045 E1.20448
G1 X87.527 Y92.808 E1.31318
G1 X90.653 Y92.386 E1.45593
G1 X92.217 Y92.495 E1.52685
G1 X92.459 Y92.512 E1.53786 F378.000
G1 X93.964 Y92.886 E1.60804
G1 X95.162 Y93.502 E1.66897
G1 X96.028 Y94.330 E1.72317
G1 X96.544 Y95.351 E1.77494
G1 X96.719 Y96.593 E1.83171
G1 X96.695 Y97.090 E1.85422
G1 X96.621 Y97.546 E1.87512
G1 X96.500 Y97.953 E1.89432
G1 X96.337 Y98.320 E1.91251
G1 X96.137 Y98.653 E1.93006
G1 X95.901 Y98.952 E1.94731
G1 X95.629 Y99.220 E1.96461
G1 X95.325 Y99.461 E1.98215
G1 X94.987 Y99.675 E2.00025
G1 X94.623 Y99.867 E2.01887
G1 X93.826 Y100.205 E2.05803
G1 X92.967 Y100.480 E2.09887
G1 X89.867 Y101.222 E2.24309
G1 X88.920 Y101.487 E2.28759
G1 X88.273 Y101.724 E2.31877
G1 X87.814 Y101.967 E2.34227
G1 X87.427 Y102.246 E2.36388
G1 X87.111 Y102.568 E2.38429
G1 X86.876 Y102.947 E2.40444
G1 X86.735 Y103.384 E2.42523
G1 X86.689 Y103.877 E2.44763
G1 X86.806 Y104.675 E2.48413
G1 X87.164 Y105.346 E2.51857
G1 X87.754 Y105.864 E2.55409
G1 X88.544 Y106.224 E2.59335
G1 X89.515 Y106.434 E2.63830
G1 X90.668 Y106.503 E2.69057
G1 X91.727 Y106.441 E2.73859
G1 X92.634 Y106.250 E2.78052
G1 X93.388 Y105.925 E2.81769
G1 X93.996 Y105.449 E2.85264
G1 X94.457 Y104.813 E2.88817
G1 X94.691 Y104.221 E2.91694
G1 X96.275 Y104.500 E2.98976
G1 X95.928 Y105.373 E3.03228
G1 X95.320 Y106.231 E3.07986
G1 X94.544 Y106.848 E3.12472
G1 X93.541 Y107.270 E3.17394
G1 X92.256 Y107.528 E3.23328
G1 X90.690 Y107.615 E3.30422
G1 X89.006 Y107.499 E3.38061
G1 X87.620 Y107.157 E3.44519
G1 X86.530 Y106.595 E3.50068
G1 X85.749 Y105.839 E3.54986
G1 X85.283 Y104.901 E3.59726
G1 X85.125 Y103.754 E3.64966
G1 X85.154 Y103.243 E3.67284
G1 X85.244 Y102.768 E3.69468
G1 X85.392 Y102.338 E3.71527
G1 X85.596 Y101.947 E3.73526
G1 X85.719 Y101.776 E3.74474
G1 X87.589 Y100.628 F7800.000
G1 X88.417 Y101.455 E3.79803 F540.000
G1 X88.038 Y101.625 E3.81695
G1 X87.218 Y100.805 E3.86976
G1 X86.865 Y101.001 E3.88814
G1 X87.685 Y101.821 E3.94095
G1 X87.366 Y102.051 E3.95886
G1 X86.534 Y101.220 E4.01243
G1 X86.235 Y101.469 E4.03018
G1 X87.085 Y102.320 E4.08497
G1 X86.844 Y102.627 E4.10278
G1 X85.972 Y101.755 E4.15894
G1 X85.749 Y102.081 E4.17692
G1 X86.649 Y102.981 E4.23492
G1 X86.516 Y103.397 E4.25480
G1 X85.569 Y102.450 E4.31579
G1 X85.441 Y102.870 E4.33581
G1 X86.468 Y103.897 E4.40197
G1 X86.542 Y104.521 E4.43055
G1 X85.370 Y103.349 E4.50604
G1 X85.387 Y103.915 E4.53183
G1 X86.893 Y105.420 E4.62882
G1 X87.526 Y106.054 F7800.000
G1 X88.621 Y107.149 E4.69934 F540.000
G1 X88.483 Y106.461 E4.73126
G1 X89.309 Y107.288 E4.78446
G1 X89.898 Y107.328 E4.81137
G1 X89.184 Y106.613 E4.85739
G1 X89.802 Y106.683 E4.88573
G1 X90.487 Y107.368 E4.92987
G1 X91.041 Y107.373 E4.95509
G1 X90.386 Y106.718 E4.99730
G1 X90.927 Y106.710 E5.02192
G1 X91.561 Y107.344 E5.06280
G1 X92.081 Y107.315 E5.08652
G1 X91.445 Y106.679 E5.12750
G1 X91.928 Y106.614 E5.14973
G1 X92.565 Y107.250 E5.19070
G1 X93.022 Y107.158 E5.21194
G1 X92.382 Y106.518 E5.25314
G1 X92.806 Y106.394 E5.27328
G1 X93.479 Y107.067 E5.31661
G1 X93.873 Y106.912 E5.33590
G1 X93.190 Y106.229 E5.37993
G1 X93.552 Y106.042 E5.39849
G1 X94.260 Y106.750 E5.44406
G1 X94.609 Y106.550 E5.46238
G1 X93.860 Y105.801 E5.51061
G1 X94.160 Y105.552 E5.52837
G1 X94.915 Y106.307 E5.57695
G1 X95.201 Y106.045 E5.59464
G1 X94.391 Y105.234 E5.64686
G1 X94.621 Y104.916 E5.66476
G1 X95.437 Y105.731 E5.71728
G1 X95.665 Y105.410 E5.73521
G1 X94.785 Y104.531 E5.79184
G1 X95.393 Y104.590 E5.81967
G1 X95.844 Y105.040 E5.84868
G92 E0
G1 X94.681 Y98.952 F7800.000
G1 X94.681 Y98.952 F7800.000
G1 X94.007 Y99.910 F7800.000
G1 X93.186 Y99.089 E0.05287 F540.000
G1 X93.574 Y98.928 E0.07198
G1 X94.392 Y99.747 E0.12472
G1 X94.764 Y99.569 E0.14347
G1 X93.938 Y98.743 E0.19669
G1 X94.275 Y98.531 E0.21482
G1 X95.110 Y99.367 E0.26863
G1 X95.427 Y99.135 E0.28652
G1 X94.579 Y98.287 E0.34111
G1 X94.837 Y97.996 E0.35882
G1 X95.711 Y98.869 E0.41506
G1 X95.958 Y98.568 E0.43282
G1 X95.051 Y97.661 E0.49127
G1 X95.213 Y97.274 E0.51038
G1 X96.162 Y98.223 E0.57150
G1 X96.321 Y97.833 E0.59067
G1 X95.313 Y96.825 E0.65557
G1 X95.339 Y96.302 E0.67943
G1 X96.429 Y97.393 E0.74965
G1 X96.482 Y96.896 E0.77238
G1 X95.243 Y95.658 E0.85215
G1 X94.812 Y94.677 F7800.000
G1 X96.437 Y96.303 E0.95685 F540.000
G1 X96.347 Y95.664 E0.98625
G1 X93.783 Y93.099 E1.15143
G1 X95.046 Y93.813 F7800.000
G1 X95.887 Y94.655 E1.20565 F540.000
G1 X94.523 Y94.388 F7800.000
G1 X93.049 Y92.914 E1.30059 F540.000
G1 X92.320 Y92.734 E1.33477
G1 X93.244 Y93.658 E1.39426
G1 X92.536 Y93.499 E1.42730
G1 X91.730 Y92.693 E1.47920
G1 X91.140 Y92.652 E1.50613
G1 X91.878 Y93.390 E1.55367
G1 X91.293 Y93.354 E1.58036
G1 X90.556 Y92.617 E1.62786
G1 X90.072 Y92.682 E1.65008
G1 X90.719 Y93.329 E1.69175
G1 X90.201 Y93.360 E1.71538
G1 X89.589 Y92.747 E1.75484
G1 X89.105 Y92.813 E1.77706
G1 X89.683 Y93.391 E1.81431
G1 X89.211 Y93.468 E1.83610
G1 X88.621 Y92.878 E1.87408
G1 X88.138 Y92.943 E1.89630
G1 X88.758 Y93.563 E1.93623
G1 X88.322 Y93.677 E1.95673
G1 X87.654 Y93.009 E1.99976
G1 X87.281 Y93.184 E2.01855
G1 X87.938 Y93.841 E2.06086
G1 X87.553 Y94.005 E2.07991
G1 X86.938 Y93.390 E2.11952
G1 X86.595 Y93.596 E2.13774
G1 X87.227 Y94.228 E2.17846
G1 X86.917 Y94.467 E2.19628
G1 X86.252 Y93.802 E2.23913
G1 X85.909 Y94.008 E2.25735
G1 X86.630 Y94.728 E2.30375
G1 X86.399 Y95.046 E2.32165
G1 X85.592 Y94.239 E2.37363
G1 X85.404 Y94.600 E2.39216
G1 X86.168 Y95.364 E2.44136
G1 X85.999 Y95.745 E2.46032
G1 X85.217 Y94.962 E2.51071
G1 X85.030 Y95.324 E2.52927
G1 X85.541 Y95.835 E2.56216
G92 E0
G1 X87.018 Y101.585 F7800.000
G1 X87.018 Y101.585 F7800.000
G1 X87.988 Y100.478 F7800.000
G1 X88.818 Y101.308 E0.05349 F540.000
G1 X89.241 Y101.182 E0.07358
G1 X88.394 Y100.335 E0.12814
G1 X88.819 Y100.211 E0.14830
G1 X89.670 Y101.062 E0.20313
G1 X90.106 Y100.950 E0.22365
G1 X89.246 Y100.090 E0.27903
G1 X89.690 Y99.985 E0.29981
G1 X90.549 Y100.844 E0.35513
G1 X90.992 Y100.738 E0.37587
G1 X90.134 Y99.880 E0.43114
G1 X90.578 Y99.775 E0.45191
G1 X91.435 Y100.632 E0.50712
G1 X91.878 Y100.526 E0.52786
G1 X91.022 Y99.670 E0.58301
G1 X91.466 Y99.564 E0.60378
G1 X92.321 Y100.420 E0.65887
G1 X92.764 Y100.314 E0.67961
G1 X91.910 Y99.459 E0.73465
G1 X92.349 Y99.350 E0.75525
G1 X93.192 Y100.193 E0.80958
G1 X93.608 Y100.060 E0.82946
G1 X92.778 Y99.230 E0.88289
G1 X87.018 Y101.585 F7800.000
G1 X85.995 Y102.967 F7800.000
G1 X85.475 Y104.551 F7800.000
G1 X87.892 Y106.968 E1.03856 F540.000
G1 X86.805 Y106.430 F7800.000
G1 X85.891 Y105.517 E1.09737 F540.000
G92 E0
G1 X93.608 Y107.486 F7800.000
G1 X103.801 Y108.744 F7800.000
G1 X116.593 Y107.648 F7800.000
G1 X116.268 Y99.386 F7800.000
G1 X114.721 Y96.715 F7800.000
G1 X108.543 Y96.715 F7800.000
G1 X105.872 Y94.044 F7800.000
G1 X111.133 Y92.577 F7800.000
G1 X115.590 Y92.577 E0.20167 F378.000
G1 X115.590 Y93.819 E0.25787
G1 X105.647 Y93.819 E0.70779 F378.000
G1 X105.647 Y99.611 E0.96987
G1 X114.496 Y99.611 E1.37028
G1 X114.496 Y100.831 E1.42549
G1 X105.647 Y100.831 E1.82590
G1 X105.647 Y106.181 E2.06798
G1 X115.146 Y106.181 E2.49780
G1 X115.146 Y107.423 E2.55400
G1 X104.026 Y107.423 E3.05717
G1 X104.026 Y92.577 E3.72894
G1 X110.902 Y92.577 E4.04008
G1 X115.364 Y93.007 F7800.000
G1 X115.161 Y92.803 E4.05312 F540.000
G1 X114.615 Y92.803 E4.07782
G1 X115.364 Y93.552 E4.12579
G1 X114.860 Y93.593 E4.14872
G1 X114.069 Y92.803 E4.19930
G1 X113.524 Y92.803 E4.22400
G1 X114.314 Y93.593 E4.27459
G1 X113.768 Y93.593 E4.29929
G1 X112.978 Y92.803 E4.34988
G1 X112.433 Y92.803 E4.37458
G1 X113.223 Y93.593 E4.42516
G1 X112.677 Y93.593 E4.44987
G1 X111.887 Y92.803 E4.50045
G1 X111.341 Y92.803 E4.52515
G1 X112.131 Y93.593 E4.57574
G1 X111.586 Y93.593 E4.60044
G1 X110.796 Y92.803 E4.65103
G1 X110.250 Y92.803 E4.67573
G1 X111.040 Y93.593 E4.72631
G1 X110.495 Y93.593 E4.75102
G1 X109.704 Y92.803 E4.80160
G1 X109.159 Y92.803 E4.82630
G1 X109.949 Y93.593 E4.87689
G1 X109.403 Y93.593 E4.90159
G1 X108.613 Y92.803 E4.95217
G1 X108.068 Y92.803 E4.97688
G1 X108.858 Y93.593 E5.02746
G1 X108.312 Y93.593 E5.05216
G1 X107.522 Y92.803 E5.10275
G1 X106.976 Y92.803 E5.12745
G1 X107.766 Y93.593 E5.17804
G1 X107.221 Y93.593 E5.20274
G1 X106.431 Y92.803 E5.25332
G1 X105.885 Y92.803 E5.27803
G1 X106.675 Y93.593 E5.32861
G1 X106.129 Y93.593 E5.35331
G1 X105.339 Y92.803 E5.40390
G1 X104.794 Y92.803 E5.42860
G1 X105.584 Y93.593 E5.47919
G1 X105.421 Y93.976 F7800.000
G1 X104.270 Y92.825 E5.55289 F540.000
G1 X104.252 Y93.353 E5.57679
G1 X105.421 Y94.522 E5.65164
G1 X105.421 Y95.067 E5.67635
G1 X104.252 Y93.898 E5.75120
G1 X104.252 Y94.444 E5.77590
G1 X105.421 Y95.613 E5.85075
G1 X105.421 Y96.159 E5.87545
G1 X104.252 Y94.990 E5.95030
G1 X104.252 Y95.535 E5.97501
G1 X105.421 Y96.704 E6.04986
G1 X105.421 Y97.250 E6.07456
G1 X104.252 Y96.081 E6.14941
G1 X104.252 Y96.626 E6.17411
G1 X105.421 Y97.796 E6.24896
G1 X105.421 Y98.341 E6.27367
G1 X104.252 Y97.172 E6.34852
G1 X104.252 Y97.718 E6.37322
G1 X105.421 Y98.887 E6.44807
G1 X105.421 Y99.432 E6.47277
G1 X104.252 Y98.263 E6.54762
G1 X104.252 Y98.809 E6.57233
G1 X106.048 Y100.605 E6.68732
G1 X106.594 Y100.605 E6.71202
G1 X105.826 Y99.837 E6.76120
G1 X106.371 Y99.837 E6.78590
G1 X107.140 Y100.605 E6.83508
G1 X107.685 Y100.605 E6.85978
G1 X106.917 Y99.837 E6.90896
G1 X107.463 Y99.837 E6.93366
G1 X108.231 Y100.605 E6.98284
G1 X108.776 Y100.605 E7.00754
G1 X108.008 Y99.837 E7.05672
G1 X108.554 Y99.837 E7.08142
G1 X109.322 Y100.605 E7.13059
G1 X109.868 Y100.605 E7.15530
G1 X109.100 Y99.837 E7.20447
G1 X109.645 Y99.837 E7.22918
G1 X110.413 Y100.605 E7.27835
G1 X110.959 Y100.605 E7.30306
G1 X110.191 Y99.837 E7.35223
G1 X110.737 Y99.837 E7.37693
G1 X111.505 Y100.605 E7.42611
G1 X112.050 Y100.605 E7.45081
G1 X111.282 Y99.837 E7.49999
G1 X111.828 Y99.837 E7.52469
G1 X112.596 Y100.605 E7.57387
G1 X113.141 Y100.605 E7.59857
G1 X112.373 Y99.837 E7.64775
G1 X112.919 Y99.837 E7.67245
G1 X113.687 Y100.605 E7.72163
G1 X114.233 Y100.605 E7.74633
G1 X113.465 Y99.837 E7.79551
G1 X114.010 Y99.837 E7.82021
G1 X114.270 Y100.097 E7.83686
G92 E0
G1 X104.872 Y100.056 F7800.000
G1 X104.872 Y100.056 F7800.000
G1 X114.033 Y106.407 F7800.000
G1 X114.823 Y107.197 E0.05059 F540.000
G1 X114.920 Y106.749 E0.07135
G1 X114.578 Y106.407 E0.09324
G1 X114.277 Y107.197 F7800.000
G1 X113.487 Y106.407 E0.14383 F540.000
G1 X112.941 Y106.407 E0.16853
G1 X113.732 Y107.197 E0.21912
G1 X113.186 Y107.197 E0.24382
G1 X112.396 Y106.407 E0.29441
G1 X111.850 Y106.407 E0.31911
G1 X112.640 Y107.197 E0.36969
G1 X112.095 Y107.197 E0.39440
G1 X111.305 Y106.407 E0.44498
G1 X110.759 Y106.407 E0.46968
G1 X111.549 Y107.197 E0.52027
G1 X111.003 Y107.197 E0.54497
G1 X110.213 Y106.407 E0.59556
G1 X109.668 Y106.407 E0.62026
G1 X110.458 Y107.197 E0.67084
G1 X109.912 Y107.197 E0.69555
G1 X109.122 Y106.407 E0.74613
G1 X108.576 Y106.407 E0.77084
G1 X109.367 Y107.197 E0.82142
G1 X108.821 Y107.197 E0.84612
G1 X108.031 Y106.407 E0.89671
G1 X107.485 Y106.407 E0.92141
G1 X108.275 Y107.197 E0.97200
G1 X107.730 Y107.197 E0.99670
G1 X106.940 Y106.407 E1.04728
G1 X106.394 Y106.407 E1.07199
G1 X107.184 Y107.197 E1.12257
G1 X106.638 Y107.197 E1.14727
G1 X105.848 Y106.407 E1.19786
G1 X105.421 Y106.526 E1.21792
G1 X104.252 Y105.357 E1.29277
G1 X104.252 Y105.902 E1.31747
G1 X105.547 Y107.197 E1.40038
G1 X106.093 Y107.197 E1.42508
G1 X105.303 Y106.407 E1.47566
G1 X105.421 Y105.980 E1.49573
G1 X104.252 Y104.811 E1.57058
G1 X104.252 Y104.265 E1.59528
G1 X105.421 Y105.434 E1.67013
G1 X105.421 Y104.889 E1.69483
G1 X104.252 Y103.720 E1.76968
G1 X104.252 Y103.174 E1.79439
G1 X105.421 Y104.343 E1.86924
G1 X105.421 Y103.798 E1.89394
G1 X104.252 Y102.628 E1.96879
G1 X104.252 Y102.083 E1.99349
G1 X105.421 Y103.252 E2.06834
G1 X105.421 Y102.706 E2.09305
G1 X104.252 Y101.537 E2.16790
G1 X104.252 Y100.992 E2.19260
G1 X105.421 Y102.161 E2.26745
G1 X105.421 Y101.615 E2.29215
G1 X104.252 Y100.446 E2.36700
G1 X104.252 Y99.900 E2.39171
G1 X105.421 Y101.069 E2.46656
G1 X105.503 Y100.605 E2.48790
G1 X104.252 Y99.355 E2.56796
G1 X104.252 Y106.448 F7800.000
G1 X105.001 Y107.197 E2.61592 F540.000
G1 X104.456 Y107.197 E2.64063
G1 X104.252 Y106.993 E2.65366
M106 S255
G92 E0
G1 Z0.600 F7800.000
G1 X95.838 Y104.194 F7800.000
G1 X94.759 Y105.700 E0.55491 F600.000
G1 X94.414 Y106.033 E0.69861
G1 X94.174 Y106.223 E0.79047
G1 X93.822 Y106.430 E0.91290
G1 X93.350 Y106.647 E1.06843
G1 X92.733 Y106.831 E1.26132
G1 X92.181 Y106.944 E1.43013
G1 X91.743 Y106.998 E1.56234
G1 X90.694 Y107.058 E1.87734
G1 X89.499 Y106.983 E2.23604
G1 X89.095 Y106.930 E2.35814
G1 X88.448 Y106.780 E2.55716
G1 X87.838 Y106.577 E2.74987
G1 X87.322 Y106.307 E2.92443
G1 X86.929 Y106.040 E3.06681
G1 X86.753 Y105.878 E3.13853
G1 X86.534 Y105.636 E3.23612
G1 X86.354 Y105.397 E3.32585
G1 X86.178 Y105.055 E3.44122
G1 X86.028 Y104.671 E3.56452
G1 X85.934 Y104.014 E3.76346
G1 X85.914 Y103.723 E3.85101
G1 X85.944 Y103.334 E3.96773
G1 X86.023 Y102.975 E4.07801
G1 X86.130 Y102.656 E4.17894
G1 X86.210 Y102.501 E4.23119
G1 X86.468 Y102.100 E4.37392
G1 X86.698 Y101.855 E4.47475
G1 X86.988 Y101.606 E4.58915
G1 X87.376 Y101.349 E4.72877
G1 X87.914 Y101.077 E4.90935
G1 X88.732 Y100.782 E5.16988
G1 X89.667 Y100.523 E5.46061
G1 X92.770 Y99.777 E6.41695
G1 X93.544 Y99.524 E6.66081
G1 X94.080 Y99.291 E6.83614
G1 X94.599 Y99.010 E7.01302
G1 X94.930 Y98.768 E7.13578
G1 X95.296 Y98.410 E7.28921
G1 X95.466 Y98.188 E7.37288
G1 X95.608 Y97.941 E7.45825
G1 X95.733 Y97.670 E7.54786
G1 X95.822 Y97.364 E7.64339
G1 X95.889 Y97.006 E7.75243
G1 X95.914 Y96.630 E7.86529
G1 X95.892 Y96.327 E7.95632
G1 X95.785 Y95.589 E8.17976
G1 X95.630 Y95.199 E8.30541
G1 X95.414 Y94.785 E8.44550
G1 X95.232 Y94.547 E8.53511
G1 X95.012 Y94.305 E8.63322
G1 X94.756 Y94.072 E8.73701
G1 X94.164 Y93.690 E8.94806
G1 X93.740 Y93.484 E9.08945
G1 X93.159 Y93.289 E9.27307
G1 X92.366 Y93.103 E9.51706
G1 X92.128 Y93.068 E9.58913
G1 X90.672 Y92.971 E10.02639
G1 X89.365 Y93.102 E10.42013
G1 X88.182 Y93.314 E10.78003
G1 X87.746 Y93.434 E10.91553
G1 X87.331 Y93.646 E11.05523
G1 X86.455 Y94.228 E11.37028
G1 X86.041 Y94.582 E11.53378
G1 X85.634 Y95.275 E11.77441
G1 X85.201 Y96.245 E12.09277
G92 E0
G1 X90.646 Y92.160 F7800.000
G1 X90.646 Y92.160 F7800.000
G1 X90.715 Y91.161 F7800.000
G1 X92.152 Y91.211 F7800.000
G1 X92.569 Y91.226 F7800.000
G1 X92.756 Y91.240 F7800.000
G1 X94.352 Y91.436 F7800.000
G1 X94.653 Y91.491 F7800.000
G1 X96.058 Y91.831 F7800.000
G1 X96.560 Y91.993 F7800.000
G1 X97.829 Y92.502 F7800.000
G1 X98.692 Y92.940 F7800.000
G1 X99.912 Y93.690 F7800.000
G1 X100.131 Y93.830 F7800.000
G1 X101.609 Y92.352 F7800.000
G1 X103.801 Y92.352 F7800.000
G1 X115.815 Y93.198 F7800.000
G1 X105.872 Y93.198 E2.97938 F600.000
G1 X104.917 Y93.468 E3.27683
G1 X104.837 Y94.044 E3.45118
G1 X104.837 Y99.386 E5.05189
