; generated by Slic3r 1.2.9 on 2016-03-11 at 01:29:59

; external perimeters extrusion width = 1.54mm
; perimeters extrusion width = 2.62mm
; infill extrusion width = 6.27mm
; solid infill extrusion width = 2.62mm
; top infill extrusion width = 2.62mm

M107
M104 S30 ; set temperature
G28 ; home all axes
G1 Z5 F5000 ; lift nozzle
M302
M92 E10000
M500
M501
G1 E100
M109 S30 ; wait for temperature to be reached
G21 ; set units to millimeters
G90 ; use absolute coordinates
M82 ; use absolute distances for extrusion
G92 E0
G1 Z0.300 F7800.000
G1 X86.625 Y96.185 F7800.000
G1 X85.098 Y95.880 E0.07048 F378.000
G1 X86.044 Y94.045 E0.16388
G1 X88.103 Y92.808 E0.27258
G1 X91.230 Y92.386 E0.41533
G1 X92.793 Y92.495 E0.48625
G1 X93.036 Y92.512 E0.49726 F378.000
G1 X94.541 Y92.886 E0.56743
G1 X95.738 Y93.502 E0.62837
G1 X96.604 Y94.330 E0.68257
G1 X97.120 Y95.351 E0.73434
G1 X97.295 Y96.593 E0.79111
G1 X97.271 Y97.090 E0.81362
G1 X97.198 Y97.546 E0.83451
G1 X97.077 Y97.953 E0.85372
G1 X96.914 Y98.320 E0.87190
G1 X96.714 Y98.653 E0.88946
G1 X96.477 Y98.952 E0.90670
G1 X96.205 Y99.220 E0.92400
G1 X95.902 Y99.461 E0.94155
G1 X95.564 Y99.675 E0.95965
G1 X95.199 Y99.867 E0.97827
G1 X94.403 Y100.205 E1.01743
G1 X93.543 Y100.480 E1.05827
G1 X90.443 Y101.222 E1.20249
G1 X89.496 Y101.487 E1.24699
G1 X88.850 Y101.724 E1.27816
G1 X88.390 Y101.967 E1.30167
G1 X88.003 Y102.246 E1.32327
G1 X87.687 Y102.568 E1.34368
G1 X87.452 Y102.947 E1.36384
G1 X87.312 Y103.384 E1.38462
G1 X87.266 Y103.877 E1.40702
G1 X87.382 Y104.675 E1.44352
G1 X87.741 Y105.346 E1.47796
G1 X88.331 Y105.864 E1.51348
G1 X89.120 Y106.224 E1.55275
G1 X90.091 Y106.434 E1.59769
G1 X91.244 Y106.503 E1.64996
G1 X92.304 Y106.441 E1.69799
G1 X93.210 Y106.250 E1.73991
G1 X93.965 Y105.925 E1.77709
G1 X94.573 Y105.449 E1.81204
G1 X95.033 Y104.813 E1.84756
G1 X95.267 Y104.221 E1.87634
G1 X96.852 Y104.500 E1.94915
G1 X96.505 Y105.373 E1.99168
G1 X95.896 Y106.231 E2.03926
G1 X95.120 Y106.848 E2.08411
G1 X94.118 Y107.270 E2.13333
G1 X92.832 Y107.528 E2.19267
G1 X91.267 Y107.615 E2.26362
G1 X89.582 Y107.499 E2.34001
G1 X88.197 Y107.157 E2.40459
G1 X87.107 Y106.595 E2.46007
G1 X86.326 Y105.839 E2.50926
G1 X85.860 Y104.901 E2.55666
G1 X85.701 Y103.754 E2.60906
G1 X85.731 Y103.243 E2.63223
G1 X85.820 Y102.768 E2.65408
G1 X85.968 Y102.338 E2.67467
G1 X86.173 Y101.947 E2.69465
G1 X86.430 Y101.589 E2.71459
G1 X86.741 Y101.265 E2.73489
G1 X87.122 Y100.966 E2.75682
G1 X87.593 Y100.681 E2.78173
G1 X88.154 Y100.413 E2.80985
G1 X88.858 Y100.153 E2.84381
G1 X89.759 Y99.890 E2.88629
G1 X92.758 Y99.180 E3.02573
G1 X93.312 Y99.030 E3.05172
G1 X93.818 Y98.855 E3.07594
G1 X94.275 Y98.655 E3.09851
G1 X94.681 Y98.420 E3.11975
G1 X95.029 Y98.141 E3.13992
G1 X95.316 Y97.817 E3.15953
G1 X95.530 Y97.431 E3.17949
G1 X95.657 Y96.981 E3.20064
G1 X95.699 Y96.467 E3.22395
G1 X95.568 Y95.589 E3.26415
G1 X95.168 Y94.847 E3.30229
G1 X94.509 Y94.270 E3.34191
G1 X93.632 Y93.866 E3.38562
G1 X92.562 Y93.629 E3.43520
G1 X91.298 Y93.551 E3.49248
G1 X90.068 Y93.624 E3.54825
G1 X89.010 Y93.847 E3.59718
G1 X88.124 Y94.225 E3.64080
G1 X87.412 Y94.774 E3.68144
G1 X86.886 Y95.498 E3.72197
G1 X86.707 Y95.969 E3.74474
G1 X86.117 Y95.835 F7800.000
G1 X85.607 Y95.324 E3.77763 F540.000
G1 X85.793 Y94.962 E3.79619
G1 X86.576 Y95.745 E3.84659
G1 X86.744 Y95.364 E3.86554
G1 X85.980 Y94.600 E3.91474
G1 X86.168 Y94.239 E3.93328
G1 X86.975 Y95.046 E3.98526
G1 X87.206 Y94.728 E4.00315
G1 X86.486 Y94.008 E4.04956
G1 X86.829 Y93.802 E4.06777
G1 X87.494 Y94.467 E4.11062
G1 X87.804 Y94.228 E4.12845
G1 X87.171 Y93.596 E4.16917
G1 X87.514 Y93.390 E4.18738
G1 X88.129 Y94.005 E4.22699
G1 X88.514 Y93.841 E4.24605
G1 X87.857 Y93.184 E4.28835
G1 X88.231 Y93.009 E4.30715
G1 X88.899 Y93.677 E4.35018
G1 X89.334 Y93.563 E4.37067
G1 X88.714 Y92.943 E4.41060
G1 X89.198 Y92.878 E4.43283
G1 X89.788 Y93.468 E4.47081
G1 X90.260 Y93.391 E4.49259
G1 X89.682 Y92.813 E4.52984
G1 X90.165 Y92.747 E4.55206
G1 X90.778 Y93.360 E4.59152
G1 X91.296 Y93.329 E4.61515
G1 X90.649 Y92.682 E4.65682
G1 X91.132 Y92.617 E4.67905
G1 X91.870 Y93.354 E4.72654
G1 X92.455 Y93.390 E4.75323
G1 X91.717 Y92.652 E4.80077
G1 X92.307 Y92.693 E4.82770
G1 X93.112 Y93.499 E4.87960
G1 X93.820 Y93.658 E4.91264
G1 X92.896 Y92.734 E4.97214
G1 X93.625 Y92.914 E5.00631
G1 X95.099 Y94.388 E5.10125
G1 X95.388 Y94.677 F7800.000
G1 X97.014 Y96.303 E5.20596 F540.000
G1 X96.924 Y95.664 E5.23535
G1 X94.359 Y93.099 E5.40053
G1 X95.622 Y93.813 F7800.000
G1 X96.464 Y94.655 E5.45476 F540.000
G1 X95.820 Y95.658 F7800.000
G1 X97.058 Y96.896 E5.53452 F540.000
G1 X97.006 Y97.393 E5.55725
G1 X95.915 Y96.302 E5.62748
G1 X95.890 Y96.825 E5.65133
G1 X96.897 Y97.833 E5.71623
G1 X96.738 Y98.223 E5.73540
G1 X95.789 Y97.274 E5.79652
G1 X95.627 Y97.661 E5.81563
G1 X96.535 Y98.568 E5.87408
G1 X96.287 Y98.869 E5.89184
G1 X95.414 Y97.996 E5.94809
G1 X95.156 Y98.287 E5.96579
G1 X96.003 Y99.135 E6.02039
G1 X95.687 Y99.367 E6.03827
G1 X94.851 Y98.531 E6.09208
G1 X94.514 Y98.743 E6.11021
G1 X95.341 Y99.569 E6.16343
G1 X94.969 Y99.747 E6.18218
G1 X94.150 Y98.928 E6.23492
G1 X93.763 Y99.089 E6.25403
G1 X94.584 Y99.910 E6.30690
G1 X93.355 Y99.230 F7800.000
G1 X94.184 Y100.060 E6.36033 F540.000
G1 X93.769 Y100.193 E6.38021
G1 X92.925 Y99.350 E6.43454
G1 X92.486 Y99.459 E6.45515
G1 X93.340 Y100.314 E6.51018
G1 X92.898 Y100.420 E6.53092
G1 X92.042 Y99.564 E6.58601
G1 X91.598 Y99.670 E6.60678
G1 X92.455 Y100.526 E6.66193
G1 X92.012 Y100.632 E6.68267
G1 X91.155 Y99.775 E6.73788
G1 X90.711 Y99.880 E6.75865
G1 X91.569 Y100.738 E6.81392
G1 X91.126 Y100.844 E6.83466
G1 X90.267 Y99.985 E6.88998
G1 X89.823 Y100.090 E6.91076
G1 X90.683 Y100.950 E6.96614
G1 X90.247 Y101.062 E6.98666
G1 X89.395 Y100.211 E7.04149
G1 X88.970 Y100.335 E7.06165
G1 X89.818 Y101.182 E7.11621
G1 X89.395 Y101.308 E7.13631
G1 X88.564 Y100.478 E7.18979
G1 X88.166 Y100.628 F7800.000
G1 X88.993 Y101.455 E7.24308 F540.000
G1 X88.614 Y101.625 E7.26199
G1 X87.794 Y100.805 E7.31480
G1 X87.441 Y101.001 E7.33319
G1 X88.261 Y101.821 E7.38600
G1 X87.943 Y102.051 E7.40390
G1 X87.111 Y101.220 E7.45748
G1 X86.811 Y101.469 E7.47523
G1 X87.662 Y102.320 E7.53002
G1 X87.421 Y102.627 E7.54782
G1 X86.549 Y101.755 E7.60399
G1 X86.325 Y102.081 E7.62197
G1 X87.226 Y102.981 E7.67997
G1 X87.093 Y103.397 E7.69985
G1 X86.145 Y102.450 E7.76084
G1 X86.017 Y102.870 E7.78086
G1 X87.044 Y103.897 E7.84701
G1 X87.118 Y104.521 E7.87560
G1 X85.946 Y103.349 E7.95109
G1 X85.963 Y103.915 E7.97688
G1 X87.469 Y105.420 E8.07387
G1 X88.103 Y106.054 F7800.000
G1 X89.197 Y107.149 E8.14439 F540.000
G1 X89.059 Y106.461 E8.17631
G1 X89.885 Y107.288 E8.22951
G1 X90.475 Y107.328 E8.25641
G1 X89.760 Y106.613 E8.30244
G1 X90.379 Y106.683 E8.33078
G1 X91.064 Y107.368 E8.37492
G1 X91.618 Y107.373 E8.40014
G1 X90.962 Y106.718 E8.44234
G1 X91.503 Y106.710 E8.46697
G1 X92.138 Y107.344 E8.50784
G1 X92.658 Y107.315 E8.53156
G1 X92.021 Y106.679 E8.57255
G1 X92.505 Y106.614 E8.59478
G1 X93.141 Y107.250 E8.63575
G1 X93.598 Y107.158 E8.65698
G1 X92.958 Y106.518 E8.69819
G1 X93.383 Y106.394 E8.71833
G1 X94.055 Y107.067 E8.76166
G1 X94.450 Y106.912 E8.78095
G1 X93.766 Y106.229 E8.82498
G1 X94.129 Y106.042 E8.84353
G1 X94.836 Y106.750 E8.88911
G1 X95.185 Y106.550 E8.90743
G1 X94.436 Y105.801 E8.95566
G1 X94.737 Y105.552 E8.97342
G1 X95.491 Y106.307 E9.02200
G1 X95.778 Y106.045 E9.03969
G1 X94.967 Y105.234 E9.09191
G1 X95.198 Y104.916 E9.10981
G1 X96.013 Y105.731 E9.16232
G1 X96.241 Y105.410 E9.18025
G1 X95.362 Y104.531 E9.23689
G1 X95.970 Y104.590 E9.26472
G1 X96.420 Y105.040 E9.29373
G92 E0
G1 X86.493 Y103.820 F7800.000
G1 X86.493 Y103.820 F7800.000
G1 X88.468 Y106.968 F7800.000
G1 X86.051 Y104.551 E0.15567 F540.000
G1 X86.468 Y105.517 F7800.000
G1 X87.381 Y106.430 E0.21448 F540.000
G92 E0
G1 X96.061 Y106.387 F7800.000
G1 X98.956 Y107.079 F7800.000
G1 X100.577 Y106.036 F7800.000
G1 X102.190 Y107.648 F7800.000
G1 X104.382 Y107.648 F7800.000
G1 X104.607 Y99.944 F7800.000
G1 X104.607 Y92.577 E0.33333 F378.000
G1 X106.228 Y92.577 E0.40668
G1 X106.228 Y98.800 E0.68826
G1 X114.753 Y98.800 E1.07401 F378.000
G1 X114.753 Y100.063 E1.13116
G1 X106.228 Y100.063 E1.51691
G1 X106.228 Y106.181 E1.79375
G1 X115.014 Y106.181 E2.19131
G1 X115.014 Y107.423 E2.24751
G1 X104.607 Y107.423 E2.71842
G1 X104.607 Y100.175 E3.04641
G1 X104.833 Y98.810 F7800.000
G1 X106.002 Y99.979 E3.12125 F540.000
G1 X106.002 Y100.525 E3.14594
G1 X104.833 Y99.356 E3.22079
G1 X104.833 Y99.901 E3.24548
G1 X106.002 Y101.070 E3.32032
G1 X106.002 Y101.616 E3.34502
G1 X104.833 Y100.447 E3.41986
G1 X104.833 Y100.992 E3.44456
G1 X106.002 Y102.161 E3.51940
G1 X106.002 Y102.707 E3.54410
G1 X104.833 Y101.538 E3.61894
G1 X104.833 Y102.083 E3.64363
G1 X106.002 Y103.252 E3.71848
G1 X106.002 Y103.798 E3.74317
G1 X104.833 Y102.629 E3.81801
G1 X104.833 Y103.175 E3.84271
G1 X106.002 Y104.344 E3.91755
G1 X106.002 Y104.889 E3.94225
G1 X104.833 Y103.720 E4.01709
G1 X104.833 Y104.266 E4.04179
G1 X106.002 Y105.435 E4.11663
G1 X106.002 Y105.980 E4.14132
G1 X104.833 Y104.811 E4.21617
G1 X104.833 Y105.357 E4.24086
G1 X106.673 Y107.197 E4.35867
G1 X107.219 Y107.197 E4.38337
G1 X106.428 Y106.407 E4.43395
G1 X106.974 Y106.407 E4.45864
G1 X107.764 Y107.197 E4.50922
G1 X108.310 Y107.197 E4.53392
G1 X107.520 Y106.407 E4.58450
G1 X108.065 Y106.407 E4.60919
G1 X108.855 Y107.197 E4.65977
G1 X109.401 Y107.197 E4.68447
G1 X108.611 Y106.407 E4.73505
G1 X109.156 Y106.407 E4.75974
G1 X109.946 Y107.197 E4.81032
G1 X110.492 Y107.197 E4.83502
G1 X109.702 Y106.407 E4.88560
G1 X110.247 Y106.407 E4.91030
G1 X111.038 Y107.197 E4.96087
G1 X111.583 Y107.197 E4.98557
G1 X110.793 Y106.407 E5.03615
G1 X111.339 Y106.407 E5.06085
G1 X112.129 Y107.197 E5.11143
G1 X112.674 Y107.197 E5.13612
G1 X111.884 Y106.407 E5.18670
G1 X112.430 Y106.407 E5.21140
G1 X113.220 Y107.197 E5.26198
G1 X113.765 Y107.197 E5.28667
G1 X112.975 Y106.407 E5.33725
G1 X113.521 Y106.407 E5.36195
G1 X114.311 Y107.197 E5.41253
G1 X114.788 Y107.128 E5.43434
G1 X114.066 Y106.407 E5.48053
G1 X114.612 Y106.407 E5.50522
G1 X114.788 Y106.583 E5.51648
G92 E0
G1 X105.453 Y106.648 F7800.000
G1 X105.453 Y106.648 F7800.000
G1 X114.527 Y99.230 F7800.000
G1 X114.323 Y99.026 E0.01303 F540.000
G1 X113.778 Y99.026 E0.03773
G1 X114.527 Y99.775 E0.08569
G1 X114.043 Y99.837 E0.10776
G1 X113.232 Y99.026 E0.15969
G1 X112.687 Y99.026 E0.18438
G1 X113.498 Y99.837 E0.23631
G1 X112.952 Y99.837 E0.26100
G1 X112.141 Y99.026 E0.31293
G1 X111.595 Y99.026 E0.33762
G1 X112.407 Y99.837 E0.38954
G1 X111.861 Y99.837 E0.41424
G1 X111.050 Y99.026 E0.46616
G1 X110.504 Y99.026 E0.49086
G1 X111.315 Y99.837 E0.54278
G1 X110.770 Y99.837 E0.56748
G1 X109.959 Y99.026 E0.61940
G1 X109.413 Y99.026 E0.64410
G1 X110.224 Y99.837 E0.69602
G1 X109.679 Y99.837 E0.72072
G1 X108.868 Y99.026 E0.77264
G1 X108.322 Y99.026 E0.79734
G1 X109.133 Y99.837 E0.84926
G1 X108.588 Y99.837 E0.87396
G1 X107.776 Y99.026 E0.92588
G1 X107.231 Y99.026 E0.95058
G1 X108.042 Y99.837 E1.00250
G1 X107.496 Y99.837 E1.02720
G1 X106.685 Y99.026 E1.07912
G1 X106.140 Y99.026 E1.10382
G1 X106.951 Y99.837 E1.15574
G1 X106.405 Y99.837 E1.18044
G1 X104.833 Y98.264 E1.28111
G1 X104.833 Y97.719 E1.30581
G1 X106.002 Y98.888 E1.38065
G1 X106.002 Y98.342 E1.40535
G1 X104.833 Y97.173 E1.48019
G1 X104.833 Y96.628 E1.50488
G1 X106.002 Y97.797 E1.57973
G1 X106.002 Y97.251 E1.60442
G1 X104.833 Y96.082 E1.67926
G1 X104.833 Y95.537 E1.70396
G1 X106.002 Y96.706 E1.77880
G1 X106.002 Y96.160 E1.80350
G1 X104.833 Y94.991 E1.87834
G1 X104.833 Y94.446 E1.90304
G1 X106.002 Y95.615 E1.97788
G1 X106.002 Y95.069 E2.00257
G1 X104.833 Y93.900 E2.07742
G1 X104.833 Y93.354 E2.10211
G1 X106.002 Y94.523 E2.17695
G1 X106.002 Y93.978 E2.20165
G1 X104.850 Y92.826 E2.27540
G1 X105.372 Y92.803 E2.29908
G1 X106.002 Y93.432 E2.33937
G1 X104.833 Y106.993 F7800.000
G1 X105.036 Y107.197 E2.35241 F540.000
G1 X105.582 Y107.197 E2.37710
G1 X104.833 Y106.448 E2.42506
G1 X104.833 Y105.902 E2.44976
G1 X106.127 Y107.197 E2.53264
M106 S255
G92 E0
G1 Z0.600 F7800.000
G1 X96.414 Y104.194 F7800.000
G1 X95.335 Y105.700 E0.55491 F600.000
G1 X94.991 Y106.033 E0.69861
G1 X94.750 Y106.223 E0.79047
G1 X94.398 Y106.430 E0.91290
G1 X93.927 Y106.647 E1.06843
G1 X93.310 Y106.831 E1.26132
G1 X92.758 Y106.944 E1.43013
G1 X92.320 Y106.998 E1.56234
G1 X91.270 Y107.058 E1.87734
G1 X90.076 Y106.983 E2.23604
G1 X89.672 Y106.930 E2.35814
G1 X89.024 Y106.780 E2.55716
G1 X88.414 Y106.577 E2.74987
G1 X87.898 Y106.307 E2.92443
G1 X87.505 Y106.040 E3.06681
G1 X87.329 Y105.878 E3.13853
G1 X87.111 Y105.636 E3.23612
G1 X86.930 Y105.397 E3.32585
G1 X86.754 Y105.055 E3.44122
G1 X86.604 Y104.671 E3.56452
G1 X86.511 Y104.014 E3.76346
G1 X86.490 Y103.723 E3.85101
G1 X86.520 Y103.334 E3.96773
G1 X86.599 Y102.975 E4.07801
G1 X86.707 Y102.656 E4.17894
G1 X86.787 Y102.501 E4.23119
G1 X87.044 Y102.100 E4.37392
G1 X87.275 Y101.855 E4.47475
G1 X87.564 Y101.606 E4.58915
G1 X87.953 Y101.349 E4.72877
G1 X88.491 Y101.077 E4.90935
G1 X89.308 Y100.782 E5.16988
G1 X90.243 Y100.523 E5.46061
G1 X93.347 Y99.777 E6.41695
G1 X94.120 Y99.524 E6.66081
G1 X94.657 Y99.291 E6.83614
G1 X95.176 Y99.010 E7.01302
G1 X95.507 Y98.768 E7.13578
G1 X95.873 Y98.410 E7.28921
G1 X96.042 Y98.188 E7.37288
G1 X96.185 Y97.941 E7.45825
G1 X96.310 Y97.670 E7.54786
G1 X96.399 Y97.364 E7.64339
G1 X96.466 Y97.006 E7.75243
G1 X96.490 Y96.630 E7.86529
G1 X96.468 Y96.327 E7.95632
G1 X96.361 Y95.589 E8.17976
G1 X96.207 Y95.199 E8.30541
G1 X95.990 Y94.785 E8.44550
G1 X95.809 Y94.547 E8.53511
G1 X95.588 Y94.305 E8.63322
G1 X95.333 Y94.072 E8.73701
G1 X94.740 Y93.690 E8.94806
G1 X94.316 Y93.484 E9.08945
G1 X93.735 Y93.289 E9.27307
G1 X92.942 Y93.103 E9.51706
G1 X92.704 Y93.068 E9.58913
G1 X91.248 Y92.971 E10.02639
G1 X89.941 Y93.102 E10.42013
G1 X88.759 Y93.314 E10.78003
G1 X88.323 Y93.434 E10.91553
G1 X87.908 Y93.646 E11.05523
G1 X87.032 Y94.228 E11.37028
G1 X86.617 Y94.582 E11.53378
G1 X86.210 Y95.275 E11.77441
G1 X85.778 Y96.245 E12.09277
G92 E0
G1 X91.222 Y92.160 F7800.000
G1 X91.222 Y92.160 F7800.000
G1 X91.292 Y91.161 F7800.000
G1 X92.728 Y91.211 F7800.000
G1 X93.145 Y91.226 F7800.000
G1 X93.332 Y91.240 F7800.000
G1 X94.929 Y91.436 F7800.000
G1 X95.229 Y91.491 F7800.000
G1 X96.634 Y91.831 F7800.000
G1 X97.137 Y91.993 F7800.000
G1 X98.406 Y92.502 F7800.000
G1 X99.268 Y92.940 F7800.000
G1 X100.488 Y93.690 F7800.000
G1 X100.710 Y93.832 F7800.000
G1 X102.190 Y92.352 F7800.000
G1 X104.382 Y92.352 F7800.000
G1 X106.314 Y102.912 F7800.000
G1 X105.417 Y98.575 E1.32720 F600.000
G1 X105.417 Y92.352 E3.19190
G1 X105.453 Y93.352 F7800.000
G1 X105.417 Y93.387 F7800.000
G1 X105.417 Y106.612 F7800.000
G1 X105.453 Y106.648 F7800.000
G1 X115.239 Y106.802 F7800.000
G1 X106.453 Y106.802 E5.82459 F600.000
G1 X105.497 Y106.532 E6.12204
G1 X105.417 Y105.956 E6.29639
G1 X105.417 Y100.288 E7.99479
G1 X105.594 Y99.431 E8.25686
G1 X114.978 Y99.431 E11.06856
G92 E0
G1 Z0.900 F7800.000
G1 X96.414 Y104.194 F7800.000
G1 X95.335 Y105.700 E0.55491 F600.000
G1 X94.991 Y106.033 E0.69861
G1 X94.750 Y106.223 E0.79048
G1 X94.398 Y106.430 E0.91290
G1 X93.927 Y106.647 E1.06843
G1 X93.310 Y106.831 E1.26132
G1 X92.758 Y106.944 E1.43013
G1 X92.320 Y106.998 E1.56234
G1 X91.270 Y107.058 E1.87734
G1 X90.076 Y106.983 E2.23604
G1 X89.672 Y106.930 E2.35814
G1 X89.024 Y106.780 E2.55716
G1 X88.414 Y106.577 E2.74987
G1 X87.898 Y106.307 E2.92443
G1 X87.505 Y106.040 E3.06681
G1 X87.329 Y105.878 E3.13853
G1 X87.111 Y105.636 E3.23612
G1 X86.930 Y105.397 E3.32585
G1 X86.754 Y105.055 E3.44122
G1 X86.604 Y104.671 E3.56452
G1 X86.511 Y104.014 E3.76346
G1 X86.490 Y103.723 E3.85101
G1 X86.520 Y103.334 E3.96773
G1 X86.599 Y102.975 E4.07801
G1 X86.707 Y102.656 E4.17894
G1 X86.787 Y102.501 E4.23119
G1 X87.044 Y102.100 E4.37392
G1 X87.275 Y101.855 E4.47475
G1 X87.564 Y101.606 E4.58915
G1 X87.953 Y101.349 E4.72877
G1 X88.491 Y101.077 E4.90936
G1 X89.308 Y100.782 E5.16988
G1 X90.243 Y100.523 E5.46061
G1 X93.347 Y99.777 E6.41695
G1 X94.120 Y99.524 E6.66081
G1 X94.657 Y99.291 E6.83614
G1 X95.176 Y99.010 E7.01302
G1 X95.507 Y98.768 E7.13578
G1 X95.873 Y98.410 E7.28921
G1 X96.042 Y98.188 E7.37288
