; generated by Slic3r 1.2.9 on 2016-03-11 at 01:30:02

; external perimeters extrusion width = 1.54mm
; perimeters extrusion width = 2.62mm
; infill extrusion width = 6.27mm
; solid infill extrusion width = 2.62mm
; top infill extrusion width = 2.62mm

M107
M104 S30 ; set temperature
G28 ; home all axes
G1 Z5 F5000 ; lift nozzle
M302
M92 E10000
M500
M501
G1 E100
M109 S30 ; wait for temperature to be reached
G21 ; set units to millimeters
G90 ; use absolute coordinates
M82 ; use absolute distances for extrusion
G92 E0
G1 Z0.300 F7800.000
G1 X96.303 Y106.458 F7800.000
G1 X96.587 Y106.441 E0.01287 F378.000
G1 X97.493 Y106.250 E0.05480
G1 X98.248 Y105.925 E0.09197
G1 X98.856 Y105.449 E0.12692
G1 X99.316 Y104.813 E0.16245
G1 X99.550 Y104.221 E0.19122
G1 X101.135 Y104.500 E0.26404
G1 X100.788 Y105.373 E0.30656
G1 X100.179 Y106.231 E0.35414
G1 X99.403 Y106.848 E0.39900
G1 X98.401 Y107.270 E0.44822
G1 X97.115 Y107.528 E0.50756
G1 X95.550 Y107.615 E0.57850
G1 X93.865 Y107.499 E0.65489
G1 X92.480 Y107.157 E0.71947
G1 X91.390 Y106.595 E0.77496
G1 X90.609 Y105.839 E0.82414
G1 X90.143 Y104.901 E0.87154
G1 X89.984 Y103.754 E0.92394
G1 X90.014 Y103.243 E0.94712
G1 X90.103 Y102.768 E0.96896
G1 X90.251 Y102.338 E0.98955
G1 X90.456 Y101.947 E1.00954
G1 X90.713 Y101.589 E1.02948
G1 X91.024 Y101.265 E1.04977
G1 X91.405 Y100.966 E1.07171
G1 X91.876 Y100.681 E1.09661
G1 X92.437 Y100.413 E1.12474
G1 X93.141 Y100.153 E1.15869
G1 X94.042 Y99.890 E1.20117
G1 X97.041 Y99.180 E1.34061
G1 X97.595 Y99.030 E1.36660
G1 X98.101 Y98.855 E1.39083
G1 X98.558 Y98.655 E1.41339
G1 X98.964 Y98.420 E1.43463
G1 X99.312 Y98.141 E1.45480
G1 X99.599 Y97.817 E1.47441
G1 X99.813 Y97.431 E1.49437
G1 X99.940 Y96.981 E1.51552
G1 X99.982 Y96.467 E1.53884
G1 X99.851 Y95.589 E1.57903
G1 X99.451 Y94.847 E1.61717
G1 X98.792 Y94.270 E1.65680
G1 X97.915 Y93.866 E1.70050
G1 X96.845 Y93.629 E1.75008
G1 X95.581 Y93.551 E1.80737
G1 X94.351 Y93.624 E1.86314
G1 X93.293 Y93.847 E1.91206
G1 X92.407 Y94.225 E1.95568
G1 X91.695 Y94.774 E1.99632
G1 X91.169 Y95.498 E2.03685
G1 X90.908 Y96.185 E2.07008
G1 X89.381 Y95.880 E2.14056
G1 X90.327 Y94.045 E2.23396
G1 X92.386 Y92.808 E2.34266
G1 X95.513 Y92.386 E2.48541
G1 X97.076 Y92.495 E2.55633
G1 X97.319 Y92.512 E2.56734 F378.000
G1 X98.824 Y92.886 E2.63751
G1 X100.021 Y93.502 E2.69845
G1 X100.887 Y94.330 E2.75265
G1 X101.403 Y95.351 E2.80442
G1 X101.578 Y96.593 E2.86118
G1 X101.554 Y97.090 E2.88370
G1 X101.481 Y97.546 E2.90459
G1 X101.360 Y97.953 E2.92380
G1 X101.197 Y98.320 E2.94198
G1 X100.997 Y98.653 E2.95954
G1 X100.760 Y98.952 E2.97678
G1 X100.488 Y99.220 E2.99408
G1 X100.185 Y99.461 E3.01163
G1 X99.847 Y99.675 E3.02973
G1 X99.482 Y99.867 E3.04835
G1 X98.686 Y100.205 E3.08751
G1 X97.826 Y100.480 E3.12835
G1 X94.726 Y101.222 E3.27257
G1 X93.779 Y101.487 E3.31707
G1 X93.133 Y101.724 E3.34824
G1 X92.673 Y101.967 E3.37175
G1 X92.286 Y102.246 E3.39335
G1 X91.970 Y102.568 E3.41376
G1 X91.735 Y102.947 E3.43392
G1 X91.595 Y103.384 E3.45470
G1 X91.549 Y103.877 E3.47710
G1 X91.665 Y104.675 E3.51360
G1 X92.024 Y105.346 E3.54804
G1 X92.614 Y105.864 E3.58356
G1 X93.403 Y106.224 E3.62283
G1 X94.374 Y106.434 E3.66777
G1 X95.527 Y106.503 E3.72004
G1 X96.072 Y106.471 E3.74474
G1 X92.751 Y106.968 F7800.000
G1 X90.334 Y104.551 E3.90042 F540.000
G1 X90.751 Y105.517 F7800.000
G1 X91.664 Y106.430 E3.95923 F540.000
G1 X92.386 Y106.054 F7800.000
G1 X93.480 Y107.149 E4.02974 F540.000
G1 X93.342 Y106.461 E4.06166
G1 X94.168 Y107.288 E4.11487
G1 X94.758 Y107.328 E4.14177
G1 X94.043 Y106.613 E4.18779
G1 X94.662 Y106.683 E4.21614
G1 X95.347 Y107.368 E4.26028
G1 X95.901 Y107.373 E4.28550
G1 X95.245 Y106.718 E4.32770
G1 X95.786 Y106.710 E4.35233
G1 X96.421 Y107.344 E4.39320
G1 X96.941 Y107.315 E4.41692
G1 X96.304 Y106.679 E4.45791
G1 X96.788 Y106.614 E4.48013
G1 X97.424 Y107.250 E4.52111
G1 X97.881 Y107.158 E4.54234
G1 X97.241 Y106.518 E4.58355
G1 X97.666 Y106.394 E4.60369
G1 X98.338 Y107.067 E4.64701
G1 X98.733 Y106.912 E4.66631
G1 X98.049 Y106.229 E4.71033
G1 X98.412 Y106.042 E4.72889
G1 X99.119 Y106.750 E4.77447
G1 X99.468 Y106.550 E4.79278
G1 X98.719 Y105.801 E4.84102
G1 X99.020 Y105.552 E4.85878
G1 X99.774 Y106.307 E4.90736
G1 X100.061 Y106.045 E4.92505
G1 X99.250 Y105.234 E4.97726
G1 X99.481 Y104.916 E4.99516
G1 X100.296 Y105.731 E5.04768
G1 X100.524 Y105.410 E5.06561
G1 X99.645 Y104.531 E5.12225
G1 X100.253 Y104.590 E5.15008
G1 X100.703 Y105.040 E5.17909
G92 E0
G1 X99.540 Y98.952 F7800.000
G1 X99.540 Y98.952 F7800.000
G1 X98.867 Y99.910 F7800.000
G1 X98.046 Y99.089 E0.05287 F540.000
G1 X98.433 Y98.928 E0.07198
G1 X99.252 Y99.747 E0.12472
G1 X99.624 Y99.569 E0.14347
G1 X98.797 Y98.743 E0.19669
G1 X99.134 Y98.531 E0.21482
G1 X99.970 Y99.367 E0.26863
G1 X100.286 Y99.135 E0.28652
G1 X99.439 Y98.287 E0.34111
G1 X99.697 Y97.996 E0.35882
G1 X100.570 Y98.869 E0.41506
G1 X100.818 Y98.568 E0.43282
G1 X99.910 Y97.661 E0.49127
G1 X100.072 Y97.274 E0.51038
G1 X101.021 Y98.223 E0.57150
G1 X101.180 Y97.833 E0.59067
G1 X100.173 Y96.825 E0.65557
G1 X100.198 Y96.302 E0.67943
G1 X101.289 Y97.393 E0.74965
G1 X101.341 Y96.896 E0.77238
G1 X100.103 Y95.658 E0.85215
G1 X99.671 Y94.677 F7800.000
G1 X101.297 Y96.303 E0.95685 F540.000
G1 X101.207 Y95.664 E0.98625
G1 X98.642 Y93.099 E1.15143
G1 X99.905 Y93.813 F7800.000
G1 X100.747 Y94.655 E1.20565 F540.000
G1 X99.382 Y94.388 F7800.000
G1 X97.908 Y92.914 E1.30059 F540.000
G1 X97.179 Y92.734 E1.33477
G1 X98.103 Y93.658 E1.39426
G1 X97.395 Y93.499 E1.42730
G1 X96.590 Y92.693 E1.47920
G1 X96.000 Y92.652 E1.50613
G1 X96.738 Y93.390 E1.55367
G1 X96.153 Y93.354 E1.58036
G1 X95.415 Y92.617 E1.62786
G1 X94.932 Y92.682 E1.65008
G1 X95.579 Y93.329 E1.69175
G1 X95.061 Y93.360 E1.71538
G1 X94.448 Y92.747 E1.75484
G1 X93.965 Y92.813 E1.77706
G1 X94.543 Y93.391 E1.81431
G1 X94.071 Y93.468 E1.83609
G1 X93.481 Y92.878 E1.87408
G1 X92.997 Y92.943 E1.89630
G1 X93.617 Y93.563 E1.93623
G1 X93.182 Y93.677 E1.95673
G1 X92.514 Y93.009 E1.99976
G1 X92.140 Y93.184 E2.01855
G1 X92.797 Y93.841 E2.06086
G1 X92.412 Y94.005 E2.07991
G1 X91.797 Y93.390 E2.11952
G1 X91.454 Y93.596 E2.13773
G1 X92.087 Y94.228 E2.17846
G1 X91.777 Y94.467 E2.19628
G1 X91.112 Y93.802 E2.23913
G1 X90.769 Y94.008 E2.25735
G1 X91.489 Y94.728 E2.30375
G1 X91.258 Y95.046 E2.32164
G1 X90.451 Y94.239 E2.37362
G1 X90.263 Y94.600 E2.39216
G1 X91.027 Y95.364 E2.44136
G1 X90.859 Y95.745 E2.46031
G1 X90.076 Y94.962 E2.51071
G1 X89.890 Y95.324 E2.52927
G1 X90.400 Y95.835 E2.56216
G92 E0
G1 X91.878 Y101.585 F7800.000
G1 X91.878 Y101.585 F7800.000
G1 X92.449 Y100.628 F7800.000
G1 X93.276 Y101.455 E0.05329 F540.000
G1 X92.897 Y101.625 E0.07220
G1 X92.077 Y100.805 E0.12501
G1 X91.724 Y101.001 E0.14340
G1 X92.544 Y101.821 E0.19621
G1 X92.226 Y102.051 E0.21411
G1 X91.394 Y101.220 E0.26769
G1 X91.094 Y101.469 E0.28544
G1 X91.945 Y102.320 E0.34023
G1 X91.704 Y102.627 E0.35803
G1 X90.832 Y101.755 E0.41420
G1 X90.608 Y102.081 E0.43218
G1 X91.509 Y102.981 E0.49018
G1 X91.376 Y103.397 E0.51006
G1 X90.428 Y102.450 E0.57105
G1 X90.300 Y102.870 E0.59107
G1 X91.327 Y103.897 E0.65722
G1 X91.401 Y104.521 E0.68581
G1 X90.229 Y103.349 E0.76130
G1 X90.246 Y103.915 E0.78709
G1 X91.752 Y105.420 E0.88408
G1 X91.357 Y102.086 F7800.000
G1 X91.878 Y101.585 F7800.000
G1 X92.847 Y100.478 F7800.000
G1 X93.678 Y101.308 E0.93756 F540.000
G1 X94.101 Y101.182 E0.95766
G1 X93.253 Y100.335 E1.01222
G1 X93.678 Y100.211 E1.03238
G1 X94.530 Y101.062 E1.08720
G1 X94.966 Y100.950 E1.10773
G1 X94.106 Y100.090 E1.16311
G1 X94.550 Y99.985 E1.18388
G1 X95.409 Y100.844 E1.23921
G1 X95.852 Y100.738 E1.25995
G1 X94.994 Y99.880 E1.31522
G1 X95.438 Y99.775 E1.33599
G1 X96.295 Y100.632 E1.39120
G1 X96.738 Y100.526 E1.41194
G1 X95.881 Y99.670 E1.46709
G1 X96.325 Y99.564 E1.48786
G1 X97.181 Y100.420 E1.54295
G1 X97.623 Y100.314 E1.56369
G1 X96.769 Y99.459 E1.61872
G1 X97.208 Y99.350 E1.63933
G1 X98.052 Y100.193 E1.69366
G1 X98.467 Y100.060 E1.71354
G1 X97.638 Y99.230 E1.76696
G92 E0
G1 X101.182 Y98.781 F7800.000
G1 X105.269 Y98.171 F7800.000
G1 X105.327 Y96.086 F7800.000
G1 X105.124 Y93.919 F7800.000
G1 X106.692 Y92.352 F7800.000
G1 X108.884 Y92.352 F7800.000
G1 X109.109 Y100.788 F7800.000
G1 X109.109 Y92.577 E0.37153 F378.000
G1 X110.731 Y92.577 E0.44492
G1 X110.731 Y107.423 E1.11669
G1 X109.109 Y107.423 E1.19009 F378.000
G1 X109.109 Y101.019 E1.47988
G1 X109.538 Y107.197 F7800.000
G1 X109.335 Y106.993 E1.49329 F540.000
G1 X109.335 Y106.432 E1.51944
G1 X110.100 Y107.197 E1.56982
G1 X110.505 Y107.041 E1.59005
G1 X109.335 Y105.871 E1.66713
G1 X109.335 Y105.309 E1.69327
G1 X110.505 Y106.479 E1.77035
G1 X110.505 Y105.918 E1.79650
G1 X109.335 Y104.748 E1.87357
G1 X109.335 Y104.187 E1.89972
G1 X110.505 Y105.357 E1.97680
G1 X110.505 Y104.795 E2.00295
G1 X109.335 Y103.625 E2.08002
G1 X109.335 Y103.064 E2.10617
G1 X110.505 Y104.234 E2.18325
G1 X110.505 Y103.673 E2.20940
G1 X109.335 Y102.502 E2.28647
G1 X109.335 Y101.941 E2.31262
G1 X110.505 Y103.111 E2.38970
G1 X110.505 Y102.550 E2.41584
G1 X109.335 Y101.380 E2.49292
G1 X109.335 Y100.818 E2.51907
G1 X110.505 Y101.988 E2.59614
G1 X110.505 Y101.427 E2.62229
G1 X109.335 Y100.257 E2.69937
G1 X109.335 Y99.696 E2.72552
G1 X110.505 Y100.866 E2.80259
G1 X110.505 Y100.304 E2.82874
G1 X109.335 Y99.134 E2.90582
G1 X109.335 Y98.573 E2.93197
G1 X110.505 Y99.743 E3.00904
G1 X110.505 Y99.182 E3.03519
G1 X109.335 Y98.012 E3.11227
G1 X109.335 Y97.450 E3.13841
G1 X110.505 Y98.620 E3.21549
G1 X110.505 Y98.059 E3.24164
G1 X109.335 Y96.889 E3.31871
G1 X109.335 Y96.327 E3.34486
G1 X110.505 Y97.498 E3.42194
G1 X110.505 Y96.936 E3.44809
G1 X109.335 Y95.766 E3.52516
G1 X109.335 Y95.205 E3.55131
G1 X110.505 Y96.375 E3.62839
G1 X110.505 Y95.813 E3.65454
G1 X109.335 Y94.643 E3.73161
G1 X109.335 Y94.082 E3.75776
G1 X110.505 Y95.252 E3.83484
G1 X110.505 Y94.691 E3.86098
G1 X109.335 Y93.521 E3.93806
G1 X109.335 Y92.959 E3.96421
G1 X110.505 Y94.129 E4.04129
G1 X110.505 Y93.568 E4.06743
G1 X109.740 Y92.803 E4.11782
G1 X110.301 Y92.803 E4.14397
G1 X110.505 Y93.007 E4.15738
M106 S255
G92 E0
G1 Z0.600 F7800.000
G1 X100.697 Y104.194 F7800.000
G1 X99.618 Y105.700 E0.55491 F600.000
G1 X99.274 Y106.033 E0.69861
G1 X99.033 Y106.223 E0.79047
G1 X98.681 Y106.430 E0.91290
G1 X98.210 Y106.647 E1.06843
G1 X97.593 Y106.831 E1.26132
G1 X97.041 Y106.944 E1.43013
G1 X96.603 Y106.998 E1.56234
G1 X95.553 Y107.058 E1.87734
G1 X94.359 Y106.983 E2.23604
G1 X93.955 Y106.930 E2.35814
G1 X93.307 Y106.780 E2.55716
G1 X92.697 Y106.577 E2.74987
G1 X92.181 Y106.307 E2.92443
G1 X91.788 Y106.040 E3.06681
G1 X91.612 Y105.878 E3.13853
G1 X91.394 Y105.636 E3.23612
G1 X91.213 Y105.397 E3.32585
G1 X91.037 Y105.055 E3.44122
G1 X90.887 Y104.671 E3.56452
G1 X90.794 Y104.014 E3.76346
G1 X90.773 Y103.723 E3.85101
G1 X90.803 Y103.334 E3.96773
G1 X90.882 Y102.975 E4.07801
G1 X90.990 Y102.656 E4.17894
G1 X91.070 Y102.501 E4.23119
G1 X91.327 Y102.100 E4.37392
G1 X91.558 Y101.855 E4.47475
G1 X91.847 Y101.606 E4.58915
G1 X92.236 Y101.349 E4.72877
G1 X92.774 Y101.077 E4.90935
G1 X93.591 Y100.782 E5.16988
G1 X94.526 Y100.523 E5.46061
G1 X97.630 Y99.777 E6.41695
G1 X98.403 Y99.524 E6.66081
G1 X98.940 Y99.291 E6.83614
G1 X99.459 Y99.010 E7.01302
G1 X99.790 Y98.768 E7.13578
G1 X100.156 Y98.410 E7.28921
G1 X100.325 Y98.188 E7.37288
G1 X100.468 Y97.941 E7.45825
G1 X100.593 Y97.670 E7.54786
G1 X100.682 Y97.364 E7.64339
G1 X100.749 Y97.006 E7.75243
G1 X100.773 Y96.630 E7.86529
G1 X100.751 Y96.327 E7.95632
G1 X100.644 Y95.589 E8.17976
G1 X100.490 Y95.199 E8.30541
G1 X100.273 Y94.785 E8.44550
G1 X100.092 Y94.547 E8.53511
G1 X99.871 Y94.305 E8.63322
G1 X99.616 Y94.072 E8.73701
G1 X99.023 Y93.690 E8.94806
G1 X98.599 Y93.484 E9.08945
G1 X98.018 Y93.289 E9.27307
G1 X97.225 Y93.103 E9.51706
G1 X96.987 Y93.068 E9.58913
G1 X95.531 Y92.971 E10.02639
G1 X94.224 Y93.102 E10.42013
G1 X93.042 Y93.314 E10.78003
G1 X92.606 Y93.434 E10.91553
G1 X92.191 Y93.646 E11.05523
G1 X91.315 Y94.228 E11.37028
G1 X90.900 Y94.582 E11.53378
G1 X90.493 Y95.275 E11.77441
G1 X90.061 Y96.245 E12.09277
G92 E0
G1 X88.827 Y106.768 F7800.000
G1 X97.351 Y108.785 F7800.000
G1 X102.129 Y107.652 F7800.000
G1 X104.991 Y105.947 F7800.000
G1 X106.692 Y107.648 F7800.000
G1 X108.884 Y107.648 F7800.000
G1 X109.920 Y107.648 F7800.000
G1 X109.920 Y92.352 E4.58339 F600.000
G92 E0
G1 Z0.900 F7800.000
G1 X100.697 Y104.194 F7800.000
G1 X99.618 Y105.700 E0.55491 F600.000
G1 X99.274 Y106.033 E0.69861
G1 X99.033 Y106.223 E0.79048
G1 X98.681 Y106.430 E0.91290
G1 X98.210 Y106.647 E1.06843
G1 X97.593 Y106.831 E1.26132
G1 X97.041 Y106.944 E1.43013
G1 X96.603 Y106.998 E1.56234
G1 X95.553 Y107.058 E1.87734
G1 X94.359 Y106.983 E2.23604
G1 X93.955 Y106.930 E2.35814
G1 X93.307 Y106.780 E2.55716
G1 X92.697 Y106.577 E2.74987
G1 X92.181 Y106.307 E2.92443
G1 X91.788 Y106.040 E3.06681
G1 X91.612 Y105.878 E3.13853
G1 X91.394 Y105.636 E3.23612
G1 X91.213 Y105.397 E3.32585
G1 X91.037 Y105.055 E3.44122
G1 X90.887 Y104.671 E3.56452
G1 X90.794 Y104.014 E3.76346
G1 X90.773 Y103.723 E3.85101
G1 X90.803 Y103.334 E3.96773
G1 X90.882 Y102.975 E4.07801
G1 X90.990 Y102.656 E4.17894
G1 X91.070 Y102.501 E4.23119
G1 X91.327 Y102.100 E4.37392
G1 X91.558 Y101.855 E4.47475
G1 X91.847 Y101.606 E4.58915
G1 X92.236 Y101.349 E4.72877
G1 X92.774 Y101.077 E4.90936
G1 X93.591 Y100.782 E5.16988
G1 X94.526 Y100.523 E5.46061
G1 X97.630 Y99.777 E6.41695
G1 X98.403 Y99.524 E6.66081
G1 X98.940 Y99.291 E6.83614
G1 X99.459 Y99.010 E7.01302
G1 X99.790 Y98.768 E7.13578
G1 X100.156 Y98.410 E7.28921
G1 X100.325 Y98.188 E7.37288
G1 X100.468 Y97.941 E7.45825
G1 X100.593 Y97.670 E7.54786
G1 X100.682 Y97.364 E7.64339
G1 X100.749 Y97.006 E7.75243
G1 X100.773 Y96.630 E7.86529
G1 X100.751 Y96.327 E7.95632
G1 X100.644 Y95.589 E8.17976
G1 X100.490 Y95.199 E8.30541
G1 X100.273 Y94.785 E8.44550
G1 X100.092 Y94.547 E8.53511
G1 X99.871 Y94.305 E8.63322
G1 X99.616 Y94.072 E8.73701
G1 X99.023 Y93.690 E8.94806
G1 X98.599 Y93.484 E9.08945
G1 X98.018 Y93.289 E9.27308
G1 X97.226 Y93.103 E9.51706
G1 X96.987 Y93.068 E9.58913
G1 X95.531 Y92.971 E10.02639
G1 X94.224 Y93.102 E10.42013
G1 X93.042 Y93.314 E10.78003
G1 X92.606 Y93.434 E10.91553
G1 X92.191 Y93.646 E11.05523
G1 X91.315 Y94.228 E11.37028
G1 X90.900 Y94.582 E11.53378
G1 X90.493 Y95.275 E11.77441
G1 X90.061 Y96.245 E12.09277
G92 E0
G1 X88.827 Y106.768 F7800.000
G1 X97.351 Y108.785 F7800.000
G1 X102.129 Y107.652 F7800.000
G1 X104.991 Y105.947 F7800.000
G1 X106.692 Y107.648 F7800.000
G1 X108.884 Y107.648 F7800.000
G1 X109.920 Y107.648 F7800.000
G1 X109.920 Y92.352 E4.58339 F600.000
G92 E0
G1 Z1.200 F7800.000
G1 X100.697 Y104.194 F7800.000
G1 X99.618 Y105.700 E0.55490 F600.000
G1 X99.274 Y106.033 E0.69861
G1 X99.033 Y106.223 E0.79047
G1 X98.681 Y106.430 E0.91290
G1 X98.210 Y106.647 E1.06843
G1 X97.593 Y106.831 E1.26132
G1 X97.041 Y106.944 E1.43013
G1 X96.603 Y106.998 E1.56234
G1 X95.553 Y107.058 E1.87734
G1 X94.359 Y106.983 E2.23603
G1 X93.955 Y106.930 E2.35814
G1 X93.307 Y106.780 E2.55716
G1 X92.697 Y106.577 E2.74987
G1 X92.181 Y106.307 E2.92443
G1 X91.788 Y106.040 E3.06681
G1 X91.612 Y105.878 E3.13853
G1 X91.394 Y105.636 E3.23612
G1 X91.213 Y105.397 E3.32585
G1 X91.037 Y105.055 E3.44122
G1 X90.887 Y104.671 E3.56452
G1 X90.794 Y104.014 E3.76346
G1 X90.773 Y103.723 E3.85101
G1 X90.803 Y103.334 E3.96773
G1 X90.882 Y102.975 E4.07801
G1 X90.990 Y102.656 E4.17894
G1 X91.070 Y102.501 E4.23119
G1 X91.327 Y102.100 E4.37392
G1 X91.558 Y101.855 E4.47475
G1 X91.847 Y101.606 E4.58915
G1 X92.236 Y101.349 E4.72877
G1 X92.774 Y101.077 E4.90935
G1 X93.591 Y100.782 E5.16988
G1 X94.526 Y100.523 E5.46061
G1 X97.630 Y99.777 E6.41695
G1 X98.403 Y99.524 E6.66081
G1 X98.940 Y99.291 E6.83614
G1 X99.459 Y99.010 E7.01302
G1 X99.790 Y98.768 E7.13578
G1 X100.156 Y98.410 E7.28921
G1 X100.325 Y98.188 E7.37288
G1 X100.468 Y97.941 E7.45825
G1 X100.593 Y97.670 E7.54785
G1 X100.682 Y97.364 E7.64339
G1 X100.749 Y97.006 E7.75243
G1 X100.773 Y96.630 E7.86529
G1 X100.751 Y96.327 E7.95632
G1 X100.644 Y95.589 E8.17976
G1 X100.490 Y95.199 E8.30541
G1 X100.273 Y94.785 E8.44550
G1 X100.092 Y94.547 E8.53511
G1 X99.871 Y94.305 E8.63322
G1 X99.616 Y94.072 E8.73701
