; generated by Slic3r 1.2.9 on 2016-03-11 at 01:30:05

; external perimeters extrusion width = 1.54mm
; perimeters extrusion width = 2.62mm
; infill extrusion width = 6.27mm
; solid infill extrusion width = 2.62mm
; top infill extrusion width = 2.62mm

M107
M104 S30 ; set temperature
G28 ; home all axes
G1 Z5 F5000 ; lift nozzle
M302
M92 E10000
M500
M501
G1 E100
M109 S30 ; wait for temperature to be reached
G21 ; set units to millimeters
G90 ; use absolute coordinates
M82 ; use absolute distances for extrusion
G92 E0
G1 Z0.300 F7800.000
G1 X90.896 Y93.583 F7800.000
G1 X90.370 Y93.551 E0.02381 F378.000
G1 X89.140 Y93.624 E0.07958
G1 X88.082 Y93.847 E0.12850
G1 X87.196 Y94.225 E0.17212
G1 X86.484 Y94.774 E0.21277
G1 X85.958 Y95.498 E0.25330
G1 X85.697 Y96.185 E0.28652
G1 X84.170 Y95.880 E0.35700
G1 X85.116 Y94.045 E0.45040
G1 X87.175 Y92.808 E0.55910
G1 X90.302 Y92.386 E0.70185
G1 X91.865 Y92.495 E0.77278
G1 X92.108 Y92.512 E0.78379 F378.000
G1 X93.613 Y92.886 E0.85396
G1 X94.810 Y93.502 E0.91489
G1 X95.676 Y94.330 E0.96909
G1 X96.192 Y95.351 E1.02086
G1 X96.367 Y96.593 E1.07763
G1 X96.343 Y97.090 E1.10014
G1 X96.270 Y97.546 E1.12104
G1 X96.149 Y97.953 E1.14024
G1 X95.986 Y98.320 E1.15843
G1 X95.786 Y98.653 E1.17598
G1 X95.549 Y98.952 E1.19323
G1 X95.277 Y99.220 E1.21053
G1 X94.974 Y99.461 E1.22807
G1 X94.635 Y99.675 E1.24617
G1 X94.271 Y99.867 E1.26479
G1 X93.475 Y100.205 E1.30395
G1 X92.615 Y100.480 E1.34479
G1 X89.515 Y101.222 E1.48902
G1 X88.568 Y101.487 E1.53351
G1 X87.922 Y101.724 E1.56469
G1 X87.462 Y101.967 E1.58820
G1 X87.075 Y102.246 E1.60980
G1 X86.759 Y102.568 E1.63021
G1 X86.524 Y102.947 E1.65036
G1 X86.384 Y103.384 E1.67115
G1 X86.338 Y103.877 E1.69355
G1 X86.454 Y104.675 E1.73005
G1 X86.813 Y105.346 E1.76449
G1 X87.403 Y105.864 E1.80001
G1 X88.192 Y106.224 E1.83927
G1 X89.163 Y106.434 E1.88422
G1 X90.316 Y106.503 E1.93649
G1 X91.376 Y106.441 E1.98451
G1 X92.282 Y106.250 E2.02644
G1 X93.037 Y105.925 E2.06361
G1 X93.645 Y105.449 E2.09856
G1 X94.105 Y104.813 E2.13409
G1 X94.339 Y104.221 E2.16286
G1 X95.924 Y104.500 E2.23568
G1 X95.577 Y105.373 E2.27820
G1 X94.968 Y106.231 E2.32578
G1 X94.192 Y106.848 E2.37064
G1 X93.190 Y107.270 E2.41986
G1 X91.904 Y107.528 E2.47920
G1 X90.339 Y107.615 E2.55014
G1 X88.654 Y107.499 E2.62653
G1 X87.269 Y107.157 E2.69111
G1 X86.179 Y106.595 E2.74660
G1 X85.398 Y105.839 E2.79578
G1 X84.932 Y104.901 E2.84318
G1 X84.773 Y103.754 E2.89558
G1 X84.803 Y103.243 E2.91876
G1 X84.892 Y102.768 E2.94060
G1 X85.040 Y102.338 E2.96119
G1 X85.245 Y101.947 E2.98118
G1 X85.502 Y101.589 E3.00112
G1 X85.813 Y101.265 E3.02141
G1 X86.194 Y100.966 E3.04335
G1 X86.665 Y100.681 E3.06825
G1 X87.226 Y100.413 E3.09638
G1 X87.930 Y100.153 E3.13033
G1 X88.831 Y99.890 E3.17281
G1 X91.830 Y99.180 E3.31225
G1 X92.384 Y99.030 E3.33824
G1 X92.890 Y98.855 E3.36247
G1 X93.347 Y98.655 E3.38503
G1 X93.753 Y98.420 E3.40627
G1 X94.101 Y98.141 E3.42644
G1 X94.388 Y97.817 E3.44605
G1 X94.602 Y97.431 E3.46601
G1 X94.729 Y96.981 E3.48716
G1 X94.771 Y96.467 E3.51048
G1 X94.640 Y95.589 E3.55067
G1 X94.240 Y94.847 E3.58881
G1 X93.581 Y94.270 E3.62844
G1 X92.704 Y93.866 E3.67214
G1 X91.634 Y93.629 E3.72172
G1 X91.126 Y93.597 E3.74474
G1 X93.431 Y93.099 F7800.000
G1 X95.996 Y95.664 E3.90992 F540.000
G1 X96.086 Y96.303 E3.93932
G1 X94.460 Y94.677 E4.04402
G1 X94.171 Y94.388 F7800.000
G1 X92.697 Y92.914 E4.13896 F540.000
G1 X91.968 Y92.734 E4.17314
G1 X92.892 Y93.658 E4.23263
G1 X92.184 Y93.499 E4.26567
G1 X91.379 Y92.693 E4.31757
G1 X90.789 Y92.652 E4.34450
G1 X91.527 Y93.390 E4.39204
G1 X90.942 Y93.354 E4.41874
G1 X90.204 Y92.617 E4.46623
G1 X89.721 Y92.682 E4.48845
G1 X90.368 Y93.329 E4.53012
G1 X89.850 Y93.360 E4.55375
G1 X89.237 Y92.747 E4.59321
G1 X88.754 Y92.813 E4.61544
G1 X89.332 Y93.391 E4.65268
G1 X88.860 Y93.468 E4.67447
G1 X88.270 Y92.878 E4.71245
G1 X87.786 Y92.943 E4.73467
G1 X88.406 Y93.563 E4.77460
G1 X87.971 Y93.677 E4.79510
G1 X87.303 Y93.009 E4.83813
G1 X86.929 Y93.184 E4.85692
G1 X87.586 Y93.841 E4.89923
G1 X87.201 Y94.005 E4.91828
G1 X86.586 Y93.390 E4.95789
G1 X86.243 Y93.596 E4.97611
G1 X86.876 Y94.228 E5.01683
G1 X86.566 Y94.467 E5.03465
G1 X85.901 Y93.802 E5.07750
G1 X85.558 Y94.008 E5.09572
G1 X86.278 Y94.728 E5.14212
G1 X86.047 Y95.046 E5.16002
G1 X85.240 Y94.239 E5.21200
G1 X85.052 Y94.600 E5.23053
G1 X85.816 Y95.364 E5.27973
G1 X85.648 Y95.745 E5.29869
G1 X84.865 Y94.962 E5.34909
G1 X84.679 Y95.324 E5.36764
G1 X85.189 Y95.835 E5.40053
G92 E0
G1 X86.667 Y101.585 F7800.000
G1 X86.667 Y101.585 F7800.000
G1 X87.238 Y100.628 F7800.000
G1 X88.065 Y101.455 E0.05329 F540.000
G1 X87.686 Y101.625 E0.07220
G1 X86.866 Y100.805 E0.12501
G1 X86.513 Y101.001 E0.14340
G1 X87.333 Y101.821 E0.19621
G1 X87.015 Y102.051 E0.21411
G1 X86.183 Y101.220 E0.26769
G1 X85.883 Y101.469 E0.28544
G1 X86.734 Y102.320 E0.34023
G1 X86.493 Y102.627 E0.35803
G1 X85.621 Y101.755 E0.41420
G1 X85.397 Y102.081 E0.43218
G1 X86.298 Y102.981 E0.49018
G1 X86.165 Y103.397 E0.51006
G1 X85.217 Y102.450 E0.57105
G1 X85.089 Y102.870 E0.59107
G1 X86.116 Y103.897 E0.65722
G1 X86.190 Y104.521 E0.68581
G1 X85.018 Y103.349 E0.76130
G1 X85.035 Y103.915 E0.78709
G1 X86.541 Y105.420 E0.88408
G1 X87.175 Y106.054 F7800.000
G1 X88.269 Y107.149 E0.95459 F540.000
G1 X88.131 Y106.461 E0.98651
G1 X88.957 Y107.288 E1.03972
G1 X89.547 Y107.328 E1.06662
G1 X88.832 Y106.613 E1.11264
G1 X89.451 Y106.683 E1.14099
G1 X90.136 Y107.368 E1.18513
G1 X90.690 Y107.373 E1.21035
G1 X90.034 Y106.718 E1.25255
G1 X90.575 Y106.710 E1.27718
G1 X91.210 Y107.344 E1.31805
G1 X91.730 Y107.315 E1.34177
G1 X91.093 Y106.679 E1.38276
G1 X91.577 Y106.614 E1.40499
G1 X92.213 Y107.250 E1.44596
G1 X92.670 Y107.158 E1.46719
G1 X92.030 Y106.518 E1.50840
G1 X92.455 Y106.394 E1.52854
G1 X93.127 Y107.067 E1.57187
G1 X93.522 Y106.912 E1.59116
G1 X92.838 Y106.229 E1.63519
G1 X93.201 Y106.042 E1.65374
G1 X93.908 Y106.750 E1.69932
G1 X94.257 Y106.550 E1.71764
G1 X93.508 Y105.801 E1.76587
G1 X93.809 Y105.552 E1.78363
G1 X94.563 Y106.307 E1.83221
G1 X94.850 Y106.045 E1.84990
G1 X94.039 Y105.234 E1.90211
G1 X94.270 Y104.916 E1.92002
G1 X95.085 Y105.731 E1.97253
G1 X95.313 Y105.410 E1.99046
G1 X94.434 Y104.531 E2.04710
G1 X95.042 Y104.590 E2.07493
G1 X95.492 Y105.040 E2.10394
G92 E0
G1 X94.329 Y98.952 F7800.000
G1 X94.329 Y98.952 F7800.000
G1 X93.656 Y99.910 F7800.000
G1 X92.835 Y99.089 E0.05287 F540.000
G1 X93.222 Y98.928 E0.07198
G1 X94.041 Y99.747 E0.12472
G1 X94.413 Y99.569 E0.14347
G1 X93.586 Y98.743 E0.19669
G1 X93.923 Y98.531 E0.21482
G1 X94.759 Y99.367 E0.26863
G1 X95.075 Y99.135 E0.28652
G1 X94.228 Y98.287 E0.34111
G1 X94.486 Y97.996 E0.35882
G1 X95.359 Y98.869 E0.41506
G1 X95.607 Y98.568 E0.43282
G1 X94.699 Y97.661 E0.49127
G1 X94.861 Y97.274 E0.51038
G1 X95.810 Y98.223 E0.57150
G1 X95.969 Y97.833 E0.59067
G1 X94.962 Y96.825 E0.65557
G1 X94.987 Y96.302 E0.67943
G1 X96.078 Y97.393 E0.74965
G1 X96.130 Y96.896 E0.77238
G1 X94.892 Y95.658 E0.85215
G1 X95.536 Y94.655 F7800.000
G1 X94.694 Y93.813 E0.90637 F540.000
G1 X95.550 Y96.442 F7800.000
G1 X95.538 Y97.006 F7800.000
G1 X95.471 Y97.364 F7800.000
G1 X95.354 Y97.745 F7800.000
G1 X95.048 Y98.287 F7800.000
G1 X94.746 Y98.620 F7800.000
G1 X94.648 Y98.713 F7800.000
G1 X94.638 Y98.704 F7800.000
G1 X92.427 Y99.230 F7800.000
G1 X93.256 Y100.060 E0.95980 F540.000
G1 X92.841 Y100.193 E0.97967
G1 X91.997 Y99.350 E1.03401
G1 X91.558 Y99.459 E1.05461
G1 X92.412 Y100.314 E1.10964
G1 X91.970 Y100.420 E1.13039
G1 X91.114 Y99.564 E1.18548
G1 X90.670 Y99.670 E1.20625
G1 X91.527 Y100.526 E1.26140
G1 X91.084 Y100.632 E1.28214
G1 X90.227 Y99.775 E1.33735
G1 X89.783 Y99.880 E1.35812
G1 X90.641 Y100.738 E1.41339
G1 X90.198 Y100.844 E1.43413
G1 X89.339 Y99.985 E1.48945
G1 X88.895 Y100.090 E1.51022
G1 X89.755 Y100.950 E1.56561
G1 X89.319 Y101.062 E1.58613
G1 X88.467 Y100.211 E1.64096
G1 X88.042 Y100.335 E1.66111
G1 X88.890 Y101.182 E1.71568
G1 X88.467 Y101.308 E1.73577
G1 X87.636 Y100.478 E1.78926
G1 X85.123 Y104.551 F7800.000
G1 X87.540 Y106.968 E1.94493 F540.000
G1 X86.453 Y106.430 F7800.000
G1 X85.540 Y105.517 E2.00374 F540.000
G92 E0
G1 X93.256 Y107.486 F7800.000
G1 X98.733 Y106.657 F7800.000
G1 X99.987 Y97.664 F7800.000
G1 X101.258 Y92.352 F7800.000
G1 X107.713 Y92.352 F7800.000
G1 X107.238 Y97.365 F7800.000
G1 X107.510 Y99.734 F7800.000
G1 X113.481 Y95.162 F7800.000
G1 X108.503 Y101.015 E0.34765 F378.000
G1 X114.766 Y107.423 E0.75311
G1 X112.957 Y107.423 E0.83498
G1 X105.296 Y99.424 E1.33617
G1 X105.296 Y107.423 E1.69813
G1 X103.675 Y107.423 E1.77147
G1 X103.675 Y92.577 E2.44324
G1 X105.296 Y92.577 E2.51659
G1 X105.296 Y98.325 E2.77670
G1 X107.545 Y100.044 E2.90481 F378.000
G1 X113.703 Y92.577 E3.34277
G1 X115.680 Y92.577 E3.43223
G1 X113.631 Y94.986 E3.57535
G1 X115.067 Y93.001 F7800.000
G1 X114.869 Y92.803 E3.58820 F540.000
G1 X114.812 Y93.300 E3.61120
G1 X114.315 Y92.803 E3.64352
G1 X113.764 Y92.806 E3.66886
G1 X114.558 Y93.599 E3.72045
G1 X114.303 Y93.899 E3.73852
G1 X113.514 Y93.109 E3.78984
G1 X113.263 Y93.413 E3.80792
G1 X114.049 Y94.198 E3.85897
G1 X113.794 Y94.497 E3.87703
G1 X113.013 Y93.716 E3.92780
G1 X112.763 Y94.020 E3.94588
G1 X113.539 Y94.797 E3.99637
G1 X113.285 Y95.096 E4.01443
G1 X112.512 Y94.324 E4.06465
G1 X112.262 Y94.627 E4.08273
G1 X113.030 Y95.396 E4.13267
G1 X112.775 Y95.695 E4.15073
G1 X112.012 Y94.931 E4.20039
G1 X111.761 Y95.235 E4.21848
G1 X112.521 Y95.994 E4.26786
G1 X112.266 Y96.294 E4.28592
G1 X111.511 Y95.538 E4.33502
G1 X111.261 Y95.842 E4.35311
G1 X112.012 Y96.593 E4.40194
G1 X111.757 Y96.892 E4.42000
G1 X111.010 Y96.145 E4.46855
G1 X110.760 Y96.449 E4.48664
G1 X111.502 Y97.192 E4.53491
G1 X111.248 Y97.491 E4.55297
G1 X110.509 Y96.753 E4.60097
G1 X110.259 Y97.056 E4.61905
G1 X110.993 Y97.790 E4.66677
G1 X110.739 Y98.090 E4.68483
G1 X110.009 Y97.360 E4.73228
G1 X109.758 Y97.663 E4.75036
G1 X110.484 Y98.389 E4.79753
G1 X110.229 Y98.688 E4.81559
G1 X109.508 Y97.967 E4.86248
G1 X109.258 Y98.271 E4.88056
G1 X109.975 Y98.988 E4.92717
G1 X109.720 Y99.287 E4.94524
G1 X109.007 Y98.574 E4.99157
G1 X108.757 Y98.878 E5.00966
G1 X109.466 Y99.586 E5.05571
G1 X109.211 Y99.886 E5.07377
G1 X108.507 Y99.181 E5.11955
G1 X108.256 Y99.485 E5.13764
G1 X108.956 Y100.185 E5.18314
G1 X108.702 Y100.484 E5.20120
G1 X108.006 Y99.789 E5.24643
G1 X107.756 Y100.092 E5.26452
G1 X108.447 Y100.784 E5.30946
G1 X108.193 Y101.083 E5.32753
G1 X107.446 Y100.336 E5.37608
G1 X106.139 Y99.583 F7800.000
G1 X113.753 Y107.197 E5.87098 F540.000
G1 X113.199 Y107.197 E5.89644
G1 X112.360 Y106.359 E5.95093
G92 E0
G1 X104.521 Y106.648 F7800.000
G1 X104.521 Y106.648 F7800.000
G1 X104.485 Y106.612 F7800.000
G1 X104.450 Y106.648 F7800.000
G1 X103.901 Y106.993 F7800.000
G1 X104.104 Y107.197 E0.01341 F540.000
G1 X104.666 Y107.197 E0.03955
G1 X103.901 Y106.432 E0.08994
G1 X103.901 Y105.871 E0.11608
G1 X105.070 Y107.040 E0.19309
G1 X105.070 Y106.479 E0.21923
G1 X103.901 Y105.309 E0.29624
G1 X103.901 Y104.748 E0.32238
G1 X105.070 Y105.917 E0.39939
G1 X105.070 Y105.356 E0.42553
G1 X103.901 Y104.187 E0.50254
G1 X103.901 Y103.625 E0.52868
G1 X105.070 Y104.795 E0.60569
G1 X105.070 Y104.233 E0.63183
G1 X103.901 Y103.064 E0.70884
G1 X103.901 Y102.503 E0.73498
G1 X105.070 Y103.672 E0.81199
G1 X105.070 Y103.111 E0.83813
G1 X103.901 Y101.941 E0.91514
G1 X103.901 Y101.380 E0.94128
G1 X105.070 Y102.549 E1.01829
G1 X105.070 Y101.988 E1.04443
G1 X103.901 Y100.819 E1.12143
G1 X103.901 Y100.257 E1.14758
G1 X105.070 Y101.427 E1.22458
G1 X105.070 Y100.865 E1.25073
G1 X103.901 Y99.696 E1.32773
G1 X103.901 Y99.135 E1.35388
G1 X105.070 Y100.304 E1.43088
G1 X105.070 Y99.743 E1.45703
G1 X103.901 Y98.573 E1.53403
G1 X104.707 Y98.818 E1.57328
G1 X103.901 Y98.012 E1.62638
G1 X103.901 Y97.451 E1.65253
G1 X104.972 Y98.522 E1.72309
G1 X105.070 Y98.059 E1.74516
G1 X103.901 Y96.889 E1.82216
G1 X103.901 Y96.328 E1.84831
G1 X105.070 Y97.497 E1.92531
G1 X105.070 Y96.936 E1.95146
G1 X103.901 Y95.767 E2.02846
G1 X103.901 Y95.205 E2.05460
G1 X105.070 Y96.375 E2.13161
G1 X105.070 Y95.813 E2.15775
G1 X103.901 Y94.644 E2.23476
G1 X103.901 Y94.083 E2.26090
G1 X105.070 Y95.252 E2.33791
G1 X105.070 Y94.691 E2.36405
G1 X103.901 Y93.521 E2.44106
G1 X103.901 Y92.960 E2.46720
G1 X105.070 Y94.129 E2.54421
G1 X105.070 Y93.568 E2.57035
G1 X104.305 Y92.803 E2.62074
G1 X104.866 Y92.803 E2.64688
G1 X105.070 Y93.007 E2.66029
G1 X105.103 Y98.664 F7800.000
G1 X105.984 Y99.452 E2.77626 F540.000
M106 S255
G92 E0
G1 Z0.600 F7800.000
G1 X95.486 Y104.194 F7800.000
G1 X94.407 Y105.700 E0.55491 F600.000
G1 X94.063 Y106.033 E0.69861
G1 X93.822 Y106.223 E0.79047
G1 X93.470 Y106.430 E0.91290
G1 X92.999 Y106.647 E1.06843
G1 X92.382 Y106.831 E1.26132
G1 X91.830 Y106.944 E1.43013
G1 X91.392 Y106.998 E1.56234
G1 X90.342 Y107.058 E1.87734
G1 X89.148 Y106.983 E2.23604
G1 X88.744 Y106.930 E2.35814
G1 X88.096 Y106.780 E2.55716
G1 X87.486 Y106.577 E2.74987
G1 X86.970 Y106.307 E2.92443
G1 X86.577 Y106.040 E3.06681
G1 X86.401 Y105.878 E3.13853
G1 X86.183 Y105.636 E3.23612
G1 X86.002 Y105.397 E3.32585
G1 X85.826 Y105.055 E3.44122
G1 X85.676 Y104.671 E3.56452
G1 X85.583 Y104.014 E3.76346
G1 X85.562 Y103.723 E3.85101
G1 X85.592 Y103.334 E3.96773
G1 X85.671 Y102.975 E4.07801
G1 X85.779 Y102.656 E4.17894
G1 X85.859 Y102.501 E4.23119
G1 X86.116 Y102.100 E4.37392
G1 X86.347 Y101.855 E4.47475
G1 X86.636 Y101.606 E4.58915
G1 X87.025 Y101.349 E4.72877
G1 X87.563 Y101.077 E4.90935
G1 X88.380 Y100.782 E5.16988
G1 X89.315 Y100.523 E5.46061
G1 X92.419 Y99.777 E6.41695
G1 X93.192 Y99.524 E6.66081
G1 X93.729 Y99.291 E6.83614
G1 X94.248 Y99.010 E7.01302
G1 X94.579 Y98.768 E7.13578
G1 X94.945 Y98.410 E7.28921
G1 X95.114 Y98.188 E7.37288
G1 X95.257 Y97.941 E7.45825
G1 X95.382 Y97.670 E7.54786
G1 X95.471 Y97.364 E7.64339
G1 X95.538 Y97.006 E7.75243
G1 X95.562 Y96.630 E7.86529
G1 X95.540 Y96.327 E7.95632
G1 X95.433 Y95.589 E8.17976
G1 X95.279 Y95.199 E8.30541
G1 X95.062 Y94.785 E8.44550
G1 X94.881 Y94.547 E8.53511
G1 X94.660 Y94.305 E8.63322
G1 X94.405 Y94.072 E8.73701
G1 X93.812 Y93.690 E8.94806
G1 X93.388 Y93.484 E9.08945
G1 X92.807 Y93.289 E9.27307
G1 X92.014 Y93.103 E9.51706
G1 X91.776 Y93.068 E9.58913
G1 X90.320 Y92.971 E10.02639
G1 X89.013 Y93.102 E10.42013
G1 X87.831 Y93.314 E10.78003
G1 X87.395 Y93.434 E10.91553
G1 X86.980 Y93.646 E11.05523
G1 X86.104 Y94.228 E11.37028
G1 X85.689 Y94.582 E11.53378
G1 X85.282 Y95.275 E11.77441
G1 X84.850 Y96.245 E12.09277
G92 E0
G1 X90.294 Y92.160 F7800.000
G1 X90.294 Y92.160 F7800.000
G1 X90.364 Y91.161 F7800.000
G1 X91.800 Y91.211 F7800.000
G1 X92.217 Y91.226 F7800.000
G1 X92.404 Y91.240 F7800.000
G1 X94.001 Y91.436 F7800.000
G1 X94.301 Y91.491 F7800.000
G1 X95.706 Y91.831 F7800.000
G1 X96.209 Y91.993 F7800.000
G1 X97.478 Y92.502 F7800.000
G1 X98.340 Y92.940 F7800.000
G1 X99.560 Y93.690 F7800.000
G1 X99.780 Y93.830 F7800.000
G1 X101.258 Y92.352 F7800.000
G1 X103.450 Y91.256 F7800.000
G1 X105.521 Y91.256 F7800.000
G1 X107.713 Y92.352 F7800.000
G1 X108.688 Y93.327 F7800.000
G1 X107.238 Y97.365 F7800.000
G1 X107.510 Y99.734 F7800.000
G1 X114.874 Y92.352 F7800.000
G1 X108.209 Y100.310 E3.11048 F600.000
G1 X107.761 Y100.775 E3.30375
G1 X108.211 Y101.587 E3.58188
G1 X114.075 Y107.648 E6.10884
G92 E0
G1 X104.521 Y106.648 F7800.000
G1 X104.521 Y106.648 F7800.000
G1 X105.417 Y102.575 F7800.000
G1 X104.485 Y98.214 E1.33630 F600.000
G1 X104.485 Y92.352 E3.09283
G1 X104.485 Y107.648 F7800.000
G1 X104.485 Y99.984 E5.38931 F600.000
G1 X104.674 Y99.099 E5.66049
G1 X104.844 Y99.099 E5.71145
G1 X106.032 Y99.495 E6.08643
G1 X107.018 Y100.377 E6.48307
G1 X109.487 Y101.699 E7.32204
G92 E0
G1 Z0.900 F7800.000
G1 X95.486 Y104.194 F7800.000
G1 X94.407 Y105.700 E0.55491 F600.000
G1 X94.063 Y106.033 E0.69861
G1 X93.822 Y106.223 E0.79048
G1 X93.470 Y106.430 E0.91290
G1 X92.999 Y106.647 E1.06843
G1 X92.382 Y106.831 E1.26132
G1 X91.830 Y106.944 E1.43013
G1 X91.392 Y106.998 E1.56234
G1 X90.342 Y107.058 E1.87734
G1 X89.148 Y106.983 E2.23604
G1 X88.744 Y106.930 E2.35814
G1 X88.096 Y106.780 E2.55716
G1 X87.486 Y106.577 E2.74987
G1 X86.970 Y106.307 E2.92443
G1 X86.577 Y106.040 E3.06681
G1 X86.401 Y105.878 E3.13853
G1 X86.183 Y105.636 E3.23612
