; generated by Slic3r 1.2.9 on 2016-03-11 at 01:30:08

; external perimeters extrusion width = 1.54mm
; perimeters extrusion width = 2.62mm
; infill extrusion width = 6.27mm
; solid infill extrusion width = 2.62mm
; top infill extrusion width = 2.62mm

M107
M104 S30 ; set temperature
G28 ; home all axes
G1 Z5 F5000 ; lift nozzle
M302
M92 E10000
M500
M501
G1 E100
M109 S30 ; wait for temperature to be reached
G21 ; set units to millimeters
G90 ; use absolute coordinates
M82 ; use absolute distances for extrusion
G92 E0
G1 Z0.300 F7800.000
G1 X91.034 Y93.583 F7800.000
G1 X90.513 Y93.551 E0.02362 F378.000
G1 X89.283 Y93.624 E0.07939
G1 X88.225 Y93.847 E0.12832
G1 X87.338 Y94.225 E0.17194
G1 X86.627 Y94.774 E0.21258
G1 X86.100 Y95.498 E0.25311
G1 X85.840 Y96.185 E0.28634
G1 X84.312 Y95.880 E0.35682
G1 X85.258 Y94.045 E0.45021
G1 X87.318 Y92.808 E0.55891
G1 X90.444 Y92.386 E0.70166
G1 X92.008 Y92.495 E0.77259
G1 X92.250 Y92.512 E0.78360 F378.000
G1 X93.755 Y92.886 E0.85377
G1 X94.953 Y93.502 E0.91470
G1 X95.819 Y94.330 E0.96891
G1 X96.335 Y95.351 E1.02067
G1 X96.510 Y96.593 E1.07744
G1 X96.486 Y97.090 E1.09995
G1 X96.412 Y97.546 E1.12085
G1 X96.291 Y97.953 E1.14005
G1 X96.128 Y98.320 E1.15824
G1 X95.928 Y98.653 E1.17580
G1 X95.692 Y98.952 E1.19304
G1 X95.420 Y99.220 E1.21034
G1 X95.116 Y99.461 E1.22789
G1 X94.778 Y99.675 E1.24598
G1 X94.414 Y99.867 E1.26460
G1 X93.617 Y100.205 E1.30376
G1 X92.758 Y100.480 E1.34460
G1 X89.658 Y101.222 E1.48883
G1 X88.711 Y101.487 E1.53332
G1 X88.064 Y101.724 E1.56450
G1 X87.605 Y101.967 E1.58801
G1 X87.218 Y102.246 E1.60961
G1 X86.902 Y102.568 E1.63002
G1 X86.667 Y102.947 E1.65017
G1 X86.526 Y103.384 E1.67096
G1 X86.480 Y103.877 E1.69336
G1 X86.597 Y104.675 E1.72986
G1 X86.955 Y105.346 E1.76430
G1 X87.545 Y105.864 E1.79982
G1 X88.335 Y106.224 E1.83909
G1 X89.306 Y106.434 E1.88403
G1 X90.459 Y106.503 E1.93630
G1 X91.518 Y106.441 E1.98432
G1 X92.425 Y106.250 E2.02625
G1 X93.179 Y105.925 E2.06343
G1 X93.787 Y105.449 E2.09837
G1 X94.248 Y104.813 E2.13390
G1 X94.482 Y104.221 E2.16267
G1 X96.066 Y104.500 E2.23549
G1 X95.719 Y105.373 E2.27801
G1 X95.111 Y106.231 E2.32559
G1 X94.335 Y106.848 E2.37045
G1 X93.332 Y107.270 E2.41967
G1 X92.047 Y107.528 E2.47901
G1 X90.481 Y107.615 E2.54995
G1 X88.797 Y107.499 E2.62634
G1 X87.411 Y107.157 E2.69093
G1 X86.321 Y106.595 E2.74641
G1 X85.540 Y105.839 E2.79559
G1 X85.074 Y104.901 E2.84299
G1 X84.916 Y103.754 E2.89539
G1 X84.945 Y103.243 E2.91857
G1 X85.035 Y102.768 E2.94041
G1 X85.183 Y102.338 E2.96100
G1 X85.387 Y101.947 E2.98099
G1 X85.645 Y101.589 E3.00093
G1 X85.955 Y101.265 E3.02122
G1 X86.336 Y100.966 E3.04316
G1 X86.807 Y100.681 E3.06806
G1 X87.368 Y100.413 E3.09619
G1 X88.072 Y100.153 E3.13015
G1 X88.973 Y99.890 E3.17262
G1 X91.972 Y99.180 E3.31207
G1 X92.526 Y99.030 E3.33805
G1 X93.032 Y98.855 E3.36228
G1 X93.489 Y98.655 E3.38484
G1 X93.896 Y98.420 E3.40608
G1 X94.244 Y98.141 E3.42625
G1 X94.531 Y97.817 E3.44587
G1 X94.745 Y97.431 E3.46582
G1 X94.871 Y96.981 E3.48697
G1 X94.913 Y96.467 E3.51029
G1 X94.783 Y95.589 E3.55048
G1 X94.382 Y94.847 E3.58862
G1 X93.723 Y94.270 E3.62825
G1 X92.846 Y93.866 E3.67195
G1 X91.777 Y93.629 E3.72154
G1 X91.265 Y93.597 E3.74474
G1 X93.574 Y93.099 F7800.000
G1 X96.138 Y95.664 E3.90992 F540.000
G1 X96.228 Y96.303 E3.93932
G1 X94.603 Y94.677 E4.04402
G1 X94.314 Y94.388 F7800.000
G1 X92.840 Y92.914 E4.13896 F540.000
G1 X92.111 Y92.734 E4.17314
G1 X93.035 Y93.658 E4.23263
G1 X92.327 Y93.499 E4.26567
G1 X91.521 Y92.693 E4.31757
G1 X90.931 Y92.652 E4.34450
G1 X91.669 Y93.390 E4.39204
G1 X91.084 Y93.354 E4.41873
G1 X90.347 Y92.617 E4.46623
G1 X89.863 Y92.682 E4.48845
G1 X90.510 Y93.329 E4.53012
G1 X89.992 Y93.360 E4.55375
G1 X89.380 Y92.747 E4.59321
G1 X88.896 Y92.813 E4.61544
G1 X89.474 Y93.391 E4.65268
G1 X89.002 Y93.468 E4.67447
G1 X88.412 Y92.878 E4.71245
G1 X87.929 Y92.943 E4.73467
G1 X88.549 Y93.563 E4.77460
G1 X88.113 Y93.677 E4.79510
G1 X87.445 Y93.009 E4.83813
G1 X87.072 Y93.184 E4.85692
G1 X87.729 Y93.841 E4.89923
G1 X87.344 Y94.005 E4.91828
G1 X86.729 Y93.390 E4.95789
G1 X86.386 Y93.596 E4.97611
G1 X87.018 Y94.228 E5.01683
G1 X86.708 Y94.467 E5.03465
G1 X86.043 Y93.802 E5.07750
G1 X85.700 Y94.008 E5.09572
G1 X86.421 Y94.728 E5.14212
G1 X86.190 Y95.046 E5.16002
G1 X85.383 Y94.239 E5.21200
G1 X85.195 Y94.600 E5.23053
G1 X85.959 Y95.364 E5.27973
G1 X85.790 Y95.745 E5.29869
G1 X85.008 Y94.962 E5.34909
G1 X84.821 Y95.324 E5.36764
G1 X85.332 Y95.835 E5.40053
G92 E0
G1 X86.809 Y101.585 F7800.000
G1 X86.809 Y101.585 F7800.000
G1 X87.380 Y100.628 F7800.000
G1 X88.208 Y101.455 E0.05329 F540.000
G1 X87.829 Y101.625 E0.07220
G1 X87.009 Y100.805 E0.12501
G1 X86.656 Y101.001 E0.14340
G1 X87.476 Y101.821 E0.19621
G1 X87.157 Y102.051 E0.21411
G1 X86.325 Y101.220 E0.26769
G1 X86.026 Y101.469 E0.28543
G1 X86.876 Y102.320 E0.34023
G1 X86.635 Y102.627 E0.35803
G1 X85.763 Y101.755 E0.41420
G1 X85.540 Y102.081 E0.43218
G1 X86.440 Y102.981 E0.49018
G1 X86.307 Y103.397 E0.51006
G1 X85.360 Y102.450 E0.57105
G1 X85.232 Y102.870 E0.59107
G1 X86.259 Y103.897 E0.65722
G1 X86.333 Y104.521 E0.68581
G1 X85.161 Y103.349 E0.76130
G1 X85.178 Y103.915 E0.78709
G1 X86.684 Y105.420 E0.88408
G1 X87.317 Y106.054 F7800.000
G1 X88.412 Y107.149 E0.95459 F540.000
G1 X88.274 Y106.461 E0.98651
G1 X89.100 Y107.288 E1.03972
G1 X89.689 Y107.328 E1.06662
G1 X88.975 Y106.613 E1.11264
G1 X89.593 Y106.683 E1.14099
G1 X90.278 Y107.368 E1.18513
G1 X90.832 Y107.373 E1.21035
G1 X90.177 Y106.718 E1.25255
G1 X90.718 Y106.710 E1.27718
G1 X91.352 Y107.344 E1.31805
G1 X91.872 Y107.315 E1.34177
G1 X91.236 Y106.679 E1.38276
G1 X91.719 Y106.614 E1.40498
G1 X92.356 Y107.250 E1.44596
G1 X92.813 Y107.158 E1.46719
G1 X92.173 Y106.518 E1.50840
G1 X92.597 Y106.394 E1.52854
G1 X93.270 Y107.067 E1.57186
G1 X93.664 Y106.912 E1.59116
G1 X92.981 Y106.229 E1.63518
G1 X93.343 Y106.042 E1.65374
G1 X94.051 Y106.750 E1.69932
G1 X94.400 Y106.550 E1.71763
G1 X93.651 Y105.801 E1.76587
G1 X93.951 Y105.552 E1.78363
G1 X94.706 Y106.307 E1.83221
G1 X94.992 Y106.045 E1.84990
G1 X94.182 Y105.234 E1.90211
G1 X94.412 Y104.916 E1.92001
G1 X95.228 Y105.731 E1.97253
G1 X95.456 Y105.410 E1.99046
G1 X94.576 Y104.531 E2.04710
G1 X95.184 Y104.590 E2.07493
G1 X95.635 Y105.040 E2.10394
G92 E0
G1 X94.472 Y98.952 F7800.000
G1 X94.472 Y98.952 F7800.000
G1 X93.798 Y99.910 F7800.000
G1 X92.977 Y99.089 E0.05287 F540.000
G1 X93.365 Y98.928 E0.07198
G1 X94.183 Y99.747 E0.12472
G1 X94.555 Y99.569 E0.14347
G1 X93.729 Y98.743 E0.19669
G1 X94.066 Y98.531 E0.21482
G1 X94.901 Y99.367 E0.26863
G1 X95.218 Y99.135 E0.28652
G1 X94.370 Y98.287 E0.34111
G1 X94.628 Y97.996 E0.35882
G1 X95.502 Y98.869 E0.41506
G1 X95.749 Y98.568 E0.43282
G1 X94.842 Y97.661 E0.49127
G1 X95.004 Y97.274 E0.51038
G1 X95.953 Y98.223 E0.57150
G1 X96.112 Y97.833 E0.59067
G1 X95.104 Y96.825 E0.65557
G1 X95.130 Y96.302 E0.67943
G1 X96.220 Y97.393 E0.74965
G1 X96.273 Y96.896 E0.77238
G1 X95.034 Y95.658 E0.85215
G1 X95.678 Y94.655 F7800.000
G1 X94.837 Y93.813 E0.90637 F540.000
G1 X95.693 Y96.442 F7800.000
G1 X95.680 Y97.006 F7800.000
G1 X95.613 Y97.364 F7800.000
G1 X95.497 Y97.745 F7800.000
G1 X95.190 Y98.287 F7800.000
G1 X94.888 Y98.620 F7800.000
G1 X94.790 Y98.713 F7800.000
G1 X94.780 Y98.704 F7800.000
G1 X92.569 Y99.230 F7800.000
G1 X93.399 Y100.060 E0.95980 F540.000
G1 X92.983 Y100.193 E0.97967
G1 X92.140 Y99.350 E1.03400
G1 X91.701 Y99.459 E1.05461
G1 X92.555 Y100.314 E1.10964
G1 X92.112 Y100.420 E1.13039
G1 X91.257 Y99.564 E1.18548
G1 X90.813 Y99.670 E1.20625
G1 X91.669 Y100.526 E1.26140
G1 X91.226 Y100.632 E1.28214
G1 X90.369 Y99.775 E1.33735
G1 X89.925 Y99.880 E1.35812
G1 X90.783 Y100.738 E1.41339
G1 X90.340 Y100.844 E1.43413
G1 X89.481 Y99.985 E1.48945
G1 X89.037 Y100.090 E1.51022
G1 X89.897 Y100.950 E1.56561
G1 X89.461 Y101.062 E1.58613
G1 X88.610 Y100.211 E1.64096
G1 X88.185 Y100.335 E1.66111
G1 X89.032 Y101.182 E1.71568
G1 X88.609 Y101.308 E1.73577
G1 X87.779 Y100.478 E1.78926
G1 X85.266 Y104.551 F7800.000
G1 X87.683 Y106.968 E1.94493 F540.000
G1 X86.596 Y106.430 F7800.000
G1 X85.682 Y105.517 E2.00374 F540.000
G92 E0
G1 X93.399 Y107.486 F7800.000
G1 X98.876 Y106.657 F7800.000
G1 X106.006 Y108.744 F7800.000
G1 X110.770 Y106.451 F7800.000
G1 X111.967 Y107.648 F7800.000
G1 X114.159 Y107.648 F7800.000
G1 X115.799 Y102.590 F7800.000
G1 X115.799 Y107.423 E0.21868 F378.000
G1 X114.384 Y107.423 E0.28271
G1 X114.384 Y97.618 E0.72637
G1 X114.399 Y96.856 E0.76086
G1 X114.514 Y94.524 E0.86651
G1 X114.110 Y94.395 E0.88571
G1 X105.882 Y107.423 E1.58294
G1 X103.824 Y107.423 E1.67606
G1 X103.824 Y92.577 E2.34783
G1 X105.217 Y92.577 E2.41087
G1 X105.217 Y102.512 E2.86040
G1 X105.163 Y104.320 E2.94226 F378.000
G1 X105.109 Y105.392 E2.99081
G1 X105.514 Y105.520 E3.01004
G1 X113.655 Y92.577 E3.70190
G1 X115.799 Y92.577 E3.79895
G1 X115.799 Y102.359 E4.24159
G1 X114.791 Y107.197 F7800.000
G1 X114.610 Y107.017 E4.25332 F540.000
G1 X114.610 Y106.462 E4.27884
G1 X115.345 Y107.197 E4.32666
G1 X115.573 Y106.871 E4.34498
G1 X114.610 Y105.908 E4.40766
G1 X114.610 Y105.353 E4.43317
G1 X115.573 Y106.316 E4.49584
G1 X115.573 Y105.762 E4.52136
G1 X114.610 Y104.798 E4.58403
G1 X114.610 Y104.244 E4.60955
G1 X115.573 Y105.207 E4.67222
G1 X115.573 Y104.652 E4.69774
G1 X114.610 Y103.689 E4.76041
G1 X114.610 Y103.135 E4.78593
G1 X115.573 Y104.098 E4.84860
G1 X115.573 Y103.543 E4.87412
G1 X114.610 Y102.580 E4.93679
G1 X114.610 Y102.026 E4.96231
G1 X115.573 Y102.989 E5.02498
G1 X115.573 Y102.434 E5.05050
G1 X114.610 Y101.471 E5.11317
G1 X114.610 Y100.917 E5.13869
G1 X115.573 Y101.880 E5.20136
G1 X115.573 Y101.325 E5.22688
G1 X114.610 Y100.362 E5.28955
G1 X114.610 Y99.807 E5.31507
G1 X115.573 Y100.770 E5.37774
G1 X115.573 Y100.216 E5.40326
G1 X114.610 Y99.253 E5.46593
G1 X114.610 Y98.698 E5.49144
G1 X115.573 Y99.661 E5.55412
G1 X115.573 Y99.107 E5.57963
G1 X114.610 Y98.144 E5.64231
G1 X114.610 Y97.589 E5.66782
G1 X115.573 Y98.552 E5.73050
G1 X115.573 Y97.998 E5.75601
G1 X114.620 Y97.044 E5.81808
G1 X114.638 Y96.508 E5.84276
G1 X115.573 Y97.443 E5.90362
G1 X115.573 Y96.889 E5.92914
G1 X114.664 Y95.979 E5.98829
G1 X114.690 Y95.451 E6.01264
G1 X115.573 Y96.334 E6.07010
G1 X115.573 Y95.779 E6.09561
G1 X114.717 Y94.923 E6.15137
G1 X115.573 Y93.007 F7800.000
G1 X115.370 Y92.803 E6.16462 F540.000
G1 X114.815 Y92.803 E6.19014
G1 X115.573 Y93.561 E6.23947
G1 X115.573 Y94.116 E6.26499
G1 X114.261 Y92.803 E6.35042
G1 X113.729 Y92.825 E6.37492
G1 X115.573 Y94.670 E6.49496
G1 X115.573 Y95.225 E6.52048
G1 X113.514 Y93.166 E6.65446
G1 X113.300 Y93.506 E6.67297
G1 X113.999 Y94.205 E6.71844
G1 X113.784 Y94.545 E6.73694
G1 X113.086 Y93.847 E6.78237
G1 X112.872 Y94.187 E6.80088
G1 X113.570 Y94.885 E6.84628
G1 X113.355 Y95.225 E6.86478
G1 X112.658 Y94.528 E6.91015
G1 X112.444 Y94.868 E6.92865
G1 X113.140 Y95.565 E6.97399
G1 X112.926 Y95.905 E6.99249
G1 X112.230 Y95.209 E7.03779
G1 X112.016 Y95.549 E7.05629
G1 X112.711 Y96.245 E7.10156
G1 X112.496 Y96.584 E7.12006
G1 X111.801 Y95.889 E7.16529
G1 X111.587 Y96.230 E7.18380
G1 X112.282 Y96.924 E7.22899
G1 X112.067 Y97.264 E7.24749
G1 X111.373 Y96.570 E7.29266
G1 X111.159 Y96.911 E7.31116
G1 X111.853 Y97.604 E7.35629
G1 X111.638 Y97.944 E7.37479
G1 X110.945 Y97.251 E7.41989
G1 X110.731 Y97.592 E7.43839
G1 X111.423 Y98.284 E7.48345
G1 X111.209 Y98.624 E7.50195
G1 X110.517 Y97.932 E7.54698
G1 X110.302 Y98.272 E7.56549
G1 X110.994 Y98.964 E7.61048
G1 X110.779 Y99.304 E7.62898
G1 X110.088 Y98.613 E7.67394
G1 X109.874 Y98.953 E7.69245
G1 X110.565 Y99.644 E7.73737
G1 X110.350 Y99.984 E7.75587
G1 X109.660 Y99.294 E7.80076
G1 X109.446 Y99.634 E7.81927
G1 X110.135 Y100.323 E7.86412
G1 X109.921 Y100.663 E7.88262
G1 X109.232 Y99.975 E7.92745
G1 X109.018 Y100.315 E7.94595
G1 X109.706 Y101.003 E7.99074
G1 X109.491 Y101.343 E8.00924
G1 X108.804 Y100.655 E8.05400
G1 X108.589 Y100.996 E8.07250
G1 X109.277 Y101.683 E8.11722
G1 X109.062 Y102.023 E8.13572
G1 X108.375 Y101.336 E8.18041
G1 X108.161 Y101.677 E8.19891
G1 X108.847 Y102.363 E8.24357
G1 X108.633 Y102.703 E8.26207
G1 X107.947 Y102.017 E8.30669
G1 X107.733 Y102.358 E8.32519
G1 X108.418 Y103.043 E8.36978
G1 X108.203 Y103.383 E8.38827
G1 X107.519 Y102.698 E8.43283
G1 X107.305 Y103.038 E8.45133
G1 X107.989 Y103.723 E8.49585
G1 X107.774 Y104.062 E8.51435
G1 X107.090 Y103.379 E8.55883
G1 X106.876 Y103.719 E8.57734
G1 X107.559 Y104.402 E8.62179
G1 X107.345 Y104.742 E8.64028
G1 X106.662 Y104.060 E8.68470
G1 X106.448 Y104.400 E8.70320
G1 X107.130 Y105.082 E8.74759
G1 X106.915 Y105.422 E8.76608
G1 X106.234 Y104.741 E8.81043
G1 X106.020 Y105.081 E8.82894
G1 X106.701 Y105.762 E8.87325
G1 X106.486 Y106.102 E8.89175
G1 X105.806 Y105.421 E8.93603
G1 X105.591 Y105.762 E8.95453
G1 X106.271 Y106.442 E8.99878
G1 X106.057 Y106.782 E9.01727
G1 X104.050 Y104.775 E9.14784
G1 X104.050 Y105.330 E9.17336
G1 X105.842 Y107.122 E9.28996
G1 X105.363 Y107.197 E9.31228
G1 X104.050 Y105.884 E9.39770
G1 X104.050 Y106.439 E9.42322
G1 X104.808 Y107.197 E9.47256
G1 X104.254 Y107.197 E9.49807
G1 X104.050 Y106.993 E9.51132
G1 X104.903 Y105.073 F7800.000
G1 X104.050 Y104.221 E9.56679 F540.000
G1 X104.050 Y103.666 E9.59231
G1 X104.930 Y104.546 E9.64954
G1 X104.949 Y104.010 E9.67419
G1 X104.050 Y103.112 E9.73267
G1 X104.050 Y102.557 E9.75819
G1 X104.965 Y103.472 E9.81772
G1 X104.981 Y102.933 E9.84251
G1 X104.050 Y102.002 E9.90309
G1 X104.050 Y101.448 E9.92860
G1 X104.991 Y102.389 E9.98984
G1 X104.991 Y101.834 E10.01536
G1 X104.050 Y100.893 E10.07660
G1 X104.050 Y100.339 E10.10212
G1 X104.991 Y101.280 E10.16336
G1 X104.991 Y100.725 E10.18888
G1 X104.050 Y99.784 E10.25012
G1 X104.050 Y99.230 E10.27564
G1 X104.991 Y100.171 E10.33688
G1 X104.991 Y99.616 E10.36239
G1 X104.050 Y98.675 E10.42363
G1 X104.050 Y98.120 E10.44915
G1 X104.991 Y99.062 E10.51039
G1 X104.991 Y98.507 E10.53591
G1 X104.050 Y97.566 E10.59715
G1 X104.050 Y97.011 E10.62267
G1 X104.991 Y97.952 E10.68391
G1 X104.991 Y97.398 E10.70943
G1 X104.050 Y96.457 E10.77067
G1 X104.050 Y95.902 E10.79618
G1 X104.991 Y96.843 E10.85742
G1 X104.991 Y96.289 E10.88294
G1 X104.050 Y95.348 E10.94418
G1 X104.050 Y94.793 E10.96970
G1 X104.991 Y95.734 E11.03094
G1 X104.991 Y95.180 E11.05646
G1 X104.050 Y94.238 E11.11770
G1 X104.050 Y93.684 E11.14322
G1 X104.991 Y94.625 E11.20446
G1 X104.991 Y94.070 E11.22997
G1 X104.050 Y93.129 E11.29121
G1 X104.278 Y92.803 E11.30954
G1 X104.991 Y93.516 E11.35593
M106 S255
G92 E0
G1 Z0.600 F7800.000
G1 X95.629 Y104.194 F7800.000
G1 X94.550 Y105.700 E0.55491 F600.000
G1 X94.205 Y106.033 E0.69861
G1 X93.965 Y106.223 E0.79047
G1 X93.613 Y106.430 E0.91290
G1 X93.141 Y106.647 E1.06843
G1 X92.524 Y106.831 E1.26132
G1 X91.972 Y106.944 E1.43013
G1 X91.534 Y106.998 E1.56234
G1 X90.485 Y107.058 E1.87734
G1 X89.290 Y106.983 E2.23604
G1 X88.886 Y106.930 E2.35814
G1 X88.239 Y106.780 E2.55716
G1 X87.629 Y106.577 E2.74987
G1 X87.113 Y106.307 E2.92443
G1 X86.720 Y106.040 E3.06681
G1 X86.544 Y105.878 E3.13853
G1 X86.325 Y105.636 E3.23612
G1 X86.145 Y105.397 E3.32585
G1 X85.969 Y105.055 E3.44122
G1 X85.819 Y104.671 E3.56452
G1 X85.725 Y104.014 E3.76346
G1 X85.705 Y103.723 E3.85101
G1 X85.735 Y103.334 E3.96773
G1 X85.814 Y102.975 E4.07801
G1 X85.921 Y102.656 E4.17894
G1 X86.001 Y102.501 E4.23119
G1 X86.259 Y102.100 E4.37392
G1 X86.489 Y101.855 E4.47475
G1 X86.779 Y101.606 E4.58915
G1 X87.167 Y101.349 E4.72877
G1 X87.705 Y101.077 E4.90935
G1 X88.523 Y100.782 E5.16988
G1 X89.458 Y100.523 E5.46061
G1 X92.561 Y99.777 E6.41695
G1 X93.335 Y99.524 E6.66081
G1 X93.871 Y99.291 E6.83614
G1 X94.390 Y99.010 E7.01302
G1 X94.721 Y98.768 E7.13578
G1 X95.087 Y98.410 E7.28921
G1 X95.257 Y98.188 E7.37288
G1 X95.399 Y97.941 E7.45825
G1 X95.524 Y97.670 E7.54786
G1 X95.613 Y97.364 E7.64339
G1 X95.680 Y97.006 E7.75243
G1 X95.705 Y96.630 E7.86529
G1 X95.683 Y96.327 E7.95632
G1 X95.576 Y95.589 E8.17976
G1 X95.421 Y95.199 E8.30541
G1 X95.205 Y94.785 E8.44550
G1 X95.023 Y94.547 E8.53511
G1 X94.803 Y94.305 E8.63322
G1 X94.547 Y94.072 E8.73701
G1 X93.955 Y93.690 E8.94806
G1 X93.531 Y93.484 E9.08945
G1 X92.950 Y93.289 E9.27307
G1 X92.157 Y93.103 E9.51706
G1 X91.919 Y93.068 E9.58913
G1 X90.463 Y92.971 E10.02639
