; generated by Slic3r 1.2.9 on 2016-03-11 at 01:30:10

; external perimeters extrusion width = 1.54mm
; perimeters extrusion width = 2.62mm
; infill extrusion width = 6.27mm
; solid infill extrusion width = 2.62mm
; top infill extrusion width = 2.62mm

M107
M104 S30 ; set temperature
G28 ; home all axes
G1 Z5 F5000 ; lift nozzle
M302
M92 E10000
M500
M501
G1 E100
M109 S30 ; wait for temperature to be reached
G21 ; set units to millimeters
G90 ; use absolute coordinates
M82 ; use absolute distances for extrusion
G92 E0
G1 Z0.300 F7800.000
G1 X86.415 Y101.153 F7800.000
G1 X86.654 Y100.966 E0.01375 F378.000
G1 X87.125 Y100.681 E0.03866
G1 X87.686 Y100.413 E0.06678
G1 X88.390 Y100.153 E0.10074
G1 X89.291 Y99.890 E0.14322
G1 X92.290 Y99.180 E0.28266
G1 X92.844 Y99.030 E0.30865
G1 X93.350 Y98.855 E0.33287
G1 X93.807 Y98.655 E0.35544
G1 X94.213 Y98.420 E0.37668
G1 X94.561 Y98.141 E0.39684
G1 X94.848 Y97.817 E0.41646
G1 X95.062 Y97.431 E0.43641
G1 X95.189 Y96.981 E0.45757
G1 X95.231 Y96.467 E0.48088
G1 X95.100 Y95.589 E0.52107
G1 X94.700 Y94.847 E0.55922
G1 X94.041 Y94.270 E0.59884
G1 X93.164 Y93.866 E0.64254
G1 X92.094 Y93.629 E0.69213
G1 X90.830 Y93.551 E0.74941
G1 X89.600 Y93.624 E0.80518
G1 X88.542 Y93.847 E0.85410
G1 X87.656 Y94.225 E0.89772
G1 X86.944 Y94.774 E0.93837
G1 X86.418 Y95.498 E0.97890
G1 X86.157 Y96.185 E1.01212
G1 X84.630 Y95.880 E1.08260
G1 X85.576 Y94.045 E1.17600
G1 X87.635 Y92.808 E1.28470
G1 X90.762 Y92.386 E1.42745
G1 X92.325 Y92.495 E1.49837
G1 X92.568 Y92.512 E1.50939 F378.000
G1 X94.073 Y92.886 E1.57956
G1 X95.270 Y93.502 E1.64049
G1 X96.136 Y94.330 E1.69469
G1 X96.652 Y95.351 E1.74646
G1 X96.827 Y96.593 E1.80323
G1 X96.803 Y97.090 E1.82574
G1 X96.730 Y97.546 E1.84664
G1 X96.609 Y97.953 E1.86584
G1 X96.446 Y98.320 E1.88403
G1 X96.246 Y98.653 E1.90158
G1 X96.009 Y98.952 E1.91883
G1 X95.737 Y99.220 E1.93613
G1 X95.434 Y99.461 E1.95367
G1 X95.095 Y99.675 E1.97177
G1 X94.731 Y99.867 E1.99039
G1 X93.935 Y100.205 E2.02955
G1 X93.075 Y100.480 E2.07039
G1 X89.975 Y101.222 E2.21462
G1 X89.028 Y101.487 E2.25911
G1 X88.382 Y101.724 E2.29029
G1 X87.922 Y101.967 E2.31380
G1 X87.535 Y102.246 E2.33540
G1 X87.219 Y102.568 E2.35581
G1 X86.984 Y102.947 E2.37596
G1 X86.844 Y103.384 E2.39675
G1 X86.798 Y103.877 E2.41915
G1 X86.914 Y104.675 E2.45565
G1 X87.273 Y105.346 E2.49009
G1 X87.863 Y105.864 E2.52561
G1 X88.652 Y106.224 E2.56487
G1 X89.623 Y106.434 E2.60982
G1 X90.776 Y106.503 E2.66209
G1 X91.836 Y106.441 E2.71011
G1 X92.742 Y106.250 E2.75204
G1 X93.497 Y105.925 E2.78921
G1 X94.105 Y105.449 E2.82416
G1 X94.565 Y104.813 E2.85969
G1 X94.799 Y104.221 E2.88846
G1 X96.384 Y104.500 E2.96128
G1 X96.037 Y105.373 E3.00380
G1 X95.428 Y106.231 E3.05138
G1 X94.652 Y106.848 E3.09624
G1 X93.650 Y107.270 E3.14546
G1 X92.364 Y107.528 E3.20480
G1 X90.799 Y107.615 E3.27574
G1 X89.114 Y107.499 E3.35213
G1 X87.729 Y107.157 E3.41671
G1 X86.639 Y106.595 E3.47220
G1 X85.858 Y105.839 E3.52138
G1 X85.392 Y104.901 E3.56878
G1 X85.233 Y103.754 E3.62118
G1 X85.263 Y103.243 E3.64436
G1 X85.352 Y102.768 E3.66620
G1 X85.500 Y102.338 E3.68679
G1 X85.705 Y101.947 E3.70678
G1 X85.962 Y101.589 E3.72672
G1 X86.238 Y101.301 E3.74474
G1 X87.698 Y100.628 F7800.000
G1 X88.525 Y101.455 E3.79803 F540.000
G1 X88.146 Y101.625 E3.81695
G1 X87.326 Y100.805 E3.86976
G1 X86.973 Y101.001 E3.88814
G1 X87.793 Y101.821 E3.94095
G1 X87.475 Y102.051 E3.95886
G1 X86.643 Y101.220 E4.01243
G1 X86.343 Y101.469 E4.03018
G1 X87.194 Y102.320 E4.08497
G1 X86.953 Y102.627 E4.10278
G1 X86.081 Y101.755 E4.15894
G1 X85.857 Y102.081 E4.17692
G1 X86.758 Y102.981 E4.23492
G1 X86.625 Y103.397 E4.25480
G1 X85.677 Y102.450 E4.31579
G1 X85.549 Y102.870 E4.33581
G1 X86.576 Y103.897 E4.40197
G1 X86.650 Y104.521 E4.43055
G1 X85.478 Y103.349 E4.50604
G1 X85.495 Y103.915 E4.53183
G1 X87.001 Y105.420 E4.62882
G1 X87.635 Y106.054 F7800.000
G1 X88.729 Y107.149 E4.69934 F540.000
G1 X88.591 Y106.461 E4.73126
G1 X89.417 Y107.288 E4.78446
G1 X90.007 Y107.328 E4.81137
G1 X89.292 Y106.613 E4.85739
G1 X89.911 Y106.683 E4.88573
G1 X90.596 Y107.368 E4.92987
G1 X91.150 Y107.373 E4.95509
G1 X90.494 Y106.718 E4.99730
G1 X91.035 Y106.710 E5.02192
G1 X91.670 Y107.344 E5.06280
G1 X92.190 Y107.315 E5.08652
G1 X91.553 Y106.679 E5.12750
G1 X92.037 Y106.614 E5.14973
G1 X92.673 Y107.250 E5.19070
G1 X93.130 Y107.158 E5.21193
G1 X92.490 Y106.518 E5.25314
G1 X92.915 Y106.394 E5.27328
G1 X93.587 Y107.067 E5.31661
G1 X93.982 Y106.912 E5.33590
G1 X93.298 Y106.229 E5.37993
G1 X93.661 Y106.042 E5.39849
G1 X94.368 Y106.750 E5.44406
G1 X94.717 Y106.550 E5.46238
G1 X93.968 Y105.801 E5.51061
G1 X94.269 Y105.552 E5.52837
G1 X95.023 Y106.307 E5.57695
G1 X95.310 Y106.045 E5.59464
G1 X94.499 Y105.234 E5.64686
G1 X94.730 Y104.916 E5.66476
G1 X95.545 Y105.731 E5.71728
G1 X95.773 Y105.410 E5.73521
G1 X94.894 Y104.531 E5.79184
G1 X95.502 Y104.590 E5.81967
G1 X95.952 Y105.040 E5.84868
G92 E0
G1 X94.789 Y98.952 F7800.000
G1 X94.789 Y98.952 F7800.000
G1 X94.116 Y99.910 F7800.000
G1 X93.295 Y99.089 E0.05287 F540.000
G1 X93.682 Y98.928 E0.07198
G1 X94.501 Y99.747 E0.12472
G1 X94.873 Y99.569 E0.14347
G1 X94.046 Y98.743 E0.19669
G1 X94.383 Y98.531 E0.21482
G1 X95.219 Y99.367 E0.26863
G1 X95.535 Y99.135 E0.28652
G1 X94.688 Y98.287 E0.34111
G1 X94.946 Y97.996 E0.35882
G1 X95.819 Y98.869 E0.41506
G1 X96.067 Y98.568 E0.43282
G1 X95.159 Y97.661 E0.49127
G1 X95.321 Y97.274 E0.51038
G1 X96.270 Y98.223 E0.57150
G1 X96.429 Y97.833 E0.59067
G1 X95.422 Y96.825 E0.65557
G1 X95.447 Y96.302 E0.67943
G1 X96.538 Y97.393 E0.74965
G1 X96.590 Y96.896 E0.77238
G1 X95.352 Y95.658 E0.85215
G1 X94.920 Y94.677 F7800.000
G1 X96.546 Y96.303 E0.95685 F540.000
G1 X96.456 Y95.664 E0.98625
G1 X93.891 Y93.099 E1.15143
G1 X95.154 Y93.813 F7800.000
G1 X95.996 Y94.655 E1.20565 F540.000
G1 X94.631 Y94.388 F7800.000
G1 X93.157 Y92.914 E1.30059 F540.000
G1 X92.428 Y92.734 E1.33477
G1 X93.352 Y93.658 E1.39426
G1 X92.644 Y93.499 E1.42730
G1 X91.839 Y92.693 E1.47920
G1 X91.249 Y92.652 E1.50613
G1 X91.987 Y93.390 E1.55367
G1 X91.402 Y93.354 E1.58036
G1 X90.664 Y92.617 E1.62786
G1 X90.181 Y92.682 E1.65008
G1 X90.828 Y93.329 E1.69175
G1 X90.310 Y93.360 E1.71538
G1 X89.697 Y92.747 E1.75484
G1 X89.214 Y92.813 E1.77706
G1 X89.792 Y93.391 E1.81431
G1 X89.320 Y93.468 E1.83609
G1 X88.730 Y92.878 E1.87408
G1 X88.246 Y92.943 E1.89630
G1 X88.866 Y93.563 E1.93623
G1 X88.431 Y93.677 E1.95673
G1 X87.763 Y93.009 E1.99976
G1 X87.389 Y93.184 E2.01855
G1 X88.046 Y93.841 E2.06086
G1 X87.661 Y94.005 E2.07991
G1 X87.046 Y93.390 E2.11952
G1 X86.703 Y93.596 E2.13774
G1 X87.336 Y94.228 E2.17846
G1 X87.026 Y94.467 E2.19628
G1 X86.361 Y93.802 E2.23913
G1 X86.018 Y94.008 E2.25735
G1 X86.738 Y94.728 E2.30375
G1 X86.507 Y95.046 E2.32164
G1 X85.700 Y94.239 E2.37362
G1 X85.512 Y94.600 E2.39216
G1 X86.276 Y95.364 E2.44136
G1 X86.108 Y95.745 E2.46031
G1 X85.325 Y94.962 E2.51071
G1 X85.139 Y95.324 E2.52927
G1 X85.649 Y95.835 E2.56216
G92 E0
G1 X87.127 Y101.585 F7800.000
G1 X87.127 Y101.585 F7800.000
G1 X88.096 Y100.478 F7800.000
G1 X88.927 Y101.308 E0.05349 F540.000
G1 X89.350 Y101.182 E0.07358
G1 X88.502 Y100.335 E0.12814
G1 X88.927 Y100.211 E0.14830
G1 X89.779 Y101.062 E0.20313
G1 X90.215 Y100.950 E0.22365
G1 X89.355 Y100.090 E0.27903
G1 X89.799 Y99.985 E0.29981
G1 X90.658 Y100.844 E0.35513
G1 X91.101 Y100.738 E0.37587
G1 X90.243 Y99.880 E0.43114
G1 X90.687 Y99.775 E0.45191
G1 X91.544 Y100.632 E0.50712
G1 X91.987 Y100.526 E0.52786
G1 X91.130 Y99.670 E0.58301
G1 X91.574 Y99.564 E0.60378
G1 X92.430 Y100.420 E0.65887
G1 X92.872 Y100.314 E0.67961
G1 X92.018 Y99.459 E0.73465
G1 X92.457 Y99.350 E0.75525
G1 X93.301 Y100.193 E0.80958
G1 X93.716 Y100.060 E0.82946
G1 X92.887 Y99.230 E0.88289
G1 X87.127 Y101.585 F7800.000
G1 X86.103 Y102.967 F7800.000
G1 X85.583 Y104.551 F7800.000
G1 X88.000 Y106.968 E1.03856 F540.000
G1 X86.913 Y106.430 F7800.000
G1 X86.000 Y105.517 E1.09737 F540.000
G92 E0
G1 X93.716 Y107.486 F7800.000
G1 X96.799 Y107.903 F7800.000
G1 X99.193 Y106.657 F7800.000
G1 X101.718 Y107.648 F7800.000
G1 X103.910 Y107.648 F7800.000
G1 X115.341 Y104.259 F7800.000
G1 X115.331 Y104.347 E0.00401 F378.000
G1 X114.887 Y105.415 E0.05633
G1 X114.151 Y106.272 E0.10747
G1 X113.139 Y106.907 E0.16152
G1 X111.867 Y107.292 E0.22169
G1 X110.318 Y107.423 E0.29199
G1 X104.135 Y107.423 E0.57179
G1 X104.135 Y92.577 E1.24356
G1 X105.756 Y92.577 E1.31691
G1 X105.756 Y98.556 E1.58746
G1 X110.449 Y98.556 E1.79983 F378.000
G1 X111.916 Y98.695 E1.86650
G1 X113.141 Y99.103 E1.92492
G1 X114.142 Y99.777 E1.97954
G1 X114.884 Y100.677 E2.03231
G1 X115.330 Y101.766 E2.08555
G1 X115.480 Y103.055 E2.14428
G1 X115.367 Y104.029 E2.18866
G1 X113.712 Y103.632 F7800.000
G1 X113.432 Y104.800 E2.24301 F378.000
G1 X112.146 Y105.872 E2.31878
G1 X110.097 Y106.214 E2.41276
G1 X105.756 Y106.214 E2.60921
G1 X105.756 Y99.743 E2.90202
G1 X110.185 Y99.743 E3.10242 F378.000
G1 X112.189 Y100.098 E3.19452
G1 X113.444 Y101.210 E3.27039
G1 X113.856 Y103.035 E3.35503
G1 X113.766 Y103.408 E3.37239
G1 X113.767 Y101.523 F7800.000
G1 X115.235 Y102.991 E3.46735 F540.000
G1 X115.208 Y103.515 E3.49134
G1 X113.927 Y102.234 E3.57416
G1 X114.088 Y102.946 E3.60752
G1 X115.151 Y104.009 E3.67625
G1 X115.062 Y104.471 E3.69774
G1 X113.985 Y103.394 E3.76737
G1 X113.878 Y103.838 E3.78826
G1 X114.900 Y104.860 E3.85434
G1 X114.738 Y105.250 E3.87361
G1 X113.771 Y104.283 E3.93613
G1 X113.665 Y104.727 E3.95702
G1 X114.504 Y105.566 E4.01128
G1 X114.250 Y105.863 E4.02914
G1 X113.435 Y105.048 E4.08178
G1 X113.135 Y105.299 E4.09967
G1 X113.978 Y106.142 E4.15418
G1 X113.645 Y106.360 E4.17238
G1 X112.834 Y105.549 E4.22478
G1 X112.534 Y105.800 E4.24266
G1 X113.306 Y106.572 E4.29259
G1 X112.936 Y106.753 E4.31141
G1 X112.233 Y106.050 E4.35686
G1 X111.782 Y106.150 E4.37800
G1 X112.513 Y106.881 E4.42529
G1 X112.090 Y107.009 E4.44549
G1 X111.310 Y106.228 E4.49598
G1 X110.837 Y106.307 E4.51787
G1 X111.623 Y107.093 E4.56864
G1 X111.115 Y107.136 E4.59195
G1 X110.365 Y106.386 E4.64042
G1 X109.868 Y106.440 E4.66327
G1 X110.607 Y107.178 E4.71102
G1 X110.074 Y107.197 E4.73537
G1 X109.317 Y106.440 E4.78432
G1 X108.766 Y106.440 E4.80951
G1 X109.523 Y107.197 E4.85846
G1 X108.972 Y107.197 E4.88365
G1 X108.215 Y106.440 E4.93260
G1 X107.664 Y106.440 E4.95779
G1 X108.421 Y107.197 E5.00674
G1 X107.870 Y107.197 E5.03192
G1 X107.113 Y106.440 E5.08087
G1 X106.562 Y106.440 E5.10606
G1 X107.319 Y107.197 E5.15501
G1 X106.768 Y107.197 E5.18020
G1 X106.011 Y106.440 E5.22915
G1 X105.530 Y106.510 F7800.000
G1 X104.361 Y105.341 E5.30473 F540.000
G1 X104.361 Y106.993 F7800.000
G1 X104.564 Y107.197 E5.31790 F540.000
G1 X105.115 Y107.197 E5.34309
G1 X104.361 Y106.442 E5.39187
G1 X104.361 Y105.891 E5.41706
G1 X105.666 Y107.197 E5.50147
G1 X106.217 Y107.197 E5.52666
G1 X105.460 Y106.440 E5.57561
G1 X105.530 Y105.959 E5.59784
G1 X104.361 Y104.790 E5.67343
G1 X104.361 Y104.239 E5.69862
G1 X105.530 Y105.408 E5.77420
G1 X105.530 Y104.857 E5.79939
G1 X104.361 Y103.688 E5.87498
G1 X104.361 Y103.137 E5.90017
G1 X105.530 Y104.306 E5.97575
G1 X105.530 Y103.755 E6.00094
G1 X104.361 Y102.586 E6.07653
G1 X104.361 Y102.035 E6.10172
G1 X105.530 Y103.204 E6.17730
G1 X105.530 Y102.653 E6.20249
G1 X104.361 Y101.484 E6.27808
G1 X104.361 Y100.933 E6.30327
G1 X105.530 Y102.102 E6.37885
G1 X105.530 Y101.551 E6.40404
G1 X104.361 Y100.382 E6.47963
G1 X104.361 Y99.831 E6.50482
G1 X105.530 Y101.000 E6.58040
G1 X105.530 Y100.449 E6.60559
G1 X104.361 Y99.280 E6.68118
G1 X104.361 Y98.729 E6.70636
G1 X105.530 Y99.898 E6.78195
G1 X105.700 Y99.517 F7800.000
G1 X104.361 Y98.178 E6.86854 F540.000
G1 X104.361 Y97.627 E6.89373
G1 X105.530 Y98.796 E6.96932
G1 X106.067 Y98.782 E6.99388
G1 X106.802 Y99.517 E7.04141
G1 X107.353 Y99.517 E7.06660
G1 X106.618 Y98.782 E7.11412
G1 X107.169 Y98.782 E7.13931
G1 X107.904 Y99.517 E7.18684
G1 X108.455 Y99.517 E7.21203
G1 X107.720 Y98.782 E7.25955
G1 X108.271 Y98.782 E7.28474
G1 X109.006 Y99.517 E7.33227
G1 X109.557 Y99.517 E7.35746
G1 X108.822 Y98.782 E7.40498
G1 X109.373 Y98.782 E7.43017
G1 X110.108 Y99.517 E7.47770
G1 X110.738 Y99.596 E7.50671
G1 X109.924 Y98.782 E7.55932
G1 X110.488 Y98.795 E7.58510
G1 X111.407 Y99.714 E7.64456
G1 X112.077 Y99.833 E7.67565
G1 X111.096 Y98.852 E7.73906
G1 X111.704 Y98.910 E7.76700
G1 X115.163 Y102.368 E7.99058
G1 X115.000 Y101.654 E8.02404
G1 X112.507 Y99.161 E8.18520
G1 X113.764 Y99.867 F7800.000
G1 X114.149 Y100.252 E8.21011 F540.000
G1 X106.251 Y99.517 F7800.000
G1 X105.516 Y98.782 E8.25764 F540.000
G1 X105.530 Y98.245 E8.28220
G1 X104.361 Y97.076 E8.35778
G1 X104.361 Y96.525 E8.38297
G1 X105.530 Y97.694 E8.45856
G1 X105.530 Y97.143 E8.48375
G1 X104.361 Y95.974 E8.55933
G1 X104.361 Y95.423 E8.58452
G1 X105.530 Y96.592 E8.66011
G1 X105.530 Y96.041 E8.68530
G1 X104.361 Y94.872 E8.76088
G1 X104.361 Y94.321 E8.78607
G1 X105.530 Y95.490 E8.86166
G1 X105.530 Y94.939 E8.88685
G1 X104.361 Y93.770 E8.96243
G1 X104.361 Y93.219 E8.98762
G1 X105.530 Y94.388 E9.06321
G1 X105.530 Y93.837 E9.08840
G1 X104.496 Y92.803 E9.15525
G1 X105.047 Y92.803 E9.18044
G1 X105.530 Y93.286 E9.21167
M106 S255
G92 E0
G1 Z0.600 F7800.000
G1 X95.946 Y104.194 F7800.000
G1 X94.867 Y105.700 E0.55491 F600.000
G1 X94.523 Y106.033 E0.69861
G1 X94.282 Y106.223 E0.79047
G1 X93.930 Y106.430 E0.91290
G1 X93.459 Y106.647 E1.06843
G1 X92.842 Y106.831 E1.26132
G1 X92.290 Y106.944 E1.43013
G1 X91.852 Y106.998 E1.56234
G1 X90.802 Y107.058 E1.87734
G1 X89.608 Y106.983 E2.23604
G1 X89.204 Y106.930 E2.35814
G1 X88.556 Y106.780 E2.55716
G1 X87.946 Y106.577 E2.74987
G1 X87.430 Y106.307 E2.92443
G1 X87.037 Y106.040 E3.06681
G1 X86.861 Y105.878 E3.13853
G1 X86.643 Y105.636 E3.23612
G1 X86.462 Y105.397 E3.32585
G1 X86.286 Y105.055 E3.44122
G1 X86.136 Y104.671 E3.56452
G1 X86.043 Y104.014 E3.76346
G1 X86.022 Y103.723 E3.85101
G1 X86.052 Y103.334 E3.96773
G1 X86.131 Y102.975 E4.07801
G1 X86.239 Y102.656 E4.17894
G1 X86.319 Y102.501 E4.23119
G1 X86.576 Y102.100 E4.37392
G1 X86.807 Y101.855 E4.47475
G1 X87.096 Y101.606 E4.58915
G1 X87.485 Y101.349 E4.72877
G1 X88.023 Y101.077 E4.90935
G1 X88.840 Y100.782 E5.16988
G1 X89.775 Y100.523 E5.46061
G1 X92.879 Y99.777 E6.41695
G1 X93.652 Y99.524 E6.66081
G1 X94.189 Y99.291 E6.83614
G1 X94.708 Y99.010 E7.01302
G1 X95.039 Y98.768 E7.13578
G1 X95.405 Y98.410 E7.28921
G1 X95.574 Y98.188 E7.37288
G1 X95.717 Y97.941 E7.45825
G1 X95.842 Y97.670 E7.54786
G1 X95.931 Y97.364 E7.64339
G1 X95.998 Y97.006 E7.75243
G1 X96.022 Y96.630 E7.86529
G1 X96.000 Y96.327 E7.95632
G1 X95.893 Y95.589 E8.17976
G1 X95.739 Y95.199 E8.30541
G1 X95.522 Y94.785 E8.44550
G1 X95.341 Y94.547 E8.53511
G1 X95.120 Y94.305 E8.63322
G1 X94.865 Y94.072 E8.73701
G1 X94.272 Y93.690 E8.94806
G1 X93.848 Y93.484 E9.08945
G1 X93.267 Y93.289 E9.27307
G1 X92.474 Y93.103 E9.51706
G1 X92.236 Y93.068 E9.58913
G1 X90.780 Y92.971 E10.02639
G1 X89.473 Y93.102 E10.42013
G1 X88.291 Y93.314 E10.78003
G1 X87.855 Y93.434 E10.91553
G1 X87.440 Y93.646 E11.05523
G1 X86.564 Y94.228 E11.37028
G1 X86.149 Y94.582 E11.53378
G1 X85.742 Y95.275 E11.77441
G1 X85.310 Y96.245 E12.09277
G92 E0
G1 X90.754 Y92.160 F7800.000
G1 X90.754 Y92.160 F7800.000
G1 X90.824 Y91.161 F7800.000
G1 X92.260 Y91.211 F7800.000
G1 X92.677 Y91.226 F7800.000
G1 X92.864 Y91.240 F7800.000
G1 X94.461 Y91.436 F7800.000
G1 X94.761 Y91.491 F7800.000
G1 X96.166 Y91.831 F7800.000
G1 X96.669 Y91.993 F7800.000
G1 X97.938 Y92.502 F7800.000
G1 X98.800 Y92.940 F7800.000
G1 X100.020 Y93.690 F7800.000
G1 X100.240 Y93.830 F7800.000
G1 X101.718 Y92.352 F7800.000
G1 X103.910 Y92.352 F7800.000
G1 X105.796 Y102.637 F7800.000
G1 X104.945 Y98.331 E1.31513 F600.000
G1 X104.945 Y92.352 E3.10672
G1 X105.107 Y99.149 F7800.000
G1 X110.309 Y99.156 E4.66536 F600.000
G1 X111.778 Y99.350 E5.10941
G1 X112.236 Y99.466 E5.25112
G1 X112.675 Y99.645 E5.39308
G1 X112.830 Y99.734 E5.44673
G1 X113.623 Y100.349 E5.74739
G1 X113.877 Y100.612 E5.85684
G1 X114.210 Y101.080 E6.02917
G1 X114.494 Y101.981 E6.31226
G1 X114.662 Y103.055 E6.63799
G1 X114.484 Y104.127 E6.96347
G1 X114.201 Y104.993 E7.23646
G1 X113.864 Y105.435 E7.40300
G1 X113.629 Y105.666 E7.50172
G1 X112.836 Y106.241 E7.79522
G1 X112.627 Y106.354 E7.86654
