; generated by Slic3r 1.2.9 on 2016-03-11 at 01:30:13

; external perimeters extrusion width = 1.54mm
; perimeters extrusion width = 2.62mm
; infill extrusion width = 6.27mm
; solid infill extrusion width = 2.62mm
; top infill extrusion width = 2.62mm

M107
M104 S30 ; set temperature
G28 ; home all axes
G1 Z5 F5000 ; lift nozzle
M302
M92 E10000
M500
M501
G1 E100
M109 S30 ; wait for temperature to be reached
G21 ; set units to millimeters
G90 ; use absolute coordinates
M82 ; use absolute distances for extrusion
G92 E0
G1 Z0.300 F7800.000
G1 X84.988 Y96.093 F7800.000
G1 X83.921 Y95.880 E0.04920 F378.000
G1 X84.867 Y94.045 E0.14260
G1 X86.927 Y92.808 E0.25130
G1 X90.053 Y92.386 E0.39405
G1 X91.617 Y92.495 E0.46497
G1 X91.859 Y92.512 E0.47598 F378.000
G1 X93.364 Y92.886 E0.54616
G1 X94.562 Y93.502 E0.60709
G1 X95.428 Y94.330 E0.66129
G1 X95.944 Y95.351 E0.71306
G1 X96.119 Y96.593 E0.76983
G1 X96.095 Y97.090 E0.79234
G1 X96.021 Y97.546 E0.81324
G1 X95.900 Y97.953 E0.83244
G1 X95.737 Y98.320 E0.85063
G1 X95.537 Y98.653 E0.86818
G1 X95.301 Y98.952 E0.88543
G1 X95.029 Y99.220 E0.90273
G1 X94.725 Y99.461 E0.92027
G1 X94.387 Y99.675 E0.93837
G1 X94.023 Y99.867 E0.95699
G1 X93.226 Y100.205 E0.99615
G1 X92.367 Y100.480 E1.03699
G1 X89.267 Y101.222 E1.18121
G1 X88.320 Y101.487 E1.22571
G1 X87.673 Y101.724 E1.25689
G1 X87.214 Y101.967 E1.28039
G1 X86.827 Y102.246 E1.30200
G1 X86.511 Y102.568 E1.32241
G1 X86.276 Y102.947 E1.34256
G1 X86.135 Y103.384 E1.36335
G1 X86.089 Y103.877 E1.38575
G1 X86.206 Y104.675 E1.42225
G1 X86.564 Y105.346 E1.45669
G1 X87.154 Y105.864 E1.49221
G1 X87.944 Y106.224 E1.53147
G1 X88.915 Y106.434 E1.57642
G1 X90.068 Y106.503 E1.62869
G1 X91.127 Y106.441 E1.67671
G1 X92.034 Y106.250 E1.71864
G1 X92.788 Y105.925 E1.75581
G1 X93.396 Y105.449 E1.79076
G1 X93.857 Y104.813 E1.82629
G1 X94.091 Y104.221 E1.85506
G1 X95.675 Y104.500 E1.92788
G1 X95.328 Y105.373 E1.97040
G1 X94.720 Y106.231 E2.01798
G1 X93.944 Y106.848 E2.06284
G1 X92.941 Y107.270 E2.11206
G1 X91.656 Y107.528 E2.17140
G1 X90.090 Y107.615 E2.24234
G1 X88.406 Y107.499 E2.31873
G1 X87.020 Y107.157 E2.38331
G1 X85.930 Y106.595 E2.43880
G1 X85.149 Y105.839 E2.48798
G1 X84.683 Y104.901 E2.53538
G1 X84.525 Y103.754 E2.58778
G1 X84.554 Y103.243 E2.61096
G1 X84.644 Y102.768 E2.63280
G1 X84.792 Y102.338 E2.65339
G1 X84.996 Y101.947 E2.67338
G1 X85.254 Y101.589 E2.69332
G1 X85.564 Y101.265 E2.71361
G1 X85.945 Y100.966 E2.73555
G1 X86.416 Y100.681 E2.76045
G1 X86.977 Y100.413 E2.78858
G1 X87.681 Y100.153 E2.82253
G1 X88.582 Y99.890 E2.86501
G1 X91.581 Y99.180 E3.00445
G1 X92.135 Y99.030 E3.03044
G1 X92.641 Y98.855 E3.05467
G1 X93.098 Y98.655 E3.07723
G1 X93.505 Y98.420 E3.09847
G1 X93.853 Y98.141 E3.11864
G1 X94.140 Y97.817 E3.13825
G1 X94.354 Y97.431 E3.15821
G1 X94.480 Y96.981 E3.17936
G1 X94.522 Y96.467 E3.20268
G1 X94.392 Y95.589 E3.24287
G1 X93.991 Y94.847 E3.28101
G1 X93.332 Y94.270 E3.32064
G1 X92.455 Y93.866 E3.36434
G1 X91.386 Y93.629 E3.41392
G1 X90.122 Y93.551 E3.47121
G1 X88.892 Y93.624 E3.52698
G1 X87.834 Y93.847 E3.57590
G1 X86.947 Y94.225 E3.61952
G1 X86.236 Y94.774 E3.66016
G1 X85.709 Y95.498 E3.70069
G1 X85.449 Y96.185 E3.73392
G1 X85.214 Y96.138 E3.74474
G1 X84.941 Y95.835 F7800.000
G1 X84.430 Y95.324 E3.77763 F540.000
G1 X84.617 Y94.962 E3.79619
G1 X85.399 Y95.745 E3.84659
G1 X85.568 Y95.364 E3.86554
G1 X84.804 Y94.600 E3.91474
G1 X84.992 Y94.239 E3.93328
G1 X85.799 Y95.046 E3.98526
G1 X86.030 Y94.728 E4.00315
G1 X85.309 Y94.008 E4.04956
G1 X85.652 Y93.802 E4.06777
G1 X86.317 Y94.467 E4.11062
G1 X86.627 Y94.228 E4.12844
G1 X85.995 Y93.596 E4.16917
G1 X86.338 Y93.390 E4.18738
G1 X86.953 Y94.005 E4.22699
G1 X87.338 Y93.841 E4.24605
G1 X86.681 Y93.184 E4.28835
G1 X87.054 Y93.009 E4.30715
G1 X87.722 Y93.677 E4.35018
G1 X88.158 Y93.563 E4.37067
G1 X87.538 Y92.943 E4.41060
G1 X88.021 Y92.878 E4.43283
G1 X88.611 Y93.468 E4.47081
G1 X89.083 Y93.391 E4.49259
G1 X88.505 Y92.813 E4.52984
G1 X88.989 Y92.747 E4.55206
G1 X89.601 Y93.360 E4.59152
G1 X90.119 Y93.329 E4.61515
G1 X89.472 Y92.682 E4.65682
G1 X89.956 Y92.617 E4.67905
G1 X90.693 Y93.354 E4.72654
G1 X91.278 Y93.390 E4.75323
G1 X90.540 Y92.652 E4.80077
G1 X91.130 Y92.693 E4.82770
G1 X91.936 Y93.499 E4.87960
G1 X92.644 Y93.658 E4.91264
G1 X91.720 Y92.734 E4.97214
G1 X92.449 Y92.914 E5.00631
G1 X93.923 Y94.388 E5.10125
G1 X94.212 Y94.677 F7800.000
G1 X95.837 Y96.303 E5.20596 F540.000
G1 X95.747 Y95.664 E5.23535
G1 X93.183 Y93.099 E5.40053
G1 X94.446 Y93.813 F7800.000
G1 X95.287 Y94.655 E5.45476 F540.000
G1 X94.643 Y95.658 F7800.000
G1 X95.882 Y96.896 E5.53452 F540.000
G1 X95.829 Y97.393 E5.55725
G1 X94.739 Y96.302 E5.62747
G1 X94.713 Y96.825 E5.65133
G1 X95.721 Y97.833 E5.71623
G1 X95.562 Y98.223 E5.73540
G1 X94.613 Y97.274 E5.79652
G1 X94.451 Y97.661 E5.81563
G1 X95.358 Y98.568 E5.87408
G1 X95.111 Y98.869 E5.89184
G1 X94.237 Y97.996 E5.94809
G1 X93.979 Y98.287 E5.96579
G1 X94.827 Y99.135 E6.02039
G1 X94.510 Y99.367 E6.03827
G1 X93.675 Y98.531 E6.09208
G1 X93.338 Y98.743 E6.11021
G1 X94.164 Y99.569 E6.16343
G1 X93.792 Y99.747 E6.18218
G1 X92.974 Y98.928 E6.23492
G1 X92.586 Y99.089 E6.25403
G1 X93.407 Y99.910 E6.30690
G1 X92.178 Y99.230 F7800.000
G1 X93.008 Y100.060 E6.36033 F540.000
G1 X92.592 Y100.193 E6.38021
G1 X91.749 Y99.350 E6.43454
G1 X91.310 Y99.459 E6.45514
G1 X92.164 Y100.314 E6.51018
G1 X91.721 Y100.420 E6.53092
G1 X90.866 Y99.564 E6.58601
G1 X90.422 Y99.670 E6.60678
G1 X91.278 Y100.526 E6.66193
G1 X90.835 Y100.632 E6.68267
G1 X89.978 Y99.775 E6.73788
G1 X89.534 Y99.880 E6.75865
G1 X90.392 Y100.738 E6.81392
G1 X89.949 Y100.844 E6.83466
G1 X89.090 Y99.985 E6.88998
G1 X88.646 Y100.090 E6.91076
G1 X89.506 Y100.950 E6.96614
G1 X89.070 Y101.062 E6.98666
G1 X88.219 Y100.211 E7.04149
G1 X87.794 Y100.335 E7.06165
G1 X88.641 Y101.182 E7.11621
G1 X88.218 Y101.308 E7.13630
G1 X87.388 Y100.478 E7.18979
G1 X86.989 Y100.628 F7800.000
G1 X87.817 Y101.455 E7.24308 F540.000
G1 X87.438 Y101.625 E7.26199
G1 X86.618 Y100.805 E7.31480
G1 X86.265 Y101.001 E7.33319
G1 X87.085 Y101.821 E7.38600
G1 X86.766 Y102.051 E7.40390
G1 X85.934 Y101.220 E7.45748
G1 X85.635 Y101.469 E7.47523
G1 X86.485 Y102.320 E7.53002
G1 X86.244 Y102.627 E7.54782
G1 X85.372 Y101.755 E7.60399
G1 X85.149 Y102.081 E7.62197
G1 X86.049 Y102.981 E7.67997
G1 X85.916 Y103.397 E7.69985
G1 X84.969 Y102.450 E7.76084
G1 X84.841 Y102.870 E7.78086
G1 X85.868 Y103.897 E7.84701
G1 X85.942 Y104.521 E7.87560
G1 X84.770 Y103.349 E7.95109
G1 X84.787 Y103.915 E7.97688
G1 X86.293 Y105.420 E8.07387
G1 X86.926 Y106.054 F7800.000
G1 X88.021 Y107.149 E8.14439 F540.000
G1 X87.883 Y106.461 E8.17630
G1 X88.709 Y107.288 E8.22951
G1 X89.298 Y107.328 E8.25641
G1 X88.584 Y106.613 E8.30243
G1 X89.202 Y106.683 E8.33078
G1 X89.887 Y107.368 E8.37492
G1 X90.441 Y107.373 E8.40014
G1 X89.786 Y106.718 E8.44234
G1 X90.327 Y106.710 E8.46697
G1 X90.961 Y107.344 E8.50784
G1 X91.481 Y107.315 E8.53156
G1 X90.845 Y106.679 E8.57255
G1 X91.328 Y106.614 E8.59478
G1 X91.965 Y107.250 E8.63575
G1 X92.422 Y107.158 E8.65698
G1 X91.782 Y106.518 E8.69819
G1 X92.206 Y106.394 E8.71833
G1 X92.879 Y107.067 E8.76166
G1 X93.273 Y106.912 E8.78095
G1 X92.590 Y106.229 E8.82498
G1 X92.952 Y106.042 E8.84353
G1 X93.660 Y106.750 E8.88911
G1 X94.009 Y106.550 E8.90743
G1 X93.260 Y105.801 E8.95566
G1 X93.560 Y105.552 E8.97342
G1 X94.315 Y106.307 E9.02200
G1 X94.601 Y106.045 E9.03969
G1 X93.791 Y105.234 E9.09190
G1 X94.021 Y104.916 E9.10981
G1 X94.837 Y105.731 E9.16232
G1 X95.064 Y105.410 E9.18025
G1 X94.185 Y104.531 E9.23689
G1 X94.793 Y104.590 E9.26472
G1 X95.244 Y105.040 E9.29373
G92 E0
G1 X85.316 Y103.820 F7800.000
G1 X85.316 Y103.820 F7800.000
G1 X87.292 Y106.968 F7800.000
G1 X84.875 Y104.551 E0.15567 F540.000
G1 X85.291 Y105.517 F7800.000
G1 X86.205 Y106.430 E0.21448 F540.000
G92 E0
G1 X94.885 Y106.387 F7800.000
G1 X97.780 Y107.079 F7800.000
G1 X99.403 Y106.034 F7800.000
G1 X101.016 Y107.648 F7800.000
G1 X103.208 Y107.648 F7800.000
G1 X115.141 Y105.156 F7800.000
G1 X114.990 Y105.500 E0.01699 F378.000
G1 X114.255 Y106.318 E0.06674
G1 X113.241 Y106.927 E0.12028
G1 X111.961 Y107.297 E0.18059
G1 X110.400 Y107.423 E0.25144
G1 X103.433 Y107.423 E0.56669
G1 X103.433 Y92.577 E1.23846
G1 X105.054 Y92.577 E1.31181
G1 X105.054 Y98.940 E1.59973
G1 X110.178 Y98.940 E1.83157 F378.000
G1 X114.154 Y92.577 E2.17108
G1 X115.998 Y92.577 E2.25451
G1 X111.712 Y99.088 E2.60722
G1 X113.069 Y99.461 E2.67087
G1 X113.936 Y99.924 E2.71537
G1 X114.641 Y100.565 E2.75848
G1 X115.162 Y101.351 E2.80116
G1 X115.476 Y102.254 E2.84440
G1 X115.581 Y103.277 E2.89093
G1 X115.432 Y104.492 E2.94632
G1 X115.234 Y104.944 E2.96867
G1 X113.774 Y104.292 F7800.000
G1 X113.512 Y104.880 E2.99779 F378.000
G1 X112.957 Y105.469 E3.03440
G1 X112.209 Y105.888 E3.07322
G1 X111.290 Y106.134 E3.11626
G1 X110.212 Y106.214 E3.16519
G1 X105.054 Y106.214 E3.39856
G1 X105.054 Y100.127 E3.67399
G1 X110.300 Y100.127 E3.91134 F378.000
G1 X111.344 Y100.215 E3.95876
G1 X112.241 Y100.485 E4.00116
G1 X112.976 Y100.943 E4.04036
G1 X113.520 Y101.573 E4.07803
G1 X113.845 Y102.349 E4.11610
G1 X113.952 Y103.258 E4.15748
G1 X113.851 Y104.076 E4.19481
G1 X113.940 Y101.893 F7800.000
G1 X115.347 Y103.300 E4.28550 F540.000
G1 X115.298 Y103.800 E4.30842
G1 X114.114 Y102.616 E4.38474
G1 X114.174 Y103.225 E4.41264
G1 X115.238 Y104.289 E4.48123
G1 X115.115 Y104.716 E4.50146
G1 X114.114 Y103.714 E4.56600
G1 X114.039 Y104.189 E4.58790
G1 X114.948 Y105.098 E4.64648
G1 X114.764 Y105.464 E4.66514
G1 X113.869 Y104.569 E4.72282
G1 X113.700 Y104.948 E4.74178
G1 X114.504 Y105.753 E4.79364
G1 X114.236 Y106.034 E4.81135
G1 X113.439 Y105.237 E4.86271
G1 X113.173 Y105.520 E4.88042
G1 X113.935 Y106.282 E4.92951
G1 X113.592 Y106.488 E4.94776
G1 X112.855 Y105.752 E4.99523
G1 X112.503 Y105.949 E5.01363
G1 X113.248 Y106.694 E5.06168
G1 X112.834 Y106.830 E5.08154
G1 X112.129 Y106.125 E5.12698
G1 X111.696 Y106.241 E5.14743
G1 X112.408 Y106.953 E5.19335
G1 X111.981 Y107.075 E5.21360
G1 X111.262 Y106.356 E5.25993
G1 X110.751 Y106.395 E5.28329
G1 X111.473 Y107.116 E5.32979
G1 X110.964 Y107.157 E5.35304
G1 X110.240 Y106.433 E5.39975
G1 X109.698 Y106.440 E5.42445
G1 X110.455 Y107.197 E5.47326
G1 X109.906 Y107.197 E5.49830
G1 X109.149 Y106.440 E5.54710
G1 X108.599 Y106.440 E5.57214
G1 X109.356 Y107.197 E5.62094
G1 X108.807 Y107.197 E5.64598
G1 X108.050 Y106.440 E5.69478
G1 X107.500 Y106.440 E5.71982
G1 X108.258 Y107.197 E5.76863
G1 X107.708 Y107.197 E5.79367
G1 X106.951 Y106.440 E5.84247
G1 X106.402 Y106.440 E5.86751
G1 X107.159 Y107.197 E5.91631
G1 X106.610 Y107.197 E5.94135
G1 X105.852 Y106.440 E5.99015
G1 X105.303 Y106.440 E6.01519
G1 X106.060 Y107.197 E6.06400
G1 X105.511 Y107.197 E6.08904
G1 X103.659 Y105.345 E6.20839
G1 X103.659 Y104.796 E6.23343
G1 X104.828 Y105.965 E6.30879
G1 X104.828 Y105.416 E6.33383
G1 X103.659 Y104.247 E6.40919
G1 X103.659 Y103.697 E6.43423
G1 X104.828 Y104.866 E6.50959
G1 X104.828 Y104.317 E6.53463
G1 X103.659 Y103.148 E6.60999
G1 X103.659 Y102.599 E6.63503
G1 X104.828 Y103.768 E6.71039
G1 X104.828 Y103.218 E6.73543
G1 X103.659 Y102.049 E6.81079
G1 X103.659 Y101.500 E6.83583
G1 X104.828 Y102.669 E6.91119
G1 X104.828 Y102.120 E6.93623
G1 X103.659 Y100.951 E7.01159
G1 X103.659 Y100.401 E7.03663
G1 X104.828 Y101.570 E7.11199
G1 X104.828 Y101.021 E7.13703
G1 X103.659 Y99.852 E7.21239
G1 X103.659 Y99.303 E7.23743
G1 X104.828 Y100.472 E7.31279
G1 X104.828 Y99.922 E7.33783
G1 X103.659 Y98.753 E7.41319
G1 X103.659 Y98.204 E7.43823
G1 X105.356 Y99.901 E7.54763
G1 X105.906 Y99.901 E7.57267
G1 X105.171 Y99.166 E7.62005
G1 X105.720 Y99.166 E7.64509
G1 X106.455 Y99.901 E7.69248
G1 X107.004 Y99.901 E7.71752
G1 X106.269 Y99.166 E7.76490
G1 X106.819 Y99.166 E7.78994
G1 X107.554 Y99.901 E7.83733
G1 X108.103 Y99.901 E7.86236
G1 X107.368 Y99.166 E7.90975
G1 X107.917 Y99.166 E7.93479
G1 X108.652 Y99.901 E7.98217
G1 X109.202 Y99.901 E8.00721
G1 X108.467 Y99.166 E8.05460
G1 X109.016 Y99.166 E8.07964
G1 X109.751 Y99.901 E8.12702
G1 X110.300 Y99.901 E8.15206
G1 X109.565 Y99.166 E8.19945
G1 X110.115 Y99.166 E8.22449
G1 X110.891 Y99.943 E8.27456
G1 X111.494 Y99.995 E8.30211
G1 X110.420 Y98.921 E8.37134
G1 X110.631 Y98.583 E8.38951
G1 X111.343 Y99.295 E8.43540
G1 X112.033 Y99.436 E8.46749
G1 X115.284 Y102.688 E8.67710
G1 X115.099 Y101.953 E8.71164
G1 X112.791 Y99.644 E8.86043
G1 X112.280 Y100.232 F7800.000
G1 X111.275 Y99.227 E8.92520 F540.000
G1 X111.561 Y98.964 E8.94292
G1 X110.842 Y98.245 E8.98925
G1 X111.053 Y97.907 E9.00742
G1 X111.779 Y98.633 E9.05419
G1 X111.997 Y98.302 E9.07227
G1 X111.265 Y97.569 E9.11948
G1 X111.476 Y97.231 E9.13765
G1 X112.215 Y97.970 E9.18530
G1 X112.433 Y97.639 E9.20338
G1 X111.687 Y96.893 E9.25146
G1 X111.898 Y96.555 E9.26963
G1 X112.651 Y97.308 E9.31816
G1 X112.869 Y96.976 E9.33624
G1 X112.110 Y96.217 E9.38520
G1 X112.321 Y95.879 E9.40337
G1 X113.087 Y96.645 E9.45277
G1 X113.305 Y96.314 E9.47085
G1 X112.532 Y95.541 E9.52069
G1 X112.743 Y95.203 E9.53886
G1 X113.523 Y95.983 E9.58914
G1 X113.741 Y95.651 E9.60722
G1 X112.955 Y94.864 E9.65794
G1 X113.166 Y94.526 E9.67611
G1 X113.960 Y95.320 E9.72727
G1 X114.178 Y94.989 E9.74534
G1 X113.377 Y94.188 E9.79694
G1 X113.588 Y93.850 E9.81511
G1 X114.396 Y94.657 E9.86714
G1 X114.614 Y94.326 E9.88522
G1 X113.800 Y93.512 E9.93769
G1 X114.011 Y93.174 E9.95586
G1 X114.832 Y93.995 E10.00878
G1 X115.050 Y93.664 E10.02685
G1 X114.222 Y92.836 E10.08020
G1 X114.739 Y92.803 E10.10379
G1 X115.268 Y93.332 E10.13791
G1 X115.288 Y92.803 E10.16205
G1 X115.486 Y93.001 E10.17482
G92 E0
G1 X104.279 Y93.352 F7800.000
G1 X104.279 Y93.352 F7800.000
G1 X104.301 Y92.803 F7800.000
G1 X104.828 Y93.330 E0.03399 F540.000
G1 X104.828 Y93.880 E0.05903
G1 X103.752 Y92.803 E0.12843
G1 X103.659 Y93.260 E0.14968
G1 X104.828 Y94.429 E0.22504
G1 X104.828 Y94.978 E0.25008
G1 X103.659 Y93.809 E0.32544
G1 X103.659 Y94.359 E0.35048
G1 X104.828 Y95.528 E0.42584
G1 X104.828 Y96.077 E0.45088
G1 X103.659 Y94.908 E0.52624
G1 X103.659 Y95.457 E0.55128
G1 X104.828 Y96.626 E0.62664
G1 X104.828 Y97.176 E0.65168
G1 X103.659 Y96.007 E0.72704
G1 X103.659 Y96.556 E0.75208
G1 X104.828 Y97.725 E0.82744
G1 X104.828 Y98.274 E0.85248
G1 X103.659 Y97.105 E0.92784
G1 X103.659 Y97.655 E0.95288
G1 X104.828 Y98.824 E1.02824
G1 X103.659 Y105.895 F7800.000
G1 X104.962 Y107.197 E1.11219 F540.000
G1 X104.412 Y107.197 E1.13723
G1 X103.659 Y106.444 E1.18576
G1 X103.659 Y106.993 E1.21080
G1 X103.863 Y107.197 E1.22393
M106 S255
G92 E0
G1 Z0.600 F7800.000
G1 X95.238 Y104.194 F7800.000
G1 X94.159 Y105.700 E0.55491 F600.000
G1 X93.814 Y106.033 E0.69861
G1 X93.574 Y106.223 E0.79047
G1 X93.222 Y106.430 E0.91290
G1 X92.750 Y106.647 E1.06843
G1 X92.133 Y106.831 E1.26132
G1 X91.581 Y106.944 E1.43013
G1 X91.143 Y106.998 E1.56234
G1 X90.094 Y107.058 E1.87734
G1 X88.899 Y106.983 E2.23604
G1 X88.495 Y106.930 E2.35814
G1 X87.848 Y106.780 E2.55716
G1 X87.238 Y106.577 E2.74987
G1 X86.722 Y106.307 E2.92443
G1 X86.329 Y106.040 E3.06681
G1 X86.153 Y105.878 E3.13853
G1 X85.934 Y105.636 E3.23612
G1 X85.754 Y105.397 E3.32585
G1 X85.578 Y105.055 E3.44122
G1 X85.428 Y104.671 E3.56452
G1 X85.334 Y104.014 E3.76346
G1 X85.314 Y103.723 E3.85101
G1 X85.344 Y103.334 E3.96773
G1 X85.423 Y102.975 E4.07801
G1 X85.530 Y102.656 E4.17894
G1 X85.610 Y102.501 E4.23119
G1 X85.868 Y102.100 E4.37392
G1 X86.098 Y101.855 E4.47475
G1 X86.388 Y101.606 E4.58915
G1 X86.776 Y101.349 E4.72877
G1 X87.314 Y101.077 E4.90935
G1 X88.132 Y100.782 E5.16988
G1 X89.067 Y100.523 E5.46061
G1 X92.170 Y99.777 E6.41695
G1 X92.944 Y99.524 E6.66081
G1 X93.480 Y99.291 E6.83614
G1 X93.999 Y99.010 E7.01302
G1 X94.330 Y98.768 E7.13578
G1 X94.696 Y98.410 E7.28921
G1 X94.866 Y98.188 E7.37288
G1 X95.008 Y97.941 E7.45825
G1 X95.133 Y97.670 E7.54786
G1 X95.222 Y97.364 E7.64339
G1 X95.289 Y97.006 E7.75243
G1 X95.314 Y96.630 E7.86529
G1 X95.292 Y96.327 E7.95632
G1 X95.185 Y95.589 E8.17976
G1 X95.030 Y95.199 E8.30541
G1 X94.814 Y94.785 E8.44550
G1 X94.632 Y94.547 E8.53511
G1 X94.412 Y94.305 E8.63322
G1 X94.156 Y94.072 E8.73701
G1 X93.564 Y93.690 E8.94806
G1 X93.140 Y93.484 E9.08945
G1 X92.559 Y93.289 E9.27307
G1 X91.766 Y93.103 E9.51706
