; generated by Slic3r 1.2.9 on 2016-03-11 at 01:30:16

; external perimeters extrusion width = 1.54mm
; perimeters extrusion width = 2.62mm
; infill extrusion width = 6.27mm
; solid infill extrusion width = 2.62mm
; top infill extrusion width = 2.62mm

M107
M104 S30 ; set temperature
G28 ; home all axes
G1 Z5 F5000 ; lift nozzle
M302
M92 E10000
M500
M501
G1 E100
M109 S30 ; wait for temperature to be reached
G21 ; set units to millimeters
G90 ; use absolute coordinates
M82 ; use absolute distances for extrusion
G92 E0
G1 Z0.300 F7800.000
G1 X91.393 Y106.445 F7800.000
G1 X92.376 Y106.250 E0.04533 F378.000
G1 X93.130 Y105.925 E0.08251
G1 X93.738 Y105.449 E0.11746
G1 X94.199 Y104.813 E0.15298
G1 X94.433 Y104.221 E0.18176
G1 X96.017 Y104.500 E0.25457
G1 X95.670 Y105.373 E0.29710
G1 X95.062 Y106.231 E0.34468
G1 X94.286 Y106.848 E0.38953
G1 X93.283 Y107.270 E0.43875
G1 X91.998 Y107.528 E0.49809
G1 X90.432 Y107.615 E0.56904
G1 X88.748 Y107.499 E0.64543
G1 X87.362 Y107.157 E0.71001
G1 X86.272 Y106.595 E0.76549
G1 X85.491 Y105.839 E0.81468
G1 X85.025 Y104.901 E0.86208
G1 X84.867 Y103.754 E0.91448
G1 X84.896 Y103.243 E0.93765
G1 X84.986 Y102.768 E0.95950
G1 X85.134 Y102.338 E0.98009
G1 X85.338 Y101.947 E1.00007
G1 X85.596 Y101.589 E1.02001
G1 X85.906 Y101.265 E1.04031
G1 X86.287 Y100.966 E1.06224
G1 X86.758 Y100.681 E1.08715
G1 X87.319 Y100.413 E1.11527
G1 X88.023 Y100.153 E1.14923
G1 X88.924 Y99.890 E1.19171
G1 X91.923 Y99.180 E1.33115
G1 X92.477 Y99.030 E1.35714
G1 X92.983 Y98.855 E1.38136
G1 X93.440 Y98.655 E1.40393
G1 X93.847 Y98.420 E1.42517
G1 X94.195 Y98.141 E1.44534
G1 X94.482 Y97.817 E1.46495
G1 X94.696 Y97.431 E1.48491
G1 X94.822 Y96.981 E1.50606
G1 X94.864 Y96.467 E1.52937
G1 X94.734 Y95.589 E1.56957
G1 X94.333 Y94.847 E1.60771
G1 X93.674 Y94.270 E1.64733
G1 X92.797 Y93.866 E1.69104
G1 X91.728 Y93.629 E1.74062
G1 X90.464 Y93.551 E1.79790
G1 X89.234 Y93.624 E1.85367
G1 X88.176 Y93.847 E1.90260
G1 X87.289 Y94.225 E1.94622
G1 X86.578 Y94.774 E1.98686
G1 X86.051 Y95.498 E2.02739
G1 X85.791 Y96.185 E2.06062
G1 X84.263 Y95.880 E2.13110
G1 X85.209 Y94.045 E2.22449
G1 X87.269 Y92.808 E2.33319
G1 X90.395 Y92.386 E2.47594
G1 X91.959 Y92.495 E2.54687
G1 X92.201 Y92.512 E2.55788 F378.000
G1 X93.706 Y92.886 E2.62805
G1 X94.904 Y93.502 E2.68898
G1 X95.770 Y94.330 E2.74319
G1 X96.286 Y95.351 E2.79495
G1 X96.461 Y96.593 E2.85172
G1 X96.437 Y97.090 E2.87423
G1 X96.363 Y97.546 E2.89513
G1 X96.242 Y97.953 E2.91433
G1 X96.079 Y98.320 E2.93252
G1 X95.879 Y98.653 E2.95008
G1 X95.643 Y98.952 E2.96732
G1 X95.371 Y99.220 E2.98462
G1 X95.067 Y99.461 E3.00217
G1 X94.729 Y99.675 E3.02026
G1 X94.365 Y99.867 E3.03888
G1 X93.568 Y100.205 E3.07804
G1 X92.709 Y100.480 E3.11888
G1 X89.609 Y101.222 E3.26311
G1 X88.662 Y101.487 E3.30760
G1 X88.015 Y101.724 E3.33878
G1 X87.556 Y101.967 E3.36229
G1 X87.169 Y102.246 E3.38389
G1 X86.853 Y102.568 E3.40430
G1 X86.618 Y102.947 E3.42445
G1 X86.477 Y103.384 E3.44524
G1 X86.431 Y103.877 E3.46764
G1 X86.548 Y104.675 E3.50414
G1 X86.906 Y105.346 E3.53858
G1 X87.496 Y105.864 E3.57410
G1 X88.286 Y106.224 E3.61337
G1 X89.257 Y106.434 E3.65831
G1 X90.410 Y106.503 E3.71058
G1 X91.163 Y106.459 E3.74471
G1 X87.634 Y106.968 F7800.000
G1 X85.217 Y104.551 E3.90038 F540.000
G1 X85.633 Y105.517 F7800.000
G1 X86.547 Y106.430 E3.95919 F540.000
G1 X87.268 Y106.054 F7800.000
G1 X88.363 Y107.149 E4.02971 F540.000
G1 X88.225 Y106.461 E4.06163
G1 X89.051 Y107.288 E4.11484
G1 X89.640 Y107.328 E4.14174
G1 X88.926 Y106.613 E4.18776
G1 X89.544 Y106.683 E4.21610
G1 X90.229 Y107.368 E4.26025
G1 X90.783 Y107.373 E4.28546
G1 X90.128 Y106.718 E4.32767
G1 X90.669 Y106.710 E4.35230
G1 X91.303 Y107.344 E4.39317
G1 X91.823 Y107.315 E4.41689
G1 X91.187 Y106.679 E4.45787
G1 X91.670 Y106.614 E4.48010
G1 X92.307 Y107.250 E4.52107
G1 X92.764 Y107.158 E4.54231
G1 X92.124 Y106.518 E4.58351
G1 X92.548 Y106.394 E4.60365
G1 X93.221 Y107.067 E4.64698
G1 X93.615 Y106.912 E4.66627
G1 X92.932 Y106.229 E4.71030
G1 X93.294 Y106.042 E4.72886
G1 X94.002 Y106.750 E4.77443
G1 X94.351 Y106.550 E4.79275
G1 X93.602 Y105.801 E4.84098
G1 X93.902 Y105.552 E4.85874
G1 X94.657 Y106.307 E4.90732
G1 X94.943 Y106.045 E4.92501
G1 X94.133 Y105.234 E4.97723
G1 X94.363 Y104.916 E4.99513
G1 X95.179 Y105.731 E5.04765
G1 X95.407 Y105.410 E5.06558
G1 X94.527 Y104.531 E5.12221
G1 X95.135 Y104.590 E5.15004
G1 X95.586 Y105.040 E5.17905
G92 E0
G1 X94.423 Y98.952 F7800.000
G1 X94.423 Y98.952 F7800.000
G1 X93.749 Y99.910 F7800.000
G1 X92.928 Y99.089 E0.05287 F540.000
G1 X93.316 Y98.928 E0.07198
G1 X94.134 Y99.747 E0.12472
G1 X94.506 Y99.569 E0.14347
G1 X93.680 Y98.743 E0.19669
G1 X94.017 Y98.531 E0.21482
G1 X94.852 Y99.367 E0.26863
G1 X95.169 Y99.135 E0.28652
G1 X94.321 Y98.287 E0.34111
G1 X94.579 Y97.996 E0.35882
G1 X95.453 Y98.869 E0.41506
G1 X95.700 Y98.568 E0.43282
G1 X94.793 Y97.661 E0.49127
G1 X94.955 Y97.274 E0.51038
G1 X95.904 Y98.223 E0.57150
G1 X96.063 Y97.833 E0.59067
G1 X95.055 Y96.825 E0.65557
G1 X95.081 Y96.302 E0.67943
G1 X96.171 Y97.393 E0.74965
G1 X96.224 Y96.896 E0.77238
G1 X94.985 Y95.658 E0.85215
G1 X94.554 Y94.677 F7800.000
G1 X96.179 Y96.303 E0.95685 F540.000
G1 X96.089 Y95.664 E0.98625
G1 X93.525 Y93.099 E1.15143
G1 X94.788 Y93.813 F7800.000
G1 X95.629 Y94.655 E1.20565 F540.000
G1 X94.265 Y94.388 F7800.000
G1 X92.791 Y92.914 E1.30059 F540.000
G1 X92.062 Y92.734 E1.33477
G1 X92.986 Y93.658 E1.39426
G1 X92.278 Y93.499 E1.42730
G1 X91.472 Y92.693 E1.47920
G1 X90.882 Y92.652 E1.50613
G1 X91.620 Y93.390 E1.55367
G1 X91.035 Y93.354 E1.58036
G1 X90.298 Y92.617 E1.62786
G1 X89.814 Y92.682 E1.65008
G1 X90.461 Y93.329 E1.69175
G1 X89.943 Y93.360 E1.71538
G1 X89.331 Y92.747 E1.75484
G1 X88.847 Y92.813 E1.77706
G1 X89.425 Y93.391 E1.81431
G1 X88.953 Y93.468 E1.83610
G1 X88.363 Y92.878 E1.87408
G1 X87.880 Y92.943 E1.89630
G1 X88.500 Y93.563 E1.93623
G1 X88.064 Y93.677 E1.95673
G1 X87.396 Y93.009 E1.99976
G1 X87.023 Y93.184 E2.01855
G1 X87.680 Y93.841 E2.06086
G1 X87.295 Y94.005 E2.07991
G1 X86.680 Y93.390 E2.11952
G1 X86.337 Y93.596 E2.13774
G1 X86.969 Y94.228 E2.17846
G1 X86.659 Y94.467 E2.19628
G1 X85.994 Y93.802 E2.23913
G1 X85.651 Y94.008 E2.25735
G1 X86.372 Y94.728 E2.30375
G1 X86.141 Y95.046 E2.32165
G1 X85.334 Y94.239 E2.37363
G1 X85.146 Y94.600 E2.39216
G1 X85.910 Y95.364 E2.44136
G1 X85.741 Y95.745 E2.46032
G1 X84.959 Y94.962 E2.51071
G1 X84.772 Y95.324 E2.52927
G1 X85.283 Y95.835 E2.56216
G92 E0
G1 X86.760 Y101.585 F7800.000
G1 X86.760 Y101.585 F7800.000
G1 X87.331 Y100.628 F7800.000
G1 X88.159 Y101.455 E0.05329 F540.000
G1 X87.780 Y101.625 E0.07220
G1 X86.960 Y100.805 E0.12501
G1 X86.607 Y101.001 E0.14340
G1 X87.427 Y101.821 E0.19621
G1 X87.108 Y102.051 E0.21411
G1 X86.276 Y101.220 E0.26769
G1 X85.977 Y101.469 E0.28544
G1 X86.827 Y102.320 E0.34023
G1 X86.586 Y102.627 E0.35803
G1 X85.714 Y101.755 E0.41420
G1 X85.491 Y102.081 E0.43218
G1 X86.391 Y102.981 E0.49018
G1 X86.258 Y103.397 E0.51006
G1 X85.311 Y102.450 E0.57105
G1 X85.183 Y102.870 E0.59107
G1 X86.210 Y103.897 E0.65722
G1 X86.284 Y104.521 E0.68581
G1 X85.112 Y103.349 E0.76130
G1 X85.129 Y103.915 E0.78709
G1 X86.635 Y105.420 E0.88408
G1 X86.240 Y102.086 F7800.000
G1 X86.760 Y101.585 F7800.000
G1 X87.730 Y100.478 F7800.000
G1 X88.560 Y101.308 E0.93756 F540.000
G1 X88.983 Y101.182 E0.95766
G1 X88.136 Y100.335 E1.01222
G1 X88.561 Y100.211 E1.03238
G1 X89.412 Y101.062 E1.08720
G1 X89.848 Y100.950 E1.10773
G1 X88.988 Y100.090 E1.16311
G1 X89.432 Y99.985 E1.18388
G1 X90.291 Y100.844 E1.23921
G1 X90.734 Y100.738 E1.25995
G1 X89.876 Y99.880 E1.31522
G1 X90.320 Y99.775 E1.33599
G1 X91.177 Y100.632 E1.39120
G1 X91.620 Y100.526 E1.41194
G1 X90.764 Y99.670 E1.46709
G1 X91.208 Y99.564 E1.48786
G1 X92.063 Y100.420 E1.54295
G1 X92.506 Y100.314 E1.56369
G1 X91.652 Y99.459 E1.61872
G1 X92.091 Y99.350 E1.63933
G1 X92.934 Y100.193 E1.69366
G1 X93.350 Y100.060 E1.71354
G1 X92.520 Y99.230 E1.76696
G92 E0
G1 X96.687 Y96.583 F7800.000
G1 X101.234 Y93.443 F7800.000
G1 X104.203 Y92.033 F7800.000
G1 X104.624 Y91.889 F7800.000
G1 X105.634 Y91.606 F7800.000
G1 X106.384 Y92.843 F7800.000
G1 X112.130 Y94.156 F7800.000
G1 X110.977 Y93.744 E0.05541 F378.000
G1 X109.653 Y93.615 E0.11560
G1 X108.369 Y93.740 E0.17400
G1 X107.286 Y94.122 E0.22595
G1 X106.415 Y94.765 E0.27497
G1 X105.783 Y95.657 E0.32439
G1 X105.409 Y96.771 E0.37759
G1 X105.287 Y98.090 E0.43751
G1 X105.287 Y107.423 E0.85983
G1 X103.666 Y107.423 E0.93318
G1 X103.666 Y97.934 E1.36254
G1 X103.750 Y96.818 E1.41320
G1 X103.997 Y95.824 E1.45955
G1 X104.407 Y94.941 E1.50360
G1 X104.965 Y94.179 E1.54632
G1 X105.656 Y93.548 E1.58867
G1 X106.484 Y93.046 E1.63249
G1 X107.436 Y92.680 E1.67863
G1 X108.496 Y92.459 E1.72763
G1 X109.665 Y92.385 E1.78065
G1 X110.757 Y92.455 E1.83014
G1 X110.881 Y92.462 E1.83577 F378.000
G1 X111.978 Y92.692 E1.88651
G1 X112.959 Y93.072 E1.93410
G1 X113.810 Y93.594 E1.97925
G1 X114.519 Y94.249 E2.02292
G1 X115.090 Y95.038 E2.06701
G1 X115.510 Y95.951 E2.11248
G1 X115.763 Y96.978 E2.16033
G1 X115.848 Y98.129 E2.21258
G1 X115.848 Y107.423 E2.63311
G1 X114.237 Y107.423 E2.70601
G1 X114.237 Y98.230 E3.12198
G1 X114.106 Y96.869 E3.18384
G1 X113.704 Y95.719 E3.23900
G1 X113.025 Y94.800 E3.29067
G1 X112.318 Y94.291 E3.33010
G1 X111.997 Y93.827 F7800.000
G1 X110.882 Y92.712 E3.40147 F540.000
G1 X111.571 Y92.857 E3.43335
G1 X115.447 Y96.732 E3.68139
G1 X115.219 Y95.959 E3.71789
G1 X112.393 Y93.133 E3.89873
G1 X111.159 Y93.535 F7800.000
G1 X110.280 Y92.656 E3.95497 F540.000
G1 X109.698 Y92.619 E3.98137
G1 X110.545 Y93.467 E4.03560
G1 X109.941 Y93.408 E4.06308
G1 X109.171 Y92.638 E4.11233
G1 X108.658 Y92.671 E4.13559
G1 X109.407 Y93.419 E4.18352
G1 X108.910 Y93.468 E4.20611
G1 X108.182 Y92.740 E4.25269
G1 X107.731 Y92.834 E4.27355
G1 X108.413 Y93.516 E4.31722
G1 X108.004 Y93.653 E4.33672
G1 X107.300 Y92.949 E4.38179
G1 X106.906 Y93.100 E4.40089
G1 X107.601 Y93.795 E4.44537
G1 X107.203 Y93.942 E4.46458
G1 X106.516 Y93.255 E4.50857
G1 X106.176 Y93.461 E4.52654
G1 X106.889 Y94.174 E4.57219
G1 X106.576 Y94.406 E4.58984
G1 X105.837 Y93.667 E4.63715
G1 X105.539 Y93.915 E4.65467
G1 X106.265 Y94.641 E4.70115
G1 X106.039 Y94.960 E4.71886
G1 X105.262 Y94.183 E4.76859
G1 X104.997 Y94.463 E4.78605
G1 X105.813 Y95.279 E4.83829
G1 X105.587 Y95.599 E4.85600
G1 X104.766 Y94.778 E4.90853
G1 X104.550 Y95.107 E4.92635
G1 X105.450 Y96.007 E4.98397
G1 X105.313 Y96.415 E5.00346
G1 X104.377 Y95.479 E5.06338
G1 X104.205 Y95.853 E5.08199
G1 X105.184 Y96.832 E5.14463
G1 X105.138 Y97.331 E5.16732
G1 X104.096 Y96.289 E5.23397
G1 X103.988 Y96.726 E5.25434
G1 X105.092 Y97.830 E5.32499
G1 X105.061 Y98.345 E5.34834
G1 X103.940 Y97.224 E5.42010
G1 X103.902 Y97.732 E5.44312
G1 X105.061 Y98.891 E5.51731
G1 X105.061 Y99.436 E5.54199
G1 X103.892 Y98.267 E5.61681
G1 X103.892 Y98.813 E5.64149
G1 X105.061 Y99.982 E5.71631
G1 X105.061 Y100.527 E5.74099
G1 X103.892 Y99.358 E5.81581
G1 X103.892 Y99.903 E5.84049
G1 X105.061 Y101.072 E5.91531
G1 X105.061 Y101.618 E5.93999
G1 X103.892 Y100.449 E6.01481
G1 X103.892 Y100.994 E6.03949
G1 X105.061 Y102.163 E6.11431
G1 X105.061 Y102.709 E6.13899
G1 X103.892 Y101.539 E6.21381
G1 X103.892 Y102.085 E6.23849
G1 X105.061 Y103.254 E6.31331
G1 X105.061 Y103.799 E6.33799
G1 X103.892 Y102.630 E6.41281
G1 X103.892 Y103.176 E6.43749
G1 X105.061 Y104.345 E6.51231
G1 X105.061 Y104.890 E6.53699
G1 X103.892 Y103.721 E6.61181
G1 X103.892 Y104.266 E6.63649
G1 X105.061 Y105.436 E6.71131
G1 X105.061 Y105.981 E6.73599
G1 X103.892 Y104.812 E6.81081
G1 X103.892 Y105.357 E6.83549
G1 X105.061 Y106.526 E6.91031
G1 X105.061 Y107.072 E6.93499
G1 X103.892 Y105.903 E7.00981
G1 X103.892 Y106.448 E7.03449
G1 X104.641 Y107.197 E7.08243
G1 X104.096 Y107.197 E7.10711
G1 X103.892 Y106.993 E7.12014
G92 E0
G1 X104.512 Y106.648 F7800.000
G1 X104.512 Y106.648 F7800.000
G1 X114.463 Y106.657 F7800.000
G1 X115.004 Y107.197 E0.03459 F540.000
G1 X115.549 Y107.197 E0.05927
G1 X114.463 Y106.111 E0.12877
G1 X114.463 Y105.566 E0.15345
G1 X115.622 Y106.725 E0.22763
G1 X115.622 Y106.179 E0.25231
G1 X114.463 Y105.020 E0.32649
G1 X114.463 Y104.475 E0.35117
G1 X115.622 Y105.634 E0.42535
G1 X115.622 Y105.089 E0.45003
G1 X114.463 Y103.930 E0.52421
G1 X114.463 Y103.384 E0.54889
G1 X115.622 Y104.543 E0.62307
G1 X115.622 Y103.998 E0.64775
G1 X114.463 Y102.839 E0.72193
G1 X114.463 Y102.293 E0.74661
G1 X115.622 Y103.452 E0.82079
G1 X115.622 Y102.907 E0.84547
G1 X114.463 Y101.748 E0.91965
G1 X114.463 Y101.203 E0.94433
G1 X115.622 Y102.362 E1.01851
G1 X115.622 Y101.816 E1.04319
G1 X114.463 Y100.657 E1.11737
G1 X114.463 Y100.112 E1.14205
G1 X115.622 Y101.271 E1.21623
G1 X115.622 Y100.725 E1.24091
G1 X114.463 Y99.566 E1.31509
G1 X114.463 Y99.021 E1.33977
G1 X115.622 Y100.180 E1.41395
G1 X115.622 Y99.635 E1.43863
G1 X114.463 Y98.476 E1.51281
G1 X114.442 Y97.908 E1.53849
G1 X115.622 Y99.089 E1.61405
G1 X115.622 Y98.544 E1.63874
G1 X114.383 Y97.305 E1.71802
G1 X114.318 Y96.694 E1.74584
G1 X115.604 Y97.980 E1.82820
G1 X115.561 Y97.391 E1.85493
G1 X114.024 Y95.855 E1.95326
G1 X114.444 Y94.638 F7800.000
G1 X113.839 Y94.033 E1.99198 F540.000
M106 S255
G92 E0
G1 Z0.600 F7800.000
G1 X95.580 Y104.194 F7800.000
G1 X94.501 Y105.700 E0.55491 F600.000
G1 X94.156 Y106.033 E0.69861
G1 X93.916 Y106.223 E0.79047
G1 X93.564 Y106.430 E0.91290
G1 X93.092 Y106.647 E1.06843
G1 X92.475 Y106.831 E1.26132
G1 X91.923 Y106.944 E1.43013
G1 X91.485 Y106.998 E1.56234
G1 X90.436 Y107.058 E1.87734
G1 X89.241 Y106.983 E2.23604
G1 X88.837 Y106.930 E2.35814
G1 X88.190 Y106.780 E2.55716
G1 X87.580 Y106.577 E2.74987
G1 X87.064 Y106.307 E2.92443
G1 X86.671 Y106.040 E3.06681
G1 X86.495 Y105.878 E3.13853
G1 X86.276 Y105.636 E3.23612
G1 X86.096 Y105.397 E3.32585
G1 X85.920 Y105.055 E3.44122
G1 X85.770 Y104.671 E3.56452
G1 X85.676 Y104.014 E3.76346
G1 X85.656 Y103.723 E3.85101
G1 X85.686 Y103.334 E3.96773
G1 X85.765 Y102.975 E4.07801
G1 X85.872 Y102.656 E4.17894
G1 X85.952 Y102.501 E4.23119
G1 X86.210 Y102.100 E4.37392
G1 X86.440 Y101.855 E4.47475
G1 X86.730 Y101.606 E4.58915
G1 X87.118 Y101.349 E4.72877
G1 X87.656 Y101.077 E4.90935
G1 X88.474 Y100.782 E5.16988
G1 X89.409 Y100.523 E5.46061
G1 X92.512 Y99.777 E6.41695
G1 X93.286 Y99.524 E6.66081
G1 X93.822 Y99.291 E6.83614
G1 X94.341 Y99.010 E7.01302
G1 X94.672 Y98.768 E7.13578
G1 X95.038 Y98.410 E7.28921
G1 X95.208 Y98.188 E7.37288
G1 X95.350 Y97.941 E7.45825
G1 X95.475 Y97.670 E7.54786
G1 X95.564 Y97.364 E7.64339
G1 X95.631 Y97.006 E7.75243
G1 X95.656 Y96.630 E7.86529
G1 X95.634 Y96.327 E7.95632
G1 X95.527 Y95.589 E8.17976
G1 X95.372 Y95.199 E8.30541
G1 X95.156 Y94.785 E8.44550
G1 X94.974 Y94.547 E8.53511
G1 X94.754 Y94.305 E8.63322
G1 X94.498 Y94.072 E8.73701
G1 X93.906 Y93.690 E8.94806
G1 X93.482 Y93.484 E9.08945
G1 X92.901 Y93.289 E9.27307
G1 X92.108 Y93.103 E9.51706
G1 X91.870 Y93.068 E9.58913
G1 X90.414 Y92.971 E10.02639
G1 X89.107 Y93.102 E10.42013
G1 X87.924 Y93.314 E10.78003
G1 X87.488 Y93.434 E10.91553
G1 X87.073 Y93.646 E11.05523
G1 X86.197 Y94.228 E11.37028
G1 X85.783 Y94.582 E11.53378
G1 X85.376 Y95.275 E11.77441
G1 X84.943 Y96.245 E12.09277
G92 E0
G1 X90.388 Y92.160 F7800.000
G1 X90.388 Y92.160 F7800.000
G1 X90.457 Y91.161 F7800.000
G1 X91.894 Y91.211 F7800.000
G1 X92.311 Y91.226 F7800.000
G1 X92.498 Y91.240 F7800.000
G1 X94.094 Y91.436 F7800.000
G1 X94.395 Y91.491 F7800.000
G1 X95.800 Y91.831 F7800.000
G1 X96.302 Y91.993 F7800.000
G1 X97.571 Y92.502 F7800.000
G1 X98.434 Y92.940 F7800.000
G1 X99.654 Y93.690 F7800.000
G1 X100.235 Y94.081 F7800.000
G1 X100.234 Y94.100 F7800.000
G1 X100.192 Y94.762 F7800.000
G1 X100.186 Y94.854 F7800.000
G1 X100.174 Y95.098 F7800.000
G1 X100.174 Y95.098 F7800.000
G1 X100.130 Y95.937 F7800.000
G1 X100.124 Y96.098 F7800.000
G1 X100.111 Y96.526 F7800.000
G1 X100.101 Y96.750 F7800.000
G1 X100.068 Y97.280 F7800.000
G1 X100.035 Y97.657 F7800.000
G1 X100.033 Y97.671 F7800.000
G1 X100.008 Y97.926 F7800.000
G1 X99.990 Y98.145 F7800.000
G1 X99.939 Y98.595 F7800.000
G1 X99.873 Y99.049 F7800.000
G1 X99.790 Y99.513 F7800.000
G1 X99.699 Y99.943 F7800.000
G1 X99.585 Y100.409 F7800.000
G1 X99.470 Y100.825 F7800.000
G1 X99.306 Y101.349 F7800.000
G1 X99.286 Y101.407 F7800.000
