; generated by Slic3r 1.2.9 on 2016-03-11 at 01:30:18

; external perimeters extrusion width = 1.54mm
; perimeters extrusion width = 2.62mm
; infill extrusion width = 6.27mm
; solid infill extrusion width = 2.62mm
; top infill extrusion width = 2.62mm

M107
M104 S30 ; set temperature
G28 ; home all axes
G1 Z5 F5000 ; lift nozzle
M302
M92 E10000
M500
M501
G1 E100
M109 S30 ; wait for temperature to be reached
G21 ; set units to millimeters
G90 ; use absolute coordinates
M82 ; use absolute distances for extrusion
G92 E0
G1 Z0.300 F7800.000
G1 X92.087 Y99.220 F7800.000
G1 X91.783 Y99.461 E0.01755 F378.000
G1 X91.445 Y99.675 E0.03565
G1 X91.081 Y99.867 E0.05427
G1 X90.284 Y100.205 E0.09343
G1 X89.425 Y100.480 E0.13426
G1 X86.325 Y101.222 E0.27849
G1 X85.378 Y101.487 E0.32299
G1 X84.731 Y101.724 E0.35416
G1 X84.272 Y101.967 E0.37767
G1 X83.885 Y102.246 E0.39927
G1 X83.569 Y102.568 E0.41968
G1 X83.334 Y102.947 E0.43984
G1 X83.193 Y103.384 E0.46062
G1 X83.147 Y103.877 E0.48302
G1 X83.264 Y104.675 E0.51952
G1 X83.622 Y105.346 E0.55396
G1 X84.212 Y105.864 E0.58948
G1 X85.002 Y106.224 E0.62875
G1 X85.973 Y106.434 E0.67369
G1 X87.126 Y106.503 E0.72596
G1 X88.185 Y106.441 E0.77398
G1 X89.092 Y106.250 E0.81591
G1 X89.846 Y105.925 E0.85309
G1 X90.454 Y105.449 E0.88804
G1 X90.915 Y104.813 E0.92356
G1 X91.149 Y104.221 E0.95234
G1 X92.733 Y104.500 E1.02515
G1 X92.386 Y105.373 E1.06768
G1 X91.778 Y106.231 E1.11526
G1 X91.002 Y106.848 E1.16011
G1 X89.999 Y107.270 E1.20933
G1 X88.714 Y107.528 E1.26867
G1 X87.148 Y107.615 E1.33962
G1 X85.464 Y107.499 E1.41600
G1 X84.078 Y107.157 E1.48059
G1 X82.988 Y106.595 E1.53607
G1 X82.207 Y105.839 E1.58526
G1 X81.741 Y104.901 E1.63266
G1 X81.583 Y103.754 E1.68506
G1 X81.612 Y103.243 E1.70823
G1 X81.702 Y102.768 E1.73007
G1 X81.850 Y102.338 E1.75066
G1 X82.054 Y101.947 E1.77065
G1 X82.312 Y101.589 E1.79059
G1 X82.622 Y101.265 E1.81089
G1 X83.003 Y100.966 E1.83282
G1 X83.474 Y100.681 E1.85773
G1 X84.035 Y100.413 E1.88585
G1 X84.739 Y100.153 E1.91981
G1 X85.640 Y99.890 E1.96229
G1 X88.639 Y99.180 E2.10173
G1 X89.193 Y99.030 E2.12772
G1 X89.699 Y98.855 E2.15194
G1 X90.156 Y98.655 E2.17451
G1 X90.563 Y98.420 E2.19575
G1 X90.911 Y98.141 E2.21591
G1 X91.198 Y97.817 E2.23553
G1 X91.412 Y97.431 E2.25548
G1 X91.538 Y96.981 E2.27664
G1 X91.580 Y96.467 E2.29995
G1 X91.450 Y95.589 E2.34014
G1 X91.049 Y94.847 E2.37829
G1 X90.390 Y94.270 E2.41791
G1 X89.513 Y93.866 E2.46161
G1 X88.444 Y93.629 E2.51120
G1 X87.180 Y93.551 E2.56848
G1 X85.950 Y93.624 E2.62425
G1 X84.892 Y93.847 E2.67317
G1 X84.005 Y94.225 E2.71679
G1 X83.294 Y94.774 E2.75744
G1 X82.767 Y95.498 E2.79797
G1 X82.507 Y96.185 E2.83119
G1 X80.979 Y95.880 E2.90167
G1 X81.925 Y94.045 E2.99507
G1 X83.985 Y92.808 E3.10377
G1 X87.111 Y92.386 E3.24652
G1 X88.675 Y92.495 E3.31745
G1 X88.917 Y92.512 E3.32846 F378.000
G1 X90.422 Y92.886 E3.39863
G1 X91.620 Y93.502 E3.45956
G1 X92.486 Y94.330 E3.51376
G1 X93.002 Y95.351 E3.56553
G1 X93.177 Y96.593 E3.62230
G1 X93.153 Y97.090 E3.64481
G1 X93.079 Y97.546 E3.66571
G1 X92.958 Y97.953 E3.68491
G1 X92.795 Y98.320 E3.70310
G1 X92.595 Y98.653 E3.72065
G1 X92.359 Y98.952 E3.73790
G1 X92.251 Y99.058 E3.74474
G1 X90.465 Y99.910 F7800.000
G1 X89.644 Y99.089 E3.79761 F540.000
G1 X90.032 Y98.928 E3.81673
G1 X90.850 Y99.747 E3.86946
G1 X91.222 Y99.569 E3.88822
G1 X90.396 Y98.743 E3.94144
G1 X90.733 Y98.531 E3.95957
G1 X91.568 Y99.367 E4.01338
G1 X91.885 Y99.135 E4.03126
G1 X91.037 Y98.287 E4.08585
G1 X91.295 Y97.996 E4.10356
G1 X92.169 Y98.869 E4.15981
G1 X92.416 Y98.568 E4.17756
G1 X91.509 Y97.661 E4.23602
G1 X91.671 Y97.274 E4.25512
G1 X92.620 Y98.223 E4.31625
G1 X92.779 Y97.833 E4.33542
G1 X91.771 Y96.825 E4.40032
G1 X91.797 Y96.302 E4.42417
G1 X92.887 Y97.393 E4.49439
G1 X92.940 Y96.896 E4.51712
G1 X91.701 Y95.658 E4.59689
G1 X91.270 Y94.677 F7800.000
G1 X92.895 Y96.303 E4.70160 F540.000
G1 X92.805 Y95.664 E4.73099
G1 X90.241 Y93.099 E4.89617
G1 X91.504 Y93.813 F7800.000
G1 X92.345 Y94.655 E4.95040 F540.000
G1 X90.981 Y94.388 F7800.000
G1 X89.507 Y92.914 E5.04534 F540.000
G1 X88.778 Y92.734 E5.07951
G1 X89.702 Y93.658 E5.13901
G1 X88.994 Y93.499 E5.17204
G1 X88.188 Y92.693 E5.22394
G1 X87.598 Y92.652 E5.25087
G1 X88.336 Y93.390 E5.29841
G1 X87.751 Y93.354 E5.32511
G1 X87.014 Y92.617 E5.37260
G1 X86.530 Y92.682 E5.39483
G1 X87.177 Y93.329 E5.43649
G1 X86.659 Y93.360 E5.46013
G1 X86.047 Y92.747 E5.49958
G1 X85.563 Y92.813 E5.52181
G1 X86.141 Y93.391 E5.55905
G1 X85.669 Y93.468 E5.58084
G1 X85.079 Y92.878 E5.61882
G1 X84.596 Y92.943 E5.64104
G1 X85.216 Y93.563 E5.68098
G1 X84.780 Y93.677 E5.70147
G1 X84.112 Y93.009 E5.74450
G1 X83.739 Y93.184 E5.76329
G1 X84.396 Y93.841 E5.80560
G1 X84.011 Y94.005 E5.82465
G1 X83.396 Y93.390 E5.86426
G1 X83.053 Y93.596 E5.88248
G1 X83.685 Y94.228 E5.92320
G1 X83.375 Y94.467 E5.94102
G1 X82.710 Y93.802 E5.98387
G1 X82.367 Y94.008 E6.00209
G1 X83.088 Y94.728 E6.04849
G1 X82.857 Y95.046 E6.06639
G1 X82.050 Y94.239 E6.11837
G1 X81.862 Y94.600 E6.13690
G1 X82.626 Y95.364 E6.18610
G1 X82.457 Y95.745 E6.20506
G1 X81.675 Y94.962 E6.25546
G1 X81.488 Y95.324 E6.27401
G1 X81.999 Y95.835 E6.30690
G92 E0
G1 X83.476 Y101.585 F7800.000
G1 X83.476 Y101.585 F7800.000
G1 X84.047 Y100.628 F7800.000
G1 X84.875 Y101.455 E0.05329 F540.000
G1 X84.496 Y101.625 E0.07220
G1 X83.676 Y100.805 E0.12501
G1 X83.323 Y101.001 E0.14340
G1 X84.143 Y101.821 E0.19621
G1 X83.824 Y102.051 E0.21411
G1 X82.992 Y101.220 E0.26769
G1 X82.693 Y101.469 E0.28544
G1 X83.543 Y102.320 E0.34023
G1 X83.302 Y102.627 E0.35803
G1 X82.430 Y101.755 E0.41420
G1 X82.207 Y102.081 E0.43218
G1 X83.107 Y102.981 E0.49018
G1 X82.974 Y103.397 E0.51006
G1 X82.027 Y102.450 E0.57105
G1 X81.899 Y102.870 E0.59107
G1 X82.926 Y103.897 E0.65722
G1 X83.000 Y104.521 E0.68581
G1 X81.828 Y103.349 E0.76130
G1 X81.845 Y103.915 E0.78709
G1 X83.351 Y105.420 E0.88408
G1 X83.984 Y106.054 F7800.000
G1 X85.079 Y107.149 E0.95459 F540.000
G1 X84.941 Y106.461 E0.98651
G1 X85.767 Y107.288 E1.03972
G1 X86.356 Y107.328 E1.06662
G1 X85.642 Y106.613 E1.11264
G1 X86.260 Y106.683 E1.14099
G1 X86.945 Y107.368 E1.18513
G1 X87.499 Y107.373 E1.21035
G1 X86.844 Y106.718 E1.25255
G1 X87.385 Y106.710 E1.27718
G1 X88.019 Y107.344 E1.31805
G1 X88.539 Y107.315 E1.34177
G1 X87.903 Y106.679 E1.38276
G1 X88.386 Y106.614 E1.40499
G1 X89.023 Y107.250 E1.44596
G1 X89.480 Y107.158 E1.46719
G1 X88.840 Y106.518 E1.50840
G1 X89.264 Y106.394 E1.52854
G1 X89.937 Y107.067 E1.57186
G1 X90.331 Y106.912 E1.59116
G1 X89.648 Y106.229 E1.63518
G1 X90.010 Y106.042 E1.65374
G1 X90.718 Y106.750 E1.69932
G1 X91.067 Y106.550 E1.71763
G1 X90.318 Y105.801 E1.76587
G1 X90.618 Y105.552 E1.78363
G1 X91.373 Y106.307 E1.83221
G1 X91.659 Y106.045 E1.84990
G1 X90.849 Y105.234 E1.90211
G1 X91.079 Y104.916 E1.92001
G1 X91.895 Y105.731 E1.97253
G1 X92.123 Y105.410 E1.99046
G1 X91.243 Y104.531 E2.04710
G1 X91.851 Y104.590 E2.07493
G1 X92.302 Y105.040 E2.10394
G92 E0
G1 X91.139 Y98.952 F7800.000
G1 X91.139 Y98.952 F7800.000
G1 X89.236 Y99.230 F7800.000
G1 X90.066 Y100.060 E0.05343 F540.000
G1 X89.650 Y100.193 E0.07330
G1 X88.807 Y99.350 E0.12763
G1 X88.368 Y99.459 E0.14824
G1 X89.222 Y100.314 E0.20327
G1 X88.779 Y100.420 E0.22401
G1 X87.924 Y99.564 E0.27910
G1 X87.480 Y99.670 E0.29988
G1 X88.336 Y100.526 E0.35503
G1 X87.893 Y100.632 E0.37577
G1 X87.036 Y99.775 E0.43098
G1 X86.592 Y99.880 E0.45175
G1 X87.450 Y100.738 E0.50701
G1 X87.007 Y100.844 E0.52776
G1 X86.148 Y99.985 E0.58308
G1 X85.704 Y100.090 E0.60385
G1 X86.564 Y100.950 E0.65924
G1 X86.128 Y101.062 E0.67976
G1 X85.277 Y100.211 E0.73459
G1 X84.852 Y100.335 E0.75474
G1 X85.699 Y101.182 E0.80930
G1 X85.276 Y101.308 E0.82940
G1 X84.446 Y100.478 E0.88289
G1 X81.933 Y104.551 F7800.000
G1 X84.350 Y106.968 E1.03856 F540.000
G1 X83.263 Y106.430 F7800.000
G1 X82.349 Y105.517 E1.09737 F540.000
G92 E0
G1 X90.066 Y107.486 F7800.000
G1 X94.838 Y107.079 F7800.000
G1 X100.697 Y108.744 F7800.000
G1 X104.333 Y106.621 F7800.000
G1 X106.306 Y108.115 F7800.000
G1 X107.966 Y107.648 F7800.000
G1 X108.137 Y107.423 F7800.000
G1 X105.656 Y98.555 E0.41667 F378.000
G1 X105.171 Y96.725 E0.50236
G1 X104.568 Y94.129 E0.62296
G1 X104.131 Y94.129 E0.64276
G1 X103.546 Y96.649 E0.75984
G1 X103.230 Y97.872 E0.81699
G1 X100.527 Y107.423 E1.26613
G1 X98.840 Y107.423 E1.34246
G1 X103.217 Y92.577 E2.04281
G1 X105.349 Y92.577 E2.13930
G1 X106.747 Y97.654 E2.37758
G1 X108.268 Y103.285 E2.64152 F378.000
G1 X108.744 Y105.383 E2.73884
G1 X109.184 Y105.381 E2.75874
G1 X109.743 Y102.891 E2.87420
G1 X109.943 Y102.128 E2.90991
G1 X112.549 Y92.577 E3.35789
G1 X114.681 Y92.577 E3.45435
G1 X119.056 Y107.423 E4.15469
G1 X117.370 Y107.423 E4.23099
G1 X114.784 Y98.109 E4.66837
G1 X114.364 Y96.535 E4.74210
G1 X113.788 Y94.108 E4.85495
G1 X113.354 Y94.115 E4.87463
G1 X112.771 Y96.596 E4.98995
G1 X112.396 Y98.068 E5.05868
G1 X109.780 Y107.423 E5.49823
G1 X108.368 Y107.423 E5.56211
G1 X108.794 Y107.197 F7800.000
G1 X108.156 Y106.559 E5.60354 F540.000
G1 X107.941 Y105.791 E5.64022
G1 X109.348 Y107.197 E5.73161
G1 X109.688 Y106.983 E5.75007
G1 X107.726 Y105.022 E5.87753
G1 X108.448 Y105.190 F7800.000
G1 X107.511 Y104.253 E5.93843 F540.000
G1 X108.123 Y103.757 F7800.000
G1 X107.081 Y102.715 E6.00613 F540.000
G1 X107.731 Y102.259 F7800.000
G1 X106.651 Y101.178 E6.07636 F540.000
G1 X106.866 Y101.947 E6.11304
G1 X107.936 Y103.017 E6.18262
G1 X107.296 Y103.484 F7800.000
G1 X108.285 Y104.474 E6.24691 F540.000
G1 X108.866 Y105.608 F7800.000
G1 X109.809 Y106.551 E6.30818 F540.000
G1 X109.930 Y106.118 E6.32883
G1 X109.361 Y105.550 E6.36576
G1 X109.463 Y105.097 E6.38705
G1 X110.051 Y105.685 E6.42524
G1 X110.172 Y105.253 E6.44589
G1 X109.565 Y104.645 E6.48534
G1 X109.666 Y104.193 E6.50663
G1 X110.293 Y104.820 E6.54735
G1 X110.414 Y104.387 F7800.000
G1 X109.768 Y103.741 E6.58932 F540.000
G1 X109.869 Y103.289 E6.61062
G1 X110.535 Y103.954 E6.65385
G1 X110.656 Y103.522 E6.67450
G1 X109.972 Y102.838 E6.71891
G1 X110.087 Y102.399 E6.73976
G1 X110.777 Y103.089 E6.78459
G1 X110.898 Y102.656 E6.80524
G1 X110.203 Y101.961 E6.85038
G1 X110.322 Y101.526 E6.87110
G1 X111.019 Y102.224 E6.91639
G1 X111.140 Y101.791 E6.93704
G1 X110.440 Y101.091 E6.98248
G1 X110.559 Y100.656 E7.00320
G1 X111.261 Y101.358 E7.04879
G1 X111.382 Y100.925 E7.06944
G1 X110.678 Y100.221 E7.11518
G1 X110.797 Y99.786 E7.13590
G1 X111.503 Y100.493 E7.18179
G1 X111.624 Y100.060 E7.20243
G1 X110.915 Y99.351 E7.24848
G1 X111.034 Y98.916 E7.26919
G1 X111.745 Y99.627 E7.31539
G1 X111.866 Y99.195 E7.33603
G1 X111.153 Y98.481 E7.38237
G1 X111.271 Y98.046 E7.40309
G1 X111.987 Y98.762 E7.44958
G1 X112.108 Y98.329 E7.47022
G1 X111.390 Y97.611 E7.51686
G1 X111.509 Y97.176 E7.53758
G1 X112.226 Y97.893 E7.58415
G1 X112.338 Y97.452 E7.60507
G1 X111.628 Y96.741 E7.65123
G1 X111.746 Y96.306 E7.67195
G1 X112.451 Y97.010 E7.71771
G1 X112.562 Y96.569 E7.73865
G1 X111.865 Y95.871 E7.78397
G1 X111.984 Y95.436 E7.80468
G1 X112.668 Y96.120 E7.84913
G1 X112.773 Y95.672 E7.87029
G1 X112.102 Y95.001 E7.91386
G1 X112.221 Y94.566 E7.93458
G1 X112.878 Y95.223 E7.97728
G1 X112.984 Y94.775 E7.99844
G1 X112.340 Y94.131 E8.04026
G1 X112.459 Y93.696 E8.06098
G1 X113.089 Y94.326 E8.10193
G1 X113.209 Y93.892 E8.12261
G1 X112.577 Y93.261 E8.16364
G1 X112.696 Y92.826 E8.18436
G1 X113.754 Y93.884 E8.25310
G1 X114.062 Y94.192 F7800.000
G1 X115.241 Y95.371 E8.32973 F540.000
G1 X115.473 Y96.157 E8.36734
G1 X114.234 Y94.918 E8.44783
G1 X114.406 Y95.644 E8.48210
G1 X115.704 Y96.942 E8.56645
G1 X115.936 Y97.727 E8.60406
G1 X114.578 Y96.369 E8.69227
G1 X114.779 Y97.124 E8.72817
G1 X116.167 Y98.512 E8.81833
G1 X116.398 Y99.297 E8.85594
G1 X114.981 Y97.880 E8.94802
G1 X115.193 Y98.646 E8.98452
G1 X116.630 Y100.082 E9.07787
G1 X116.861 Y100.867 E9.11548
G1 X115.406 Y99.412 E9.21003
G1 X115.619 Y100.179 E9.24658
G1 X117.093 Y101.652 E9.34234
G1 X117.324 Y102.438 E9.37994
G1 X115.832 Y100.945 E9.47690
G1 X116.045 Y101.712 E9.51346
G1 X117.555 Y103.223 E9.61161
G1 X117.787 Y104.008 E9.64922
G1 X116.258 Y102.479 E9.74858
G1 X116.471 Y103.245 E9.78513
G1 X118.018 Y104.793 E9.88569
G1 X118.250 Y105.578 E9.92330
G1 X116.683 Y104.012 E10.02506
G1 X116.896 Y104.779 E10.06162
G1 X118.481 Y106.363 E10.16458
G1 X118.712 Y107.148 E10.20219
G1 X117.109 Y105.545 E10.30636
G1 X117.322 Y106.312 E10.34291
G1 X118.207 Y107.197 E10.40043
G1 X115.010 Y94.586 F7800.000
G1 X113.227 Y92.803 E10.51631 F540.000
G1 X114.547 Y93.016 F7800.000
G1 X114.334 Y92.803 E10.53016 F540.000
G1 X113.780 Y92.803 E10.55560
G1 X114.779 Y93.801 E10.62046
G92 E0
G1 X104.759 Y93.353 F7800.000
G1 X104.759 Y93.353 F7800.000
G1 X106.291 Y96.942 F7800.000
G1 X105.227 Y95.878 E0.06909 F540.000
G1 X105.060 Y95.157 E0.10310
G1 X106.080 Y96.178 E0.16940
G1 X105.870 Y95.413 E0.20582
G1 X104.893 Y94.436 E0.26932
G1 X104.359 Y93.903 F7800.000
G1 X103.341 Y92.884 E0.33548 F540.000
G1 X103.215 Y93.312 E0.35597
G1 X103.937 Y94.034 E0.40291
G1 X103.833 Y94.484 E0.42411
G1 X103.089 Y93.740 E0.47247
G1 X102.963 Y94.167 E0.49296
G1 X103.729 Y94.934 E0.54274
G1 X103.625 Y95.383 E0.56394
G1 X102.837 Y94.595 E0.61514
G1 X102.711 Y95.023 E0.63563
G1 X103.520 Y95.833 E0.68825
G1 X103.416 Y96.282 E0.70945
G1 X102.584 Y95.450 E0.76350
G1 X102.458 Y95.878 E0.78398
G1 X103.310 Y96.730 E0.83935
G1 X103.197 Y97.170 E0.86023
G1 X102.332 Y96.306 E0.91639
G1 X102.206 Y96.733 E0.93687
G1 X103.083 Y97.610 E0.99384
G1 X102.966 Y98.047 E1.01461
G1 X102.080 Y97.161 E1.07215
G1 X101.954 Y97.589 E1.09264
G1 X102.844 Y98.478 E1.15044
G1 X102.722 Y98.910 E1.17105
G1 X101.828 Y98.016 E1.22911
G1 X101.702 Y98.444 E1.24959
G1 X102.599 Y99.341 E1.30790
G1 X102.477 Y99.773 E1.32851
G1 X101.576 Y98.872 E1.38708
G1 X101.450 Y99.299 E1.40756
G1 X102.355 Y100.205 E1.46638
G1 X102.233 Y100.636 E1.48699
G1 X101.324 Y99.727 E1.54607
G1 X101.198 Y100.155 E1.56655
G1 X102.111 Y101.068 E1.62588
G1 X101.989 Y101.499 E1.64649
G1 X101.072 Y100.582 E1.70608
G1 X100.946 Y101.010 E1.72656
G1 X101.867 Y101.931 E1.78640
G1 X101.744 Y102.363 E1.80701
G1 X100.819 Y101.438 E1.86711
G1 X100.693 Y101.865 E1.88759
G1 X101.622 Y102.794 E1.94794
G1 X101.500 Y103.226 E1.96855
G1 X100.567 Y102.293 E2.02916
G1 X100.441 Y102.721 E2.04964
G1 X101.378 Y103.657 E2.11051
G1 X101.256 Y104.089 E2.13111
G1 X100.315 Y103.148 E2.19223
G1 X100.189 Y103.576 E2.21271
G1 X101.134 Y104.521 E2.27409
G1 X101.012 Y104.952 E2.29469
G1 X100.063 Y104.004 E2.35632
G1 X99.937 Y104.431 E2.37681
G1 X100.889 Y105.384 E2.43869
G1 X100.767 Y105.815 E2.45930
G1 X99.811 Y104.859 E2.52143
G1 X99.685 Y105.287 E2.54192
G1 X100.645 Y106.247 E2.60431
G1 X100.523 Y106.678 E2.62492
G1 X99.559 Y105.714 E2.68756
G1 X99.433 Y106.142 E2.70805
G1 X100.401 Y107.110 E2.77095
G1 X99.934 Y107.197 E2.79276
G1 X99.307 Y106.570 E2.83353
G1 X99.181 Y106.997 E2.85401
G1 X99.380 Y107.197 E2.86699
G92 E0
G1 X101.490 Y101.176 F7800.000
G1 X101.490 Y101.176 F7800.000
G1 X106.436 Y100.409 F7800.000
G1 X107.527 Y101.500 E0.07089 F540.000
G1 X107.322 Y100.741 E0.10700
G1 X106.220 Y99.640 E0.17855
G1 X106.005 Y98.871 E0.21522
G1 X107.117 Y99.983 E0.28743
G1 X106.912 Y99.224 E0.32354
G1 X105.796 Y98.108 E0.39603
G1 X105.596 Y97.355 E0.43186
G1 X106.707 Y98.465 E0.50403
G1 X106.501 Y97.706 E0.54018
G1 X105.396 Y96.601 E0.61198
G1 X105.660 Y94.649 F7800.000
G1 X103.813 Y92.803 E0.73195 F540.000
G1 X104.367 Y92.803 E0.75739
G1 X105.449 Y93.885 E0.82771
G1 X105.239 Y93.121 E0.86413
G1 X104.921 Y92.803 E0.88480
M106 S255
G92 E0
G1 Z0.600 F7800.000
G1 X92.296 Y104.194 F7800.000
G1 X91.217 Y105.700 E0.55491 F600.000
G1 X90.872 Y106.033 E0.69861
G1 X90.632 Y106.223 E0.79047
G1 X90.280 Y106.430 E0.91290
G1 X89.808 Y106.647 E1.06843
G1 X89.191 Y106.831 E1.26132
G1 X88.639 Y106.944 E1.43013
G1 X88.201 Y106.998 E1.56234
G1 X87.152 Y107.058 E1.87734
G1 X85.957 Y106.983 E2.23604
G1 X85.553 Y106.930 E2.35814
G1 X84.906 Y106.780 E2.55716
G1 X84.296 Y106.577 E2.74987
G1 X83.780 Y106.307 E2.92443
G1 X83.387 Y106.040 E3.06681
G1 X83.211 Y105.878 E3.13853
G1 X82.992 Y105.636 E3.23612
G1 X82.812 Y105.397 E3.32585
G1 X82.636 Y105.055 E3.44122
G1 X82.486 Y104.671 E3.56452
G1 X82.392 Y104.014 E3.76346
