; generated by Slic3r 1.2.9 on 2016-03-11 at 01:30:21

; external perimeters extrusion width = 1.54mm
; perimeters extrusion width = 2.62mm
; infill extrusion width = 6.27mm
; solid infill extrusion width = 2.62mm
; top infill extrusion width = 2.62mm

M107
M104 S30 ; set temperature
G28 ; home all axes
G1 Z5 F5000 ; lift nozzle
M302
M92 E10000
M500
M501
G1 E100
M109 S30 ; wait for temperature to be reached
G21 ; set units to millimeters
G90 ; use absolute coordinates
M82 ; use absolute distances for extrusion
G92 E0
G1 Z0.300 F7800.000
G1 X93.251 Y94.063 F7800.000
G1 X92.823 Y93.866 E0.02132 F378.000
G1 X91.753 Y93.629 E0.07091
G1 X90.489 Y93.551 E0.12819
G1 X89.259 Y93.624 E0.18396
G1 X88.201 Y93.847 E0.23288
G1 X87.315 Y94.225 E0.27650
G1 X86.603 Y94.774 E0.31715
G1 X86.077 Y95.498 E0.35768
G1 X85.816 Y96.185 E0.39090
G1 X84.289 Y95.880 E0.46138
G1 X85.235 Y94.045 E0.55478
G1 X87.294 Y92.808 E0.66348
G1 X90.421 Y92.386 E0.80623
G1 X91.984 Y92.495 E0.87715
G1 X92.227 Y92.512 E0.88816 F378.000
G1 X93.732 Y92.886 E0.95834
G1 X94.929 Y93.502 E1.01927
G1 X95.795 Y94.330 E1.07347
G1 X96.311 Y95.351 E1.12524
G1 X96.486 Y96.593 E1.18201
G1 X96.462 Y97.090 E1.20452
G1 X96.389 Y97.546 E1.22542
G1 X96.268 Y97.953 E1.24462
G1 X96.105 Y98.320 E1.26281
G1 X95.905 Y98.653 E1.28036
G1 X95.668 Y98.952 E1.29761
G1 X95.396 Y99.220 E1.31491
G1 X95.093 Y99.461 E1.33245
G1 X94.755 Y99.675 E1.35055
G1 X94.390 Y99.867 E1.36917
G1 X93.594 Y100.205 E1.40833
G1 X92.734 Y100.480 E1.44917
G1 X89.634 Y101.222 E1.59339
G1 X88.687 Y101.487 E1.63789
G1 X88.041 Y101.724 E1.66907
G1 X87.581 Y101.967 E1.69257
G1 X87.194 Y102.246 E1.71418
G1 X86.878 Y102.568 E1.73459
G1 X86.643 Y102.947 E1.75474
G1 X86.503 Y103.384 E1.77553
G1 X86.457 Y103.877 E1.79793
G1 X86.573 Y104.675 E1.83443
G1 X86.932 Y105.346 E1.86887
G1 X87.522 Y105.864 E1.90439
G1 X88.311 Y106.224 E1.94365
G1 X89.282 Y106.434 E1.98860
G1 X90.435 Y106.503 E2.04087
G1 X91.495 Y106.441 E2.08889
G1 X92.401 Y106.250 E2.13082
G1 X93.156 Y105.925 E2.16799
G1 X93.764 Y105.449 E2.20294
G1 X94.224 Y104.813 E2.23847
G1 X94.458 Y104.221 E2.26724
G1 X96.043 Y104.500 E2.34006
G1 X95.696 Y105.373 E2.38258
G1 X95.087 Y106.231 E2.43016
G1 X94.311 Y106.848 E2.47502
G1 X93.309 Y107.270 E2.52424
G1 X92.023 Y107.528 E2.58358
G1 X90.458 Y107.615 E2.65452
G1 X88.773 Y107.499 E2.73091
G1 X87.388 Y107.157 E2.79549
G1 X86.298 Y106.595 E2.85098
G1 X85.517 Y105.839 E2.90016
G1 X85.051 Y104.901 E2.94756
G1 X84.892 Y103.754 E2.99996
G1 X84.922 Y103.243 E3.02314
G1 X85.011 Y102.768 E3.04498
G1 X85.159 Y102.338 E3.06557
G1 X85.364 Y101.947 E3.08556
G1 X85.621 Y101.589 E3.10550
G1 X85.932 Y101.265 E3.12579
G1 X86.313 Y100.966 E3.14773
G1 X86.784 Y100.681 E3.17263
G1 X87.345 Y100.413 E3.20076
G1 X88.049 Y100.153 E3.23471
G1 X88.950 Y99.890 E3.27719
G1 X91.949 Y99.180 E3.41663
G1 X92.503 Y99.030 E3.44262
G1 X93.009 Y98.855 E3.46685
G1 X93.466 Y98.655 E3.48941
G1 X93.872 Y98.420 E3.51065
G1 X94.220 Y98.141 E3.53082
G1 X94.507 Y97.817 E3.55043
G1 X94.721 Y97.431 E3.57039
G1 X94.848 Y96.981 E3.59154
G1 X94.890 Y96.467 E3.61486
G1 X94.759 Y95.589 E3.65505
G1 X94.359 Y94.847 E3.69319
G1 X93.700 Y94.270 E3.73282
G1 X93.461 Y94.160 E3.74474
G1 X94.290 Y94.388 F7800.000
G1 X92.816 Y92.914 E3.83968 F540.000
G1 X92.087 Y92.734 E3.87386
G1 X93.011 Y93.658 E3.93335
G1 X92.303 Y93.499 E3.96639
G1 X91.498 Y92.693 E4.01829
G1 X90.908 Y92.652 E4.04522
G1 X91.646 Y93.390 E4.09276
G1 X91.061 Y93.354 E4.11945
G1 X90.323 Y92.617 E4.16695
G1 X89.840 Y92.682 E4.18917
G1 X90.487 Y93.329 E4.23084
G1 X89.969 Y93.360 E4.25447
G1 X89.356 Y92.747 E4.29393
G1 X88.873 Y92.813 E4.31615
G1 X89.451 Y93.391 E4.35340
G1 X88.979 Y93.468 E4.37519
G1 X88.389 Y92.878 E4.41317
G1 X87.905 Y92.943 E4.43539
G1 X88.525 Y93.563 E4.47532
G1 X88.090 Y93.677 E4.49582
G1 X87.422 Y93.009 E4.53885
G1 X87.048 Y93.184 E4.55764
G1 X87.705 Y93.841 E4.59995
G1 X87.320 Y94.005 E4.61900
G1 X86.705 Y93.390 E4.65861
G1 X86.362 Y93.596 E4.67683
G1 X86.995 Y94.228 E4.71755
G1 X86.685 Y94.467 E4.73537
G1 X86.020 Y93.802 E4.77822
G1 X85.677 Y94.008 E4.79644
G1 X86.397 Y94.728 E4.84284
G1 X86.166 Y95.046 E4.86074
G1 X85.359 Y94.239 E4.91272
G1 X85.171 Y94.600 E4.93125
G1 X85.935 Y95.364 E4.98045
G1 X85.767 Y95.745 E4.99941
G1 X84.984 Y94.962 E5.04980
G1 X84.798 Y95.324 E5.06836
G1 X85.308 Y95.835 E5.10125
G92 E0
G1 X86.786 Y101.585 F7800.000
G1 X86.786 Y101.585 F7800.000
G1 X87.357 Y100.628 F7800.000
G1 X88.184 Y101.455 E0.05329 F540.000
G1 X87.805 Y101.625 E0.07220
G1 X86.985 Y100.805 E0.12501
G1 X86.632 Y101.001 E0.14340
G1 X87.452 Y101.821 E0.19621
G1 X87.134 Y102.051 E0.21411
G1 X86.302 Y101.220 E0.26769
G1 X86.002 Y101.469 E0.28543
G1 X86.853 Y102.320 E0.34023
G1 X86.612 Y102.627 E0.35803
G1 X85.740 Y101.755 E0.41420
G1 X85.516 Y102.081 E0.43218
G1 X86.417 Y102.981 E0.49018
G1 X86.284 Y103.397 E0.51006
G1 X85.336 Y102.450 E0.57105
G1 X85.208 Y102.870 E0.59107
G1 X86.235 Y103.897 E0.65722
G1 X86.309 Y104.521 E0.68581
G1 X85.137 Y103.349 E0.76130
G1 X85.154 Y103.915 E0.78709
G1 X86.660 Y105.420 E0.88408
G1 X87.294 Y106.054 F7800.000
G1 X88.388 Y107.149 E0.95459 F540.000
G1 X88.250 Y106.461 E0.98651
G1 X89.076 Y107.288 E1.03972
G1 X89.666 Y107.328 E1.06662
G1 X88.951 Y106.613 E1.11264
G1 X89.570 Y106.683 E1.14099
G1 X90.255 Y107.368 E1.18513
G1 X90.809 Y107.373 E1.21035
G1 X90.153 Y106.718 E1.25255
G1 X90.694 Y106.710 E1.27718
G1 X91.329 Y107.344 E1.31805
G1 X91.849 Y107.315 E1.34177
G1 X91.212 Y106.679 E1.38276
G1 X91.696 Y106.614 E1.40498
G1 X92.332 Y107.250 E1.44596
G1 X92.789 Y107.158 E1.46719
G1 X92.149 Y106.518 E1.50840
G1 X92.574 Y106.394 E1.52854
G1 X93.246 Y107.067 E1.57186
G1 X93.641 Y106.912 E1.59116
G1 X92.957 Y106.229 E1.63518
G1 X93.320 Y106.042 E1.65374
G1 X94.027 Y106.750 E1.69932
G1 X94.376 Y106.550 E1.71763
G1 X93.627 Y105.801 E1.76587
G1 X93.928 Y105.552 E1.78363
G1 X94.682 Y106.307 E1.83221
G1 X94.969 Y106.045 E1.84990
G1 X94.158 Y105.234 E1.90211
G1 X94.389 Y104.916 E1.92001
G1 X95.204 Y105.731 E1.97253
G1 X95.432 Y105.410 E1.99046
G1 X94.553 Y104.531 E2.04710
G1 X95.161 Y104.590 E2.07493
G1 X95.611 Y105.040 E2.10394
G92 E0
G1 X94.448 Y98.952 F7800.000
G1 X94.448 Y98.952 F7800.000
G1 X93.775 Y99.910 F7800.000
G1 X92.954 Y99.089 E0.05287 F540.000
G1 X93.341 Y98.928 E0.07198
G1 X94.160 Y99.747 E0.12472
G1 X94.532 Y99.569 E0.14347
G1 X93.705 Y98.743 E0.19669
G1 X94.042 Y98.531 E0.21482
G1 X94.878 Y99.367 E0.26863
G1 X95.194 Y99.135 E0.28652
G1 X94.347 Y98.287 E0.34111
G1 X94.605 Y97.996 E0.35882
G1 X95.478 Y98.869 E0.41506
G1 X95.726 Y98.568 E0.43282
G1 X94.818 Y97.661 E0.49127
G1 X94.980 Y97.274 E0.51038
G1 X95.929 Y98.223 E0.57150
G1 X96.088 Y97.833 E0.59067
G1 X95.081 Y96.825 E0.65557
G1 X95.106 Y96.302 E0.67943
G1 X96.197 Y97.393 E0.74965
G1 X96.249 Y96.896 E0.77238
G1 X95.011 Y95.658 E0.85215
G1 X94.579 Y94.677 F7800.000
G1 X96.205 Y96.303 E0.95685 F540.000
G1 X96.115 Y95.664 E0.98625
G1 X93.550 Y93.099 E1.15143
G1 X94.813 Y93.813 F7800.000
G1 X95.655 Y94.655 E1.20565 F540.000
G1 X95.709 Y96.629 F7800.000
G1 X95.643 Y97.121 F7800.000
G1 X95.501 Y97.670 F7800.000
G1 X95.171 Y98.282 F7800.000
G1 X94.865 Y98.620 F7800.000
G1 X94.767 Y98.713 F7800.000
G1 X94.757 Y98.704 F7800.000
G1 X92.546 Y99.230 F7800.000
G1 X93.375 Y100.060 E1.25908 F540.000
G1 X92.960 Y100.193 E1.27896
G1 X92.116 Y99.350 E1.33329
G1 X91.677 Y99.459 E1.35389
G1 X92.531 Y100.314 E1.40893
G1 X92.089 Y100.420 E1.42967
G1 X91.233 Y99.564 E1.48476
G1 X90.789 Y99.670 E1.50553
G1 X91.646 Y100.526 E1.56068
G1 X91.203 Y100.632 E1.58142
G1 X90.346 Y99.775 E1.63663
G1 X89.902 Y99.880 E1.65740
G1 X90.760 Y100.738 E1.71267
G1 X90.317 Y100.844 E1.73341
G1 X89.458 Y99.985 E1.78873
G1 X89.014 Y100.090 E1.80951
G1 X89.874 Y100.950 E1.86489
G1 X89.438 Y101.062 E1.88541
G1 X88.586 Y100.211 E1.94024
G1 X88.161 Y100.335 E1.96040
G1 X89.009 Y101.182 E2.01496
G1 X88.586 Y101.308 E2.03505
G1 X87.755 Y100.478 E2.08854
G1 X85.242 Y104.551 F7800.000
G1 X87.659 Y106.968 E2.24421 F540.000
G1 X86.572 Y106.430 F7800.000
G1 X85.659 Y105.517 E2.30302 F540.000
G92 E0
G1 X93.375 Y107.486 F7800.000
G1 X98.147 Y107.079 F7800.000
G1 X104.515 Y108.744 F7800.000
G1 X109.148 Y106.532 F7800.000
G1 X109.156 Y100.362 F7800.000
G1 X113.224 Y106.366 F7800.000
G1 X109.156 Y99.942 E0.34402 F378.000
G1 X104.391 Y107.423 E0.74536
G1 X102.654 Y107.423 E0.82396
G1 X108.329 Y98.759 E1.29260
G1 X108.329 Y92.577 E1.57234
G1 X109.940 Y92.577 E1.64524
G1 X109.940 Y98.759 E1.92498
G1 X115.631 Y107.423 E2.39402 F378.000
G1 X113.894 Y107.423 E2.47263
G1 X113.348 Y106.561 E2.51881
G1 X113.426 Y106.157 F7800.000
G1 X114.466 Y107.197 E2.58655 F540.000
G1 X115.021 Y107.197 E2.61212
G1 X112.468 Y104.643 E2.77849
G1 X113.248 Y104.313 F7800.000
G1 X110.550 Y101.616 E2.95423 F540.000
G1 X111.122 Y101.077 F7800.000
G1 X108.555 Y98.510 E3.12150 F540.000
G1 X108.438 Y98.948 E3.14239
G1 X109.123 Y99.633 E3.18700
G1 X108.907 Y99.972 E3.20553
G1 X108.218 Y99.283 E3.25038
G1 X107.998 Y99.619 E3.26886
G1 X108.691 Y100.311 E3.31396
G1 X108.474 Y100.650 E3.33248
G1 X107.779 Y99.954 E3.37782
G1 X107.559 Y100.290 E3.39629
G1 X108.258 Y100.989 E3.44187
G1 X108.042 Y101.328 E3.46039
G1 X107.339 Y100.625 E3.50621
G1 X107.119 Y100.961 E3.52469
G1 X107.826 Y101.668 E3.57075
G1 X107.610 Y102.007 E3.58927
G1 X106.900 Y101.296 E3.63557
G1 X106.680 Y101.632 E3.65404
G1 X107.394 Y102.346 E3.70058
G1 X107.178 Y102.685 E3.71911
G1 X106.460 Y101.967 E3.76589
G1 X106.240 Y102.302 E3.78436
G1 X106.962 Y103.024 E3.83138
G1 X106.746 Y103.363 E3.84991
G1 X106.021 Y102.638 E3.89717
G1 X105.801 Y102.973 E3.91564
G1 X106.530 Y103.703 E3.96314
G1 X106.314 Y104.042 E3.98167
G1 X105.581 Y103.309 E4.02941
G1 X105.362 Y103.644 E4.04788
G1 X106.098 Y104.381 E4.09586
G1 X105.882 Y104.720 E4.11439
G1 X105.142 Y103.980 E4.16261
G1 X104.922 Y104.315 E4.18108
G1 X105.666 Y105.059 E4.22955
G1 X105.450 Y105.398 E4.24807
G1 X104.702 Y104.651 E4.29677
G1 X104.483 Y104.986 E4.31525
G1 X105.234 Y105.738 E4.36419
G1 X105.018 Y106.077 E4.38272
G1 X104.263 Y105.322 E4.43190
G1 X104.043 Y105.657 E4.45037
G1 X104.802 Y106.416 E4.49980
G1 X104.586 Y106.755 E4.51832
G1 X103.824 Y105.993 E4.56799
G1 X103.604 Y106.328 E4.58646
G1 X104.370 Y107.094 E4.63637
G1 X103.918 Y107.197 E4.65773
G1 X103.384 Y106.664 E4.69249
G1 X103.164 Y106.999 E4.71096
G1 X103.362 Y107.197 E4.72386
G1 X109.104 Y98.582 F7800.000
G1 X109.104 Y98.582 F7800.000
G1 X111.509 Y103.129 F7800.000
G1 X114.311 Y105.931 E4.90639 F540.000
G1 X112.185 Y102.695 F7800.000
G1 X109.592 Y100.102 E5.07535 F540.000
G1 X110.059 Y99.459 F7800.000
G1 X108.555 Y97.955 E5.17338 F540.000
G1 X108.555 Y97.399 E5.19895
G1 X109.714 Y98.558 E5.27446
G1 X109.714 Y98.003 E5.30004
G1 X108.555 Y96.844 E5.37555
G1 X108.555 Y96.289 E5.40112
G1 X109.714 Y97.448 E5.47663
G1 X109.714 Y96.893 E5.50221
G1 X108.555 Y95.734 E5.57772
G1 X108.555 Y95.179 E5.60329
G1 X109.714 Y96.338 E5.67881
G1 X109.714 Y95.782 E5.70438
G1 X108.555 Y94.623 E5.77989
G1 X108.555 Y94.068 E5.80547
G1 X109.714 Y95.227 E5.88098
G1 X109.714 Y94.672 E5.90655
G1 X108.555 Y93.513 E5.98206
G1 X108.555 Y92.958 E6.00764
G1 X109.714 Y94.117 E6.08315
G1 X109.714 Y93.562 E6.10872
G1 X108.955 Y92.803 E6.15816
G1 X109.510 Y92.803 E6.18373
G1 X109.714 Y93.007 E6.19700
M106 S255
G92 E0
G1 Z0.600 F7800.000
G1 X95.605 Y104.194 F7800.000
G1 X94.526 Y105.700 E0.55491 F600.000
G1 X94.182 Y106.033 E0.69861
G1 X93.941 Y106.223 E0.79047
G1 X93.589 Y106.430 E0.91290
G1 X93.118 Y106.647 E1.06843
G1 X92.501 Y106.831 E1.26132
G1 X91.949 Y106.944 E1.43013
G1 X91.511 Y106.998 E1.56234
G1 X90.461 Y107.058 E1.87734
G1 X89.267 Y106.983 E2.23604
G1 X88.863 Y106.930 E2.35814
G1 X88.215 Y106.780 E2.55716
G1 X87.605 Y106.577 E2.74987
G1 X87.089 Y106.307 E2.92443
G1 X86.696 Y106.040 E3.06681
G1 X86.520 Y105.878 E3.13853
G1 X86.302 Y105.636 E3.23612
G1 X86.121 Y105.397 E3.32585
G1 X85.945 Y105.055 E3.44122
G1 X85.795 Y104.671 E3.56452
G1 X85.702 Y104.014 E3.76346
G1 X85.681 Y103.723 E3.85101
G1 X85.711 Y103.334 E3.96773
G1 X85.790 Y102.975 E4.07801
G1 X85.898 Y102.656 E4.17894
G1 X85.978 Y102.501 E4.23119
G1 X86.235 Y102.100 E4.37392
G1 X86.466 Y101.855 E4.47475
G1 X86.755 Y101.606 E4.58915
G1 X87.144 Y101.349 E4.72877
G1 X87.682 Y101.077 E4.90935
G1 X88.499 Y100.782 E5.16988
G1 X89.434 Y100.523 E5.46061
G1 X92.538 Y99.777 E6.41695
G1 X93.311 Y99.524 E6.66081
G1 X93.848 Y99.291 E6.83614
G1 X94.367 Y99.010 E7.01302
G1 X94.698 Y98.768 E7.13578
G1 X95.064 Y98.410 E7.28921
G1 X95.233 Y98.188 E7.37288
G1 X95.376 Y97.941 E7.45825
G1 X95.501 Y97.670 E7.54786
G1 X95.590 Y97.364 E7.64339
G1 X95.657 Y97.006 E7.75243
G1 X95.681 Y96.630 E7.86529
G1 X95.659 Y96.327 E7.95632
G1 X95.552 Y95.589 E8.17976
G1 X95.398 Y95.199 E8.30541
G1 X95.181 Y94.785 E8.44550
G1 X95.000 Y94.547 E8.53511
G1 X94.779 Y94.305 E8.63322
G1 X94.524 Y94.072 E8.73701
G1 X93.931 Y93.690 E8.94806
G1 X93.507 Y93.484 E9.08945
G1 X92.926 Y93.289 E9.27307
G1 X92.133 Y93.103 E9.51706
G1 X91.895 Y93.068 E9.58913
G1 X90.439 Y92.971 E10.02639
G1 X89.132 Y93.102 E10.42013
G1 X87.950 Y93.314 E10.78003
G1 X87.514 Y93.434 E10.91553
G1 X87.099 Y93.646 E11.05523
G1 X86.223 Y94.228 E11.37028
G1 X85.808 Y94.582 E11.53378
G1 X85.401 Y95.275 E11.77441
G1 X84.969 Y96.245 E12.09277
G92 E0
G1 X90.413 Y92.160 F7800.000
G1 X90.413 Y92.160 F7800.000
G1 X90.483 Y91.161 F7800.000
G1 X91.919 Y91.211 F7800.000
G1 X92.336 Y91.226 F7800.000
G1 X92.523 Y91.240 F7800.000
G1 X94.120 Y91.436 F7800.000
G1 X94.420 Y91.491 F7800.000
G1 X95.825 Y91.831 F7800.000
G1 X96.328 Y91.993 F7800.000
G1 X97.597 Y92.502 F7800.000
G1 X98.459 Y92.940 F7800.000
G1 X99.679 Y93.690 F7800.000
G1 X100.979 Y94.655 F7800.000
G1 X102.292 Y95.795 F7800.000
G1 X102.386 Y95.878 F7800.000
G1 X105.912 Y92.352 F7800.000
G1 X108.104 Y92.352 F7800.000
G1 X109.134 Y92.352 F7800.000
G1 X109.134 Y99.209 E2.05473 F600.000
G1 X109.261 Y99.286 E2.09907
G1 X109.899 Y99.891 E2.36271
G1 X114.903 Y107.648 E5.12860
G1 X109.104 Y98.582 F7800.000
G1 X109.104 Y98.582 F7800.000
G1 X103.381 Y107.648 F7800.000
G1 X108.399 Y99.880 E7.89969 F600.000
G1 X109.012 Y99.287 E8.15525
G1 X110.165 Y98.560 E8.56368
G92 E0
G1 Z0.900 F7800.000
G1 X95.605 Y104.194 F7800.000
G1 X94.526 Y105.700 E0.55491 F600.000
G1 X94.182 Y106.033 E0.69861
G1 X93.941 Y106.223 E0.79048
G1 X93.589 Y106.430 E0.91290
G1 X93.118 Y106.647 E1.06843
G1 X92.501 Y106.831 E1.26132
G1 X91.949 Y106.944 E1.43013
G1 X91.511 Y106.998 E1.56234
G1 X90.461 Y107.058 E1.87734
G1 X89.267 Y106.983 E2.23604
G1 X88.863 Y106.930 E2.35814
G1 X88.215 Y106.780 E2.55716
G1 X87.605 Y106.577 E2.74987
G1 X87.089 Y106.307 E2.92443
G1 X86.696 Y106.040 E3.06681
G1 X86.520 Y105.878 E3.13853
G1 X86.302 Y105.636 E3.23612
G1 X86.121 Y105.397 E3.32585
G1 X85.945 Y105.055 E3.44122
G1 X85.795 Y104.671 E3.56452
G1 X85.702 Y104.014 E3.76346
G1 X85.681 Y103.723 E3.85101
G1 X85.711 Y103.334 E3.96773
G1 X85.790 Y102.975 E4.07801
G1 X85.898 Y102.656 E4.17894
G1 X85.978 Y102.501 E4.23119
G1 X86.235 Y102.100 E4.37392
G1 X86.466 Y101.855 E4.47475
G1 X86.755 Y101.606 E4.58915
G1 X87.144 Y101.349 E4.72877
G1 X87.682 Y101.077 E4.90936
G1 X88.499 Y100.782 E5.16988
G1 X89.434 Y100.523 E5.46061
G1 X92.538 Y99.777 E6.41695
G1 X93.311 Y99.524 E6.66081
G1 X93.848 Y99.291 E6.83614
G1 X94.367 Y99.010 E7.01302
G1 X94.698 Y98.768 E7.13578
G1 X95.064 Y98.410 E7.28921
G1 X95.233 Y98.188 E7.37288
G1 X95.376 Y97.941 E7.45825
G1 X95.501 Y97.670 E7.54786
G1 X95.590 Y97.364 E7.64339
G1 X95.657 Y97.006 E7.75243
G1 X95.681 Y96.630 E7.86529
G1 X95.659 Y96.327 E7.95632
G1 X95.552 Y95.589 E8.17976
G1 X95.398 Y95.199 E8.30541
G1 X95.181 Y94.785 E8.44550
G1 X95.000 Y94.547 E8.53511
G1 X94.779 Y94.305 E8.63322
G1 X94.524 Y94.072 E8.73701
G1 X93.931 Y93.690 E8.94806
G1 X93.507 Y93.484 E9.08945
G1 X92.926 Y93.289 E9.27308
G1 X92.134 Y93.103 E9.51706
G1 X91.895 Y93.068 E9.58913
G1 X90.439 Y92.971 E10.02639
G1 X89.132 Y93.102 E10.42013
G1 X87.950 Y93.314 E10.78003
G1 X87.514 Y93.434 E10.91553
G1 X87.099 Y93.646 E11.05523
G1 X86.223 Y94.228 E11.37028
G1 X85.808 Y94.582 E11.53378
G1 X85.401 Y95.275 E11.77441
G1 X84.969 Y96.245 E12.09277
G92 E0
