; generated by Slic3r 1.2.9 on 2016-03-11 at 01:30:22

; external perimeters extrusion width = 1.54mm
; perimeters extrusion width = 2.62mm
; infill extrusion width = 6.27mm
; solid infill extrusion width = 2.62mm
; top infill extrusion width = 2.62mm

M107
M104 S30 ; set temperature
G28 ; home all axes
G1 Z5 F5000 ; lift nozzle
M302
M92 E10000
M500
M501
G1 E100
M109 S30 ; wait for temperature to be reached
G21 ; set units to millimeters
G90 ; use absolute coordinates
M82 ; use absolute distances for extrusion
G92 E0
G1 Z0.300 F7800.000
G1 X96.093 Y104.384 F7800.000
G1 X96.754 Y104.500 E0.03037 F378.000
G1 X96.407 Y105.373 E0.07289
G1 X95.799 Y106.231 E0.12047
G1 X95.023 Y106.848 E0.16533
G1 X94.020 Y107.270 E0.21455
G1 X92.735 Y107.528 E0.27389
G1 X91.169 Y107.615 E0.34483
G1 X89.485 Y107.499 E0.42122
G1 X88.099 Y107.157 E0.48580
G1 X87.009 Y106.595 E0.54129
G1 X86.228 Y105.839 E0.59047
G1 X85.762 Y104.901 E0.63787
G1 X85.604 Y103.754 E0.69027
G1 X85.633 Y103.243 E0.71345
G1 X85.723 Y102.768 E0.73529
G1 X85.871 Y102.338 E0.75588
G1 X86.075 Y101.947 E0.77586
G1 X86.333 Y101.589 E0.79580
G1 X86.643 Y101.265 E0.81610
G1 X87.024 Y100.966 E0.83804
G1 X87.495 Y100.681 E0.86294
G1 X88.056 Y100.413 E0.89106
G1 X88.760 Y100.153 E0.92502
G1 X89.661 Y99.890 E0.96750
G1 X92.660 Y99.180 E1.10694
G1 X93.214 Y99.030 E1.13293
G1 X93.720 Y98.855 E1.15715
G1 X94.177 Y98.655 E1.17972
G1 X94.584 Y98.420 E1.20096
G1 X94.932 Y98.141 E1.22113
G1 X95.219 Y97.817 E1.24074
G1 X95.433 Y97.431 E1.26070
G1 X95.559 Y96.981 E1.28185
G1 X95.601 Y96.467 E1.30517
G1 X95.471 Y95.589 E1.34536
G1 X95.070 Y94.847 E1.38350
G1 X94.411 Y94.270 E1.42312
G1 X93.534 Y93.866 E1.46683
G1 X92.465 Y93.629 E1.51641
G1 X91.201 Y93.551 E1.57370
G1 X89.971 Y93.624 E1.62947
G1 X88.913 Y93.847 E1.67839
G1 X88.026 Y94.225 E1.72201
G1 X87.315 Y94.774 E1.76265
G1 X86.788 Y95.498 E1.80318
G1 X86.528 Y96.185 E1.83641
G1 X85.000 Y95.880 E1.90689
G1 X85.946 Y94.045 E2.00029
G1 X88.006 Y92.808 E2.10898
G1 X91.132 Y92.386 E2.25174
G1 X92.696 Y92.495 E2.32266
G1 X92.938 Y92.512 E2.33367 F378.000
G1 X94.443 Y92.886 E2.40384
G1 X95.641 Y93.502 E2.46478
G1 X96.507 Y94.330 E2.51898
G1 X97.023 Y95.351 E2.57075
G1 X97.198 Y96.593 E2.62751
G1 X97.174 Y97.090 E2.65003
G1 X97.100 Y97.546 E2.67092
G1 X96.979 Y97.953 E2.69013
G1 X96.816 Y98.320 E2.70831
G1 X96.616 Y98.653 E2.72587
G1 X96.380 Y98.952 E2.74311
G1 X96.108 Y99.220 E2.76041
G1 X95.804 Y99.461 E2.77796
G1 X95.466 Y99.675 E2.79605
G1 X95.102 Y99.867 E2.81467
G1 X94.305 Y100.205 E2.85383
G1 X93.446 Y100.480 E2.89467
G1 X90.346 Y101.222 E3.03890
G1 X89.399 Y101.487 E3.08340
G1 X88.752 Y101.724 E3.11457
G1 X88.293 Y101.967 E3.13808
G1 X87.906 Y102.246 E3.15968
G1 X87.590 Y102.568 E3.18009
G1 X87.355 Y102.947 E3.20025
G1 X87.214 Y103.384 E3.22103
G1 X87.168 Y103.877 E3.24343
G1 X87.285 Y104.675 E3.27993
G1 X87.643 Y105.346 E3.31437
G1 X88.233 Y105.864 E3.34989
G1 X89.023 Y106.224 E3.38916
G1 X89.994 Y106.434 E3.43410
G1 X91.147 Y106.503 E3.48637
G1 X92.206 Y106.441 E3.53439
G1 X93.113 Y106.250 E3.57632
G1 X93.867 Y105.925 E3.61350
G1 X94.475 Y105.449 E3.64845
G1 X94.936 Y104.813 E3.68397
G1 X95.170 Y104.221 E3.71275
G1 X95.866 Y104.344 E3.74474
G1 X96.323 Y105.040 F7800.000
G1 X95.872 Y104.590 E3.77375 F540.000
G1 X95.264 Y104.531 E3.80158
G1 X96.144 Y105.410 E3.85822
G1 X95.916 Y105.731 E3.87615
G1 X95.100 Y104.916 E3.92866
G1 X94.870 Y105.234 E3.94657
G1 X95.680 Y106.045 E3.99878
G1 X95.394 Y106.307 E4.01647
G1 X94.639 Y105.552 E4.06505
G1 X94.339 Y105.801 E4.08281
G1 X95.088 Y106.550 E4.13104
G1 X94.739 Y106.750 E4.14936
G1 X94.031 Y106.042 E4.19494
G1 X93.669 Y106.229 E4.21349
G1 X94.352 Y106.912 E4.25752
G1 X93.958 Y107.067 E4.27681
G1 X93.285 Y106.394 E4.32014
G1 X92.861 Y106.518 E4.34028
G1 X93.501 Y107.158 E4.38149
G1 X93.044 Y107.250 E4.40272
G1 X92.407 Y106.614 E4.44369
G1 X91.924 Y106.679 E4.46592
G1 X92.560 Y107.315 E4.50691
G1 X92.040 Y107.344 E4.53063
G1 X91.406 Y106.710 E4.57150
G1 X90.865 Y106.718 E4.59613
G1 X91.520 Y107.373 E4.63833
G1 X90.966 Y107.368 E4.66355
G1 X90.281 Y106.683 E4.70769
G1 X89.663 Y106.613 E4.73604
G1 X90.377 Y107.328 E4.78206
G1 X89.788 Y107.288 E4.80896
G1 X88.962 Y106.461 E4.86217
G1 X89.100 Y107.149 E4.89409
G1 X88.005 Y106.054 E4.96460
G1 X87.284 Y106.430 F7800.000
G1 X86.370 Y105.517 E5.02341 F540.000
G1 X87.372 Y105.420 F7800.000
G1 X85.866 Y103.915 E5.12040 F540.000
G1 X85.849 Y103.349 E5.14619
G1 X87.021 Y104.521 E5.22168
G1 X86.947 Y103.897 E5.25027
G1 X85.920 Y102.870 E5.31642
G1 X86.048 Y102.450 E5.33644
G1 X86.995 Y103.397 E5.39743
G1 X87.128 Y102.981 E5.41731
G1 X86.228 Y102.081 E5.47531
G1 X86.451 Y101.755 E5.49329
G1 X87.323 Y102.627 E5.54946
G1 X87.564 Y102.320 E5.56726
G1 X86.714 Y101.469 E5.62205
G1 X87.013 Y101.220 E5.63980
G1 X87.845 Y102.051 E5.69338
G1 X88.164 Y101.821 E5.71128
G1 X87.344 Y101.001 E5.76409
G1 X87.697 Y100.805 E5.78248
G1 X88.517 Y101.625 E5.83529
G1 X88.896 Y101.455 E5.85420
G1 X88.068 Y100.628 E5.90749
G1 X88.467 Y100.478 F7800.000
G1 X89.297 Y101.308 E5.96098 F540.000
G1 X89.720 Y101.182 E5.98107
G1 X88.873 Y100.335 E6.03563
G1 X89.298 Y100.211 E6.05579
G1 X90.149 Y101.062 E6.11062
G1 X90.585 Y100.950 E6.13114
G1 X89.725 Y100.090 E6.18652
G1 X90.169 Y99.985 E6.20730
G1 X91.028 Y100.844 E6.26262
G1 X91.471 Y100.738 E6.28336
G1 X90.613 Y99.880 E6.33863
G1 X91.057 Y99.775 E6.35940
G1 X91.914 Y100.632 E6.41461
G1 X92.357 Y100.526 E6.43535
G1 X91.501 Y99.670 E6.49050
G1 X91.945 Y99.564 E6.51127
G1 X92.800 Y100.420 E6.56636
G1 X93.243 Y100.314 E6.58710
G1 X92.389 Y99.459 E6.64213
G1 X92.828 Y99.350 E6.66274
G1 X93.671 Y100.193 E6.71707
G1 X94.087 Y100.060 E6.73695
G1 X93.257 Y99.230 E6.79038
G1 X94.486 Y99.910 F7800.000
G1 X93.665 Y99.089 E6.84325 F540.000
G1 X94.053 Y98.928 E6.86236
G1 X94.871 Y99.747 E6.91510
G1 X95.243 Y99.569 E6.93385
G1 X94.417 Y98.743 E6.98707
G1 X94.754 Y98.531 E7.00520
G1 X95.589 Y99.367 E7.05901
G1 X95.906 Y99.135 E7.07689
G1 X95.058 Y98.287 E7.13149
G1 X95.316 Y97.996 E7.14919
G1 X96.190 Y98.869 E7.20544
G1 X96.437 Y98.568 E7.22320
G1 X95.530 Y97.661 E7.28165
G1 X95.692 Y97.274 E7.30076
G1 X96.641 Y98.223 E7.36188
G1 X96.800 Y97.833 E7.38105
G1 X95.792 Y96.825 E7.44595
G1 X95.818 Y96.302 E7.46981
G1 X96.908 Y97.393 E7.54003
G1 X96.961 Y96.896 E7.56276
G1 X95.722 Y95.658 E7.64252
G1 X95.291 Y94.677 F7800.000
G1 X96.916 Y96.303 E7.74723 F540.000
G1 X96.826 Y95.664 E7.77662
G1 X94.262 Y93.099 E7.94181
G1 X95.525 Y93.813 F7800.000
G1 X96.366 Y94.655 E7.99603 F540.000
G1 X95.002 Y94.388 F7800.000
G1 X93.528 Y92.914 E8.09097 F540.000
G1 X92.799 Y92.734 E8.12514
G1 X93.723 Y93.658 E8.18464
G1 X93.015 Y93.499 E8.21768
G1 X92.209 Y92.693 E8.26958
G1 X91.619 Y92.652 E8.29651
G1 X92.357 Y93.390 E8.34405
G1 X91.772 Y93.354 E8.37074
G1 X91.035 Y92.617 E8.41823
G1 X90.551 Y92.682 E8.44046
G1 X91.198 Y93.329 E8.48213
G1 X90.680 Y93.360 E8.50576
G1 X90.068 Y92.747 E8.54522
G1 X89.584 Y92.813 E8.56744
G1 X90.162 Y93.391 E8.60469
G1 X89.690 Y93.468 E8.62647
G1 X89.100 Y92.878 E8.66445
G1 X88.617 Y92.943 E8.68668
G1 X89.237 Y93.563 E8.72661
G1 X88.801 Y93.677 E8.74710
G1 X88.133 Y93.009 E8.79013
G1 X87.760 Y93.184 E8.80893
G1 X88.417 Y93.841 E8.85123
G1 X88.032 Y94.005 E8.87029
G1 X87.417 Y93.390 E8.90990
G1 X87.074 Y93.596 E8.92811
G1 X87.706 Y94.228 E8.96883
G1 X87.396 Y94.467 E8.98666
G1 X86.731 Y93.802 E9.02951
G1 X86.388 Y94.008 E9.04772
G1 X87.109 Y94.728 E9.09413
G1 X86.878 Y95.046 E9.11202
G1 X86.071 Y94.239 E9.16400
G1 X85.883 Y94.600 E9.18254
G1 X86.647 Y95.364 E9.23174
G1 X86.478 Y95.745 E9.25069
G1 X85.696 Y94.962 E9.30109
G1 X85.509 Y95.324 E9.31965
G1 X86.020 Y95.835 E9.35254
G92 E0
G1 X87.165 Y101.841 F7800.000
G1 X86.964 Y102.074 F7800.000
G1 X86.608 Y102.655 F7800.000
G1 X86.438 Y103.226 F7800.000
G1 X86.422 Y103.340 F7800.000
G1 X86.404 Y103.337 F7800.000
G1 X85.954 Y104.551 F7800.000
G1 X88.371 Y106.968 E0.15567 F540.000
G92 E0
G1 X95.964 Y106.387 F7800.000
G1 X98.859 Y107.079 F7800.000
G1 X100.286 Y106.167 F7800.000
G1 X100.327 Y105.956 F7800.000
G1 X103.959 Y105.956 F7800.000
G1 X104.184 Y106.181 F7800.000
G1 X112.931 Y106.181 E0.39579 F378.000
G1 X103.392 Y93.826 E1.10208
G1 X103.392 Y92.577 E1.15860
G1 X115.111 Y92.577 E1.68888
G1 X115.111 Y93.819 E1.74508
G1 X105.063 Y93.819 E2.19974 F378.000
G1 X114.601 Y106.218 E2.90757
G1 X114.601 Y107.423 E2.96211
G1 X104.184 Y107.423 E3.43348
G1 X104.184 Y106.412 E3.47922
G1 X104.936 Y106.407 F7800.000
G1 X105.726 Y107.197 E3.53077 F540.000
G1 X105.170 Y107.197 E3.55641
G1 X104.410 Y106.438 E3.60596
G1 X104.410 Y106.993 E3.63161
G1 X104.614 Y107.197 E3.64489
G1 X105.492 Y106.407 F7800.000
G1 X106.282 Y107.197 E3.69643 F540.000
G1 X106.838 Y107.197 E3.72208
G1 X106.048 Y106.407 E3.77362
G1 X106.604 Y106.407 E3.79926
G1 X107.394 Y107.197 E3.85081
G1 X107.950 Y107.197 E3.87645
G1 X107.159 Y106.407 E3.92800
G1 X107.715 Y106.407 E3.95364
G1 X108.506 Y107.197 E4.00518
G1 X109.061 Y107.197 E4.03083
G1 X108.271 Y106.407 E4.08237
G1 X108.827 Y106.407 E4.10802
G1 X109.617 Y107.197 E4.15956
G1 X110.173 Y107.197 E4.18521
G1 X109.383 Y106.407 E4.23675
G1 X109.939 Y106.407 E4.26240
G1 X110.729 Y107.197 E4.31394
G1 X111.285 Y107.197 E4.33958
G1 X110.495 Y106.407 E4.39113
G1 X111.051 Y106.407 E4.41677
G1 X111.841 Y107.197 E4.46832
G1 X112.397 Y107.197 E4.49396
G1 X111.607 Y106.407 E4.54550
G1 X112.163 Y106.407 E4.57115
G1 X112.953 Y107.197 E4.62269
G1 X113.509 Y107.197 E4.64834
G1 X112.719 Y106.407 E4.69988
G1 X113.275 Y106.407 E4.72553
G1 X114.065 Y107.197 E4.77707
G1 X112.273 Y104.849 F7800.000
G1 X114.375 Y106.951 E4.91421 F540.000
G1 X114.347 Y106.367 E4.94120
G1 X110.390 Y102.410 E5.19934
G1 X110.639 Y101.547 F7800.000
G1 X106.623 Y97.531 E5.46135 F540.000
G1 X106.932 Y96.728 F7800.000
G1 X103.618 Y93.415 E5.67752 F540.000
G1 X103.618 Y92.859 E5.70316
G1 X105.078 Y94.318 E5.79840
G1 X104.909 Y93.593 F7800.000
G1 X104.119 Y92.803 E5.84995 F540.000
G1 X104.675 Y92.803 E5.87559
G1 X105.465 Y93.593 E5.92714
G1 X106.021 Y93.593 E5.95278
G1 X105.231 Y92.803 E6.00432
G1 X105.786 Y92.803 E6.02997
G1 X106.577 Y93.593 E6.08151
G1 X107.133 Y93.593 E6.10716
G1 X106.342 Y92.803 E6.15870
G1 X106.898 Y92.803 E6.18434
G1 X107.688 Y93.593 E6.23589
G1 X108.244 Y93.593 E6.26153
G1 X107.454 Y92.803 E6.31308
G1 X108.010 Y92.803 E6.33872
G1 X108.800 Y93.593 E6.39026
G1 X109.356 Y93.593 E6.41591
G1 X108.566 Y92.803 E6.46745
G1 X109.122 Y92.803 E6.49310
G1 X109.912 Y93.593 E6.54464
G1 X110.468 Y93.593 E6.57029
G1 X109.678 Y92.803 E6.62183
G1 X110.234 Y92.803 E6.64747
G1 X111.024 Y93.593 E6.69902
G1 X111.580 Y93.593 E6.72466
G1 X110.790 Y92.803 E6.77620
G1 X111.346 Y92.803 E6.80185
G1 X112.136 Y93.593 E6.85339
G1 X112.692 Y93.593 E6.87904
G1 X111.902 Y92.803 E6.93058
G1 X112.458 Y92.803 E6.95623
G1 X113.248 Y93.593 E7.00777
G1 X113.804 Y93.593 E7.03341
G1 X113.014 Y92.803 E7.08496
G1 X113.570 Y92.803 E7.11060
G1 X114.360 Y93.593 E7.16214
G1 X114.885 Y93.563 E7.18642
G1 X114.126 Y92.803 E7.23597
G1 X114.682 Y92.803 E7.26162
G1 X114.885 Y93.007 E7.27490
G92 E0
G1 X108.786 Y99.138 F7800.000
G1 X104.740 Y95.092 E0.26395 F540.000
G1 X108.506 Y99.971 F7800.000
G1 X112.493 Y103.957 E0.52402 F540.000
M106 S255
G92 E0
G1 Z0.600 F7800.000
G1 X96.317 Y104.194 F7800.000
G1 X95.238 Y105.700 E0.55491 F600.000
G1 X94.893 Y106.033 E0.69861
G1 X94.653 Y106.223 E0.79047
G1 X94.301 Y106.430 E0.91290
G1 X93.829 Y106.647 E1.06843
G1 X93.212 Y106.831 E1.26132
G1 X92.660 Y106.944 E1.43013
G1 X92.222 Y106.998 E1.56234
G1 X91.173 Y107.058 E1.87734
G1 X89.978 Y106.983 E2.23604
G1 X89.574 Y106.930 E2.35814
G1 X88.927 Y106.780 E2.55716
G1 X88.317 Y106.577 E2.74987
G1 X87.801 Y106.307 E2.92443
G1 X87.408 Y106.040 E3.06681
G1 X87.232 Y105.878 E3.13853
G1 X87.013 Y105.636 E3.23612
G1 X86.833 Y105.397 E3.32585
G1 X86.657 Y105.055 E3.44122
G1 X86.507 Y104.671 E3.56452
G1 X86.413 Y104.014 E3.76346
G1 X86.393 Y103.723 E3.85101
G1 X86.423 Y103.334 E3.96773
G1 X86.502 Y102.975 E4.07801
G1 X86.609 Y102.656 E4.17894
G1 X86.689 Y102.501 E4.23119
G1 X86.947 Y102.100 E4.37392
G1 X87.177 Y101.855 E4.47475
G1 X87.467 Y101.606 E4.58915
G1 X87.855 Y101.349 E4.72877
G1 X88.393 Y101.077 E4.90935
G1 X89.211 Y100.782 E5.16988
G1 X90.146 Y100.523 E5.46061
G1 X93.249 Y99.777 E6.41695
G1 X94.023 Y99.524 E6.66081
G1 X94.559 Y99.291 E6.83614
G1 X95.078 Y99.010 E7.01302
G1 X95.409 Y98.768 E7.13578
G1 X95.775 Y98.410 E7.28921
G1 X95.945 Y98.188 E7.37288
G1 X96.087 Y97.941 E7.45825
G1 X96.212 Y97.670 E7.54786
G1 X96.301 Y97.364 E7.64339
G1 X96.368 Y97.006 E7.75243
G1 X96.393 Y96.630 E7.86529
G1 X96.371 Y96.327 E7.95632
G1 X96.264 Y95.589 E8.17976
G1 X96.109 Y95.199 E8.30541
G1 X95.893 Y94.785 E8.44550
G1 X95.711 Y94.547 E8.53511
G1 X95.491 Y94.305 E8.63322
G1 X95.235 Y94.072 E8.73701
G1 X94.643 Y93.690 E8.94806
G1 X94.219 Y93.484 E9.08945
G1 X93.638 Y93.289 E9.27307
G1 X92.845 Y93.103 E9.51706
G1 X92.607 Y93.068 E9.58913
G1 X91.151 Y92.971 E10.02639
G1 X89.844 Y93.102 E10.42013
G1 X88.661 Y93.314 E10.78003
G1 X88.225 Y93.434 E10.91553
G1 X87.810 Y93.646 E11.05523
G1 X86.934 Y94.228 E11.37028
G1 X86.520 Y94.582 E11.53378
G1 X86.113 Y95.275 E11.77441
G1 X85.680 Y96.245 E12.09277
G92 E0
G1 X91.125 Y92.160 F7800.000
G1 X91.125 Y92.160 F7800.000
G1 X91.194 Y91.161 F7800.000
G1 X92.631 Y91.211 F7800.000
G1 X93.048 Y91.226 F7800.000
G1 X93.235 Y91.240 F7800.000
G1 X94.831 Y91.436 F7800.000
G1 X95.132 Y91.491 F7800.000
G1 X96.537 Y91.831 F7800.000
G1 X97.039 Y91.993 F7800.000
G1 X98.308 Y92.502 F7800.000
G1 X99.171 Y92.940 F7800.000
G1 X99.924 Y93.403 F7800.000
G1 X100.975 Y92.352 F7800.000
G1 X103.167 Y92.352 F7800.000
G1 X115.336 Y93.198 F7800.000
G1 X105.520 Y93.198 E2.94133 F600.000
G1 X104.420 Y93.556 E3.28802
G1 X104.816 Y94.586 E3.61865
G1 X113.167 Y105.421 E7.71765
G1 X113.559 Y106.453 E8.04874
G1 X112.473 Y106.802 E8.39055
G1 X103.959 Y106.802 E10.94174
G92 E0
G1 Z0.900 F7800.000
G1 X96.317 Y104.194 F7800.000
G1 X95.238 Y105.700 E0.55491 F600.000
G1 X94.893 Y106.033 E0.69861
G1 X94.653 Y106.223 E0.79048
G1 X94.301 Y106.430 E0.91290
G1 X93.829 Y106.647 E1.06843
G1 X93.212 Y106.831 E1.26132
G1 X92.660 Y106.944 E1.43013
G1 X92.222 Y106.998 E1.56234
G1 X91.173 Y107.058 E1.87734
G1 X89.978 Y106.983 E2.23604
G1 X89.574 Y106.930 E2.35814
G1 X88.927 Y106.780 E2.55716
G1 X88.317 Y106.577 E2.74987
G1 X87.801 Y106.307 E2.92443
G1 X87.408 Y106.040 E3.06681
G1 X87.232 Y105.878 E3.13853
G1 X87.013 Y105.636 E3.23612
G1 X86.833 Y105.397 E3.32585
G1 X86.657 Y105.055 E3.44122
G1 X86.507 Y104.671 E3.56452
G1 X86.413 Y104.014 E3.76346
G1 X86.393 Y103.723 E3.85101
G1 X86.423 Y103.334 E3.96773
G1 X86.502 Y102.975 E4.07801
G1 X86.609 Y102.656 E4.17894
G1 X86.689 Y102.501 E4.23119
G1 X86.947 Y102.100 E4.37392
G1 X87.177 Y101.855 E4.47475
G1 X87.467 Y101.606 E4.58915
G1 X87.855 Y101.349 E4.72877
G1 X88.393 Y101.077 E4.90936
G1 X89.211 Y100.782 E5.16988
G1 X90.146 Y100.523 E5.46061
G1 X93.249 Y99.777 E6.41695
G1 X94.023 Y99.524 E6.66081
G1 X94.559 Y99.291 E6.83614
G1 X95.078 Y99.010 E7.01302
G1 X95.409 Y98.768 E7.13578
G1 X95.775 Y98.410 E7.28921
G1 X95.945 Y98.188 E7.37288
G1 X96.087 Y97.941 E7.45825
G1 X96.212 Y97.670 E7.54786
G1 X96.301 Y97.364 E7.64339
G1 X96.368 Y97.006 E7.75243
G1 X96.393 Y96.630 E7.86529
G1 X96.371 Y96.327 E7.95632
G1 X96.264 Y95.589 E8.17976
G1 X96.109 Y95.199 E8.30541
G1 X95.893 Y94.785 E8.44550
G1 X95.711 Y94.547 E8.53511
G1 X95.491 Y94.305 E8.63322
G1 X95.235 Y94.072 E8.73701
G1 X94.643 Y93.690 E8.94806
G1 X94.219 Y93.484 E9.08945
G1 X93.638 Y93.289 E9.27308
G1 X92.845 Y93.103 E9.51706
G1 X92.607 Y93.068 E9.58913
G1 X91.151 Y92.971 E10.02639
G1 X89.844 Y93.102 E10.42013
G1 X88.661 Y93.314 E10.78003
G1 X88.225 Y93.434 E10.91553
G1 X87.810 Y93.646 E11.05523
G1 X86.934 Y94.228 E11.37028
G1 X86.520 Y94.582 E11.53378
G1 X86.113 Y95.275 E11.77441
G1 X85.680 Y96.245 E12.09277
G92 E0
G1 X91.125 Y92.160 F7800.000
G1 X91.125 Y92.160 F7800.000
G1 X91.194 Y91.161 F7800.000
G1 X92.306 Y91.200 F7800.000
G1 X92.306 Y91.200 F7800.000
G1 X93.048 Y91.226 F7800.000
G1 X93.235 Y91.240 F7800.000
G1 X94.831 Y91.436 F7800.000
G1 X95.132 Y91.491 F7800.000
