; generated by Slic3r 1.2.9 on 2016-03-10 at 20:36:47

; external perimeters extrusion width = 1.54mm
; perimeters extrusion width = 2.62mm
; infill extrusion width = 6.27mm
; solid infill extrusion width = 2.62mm
; top infill extrusion width = 2.62mm

M107
M104 S30 ; set temperature
G28 ; home all axes
G1 Z5 F5000 ; lift nozzle
M302
M92 E10000
M500
M501
G1 E100
M109 S30 ; wait for temperature to be reached
G21 ; set units to millimeters
G90 ; use absolute coordinates
M82 ; use absolute distances for extrusion
G92 E0
G1 Z0.300 F7800.000
G1 X130.353 Y131.181 F7800.000
G1 X131.055 Y131.181 E0.03175 F600.000
G1 X131.055 Y132.423 E0.08795
G1 X118.945 Y132.423 E0.63588
G1 X118.945 Y131.181 E0.69208
G1 X124.195 Y131.181 E0.92959
G1 X124.195 Y117.577 E1.54516
G1 X125.805 Y117.577 E1.61806
G1 X125.805 Y131.181 E2.23363
G1 X130.122 Y131.181 E2.42894 F600.000
G1 X130.160 Y131.407 F7800.000
G1 X130.829 Y132.075 E2.47215 F600.000
G1 X130.399 Y132.197 E2.49255
G1 X129.609 Y131.407 E2.54366
G1 X129.058 Y131.407 E2.56887
G1 X129.848 Y132.197 E2.61997
G1 X129.297 Y132.197 E2.64518
G1 X128.507 Y131.407 E2.69629
G1 X127.956 Y131.407 E2.72150
G1 X128.746 Y132.197 E2.77260
G1 X128.194 Y132.197 E2.79781
G1 X127.404 Y131.407 E2.84892
G1 X126.853 Y131.407 E2.87413
G1 X127.643 Y132.197 E2.92523
G1 X127.092 Y132.197 E2.95044
G1 X126.302 Y131.407 E3.00154
G1 X125.751 Y131.407 E3.02675
G1 X126.541 Y132.197 E3.07786
G1 X125.990 Y132.197 E3.10307
G1 X124.420 Y130.628 E3.20456
G1 X124.420 Y130.077 E3.22977
G1 X125.580 Y131.236 E3.30474
G1 X125.580 Y130.685 E3.32996
G1 X124.420 Y129.525 E3.40493
G1 X124.420 Y128.974 E3.43014
G1 X125.580 Y130.133 E3.50511
G1 X125.580 Y129.582 E3.53032
G1 X124.420 Y128.423 E3.60529
G1 X124.420 Y127.872 E3.63050
G1 X125.580 Y129.031 E3.70547
G1 X125.580 Y128.480 E3.73068
G1 X124.420 Y127.321 E3.80565
G1 X124.420 Y126.769 E3.83086
G1 X125.580 Y127.928 E3.90583
G1 X125.580 Y127.377 E3.93104
G1 X124.420 Y126.218 E4.00601
G1 X124.420 Y125.667 E4.03123
G1 X125.580 Y126.826 E4.10620
G1 X125.580 Y126.275 E4.13141
G1 X124.420 Y125.116 E4.20638
G1 X124.420 Y124.565 E4.23159
G1 X125.580 Y125.724 E4.30656
G1 X125.580 Y125.172 E4.33177
G1 X124.420 Y124.013 E4.40674
G1 X124.420 Y123.462 E4.43195
G1 X125.580 Y124.621 E4.50692
G1 X125.580 Y124.070 E4.53213
G1 X124.420 Y122.911 E4.60710
G1 X124.420 Y122.360 E4.63231
G1 X125.580 Y123.519 E4.70728
G1 X125.580 Y122.968 E4.73249
G1 X124.420 Y121.808 E4.80747
G1 X124.420 Y121.257 E4.83268
G1 X125.580 Y122.416 E4.90765
G1 X125.580 Y121.865 E4.93286
G1 X124.420 Y120.706 E5.00783
G1 X124.420 Y120.155 E5.03304
G1 X125.580 Y121.314 E5.10801
G1 X125.580 Y120.763 E5.13322
G1 X124.420 Y119.604 E5.20819
G1 X124.420 Y119.052 E5.23340
G1 X125.580 Y120.211 E5.30837
G1 X125.580 Y119.660 E5.33358
G1 X124.420 Y118.501 E5.40855
G1 X124.420 Y117.950 E5.43376
G1 X125.580 Y119.109 E5.50873
G1 X125.580 Y118.558 E5.53394
G1 X124.825 Y117.803 E5.58277
G1 X125.376 Y117.803 E5.60798
G1 X125.580 Y118.007 E5.62115
G1 X124.420 Y131.179 F7800.000
G1 X125.438 Y132.197 E5.68699 F600.000
G1 X124.097 Y131.407 F7800.000
G1 X124.887 Y132.197 E5.73809 F600.000
G1 X124.336 Y132.197 E5.76330
G1 X123.546 Y131.407 E5.81441
G1 X122.995 Y131.407 E5.83962
G1 X123.785 Y132.197 E5.89072
G1 X123.234 Y132.197 E5.91593
G1 X122.443 Y131.407 E5.96703
G1 X121.892 Y131.407 E5.99225
G1 X122.682 Y132.197 E6.04335
G1 X122.131 Y132.197 E6.06856
G1 X121.341 Y131.407 E6.11966
G1 X120.790 Y131.407 E6.14487
G1 X121.580 Y132.197 E6.19598
G1 X121.029 Y132.197 E6.22119
G1 X120.239 Y131.407 E6.27229
G1 X119.687 Y131.407 E6.29750
G1 X120.477 Y132.197 E6.34861
G1 X119.926 Y132.197 E6.37382
G1 X119.171 Y131.442 E6.42264
G1 X119.171 Y131.993 E6.44785
G1 X119.375 Y132.197 E6.46102
M106 S255
G92 E0
G1 Z0.600 F7800.000
G1 X126.748 Y130.956 F7800.000
G1 X123.970 Y131.802 E0.87020 F600.000
G1 X118.720 Y131.802 E2.44305
G1 X131.280 Y131.802 F7800.000
G1 X126.031 Y131.802 E4.01589 F600.000
G1 X125.000 Y131.488 E4.33867
G1 X125.000 Y117.352 E8.57453
G92 E0
G1 Z0.900 F7800.000
G1 X126.748 Y130.956 F7800.000
G1 X123.970 Y131.802 E0.87020 F600.000
G1 X118.720 Y131.802 E2.44305
G1 X131.280 Y131.802 F7800.000
G1 X126.031 Y131.802 E4.01589 F600.000
G1 X125.000 Y131.488 E4.33867
G1 X125.000 Y117.352 E8.57453
G92 E0
G1 Z1.200 F7800.000
G1 X126.748 Y130.956 F7800.000
G1 X123.970 Y131.802 E0.87020 F600.000
G1 X118.720 Y131.802 E2.44305
G1 X131.280 Y131.802 F7800.000
G1 X126.031 Y131.802 E4.01589 F600.000
G1 X125.000 Y131.488 E4.33867
G1 X125.000 Y117.352 E8.57453
G92 E0
G1 Z1.500 F7800.000
G1 X126.748 Y130.956 F7800.000
G1 X123.970 Y131.802 E0.87020 F600.000
G1 X118.720 Y131.802 E2.44305
G1 X131.280 Y131.802 F7800.000
G1 X126.031 Y131.802 E4.01589 F600.000
G1 X125.000 Y131.488 E4.33867
G1 X125.000 Y117.352 E8.57453
G92 E0
G1 Z1.800 F7800.000
G1 X126.748 Y130.956 F7800.000
G1 X123.970 Y131.802 E0.87020 F600.000
G1 X118.720 Y131.802 E2.44305
G1 X131.280 Y131.802 F7800.000
G1 X126.031 Y131.802 E4.01589 F600.000
G1 X125.000 Y131.488 E4.33867
G1 X125.000 Y117.352 E8.57453
G92 E0
G1 Z2.100 F7800.000
G1 X126.748 Y130.956 F7800.000
G1 X123.970 Y131.802 E0.87020 F600.000
G1 X118.720 Y131.802 E2.44305
G92 E0
G1 X131.280 Y131.802 F7800.000
G1 X126.031 Y131.802 E1.57284 F600.000
G1 X125.000 Y131.488 E1.89563
G1 X125.000 Y117.352 E6.13148
G92 E0
M107
M104 S0 ; turn off temperature
G28 X0  ; home X axis
M84     ; disable motors

; filament used = 57.9mm (0.4cm3)

; avoid_crossing_perimeters = 1
; bed_shape = 0x0,250x0,250x250,0x250
; bed_temperature = 0
; before_layer_gcode = 
; bridge_acceleration = 0
; bridge_fan_speed = 100
; brim_width = 0
; complete_objects = 0
; cooling = 1
; default_acceleration = 0
; disable_fan_first_layers = 1
; duplicate_distance = 6
; end_gcode = M104 S0 ; turn off temperature\nG28 X0  ; home X axis\nM84     ; disable motors\n
; extruder_clearance_height = 20
; extruder_clearance_radius = 20
; extruder_offset = 0x0
; extrusion_axis = E
; extrusion_multiplier = 3
; fan_always_on = 0
; fan_below_layer_time = 60
; filament_colour = #FFFFFF
; filament_diameter = 3.125
; first_layer_acceleration = 0
; first_layer_bed_temperature = 0
; first_layer_extrusion_width = 150%
; first_layer_speed = 90%
; first_layer_temperature = 30
; gcode_arcs = 0
; gcode_comments = 0
; gcode_flavor = reprap
; infill_acceleration = 0
; infill_first = 0
; layer_gcode = 
; max_fan_speed = 100
; max_print_speed = 80
; max_volumetric_speed = 0
; min_fan_speed = 35
; min_print_speed = 10
; min_skirt_length = 0
; notes = 
; nozzle_diameter = 1.54
; only_retract_when_crossing_perimeters = 1
; ooze_prevention = 0
; output_filename_format = [input_filename_base].gcode
; perimeter_acceleration = 0
; post_process = 
; pressure_advance = 0
; resolution = 0
; retract_before_travel = 2
; retract_layer_change = 1
; retract_length = 0
; retract_length_toolchange = 10
; retract_lift = 0
; retract_restart_extra = 0
; retract_restart_extra_toolchange = 0
; retract_speed = 0
; skirt_distance = 6
; skirt_height = 1
; skirts = 0
; slowdown_below_layer_time = 30
; spiral_vase = 0
; standby_temperature_delta = -5
; start_gcode = G28 ; home all axes\nG1 Z5 F5000 ; lift nozzle\nM302\nM92 E10000\nM500\nM501\nG1 E100
; temperature = 30
; threads = 2
; toolchange_gcode = 
; travel_speed = 130
; use_firmware_retraction = 0
; use_relative_e_distances = 0
; use_volumetric_e = 0
; vibration_limit = 0
; wipe = 0
; z_offset = 0
; dont_support_bridges = 1
; extrusion_width = 0
; first_layer_height = 100%
; infill_only_where_needed = 0
; interface_shells = 0
; layer_height = 0.3
; raft_layers = 0
; seam_position = random
; support_material = 0
; support_material_angle = 0
; support_material_contact_distance = 0.2
; support_material_enforce_layers = 0
; support_material_extruder = 1
; support_material_extrusion_width = 0
; support_material_interface_extruder = 1
; support_material_interface_layers = 3
; support_material_interface_spacing = 0
; support_material_interface_speed = 100%
; support_material_pattern = pillars
; support_material_spacing = 2.5
; support_material_speed = 7
; support_material_threshold = 0
; xy_size_compensation = 0
; bottom_solid_layers = 3
; bridge_flow_ratio = 1
; bridge_speed = 10
; external_fill_pattern = rectilinear
; external_perimeter_extrusion_width = 0
; external_perimeter_speed = 70%
; external_perimeters_first = 1
; extra_perimeters = 1
; fill_angle = 45
; fill_density = 60%
; fill_pattern = rectilinear
; gap_fill_speed = 10
; infill_every_layers = 1
; infill_extruder = 1
; infill_extrusion_width = 0
; infill_overlap = 15%
; infill_speed = 10
; overhangs = 1
; perimeter_extruder = 1
; perimeter_extrusion_width = 0
; perimeter_speed = 10
; perimeters = 1
; small_perimeter_speed = 70%
; solid_infill_below_area = 70
; solid_infill_every_layers = 0
; solid_infill_extruder = 1
; solid_infill_extrusion_width = 0
; solid_infill_speed = 10
; thin_walls = 1
; top_infill_extrusion_width = 0
; top_solid_infill_speed = 10
; top_solid_layers = 3
