; generated by Slic3r 1.2.9 on 2016-03-11 at 01:30:24

; external perimeters extrusion width = 1.54mm
; perimeters extrusion width = 2.62mm
; infill extrusion width = 6.27mm
; solid infill extrusion width = 2.62mm
; top infill extrusion width = 2.62mm

M107
M104 S30 ; set temperature
G28 ; home all axes
G1 Z5 F5000 ; lift nozzle
M302
M92 E10000
M500
M501
G1 E100
M109 S30 ; wait for temperature to be reached
G21 ; set units to millimeters
G90 ; use absolute coordinates
M82 ; use absolute distances for extrusion
G92 E0
G1 Z0.300 F7800.000
G1 X107.481 Y107.423 F7800.000
G1 X103.597 Y107.423 E0.17575 F378.000
G1 X103.597 Y92.577 E0.84753
G1 X109.555 Y92.577 E1.11709
G1 X111.055 Y92.693 E1.18520
G1 X111.156 Y92.700 E1.18978 F378.000
G1 X112.483 Y93.064 E1.25204
G1 X113.547 Y93.663 E1.30728
G1 X114.322 Y94.467 E1.35780
G1 X114.786 Y95.456 E1.40725
G1 X114.943 Y96.650 E1.46173
G1 X114.840 Y97.552 E1.50283
G1 X114.533 Y98.339 E1.54101
G1 X114.023 Y99.016 E1.57938
G1 X113.320 Y99.561 E1.61961
G1 X112.434 Y99.946 E1.66335
G1 X111.315 Y100.177 E1.71505
G1 X111.291 Y100.600 E1.73419
G1 X112.144 Y100.878 E1.77480
G1 X112.815 Y101.267 E1.80986
G1 X113.350 Y101.778 E1.84337
G1 X113.741 Y102.398 E1.87650
G1 X113.977 Y103.110 E1.91045
G1 X114.054 Y103.901 E1.94643
G1 X113.492 Y105.853 E2.03833
G1 X111.812 Y107.019 E2.13084
G1 X108.899 Y107.423 E2.26394
G1 X107.712 Y107.423 E2.31762
G92 E0
G1 X104.443 Y106.648 F7800.000
G1 X104.443 Y106.648 F7800.000
G1 X107.712 Y99.729 F7800.000
G1 X105.218 Y99.729 E0.11286 F378.000
G1 X105.218 Y93.786 E0.38177
G1 X109.463 Y93.786 E0.57384 F378.000
G1 X110.638 Y93.866 E0.62715
G1 X111.606 Y94.113 E0.67234
G1 X112.356 Y94.537 E0.71132
G1 X112.886 Y95.139 E0.74764
G1 X113.201 Y95.902 E0.78500
G1 X113.306 Y96.831 E0.82726
G1 X112.852 Y98.445 E0.90315
G1 X111.481 Y99.420 E0.97927
G1 X109.308 Y99.729 E1.07857
G1 X107.943 Y99.729 E1.14033
G1 X107.943 Y100.895 F7800.000
G1 X108.921 Y100.895 E1.18456 F378.000
G1 X109.959 Y100.967 E1.23164
G1 X110.830 Y101.188 E1.27230
G1 X111.525 Y101.567 E1.30813
G1 X112.030 Y102.117 E1.34189
G1 X112.329 Y102.825 E1.37670
G1 X112.427 Y103.676 E1.41546
G1 X112.325 Y104.489 E1.45254
G1 X112.010 Y105.154 E1.48583
G1 X111.483 Y105.643 E1.51836
G1 X110.782 Y105.966 E1.55328
G1 X109.927 Y106.153 E1.59289
G1 X108.920 Y106.214 E1.63853
G1 X105.218 Y106.214 E1.80603
G1 X105.218 Y100.895 E2.04671
G1 X107.712 Y100.895 E2.15957 F378.000
G1 X111.081 Y100.912 F7800.000
G1 X111.809 Y101.227 E2.23738 F540.000
G1 X111.140 Y99.839 F7800.000
G1 X111.577 Y99.763 E2.28082 F540.000
G1 X111.998 Y99.589 E2.32543
G1 X112.202 Y99.394 F7800.000
G1 X112.505 Y99.697 E2.34501 F540.000
G1 X112.889 Y99.530 E2.36415
G1 X112.378 Y99.019 E2.39716
G1 X112.700 Y98.790 E2.41522
G1 X113.267 Y99.357 E2.45188
G1 X113.577 Y99.117 E2.46983
G1 X113.022 Y98.561 E2.50573
G1 X113.152 Y98.141 E2.52587
G1 X113.887 Y98.875 E2.57335
G1 X114.124 Y98.561 E2.59133
G1 X113.273 Y97.710 E2.64631
G1 X113.394 Y97.280 E2.66673
G1 X114.355 Y98.241 E2.72883
G1 X114.509 Y97.844 E2.74828
G1 X113.515 Y96.850 E2.81254
G1 X113.479 Y96.263 E2.83943
G1 X114.636 Y97.420 E2.91424
G1 X114.692 Y96.926 E2.93699
G1 X113.358 Y95.591 E3.02329
G1 X114.149 Y94.729 F7800.000
G1 X113.210 Y93.791 E3.08398 F540.000
G1 X112.083 Y93.214 F7800.000
G1 X114.580 Y95.712 E3.24544 F540.000
G1 X114.663 Y96.346 E3.27468
G1 X111.324 Y93.006 E3.49060
G1 X110.662 Y92.895 E3.52126
G1 X111.628 Y93.862 E3.58374
G1 X110.889 Y93.673 E3.61863
G1 X110.065 Y92.849 E3.67189
G1 X109.468 Y92.804 E3.69926
G1 X110.274 Y93.609 E3.75133
G1 X109.682 Y93.569 E3.77842
G1 X108.917 Y92.803 E3.82793
G1 X108.366 Y92.803 E3.85312
G1 X109.123 Y93.560 E3.90206
G1 X108.572 Y93.560 E3.92725
G1 X107.815 Y92.803 E3.97620
G1 X107.264 Y92.803 E4.00139
G1 X108.021 Y93.560 E4.05033
G1 X107.470 Y93.560 E4.07552
G1 X106.713 Y92.803 E4.12447
G1 X106.162 Y92.803 E4.14966
G1 X106.919 Y93.560 E4.19861
G1 X106.368 Y93.560 E4.22379
G1 X105.611 Y92.803 E4.27274
G1 X105.060 Y92.803 E4.29793
G1 X105.817 Y93.560 E4.34688
G1 X105.266 Y93.560 E4.37206
G1 X104.509 Y92.803 E4.42101
G1 X103.958 Y92.803 E4.44620
G1 X104.992 Y93.837 E4.51307
G1 X104.992 Y94.388 E4.53826
G1 X103.823 Y93.219 E4.61385
G1 X103.823 Y93.770 E4.63903
G1 X104.992 Y94.939 E4.71462
G1 X104.992 Y95.490 E4.73981
G1 X103.823 Y94.321 E4.81539
G1 X103.823 Y94.872 E4.84058
G1 X104.992 Y96.041 E4.91616
G1 X104.992 Y96.592 E4.94135
G1 X103.823 Y95.423 E5.01693
G1 X103.823 Y95.974 E5.04212
G1 X104.992 Y97.143 E5.11770
G1 X104.992 Y97.694 E5.14289
G1 X103.823 Y96.525 E5.21847
G1 X103.823 Y97.076 E5.24366
G1 X104.992 Y98.245 E5.31925
G1 X104.992 Y98.796 E5.34443
G1 X103.823 Y97.627 E5.42002
G1 X103.823 Y98.178 E5.44521
G1 X104.992 Y99.347 E5.52079
G1 X104.992 Y99.898 E5.54598
G1 X103.823 Y98.729 E5.62156
G1 X103.823 Y99.280 E5.64675
G1 X105.212 Y100.669 E5.73656
G1 X104.992 Y101.000 F7800.000
G1 X103.823 Y99.831 E5.81214 F540.000
G1 X103.823 Y100.382 E5.83733
G1 X104.992 Y101.551 E5.91292
G1 X104.992 Y102.102 E5.93810
G1 X103.823 Y100.933 E6.01369
G1 X103.823 Y101.484 E6.03887
G1 X104.992 Y102.653 E6.11446
G1 X104.992 Y103.204 E6.13965
G1 X103.823 Y102.035 E6.21523
G1 X103.823 Y102.586 E6.24042
G1 X104.992 Y103.755 E6.31600
G1 X104.992 Y104.306 E6.34119
G1 X103.823 Y103.137 E6.41677
G1 X103.823 Y103.688 E6.44196
G1 X104.992 Y104.857 E6.51754
G1 X104.992 Y105.408 E6.54273
G1 X103.823 Y104.239 E6.61832
G1 X103.823 Y104.790 E6.64350
G1 X104.992 Y105.959 E6.71909
G1 X104.923 Y106.440 E6.74132
G1 X105.680 Y107.197 E6.79027
G1 X106.231 Y107.197 E6.81545
G1 X105.474 Y106.440 E6.86440
G1 X104.992 Y106.510 E6.88663
G1 X103.823 Y105.341 E6.96222
G1 X103.823 Y105.892 E6.98740
G1 X105.129 Y107.197 E7.07181
G1 X104.578 Y107.197 E7.09700
G1 X103.823 Y106.442 E7.14578
G1 X103.823 Y106.993 E7.17097
G1 X104.027 Y107.197 E7.18413
G1 X106.025 Y106.440 F7800.000
G1 X106.782 Y107.197 E7.23308 F540.000
G1 X107.333 Y107.197 E7.25826
G1 X106.576 Y106.440 E7.30721
G1 X107.127 Y106.440 E7.33240
G1 X107.884 Y107.197 E7.38135
G1 X108.435 Y107.197 E7.40653
G1 X107.678 Y106.440 E7.45548
G1 X108.228 Y106.440 E7.48067
G1 X108.982 Y107.194 E7.52941
G1 X109.466 Y107.127 E7.55174
G1 X108.779 Y106.440 E7.59614
G1 X109.303 Y106.412 E7.62010
G1 X109.950 Y107.060 E7.66194
G1 X110.434 Y106.992 E7.68427
G1 X109.822 Y106.381 E7.72380
G1 X110.283 Y106.290 E7.74525
G1 X110.918 Y106.925 E7.78629
G1 X111.401 Y106.858 E7.80862
G1 X110.735 Y106.191 E7.85171
G1 X111.123 Y106.028 E7.87095
G1 X111.850 Y106.756 E7.91800
G1 X112.176 Y106.530 E7.93609
G1 X111.500 Y105.855 E7.97977
G1 X111.804 Y105.608 E7.99767
G1 X112.501 Y106.305 E8.04273
G1 X112.826 Y106.079 E8.06083
G1 X112.089 Y105.342 E8.10845
G1 X112.301 Y105.003 E8.12673
G1 X113.151 Y105.853 E8.18167
G1 X113.372 Y105.523 E8.19983
G1 X112.479 Y104.630 E8.25758
G1 X112.582 Y104.182 E8.27859
G1 X113.495 Y105.095 E8.33764
G1 X113.618 Y104.667 E8.35799
G1 X112.643 Y103.692 E8.42105
G1 X112.598 Y103.096 E8.44839
G1 X113.742 Y104.240 E8.52235
G1 X113.804 Y103.751 E8.54487
G1 X112.424 Y102.371 E8.63406
G1 X111.968 Y101.364 F7800.000
G1 X113.704 Y103.100 E8.74629 F540.000
G1 X110.893 Y100.840 F7800.000
G1 X109.913 Y99.860 E8.80965 F540.000
G1 X110.396 Y99.792 E8.83193
G1 X110.991 Y100.387 E8.87043
G1 X110.298 Y100.796 F7800.000
G1 X109.431 Y99.929 E8.92650 F540.000
G1 X108.906 Y99.955 E8.95053
G1 X109.665 Y100.714 E8.99960
G1 X109.073 Y100.673 E9.02672
G1 X108.355 Y99.955 E9.07315
G1 X107.804 Y99.955 E9.09834
G1 X108.518 Y100.669 E9.14451
G1 X107.967 Y100.669 E9.16970
G1 X107.253 Y99.955 E9.21586
G1 X106.702 Y99.955 E9.24105
G1 X107.416 Y100.669 E9.28722
G1 X106.865 Y100.669 E9.31241
G1 X106.151 Y99.955 E9.35857
G1 X105.600 Y99.955 E9.38376
G1 X106.314 Y100.669 E9.42993
G1 X105.763 Y100.669 E9.45512
G1 X105.049 Y99.955 E9.50129
G92 E0
G1 X103.372 Y92.352 F7800.000
G1 X101.372 Y92.352 F7800.000
G1 X94.141 Y92.352 F7800.000
G1 X92.141 Y92.352 F7800.000
G1 X91.916 Y96.963 F7800.000
G1 X91.916 Y104.936 E0.36074 F378.000
G1 X91.916 Y106.181 E0.41709 F378.000
G1 X97.165 Y106.181 E0.65460
G1 X97.165 Y107.423 E0.71080
G1 X85.056 Y107.423 E1.25873
G1 X85.056 Y106.181 E1.31493
G1 X90.305 Y106.181 E1.55244
G1 X90.305 Y92.577 E2.16801
G1 X91.916 Y92.577 E2.24091
G1 X91.916 Y96.732 E2.42894
G1 X91.690 Y93.007 F7800.000
G1 X91.486 Y92.803 E2.44211 F540.000
G1 X90.935 Y92.803 E2.46732
G1 X91.690 Y93.558 E2.51614
G1 X91.690 Y94.109 E2.54135
G1 X90.531 Y92.950 E2.61632
G1 X90.531 Y93.501 E2.64153
G1 X91.690 Y94.660 E2.71650
G1 X91.690 Y95.211 E2.74171
G1 X90.531 Y94.052 E2.81668
G1 X90.531 Y94.604 E2.84189
G1 X91.690 Y95.763 E2.91686
G1 X91.690 Y96.314 E2.94207
G1 X90.531 Y95.155 E3.01705
G1 X90.531 Y95.706 E3.04226
G1 X91.690 Y96.865 E3.11723
G1 X91.690 Y97.416 E3.14244
G1 X90.531 Y96.257 E3.21741
G1 X90.531 Y96.808 E3.24262
G1 X91.690 Y97.968 E3.31759
G1 X91.690 Y98.519 E3.34280
G1 X90.531 Y97.360 E3.41777
G1 X90.531 Y97.911 E3.44298
G1 X91.690 Y99.070 E3.51795
G1 X91.690 Y99.621 E3.54316
G1 X90.531 Y98.462 E3.61813
G1 X90.531 Y99.013 E3.64334
G1 X91.690 Y100.172 E3.71832
G1 X91.690 Y100.724 E3.74353
G1 X90.531 Y99.564 E3.81850
G1 X90.531 Y100.116 E3.84371
G1 X91.690 Y101.275 E3.91868
G1 X91.690 Y101.826 E3.94389
G1 X90.531 Y100.667 E4.01886
G1 X90.531 Y101.218 E4.04407
G1 X91.690 Y102.377 E4.11904
G1 X91.690 Y102.928 E4.14425
G1 X90.531 Y101.769 E4.21922
G1 X90.531 Y102.321 E4.24443
G1 X91.690 Y103.480 E4.31940
G1 X91.690 Y104.031 E4.34461
G1 X90.531 Y102.872 E4.41959
G1 X90.531 Y103.423 E4.44480
G1 X91.690 Y104.582 E4.51977
G1 X91.690 Y105.133 E4.54498
G1 X90.531 Y103.974 E4.61995
G1 X90.531 Y104.525 E4.64516
G1 X91.690 Y105.685 E4.72013
G1 X91.690 Y106.236 E4.74534
G1 X90.531 Y105.077 E4.82031
G1 X90.531 Y105.628 E4.84552
G1 X92.100 Y107.197 E4.94702
G1 X92.651 Y107.197 E4.97223
G1 X91.861 Y106.407 E5.02333
G1 X92.412 Y106.407 E5.04854
G1 X93.202 Y107.197 E5.09965
G1 X93.754 Y107.197 E5.12486
G1 X92.963 Y106.407 E5.17596
G1 X93.515 Y106.407 E5.20117
G1 X94.305 Y107.197 E5.25227
G1 X94.856 Y107.197 E5.27748
G1 X94.066 Y106.407 E5.32859
G1 X94.617 Y106.407 E5.35380
G1 X95.407 Y107.197 E5.40490
G1 X95.958 Y107.197 E5.43011
G1 X95.168 Y106.407 E5.48122
G1 X95.720 Y106.407 E5.50643
G1 X96.510 Y107.197 E5.55753
G1 X96.939 Y107.075 E5.57794
G1 X96.271 Y106.407 E5.62115
G1 X91.549 Y107.197 F7800.000
G1 X90.531 Y106.179 E5.68699 F540.000
G1 X90.207 Y106.407 F7800.000
G1 X90.997 Y107.197 E5.73809 F540.000
G1 X90.446 Y107.197 E5.76331
G1 X89.656 Y106.407 E5.81441
G1 X89.105 Y106.407 E5.83962
G1 X89.895 Y107.197 E5.89072
G1 X89.344 Y107.197 E5.91593
G1 X88.554 Y106.407 E5.96704
G1 X88.003 Y106.407 E5.99225
G1 X88.793 Y107.197 E6.04335
G1 X88.241 Y107.197 E6.06856
G1 X87.451 Y106.407 E6.11967
G1 X86.900 Y106.407 E6.14488
G1 X87.690 Y107.197 E6.19598
G1 X87.139 Y107.197 E6.22119
G1 X86.349 Y106.407 E6.27229
G1 X85.798 Y106.407 E6.29750
G1 X86.588 Y107.197 E6.34861
G1 X86.037 Y107.197 E6.37382
G1 X85.282 Y106.442 E6.42264
G1 X85.282 Y106.993 E6.44785
G1 X85.485 Y107.197 E6.46102
M106 S255
G92 E0
G1 Z0.600 F7800.000
G1 X105.246 Y103.801 F7800.000
G1 X104.408 Y99.504 E1.31181 F600.000
G1 X104.408 Y94.011 E2.95776
G1 X104.481 Y93.461 E3.12413
G1 X105.443 Y93.181 E3.42438
G1 X109.512 Y93.182 E4.64347
G1 X110.808 Y93.283 E5.03309
G1 X111.048 Y93.322 E5.10598
G1 X111.945 Y93.575 E5.38512
G1 X112.226 Y93.691 E5.47618
G1 X112.654 Y93.932 E5.62357
G1 X113.091 Y94.254 E5.78594
G1 X113.424 Y94.615 E5.93338
G1 X113.626 Y94.875 E6.03191
G1 X113.990 Y95.689 E6.29909
G1 X114.114 Y96.695 E6.60290
G1 X114.075 Y97.093 E6.72257
G1 X114.024 Y97.351 E6.80141
G1 X113.826 Y97.944 E6.98888
G1 X113.534 Y98.533 E7.18599
G1 X113.127 Y98.969 E7.36453
G1 X113.017 Y99.050 E7.40537
G1 X112.281 Y99.466 E7.65870
G1 X111.746 Y99.699 E7.83357
G1 X111.412 Y99.792 E7.93764
G1 X110.557 Y100.308 E8.23699
G1 X109.758 Y101.178 E8.59080
G92 E0
G1 X104.565 Y100.312 F7800.000
G1 X109.409 Y100.324 E1.45131 F600.000
G1 X109.985 Y100.303 E1.62395
G1 X110.541 Y100.326 E1.79078
G1 X110.914 Y100.739 E1.95771
G1 X111.048 Y100.848 E2.00934
G1 X111.335 Y101.022 E2.11002
G1 X111.891 Y101.282 E2.29370
G1 X112.464 Y101.734 E2.51240
G1 X112.815 Y102.215 E2.69113
G1 X113.064 Y102.718 E2.85898
G1 X113.188 Y103.277 E3.03066
G1 X113.229 Y103.825 E3.19546
G1 X113.081 Y104.547 E3.41627
G1 X112.994 Y104.847 E3.50965
G1 X112.801 Y105.357 E3.67318
G1 X112.462 Y105.704 E3.81848
G1 X111.962 Y106.106 E4.01069
G1 X111.556 Y106.363 E4.15458
G1 X110.885 Y106.549 E4.36338
G1 X110.064 Y106.696 E4.61335
G1 X108.857 Y106.818 E4.97678
G1 X105.443 Y106.818 E5.99968
G1 X104.481 Y106.539 E6.29994
G1 X104.408 Y105.989 E6.46630
G1 X104.408 Y101.120 E7.92528
G1 X104.565 Y100.312 E8.17196
G92 E0
G1 X103.372 Y107.648 F7800.000
G1 X100.381 Y106.657 F7800.000
G1 X99.390 Y107.648 F7800.000
G1 X97.390 Y107.648 F7800.000
G1 X92.858 Y105.956 F7800.000
G1 X90.080 Y106.802 E0.87020 F600.000
G1 X84.831 Y106.802 E2.44305
G1 X97.390 Y106.802 F7800.000
G1 X92.141 Y106.802 E4.01589 F600.000
G1 X91.110 Y106.488 E4.33867
G1 X91.110 Y92.352 E8.57453
G92 E0
G1 Z0.900 F7800.000
G1 X105.246 Y103.801 F7800.000
G1 X104.408 Y99.504 E1.31181 F600.000
G1 X104.408 Y94.011 E2.95776
G1 X104.481 Y93.461 E3.12413
G1 X105.443 Y93.181 E3.42438
G1 X109.512 Y93.182 E4.64347
G1 X110.808 Y93.283 E5.03309
G1 X111.048 Y93.322 E5.10598
G1 X111.945 Y93.575 E5.38512
G1 X112.226 Y93.691 E5.47618
G1 X112.654 Y93.932 E5.62357
G1 X113.091 Y94.254 E5.78594
G1 X113.424 Y94.615 E5.93338
G1 X113.626 Y94.875 E6.03191
G1 X113.990 Y95.689 E6.29909
G1 X114.114 Y96.695 E6.60290
G1 X114.075 Y97.093 E6.72257
G1 X114.024 Y97.351 E6.80141
G1 X113.826 Y97.944 E6.98888
G1 X113.534 Y98.533 E7.18599
G1 X113.127 Y98.969 E7.36453
G1 X113.017 Y99.050 E7.40537
G1 X112.281 Y99.466 E7.65870
G1 X111.746 Y99.699 E7.83357
G1 X111.412 Y99.792 E7.93764
G1 X110.557 Y100.308 E8.23699
G1 X109.758 Y101.178 E8.59080
G92 E0
G1 X104.565 Y100.312 F7800.000
G1 X109.409 Y100.324 E1.45131 F600.000
G1 X109.985 Y100.303 E1.62395
G1 X110.541 Y100.326 E1.79078
G1 X110.914 Y100.739 E1.95771
G1 X111.048 Y100.848 E2.00934
G1 X111.335 Y101.022 E2.11002
G1 X111.891 Y101.282 E2.29370
G1 X112.464 Y101.734 E2.51240
G1 X112.815 Y102.215 E2.69113
G1 X113.064 Y102.718 E2.85898
G1 X113.188 Y103.277 E3.03066
G1 X113.229 Y103.825 E3.19546
G1 X113.081 Y104.547 E3.41627
G1 X112.994 Y104.847 E3.50965
G1 X112.801 Y105.357 E3.67318
G1 X112.462 Y105.704 E3.81848
G1 X111.962 Y106.106 E4.01069
G1 X111.556 Y106.363 E4.15458
G1 X110.885 Y106.549 E4.36338
G1 X110.064 Y106.696 E4.61335
G1 X108.857 Y106.818 E4.97678
G1 X105.443 Y106.818 E5.99968
G1 X104.481 Y106.539 E6.29994
G1 X104.408 Y105.989 E6.46630
G1 X104.408 Y101.120 E7.92528
G1 X104.565 Y100.312 E8.17196
G92 E0
G1 X103.372 Y107.648 F7800.000
G1 X100.381 Y106.657 F7800.000
G1 X99.390 Y107.648 F7800.000
G1 X97.390 Y107.648 F7800.000
G1 X92.858 Y105.956 F7800.000
G1 X90.080 Y106.802 E0.87020 F600.000
G1 X84.831 Y106.802 E2.44305
G1 X97.390 Y106.802 F7800.000
G1 X92.141 Y106.802 E4.01589 F600.000
G1 X91.110 Y106.488 E4.33867
G1 X91.110 Y92.352 E8.57453
G92 E0
G1 Z1.200 F7800.000
G1 X105.246 Y103.801 F7800.000
G1 X104.408 Y99.504 E1.31181 F600.000
G1 X104.408 Y94.011 E2.95776
G1 X104.481 Y93.461 E3.12413
G1 X105.443 Y93.181 E3.42438
G1 X109.512 Y93.182 E4.64347
G1 X110.808 Y93.283 E5.03309
G1 X111.048 Y93.322 E5.10598
G1 X111.945 Y93.575 E5.38512
G1 X112.226 Y93.691 E5.47618
G1 X112.654 Y93.932 E5.62357
G1 X113.091 Y94.254 E5.78594
G1 X113.424 Y94.615 E5.93338
G1 X113.626 Y94.875 E6.03191
G1 X113.990 Y95.689 E6.29909
G1 X114.114 Y96.695 E6.60290
G1 X114.075 Y97.093 E6.72257
G1 X114.024 Y97.351 E6.80141
G1 X113.826 Y97.944 E6.98888
G1 X113.534 Y98.533 E7.18599
G1 X113.127 Y98.969 E7.36453
G1 X113.017 Y99.050 E7.40537
G1 X112.281 Y99.466 E7.65870
G1 X111.746 Y99.699 E7.83357
G1 X111.412 Y99.792 E7.93764
G1 X110.557 Y100.308 E8.23699
G1 X109.758 Y101.178 E8.59080
G92 E0
G1 X104.565 Y100.312 F7800.000
G1 X109.409 Y100.324 E1.45131 F600.000
G1 X109.985 Y100.303 E1.62395
G1 X110.541 Y100.326 E1.79078
G1 X110.914 Y100.739 E1.95771
G1 X111.048 Y100.848 E2.00934
G1 X111.335 Y101.022 E2.11002
