; generated by Slic3r 1.2.9 on 2016-03-11 at 01:30:25

; external perimeters extrusion width = 1.54mm
; perimeters extrusion width = 2.62mm
; infill extrusion width = 6.27mm
; solid infill extrusion width = 2.62mm
; top infill extrusion width = 2.62mm

M107
M104 S30 ; set temperature
G28 ; home all axes
G1 Z5 F5000 ; lift nozzle
M302
M92 E10000
M500
M501
G1 E100
M109 S30 ; wait for temperature to be reached
G21 ; set units to millimeters
G90 ; use absolute coordinates
M82 ; use absolute distances for extrusion
G92 E0
G1 Z0.300 F7800.000
G1 X102.154 Y99.357 F7800.000
G1 X102.205 Y98.546 E0.03677 F378.000
G1 X102.493 Y97.176 E0.10011
G1 X102.970 Y95.954 E0.15948
G1 X103.627 Y94.896 E0.21582
G1 X104.454 Y94.017 E0.27043
G1 X105.454 Y93.314 E0.32575
G1 X106.610 Y92.799 E0.38302
G1 X107.906 Y92.489 E0.44333
G1 X109.344 Y92.386 E0.50857
G1 X110.618 Y92.486 E0.56638
G1 X110.753 Y92.497 E0.57250 F378.000
G1 X112.036 Y92.829 E0.63247
G1 X113.197 Y93.381 E0.69065
G1 X114.217 Y94.143 E0.74823
G1 X115.072 Y95.107 E0.80659
G1 X115.653 Y96.088 E0.85814
G1 X114.350 Y96.737 E0.92405
G1 X113.180 Y95.102 E1.01502
G1 X111.494 Y94.000 E1.10616
G1 X109.449 Y93.635 E1.20018
G1 X107.825 Y93.832 E1.27420
G1 X106.435 Y94.425 E1.34257
G1 X105.287 Y95.414 E1.41114
G1 X104.436 Y96.722 E1.48176
G1 X103.928 Y98.274 E1.55565
G1 X103.760 Y100.064 E1.63696
G1 X103.921 Y101.863 E1.71869
G1 X104.409 Y103.401 E1.79170
G1 X105.228 Y104.672 E1.86015
G1 X106.348 Y105.620 E1.92654
G1 X107.729 Y106.187 E1.99407
G1 X109.351 Y106.374 E2.06795
G1 X110.422 Y106.293 E2.11657
G1 X111.395 Y106.050 E2.16193
G1 X112.271 Y105.642 E2.20565
G1 X113.024 Y105.077 E2.24827
G1 X113.627 Y104.364 E2.29052
G1 X113.977 Y103.697 E2.32457
G1 X115.505 Y104.202 E2.39738
G1 X115.032 Y105.088 E2.44282
G1 X114.261 Y105.989 E2.49649
G1 X113.304 Y106.694 E2.55027
G1 X112.164 Y107.204 E2.60679
G1 X110.841 Y107.511 E2.66824
G1 X109.338 Y107.614 E2.73638
G1 X107.224 Y107.390 E2.83259
G1 X105.458 Y106.723 E2.91801
G1 X104.024 Y105.616 E2.99996
G1 X102.964 Y104.118 E3.08302
G1 X102.324 Y102.270 E3.17150
G1 X102.109 Y100.061 E3.27194
G1 X102.139 Y99.588 E3.29341
G1 X103.995 Y102.936 F7800.000
G1 X102.476 Y101.418 E3.39060 F540.000
G1 X102.418 Y100.813 E3.41809
G1 X103.741 Y102.137 E3.50284
G1 X103.655 Y101.505 E3.53172
G1 X102.359 Y100.209 E3.61470
G1 X102.356 Y99.660 E3.63953
G1 X103.601 Y100.906 E3.71927
G1 X103.548 Y100.306 E3.74650
G1 X102.388 Y99.147 E3.82072
G1 X102.421 Y98.634 E3.84399
G1 X103.567 Y99.780 E3.91738
G1 X103.614 Y99.282 E3.94006
G1 X102.500 Y98.168 E4.01137
G1 X102.595 Y97.717 E4.03222
G1 X103.661 Y98.783 E4.10047
G1 X103.709 Y98.286 E4.12308
G1 X102.690 Y97.266 E4.18836
G1 X102.832 Y96.863 E4.20771
G1 X103.844 Y97.875 E4.27248
G1 X103.978 Y97.463 E4.29206
G1 X102.985 Y96.471 E4.35563
G1 X103.138 Y96.078 E4.37469
G1 X104.113 Y97.052 E4.43706
G1 X104.253 Y96.647 E4.45647
G1 X103.338 Y95.732 E4.51505
G1 X103.547 Y95.395 E4.53299
G1 X104.468 Y96.316 E4.59196
G1 X104.683 Y95.986 E4.60981
G1 X103.756 Y95.059 E4.66918
G1 X104.011 Y94.768 E4.68668
G1 X104.898 Y95.656 E4.74347
G1 X105.113 Y95.325 E4.76132
G1 X104.280 Y94.492 E4.81466
G1 X104.553 Y94.219 E4.83212
G1 X105.398 Y95.065 E4.88625
G1 X105.691 Y94.812 E4.90376
G1 X104.853 Y93.973 E4.95745
G1 X105.173 Y93.748 E4.97518
G1 X105.984 Y94.560 E5.02713
G1 X106.277 Y94.307 E5.04464
G1 X105.493 Y93.523 E5.09485
G1 X105.865 Y93.349 E5.11343
G1 X106.637 Y94.121 E5.16284
G1 X107.019 Y93.958 E5.18166
G1 X106.243 Y93.181 E5.23137
G1 X106.621 Y93.013 E5.25008
G1 X107.402 Y93.794 E5.30008
G1 X107.784 Y93.631 E5.31890
G1 X107.060 Y92.907 E5.36526
G1 X107.500 Y92.802 E5.38575
G1 X108.259 Y93.561 E5.43434
G1 X108.746 Y93.502 E5.45653
G1 X107.951 Y92.707 E5.50739
G1 X108.460 Y92.670 E5.53049
G1 X109.232 Y93.443 E5.57992
G1 X109.784 Y93.449 E5.60492
G1 X108.969 Y92.634 E5.65712
G1 X109.513 Y92.632 E5.68176
G1 X110.448 Y93.568 E5.74164
G1 X111.113 Y93.686 E5.77219
G1 X110.105 Y92.679 E5.83667
G1 X110.717 Y92.745 E5.86449
G1 X111.894 Y93.922 E5.93984
G1 X112.329 Y93.266 F7800.000
G1 X115.170 Y96.107 E6.12175 F540.000
G1 X114.806 Y96.288 E6.14016
G1 X113.322 Y94.805 E6.23514
G1 X113.470 Y94.952 F7800.000
G1 X111.453 Y92.935 E6.36427 F540.000
G1 X113.813 Y94.204 F7800.000
G1 X114.312 Y94.704 E6.39624 F540.000
G92 E0
G1 X114.357 Y104.639 F7800.000
G1 X114.357 Y104.639 F7800.000
G1 X114.460 Y104.126 F7800.000
G1 X115.022 Y104.688 E0.03597 F540.000
G1 X114.823 Y105.035 E0.05407
G1 X113.954 Y104.166 E0.10974
G1 X113.754 Y104.511 E0.12782
G1 X114.572 Y105.329 E0.18018
G1 X114.320 Y105.623 E0.19770
G1 X113.504 Y104.807 E0.24995
G1 X113.254 Y105.103 E0.26748
G1 X114.049 Y105.898 E0.31838
G1 X113.739 Y106.133 E0.33601
G1 X112.967 Y105.361 E0.38545
G1 X112.655 Y105.595 E0.40309
G1 X113.425 Y106.365 E0.45239
G1 X113.087 Y106.573 E0.47034
G1 X112.343 Y105.828 E0.51801
G1 X111.970 Y106.001 E0.53660
G1 X112.710 Y106.741 E0.58395
G1 X112.333 Y106.909 E0.60265
G1 X111.598 Y106.175 E0.64967
G1 X111.193 Y106.315 E0.66908
G1 X111.922 Y107.044 E0.71576
G1 X111.480 Y107.147 E0.73633
G1 X110.757 Y106.424 E0.78262
G1 X110.309 Y106.522 E0.80336
G1 X111.037 Y107.250 E0.84997
G1 X110.551 Y107.310 E0.87214
G1 X109.802 Y106.561 E0.92011
G1 X109.294 Y106.599 E0.94314
G1 X110.041 Y107.345 E0.99091
G1 X109.530 Y107.380 E1.01407
G1 X108.685 Y106.535 E1.06819
G1 X108.068 Y106.464 E1.09628
G1 X108.940 Y107.335 E1.15209
G1 X108.330 Y107.271 E1.17988
G1 X107.392 Y106.334 E1.23987
G1 X106.466 Y105.953 F7800.000
G1 X107.719 Y107.206 E1.32009 F540.000
G1 X106.992 Y107.024 E1.35404
G1 X102.786 Y102.819 E1.62327
G1 X102.535 Y102.022 E1.66106
G1 X104.358 Y103.845 E1.77775
G1 X103.075 Y103.653 F7800.000
G1 X106.115 Y106.693 E1.97238 F540.000
G1 X104.456 Y105.580 F7800.000
G1 X104.098 Y105.222 E1.99530 F540.000
G92 E0
G1 X101.883 Y100.065 F7800.000
G1 X96.718 Y97.410 F7800.000
G1 X96.897 Y95.717 F7800.000
G1 X93.532 Y92.352 F7800.000
G1 X91.340 Y92.352 F7800.000
G1 X89.504 Y96.541 F7800.000
G1 X89.504 Y92.577 E0.17935 F378.000
G1 X91.115 Y92.577 E0.25225
G1 X91.115 Y104.936 E0.81147
G1 X91.115 Y106.181 E0.86782 F378.000
G1 X96.364 Y106.181 E1.10533
G1 X96.364 Y107.423 E1.16153
G1 X84.255 Y107.423 E1.70945
G1 X84.255 Y106.181 E1.76565
G1 X89.504 Y106.181 E2.00317
G1 X89.504 Y96.772 E2.42894
G1 X90.889 Y93.007 F7800.000
G1 X90.685 Y92.803 E2.44211 F540.000
G1 X90.134 Y92.803 E2.46732
G1 X90.889 Y93.558 E2.51614
G1 X90.889 Y94.109 E2.54135
G1 X89.730 Y92.950 E2.61632
G1 X89.730 Y93.501 E2.64153
G1 X90.889 Y94.660 E2.71650
G1 X90.889 Y95.211 E2.74171
G1 X89.730 Y94.052 E2.81668
G1 X89.730 Y94.604 E2.84189
G1 X90.889 Y95.763 E2.91686
G1 X90.889 Y96.314 E2.94208
G1 X89.730 Y95.155 E3.01705
G1 X89.730 Y95.706 E3.04226
G1 X90.889 Y96.865 E3.11723
G1 X90.889 Y97.416 E3.14244
G1 X89.730 Y96.257 E3.21741
G1 X89.730 Y96.808 E3.24262
G1 X90.889 Y97.968 E3.31759
G1 X90.889 Y98.519 E3.34280
G1 X89.730 Y97.360 E3.41777
G1 X89.730 Y97.911 E3.44298
G1 X90.889 Y99.070 E3.51795
G1 X90.889 Y99.621 E3.54316
G1 X89.730 Y98.462 E3.61813
G1 X89.730 Y99.013 E3.64335
G1 X90.889 Y100.172 E3.71832
G1 X90.889 Y100.724 E3.74353
G1 X89.730 Y99.564 E3.81850
G1 X89.730 Y100.116 E3.84371
G1 X90.889 Y101.275 E3.91868
G1 X90.889 Y101.826 E3.94389
G1 X89.730 Y100.667 E4.01886
G1 X89.730 Y101.218 E4.04407
G1 X90.889 Y102.377 E4.11904
G1 X90.889 Y102.928 E4.14425
G1 X89.730 Y101.769 E4.21922
G1 X89.730 Y102.321 E4.24443
G1 X90.889 Y103.480 E4.31940
G1 X90.889 Y104.031 E4.34462
G1 X89.730 Y102.872 E4.41959
G1 X89.730 Y103.423 E4.44480
G1 X90.889 Y104.582 E4.51977
G1 X90.889 Y105.133 E4.54498
G1 X89.730 Y103.974 E4.61995
G1 X89.730 Y104.525 E4.64516
G1 X90.889 Y105.685 E4.72013
G1 X90.889 Y106.236 E4.74534
G1 X89.730 Y105.077 E4.82031
G1 X89.730 Y105.628 E4.84552
G1 X91.299 Y107.197 E4.94702
G1 X91.850 Y107.197 E4.97223
G1 X91.060 Y106.407 E5.02333
G1 X91.611 Y106.407 E5.04854
G1 X92.401 Y107.197 E5.09965
G1 X92.953 Y107.197 E5.12486
G1 X92.162 Y106.407 E5.17596
G1 X92.714 Y106.407 E5.20117
G1 X93.504 Y107.197 E5.25227
G1 X94.055 Y107.197 E5.27748
G1 X93.265 Y106.407 E5.32859
G1 X93.816 Y106.407 E5.35380
G1 X94.606 Y107.197 E5.40490
G1 X95.157 Y107.197 E5.43011
G1 X94.367 Y106.407 E5.48122
G1 X94.919 Y106.407 E5.50643
G1 X95.709 Y107.197 E5.55753
G1 X96.138 Y107.075 E5.57794
G1 X95.470 Y106.407 E5.62115
G1 X90.748 Y107.197 F7800.000
G1 X89.730 Y106.179 E5.68699 F540.000
G1 X89.406 Y106.407 F7800.000
G1 X90.196 Y107.197 E5.73809 F540.000
G1 X89.645 Y107.197 E5.76331
G1 X88.855 Y106.407 E5.81441
G1 X88.304 Y106.407 E5.83962
G1 X89.094 Y107.197 E5.89072
G1 X88.543 Y107.197 E5.91593
G1 X87.753 Y106.407 E5.96704
G1 X87.201 Y106.407 E5.99225
G1 X87.992 Y107.197 E6.04335
G1 X87.440 Y107.197 E6.06856
G1 X86.650 Y106.407 E6.11967
G1 X86.099 Y106.407 E6.14488
G1 X86.889 Y107.197 E6.19598
G1 X86.338 Y107.197 E6.22119
G1 X85.548 Y106.407 E6.27229
G1 X84.997 Y106.407 E6.29750
G1 X85.787 Y107.197 E6.34861
G1 X85.235 Y107.197 E6.37382
G1 X84.481 Y106.442 E6.42264
G1 X84.481 Y106.993 E6.44785
G1 X84.684 Y107.197 E6.46102
M106 S255
G92 E0
G1 Z0.600 F7800.000
G1 X114.955 Y103.783 F7800.000
G1 X114.198 Y104.879 E0.39907 F600.000
G1 X113.735 Y105.424 E0.61328
G1 X113.611 Y105.540 E0.66419
G1 X112.934 Y106.059 E0.91979
G1 X112.541 Y106.278 E1.05464
G1 X111.944 Y106.551 E1.25120
G1 X111.531 Y106.685 E1.38129
G1 X110.746 Y106.874 E1.62346
G1 X110.450 Y106.915 E1.71287
G1 X109.350 Y106.992 E2.04327
G1 X107.688 Y106.811 E2.54417
G1 X107.376 Y106.749 E2.63945
G1 X106.125 Y106.256 E3.04239
G1 X105.809 Y106.095 E3.14885
G1 X104.775 Y105.260 E3.54706
G1 X104.583 Y105.081 E3.62573
G1 X103.756 Y103.857 E4.06829
G1 X103.686 Y103.747 E4.10738
G1 X103.637 Y103.614 E4.14995
G1 X103.133 Y102.094 E4.62982
G1 X102.936 Y100.047 E5.24585
G1 X103.044 Y98.660 E5.66269
G1 X103.158 Y97.996 E5.86469
G1 X103.312 Y97.420 E6.04322
G1 X103.713 Y96.325 E6.39258
G1 X104.293 Y95.408 E6.71789
G1 X104.607 Y95.010 E6.86978
G1 X104.980 Y94.624 E7.03067
G1 X105.824 Y93.966 E7.35119
G1 X106.189 Y93.761 E7.47682
G1 X106.840 Y93.477 E7.68947
G1 X107.540 Y93.246 E7.91034
G1 X108.008 Y93.144 E8.05386
G1 X109.342 Y93.015 E8.45567
G1 X109.591 Y93.029 E8.53031
G1 X110.641 Y93.164 E8.84757
G1 X111.561 Y93.364 E9.12966
G1 X111.814 Y93.440 E9.20883
G1 X112.822 Y94.003 E9.55473
G1 X113.526 Y94.496 E9.81218
G1 X113.735 Y94.666 E9.89305
G1 X114.451 Y95.561 E10.23633
G1 X115.128 Y96.600 E10.60816
G92 E0
G1 X114.702 Y100.265 F7800.000
G1 X116.833 Y104.608 F7800.000
G1 X114.389 Y108.205 F7800.000
G1 X106.765 Y108.688 F7800.000
G1 X101.757 Y107.263 F7800.000
G1 X99.988 Y106.185 F7800.000
G1 X99.919 Y105.956 F7800.000
G1 X96.589 Y105.956 F7800.000
G1 X92.057 Y105.956 F7800.000
G1 X89.279 Y106.802 E0.87020 F600.000
G1 X84.030 Y106.802 E2.44304
G1 X96.589 Y106.802 F7800.000
G1 X91.340 Y106.802 E4.01589 F600.000
G1 X90.309 Y106.488 E4.33867
G1 X90.309 Y92.352 E8.57453
G92 E0
G1 Z0.900 F7800.000
G1 X114.955 Y103.783 F7800.000
G1 X114.198 Y104.879 E0.39907 F600.000
G1 X113.735 Y105.424 E0.61328
G1 X113.611 Y105.540 E0.66419
G1 X112.934 Y106.059 E0.91979
G1 X112.541 Y106.278 E1.05464
G1 X111.944 Y106.551 E1.25120
G1 X111.531 Y106.685 E1.38129
G1 X110.746 Y106.874 E1.62346
G1 X110.450 Y106.915 E1.71287
G1 X109.350 Y106.992 E2.04327
G1 X107.688 Y106.811 E2.54417
G1 X107.376 Y106.749 E2.63945
G1 X106.125 Y106.256 E3.04239
G1 X105.809 Y106.095 E3.14885
G1 X104.775 Y105.260 E3.54706
G1 X104.583 Y105.081 E3.62573
G1 X103.756 Y103.857 E4.06829
G1 X103.686 Y103.747 E4.10738
G1 X103.637 Y103.614 E4.14995
G1 X103.133 Y102.094 E4.62982
G1 X102.936 Y100.047 E5.24585
G1 X103.044 Y98.660 E5.66269
G1 X103.158 Y97.996 E5.86469
G1 X103.312 Y97.420 E6.04322
G1 X103.713 Y96.325 E6.39258
G1 X104.293 Y95.408 E6.71789
G1 X104.606 Y95.010 E6.86978
G1 X104.980 Y94.624 E7.03067
G1 X105.824 Y93.966 E7.35119
G1 X106.189 Y93.761 E7.47682
G1 X106.840 Y93.477 E7.68947
G1 X107.540 Y93.246 E7.91034
G1 X108.008 Y93.144 E8.05386
G1 X109.342 Y93.015 E8.45567
G1 X109.591 Y93.029 E8.53031
G1 X110.641 Y93.164 E8.84757
G1 X111.561 Y93.364 E9.12966
G1 X111.814 Y93.440 E9.20883
G1 X112.822 Y94.003 E9.55473
G1 X113.526 Y94.496 E9.81218
G1 X113.735 Y94.666 E9.89305
G1 X114.451 Y95.561 E10.23633
G1 X115.128 Y96.600 E10.60816
G92 E0
G1 X114.702 Y100.265 F7800.000
G1 X116.833 Y104.608 F7800.000
G1 X114.389 Y108.205 F7800.000
G1 X106.765 Y108.688 F7800.000
G1 X101.757 Y107.263 F7800.000
G1 X99.988 Y106.185 F7800.000
G1 X99.919 Y105.956 F7800.000
G1 X96.589 Y105.956 F7800.000
G1 X92.057 Y105.956 F7800.000
G1 X89.279 Y106.802 E0.87020 F600.000
G1 X84.030 Y106.802 E2.44304
G1 X96.589 Y106.802 F7800.000
G1 X91.340 Y106.802 E4.01589 F600.000
G1 X90.309 Y106.488 E4.33867
G1 X90.309 Y92.352 E8.57453
G92 E0
G1 Z1.200 F7800.000
G1 X114.955 Y103.783 F7800.000
G1 X114.198 Y104.879 E0.39907 F600.000
G1 X113.735 Y105.424 E0.61328
G1 X113.611 Y105.540 E0.66419
G1 X112.934 Y106.059 E0.91979
G1 X112.541 Y106.278 E1.05464
G1 X111.944 Y106.551 E1.25120
G1 X111.531 Y106.685 E1.38129
G1 X110.746 Y106.874 E1.62346
G1 X110.450 Y106.915 E1.71287
G1 X109.350 Y106.992 E2.04327
G1 X107.688 Y106.811 E2.54417
G1 X107.376 Y106.749 E2.63945
G1 X106.125 Y106.256 E3.04239
G1 X105.809 Y106.095 E3.14885
G1 X104.775 Y105.260 E3.54706
G1 X104.583 Y105.081 E3.62573
G1 X103.756 Y103.857 E4.06829
G1 X103.686 Y103.747 E4.10738
G1 X103.637 Y103.614 E4.14995
G1 X103.133 Y102.094 E4.62982
G1 X102.936 Y100.047 E5.24585
G1 X103.044 Y98.660 E5.66269
G1 X103.158 Y97.996 E5.86469
G1 X103.312 Y97.420 E6.04322
G1 X103.713 Y96.325 E6.39258
G1 X104.293 Y95.408 E6.71789
G1 X104.607 Y95.010 E6.86978
G1 X104.980 Y94.624 E7.03067
G1 X105.824 Y93.966 E7.35119
G1 X106.189 Y93.761 E7.47682
G1 X106.840 Y93.477 E7.68947
G1 X107.540 Y93.246 E7.91034
G1 X108.008 Y93.144 E8.05386
G1 X109.342 Y93.015 E8.45567
G1 X109.591 Y93.029 E8.53031
G1 X110.641 Y93.164 E8.84757
G1 X111.561 Y93.364 E9.12966
G1 X111.814 Y93.440 E9.20883
G1 X112.822 Y94.003 E9.55473
G1 X113.526 Y94.496 E9.81218
G1 X113.735 Y94.666 E9.89305
G1 X114.451 Y95.561 E10.23633
G1 X115.128 Y96.600 E10.60816
G92 E0
G1 X114.702 Y100.265 F7800.000
G1 X116.833 Y104.608 F7800.000
G1 X114.389 Y108.205 F7800.000
G1 X106.765 Y108.688 F7800.000
G1 X101.757 Y107.263 F7800.000
G1 X99.988 Y106.185 F7800.000
G1 X99.919 Y105.956 F7800.000
G1 X96.589 Y105.956 F7800.000
G1 X92.057 Y105.956 F7800.000
G1 X89.279 Y106.802 E0.87020 F600.000
G1 X84.030 Y106.802 E2.44304
G1 X96.589 Y106.802 F7800.000
G1 X91.340 Y106.802 E4.01589 F600.000
G1 X90.309 Y106.488 E4.33867
G1 X90.309 Y92.352 E8.57453
G92 E0
G1 Z1.500 F7800.000
G1 X114.955 Y103.783 F7800.000
G1 X114.198 Y104.879 E0.39907 F600.000
G1 X113.735 Y105.424 E0.61328
G1 X113.611 Y105.540 E0.66419
G1 X112.934 Y106.059 E0.91979
G1 X112.541 Y106.278 E1.05464
G1 X111.944 Y106.551 E1.25120
G1 X111.531 Y106.685 E1.38129
G1 X110.746 Y106.874 E1.62346
G1 X110.450 Y106.915 E1.71287
G1 X109.350 Y106.992 E2.04327
G1 X107.688 Y106.811 E2.54417
G1 X107.376 Y106.749 E2.63945
G1 X106.125 Y106.256 E3.04239
G1 X105.809 Y106.095 E3.14885
G1 X104.775 Y105.260 E3.54706
G1 X104.583 Y105.081 E3.62573
G1 X103.756 Y103.857 E4.06829
G1 X103.686 Y103.747 E4.10738
G1 X103.637 Y103.614 E4.14995
G1 X103.133 Y102.094 E4.62982
G1 X102.936 Y100.047 E5.24585
G1 X103.044 Y98.660 E5.66269
G1 X103.158 Y97.996 E5.86469
G1 X103.312 Y97.420 E6.04322
G1 X103.713 Y96.325 E6.39258
G1 X104.293 Y95.408 E6.71789
G1 X104.607 Y95.010 E6.86978
G1 X104.980 Y94.624 E7.03067
G1 X105.824 Y93.966 E7.35119
G1 X106.189 Y93.761 E7.47682
G1 X106.840 Y93.477 E7.68948
G1 X107.540 Y93.246 E7.91034
G1 X108.008 Y93.144 E8.05386
G1 X109.342 Y93.015 E8.45567
G1 X109.591 Y93.029 E8.53031
G1 X110.641 Y93.164 E8.84757
G1 X111.561 Y93.364 E9.12966
G1 X111.814 Y93.440 E9.20883
G1 X112.822 Y94.003 E9.55473
G1 X113.526 Y94.496 E9.81218
G1 X113.735 Y94.666 E9.89305
G1 X114.451 Y95.561 E10.23633
G1 X115.128 Y96.600 E10.60817
G92 E0
G1 X114.702 Y100.265 F7800.000
G1 X116.833 Y104.608 F7800.000
G1 X114.389 Y108.205 F7800.000
G1 X106.765 Y108.688 F7800.000
G1 X101.757 Y107.263 F7800.000
G1 X99.988 Y106.185 F7800.000
G1 X99.919 Y105.956 F7800.000
G1 X96.589 Y105.956 F7800.000
