; generated by Slic3r 1.2.9 on 2016-03-11 at 01:30:31

; external perimeters extrusion width = 1.54mm
; perimeters extrusion width = 2.62mm
; infill extrusion width = 6.27mm
; solid infill extrusion width = 2.62mm
; top infill extrusion width = 2.62mm

M107
M104 S30 ; set temperature
G28 ; home all axes
G1 Z5 F5000 ; lift nozzle
M302
M92 E10000
M500
M501
G1 E100
M109 S30 ; wait for temperature to be reached
G21 ; set units to millimeters
G90 ; use absolute coordinates
M82 ; use absolute distances for extrusion
G92 E0
G1 Z0.300 F7800.000
G1 X112.878 Y99.843 F7800.000
G1 X112.878 Y107.519 E0.34732 F378.000
G1 X108.315 Y107.519 E0.55380
G1 X108.315 Y106.277 E0.61000
G1 X111.267 Y106.277 E0.74357
G1 X111.267 Y96.973 E1.16457
G1 X111.192 Y96.025 E1.20761
G1 X110.959 Y95.217 E1.24563
G1 X110.563 Y94.566 E1.28016
G1 X110.021 Y94.089 E1.31280
G1 X109.363 Y93.804 E1.34525
G1 X108.602 Y93.710 E1.37997
G1 X107.892 Y93.796 E1.41229
G1 X107.260 Y94.055 E1.44319
G1 X106.716 Y94.484 E1.47457
G1 X106.281 Y95.060 E1.50722
G1 X105.967 Y95.757 E1.54183
G1 X105.826 Y96.352 E1.56947
G1 X104.275 Y96.095 E1.64061
G1 X104.996 Y94.173 E1.73348
G1 X106.449 Y92.911 E1.82055
G1 X108.600 Y92.483 E1.91980
G1 X109.769 Y92.611 E1.97298
G1 X109.837 Y92.618 E1.97609 F378.000
G1 X110.880 Y93.020 E2.02668
G1 X111.731 Y93.686 E2.07557
G1 X112.364 Y94.587 E2.12542
G1 X112.748 Y95.697 E2.17857
G1 X112.878 Y97.036 E2.23943
G1 X112.878 Y99.612 E2.35600
G1 X111.260 Y95.351 F7800.000
G1 X112.610 Y96.701 E2.44411 F540.000
G1 X112.652 Y97.299 E2.47177
G1 X111.430 Y96.076 E2.55155
G1 X111.477 Y96.680 E2.57951
G1 X112.652 Y97.855 E2.65616
G1 X112.652 Y98.411 E2.68182
G1 X111.493 Y97.252 E2.75745
G1 X111.493 Y97.808 E2.78310
G1 X112.652 Y98.967 E2.85873
G1 X112.652 Y99.523 E2.88438
G1 X111.493 Y98.364 E2.96001
G1 X111.493 Y98.920 E2.98567
G1 X112.652 Y100.080 E3.06130
G1 X112.652 Y100.636 E3.08695
G1 X111.493 Y99.476 E3.16258
G1 X111.493 Y100.033 E3.18823
G1 X112.652 Y101.192 E3.26386
G1 X112.652 Y101.748 E3.28952
G1 X111.493 Y100.589 E3.36515
G1 X111.493 Y101.145 E3.39080
G1 X112.652 Y102.304 E3.46643
G1 X112.652 Y102.860 E3.49208
G1 X111.493 Y101.701 E3.56771
G1 X111.493 Y102.257 E3.59337
G1 X112.652 Y103.416 E3.66900
G1 X112.652 Y103.972 E3.69465
G1 X111.493 Y102.813 E3.77028
G1 X111.493 Y103.369 E3.79593
G1 X112.652 Y104.528 E3.87156
G1 X112.652 Y105.084 E3.89722
G1 X111.493 Y103.925 E3.97285
G1 X111.493 Y104.481 E3.99850
G1 X112.652 Y105.640 E4.07413
G1 X112.652 Y106.196 E4.09978
G1 X111.493 Y105.037 E4.17541
G1 X111.493 Y105.593 E4.20107
G1 X112.652 Y106.752 E4.27670
G1 X112.625 Y107.281 E4.30111
G1 X111.493 Y106.149 E4.37494
G1 X111.291 Y106.503 F7800.000
G1 X112.081 Y107.293 E4.42649 F540.000
G1 X111.525 Y107.293 E4.45215
G1 X110.735 Y106.503 E4.50370
G1 X110.179 Y106.503 E4.52936
G1 X110.969 Y107.293 E4.58091
G1 X110.413 Y107.293 E4.60656
G1 X109.623 Y106.503 E4.65811
G1 X109.067 Y106.503 E4.68377
G1 X109.857 Y107.293 E4.73532
G1 X109.301 Y107.293 E4.76098
G1 X108.541 Y106.533 E4.81054
G1 X108.541 Y107.089 E4.83619
G1 X108.745 Y107.293 E4.84948
G92 E0
G1 X112.042 Y96.942 F7800.000
G1 X111.973 Y95.884 F7800.000
G1 X111.970 Y95.867 F7800.000
G1 X111.785 Y95.283 F7800.000
G1 X105.249 Y96.012 F7800.000
G1 X104.721 Y95.484 E0.03448 F540.000
G1 X104.872 Y95.080 E0.05440
G1 X105.713 Y95.921 E0.10928
G1 X105.859 Y95.511 E0.12936
G1 X105.024 Y94.675 E0.18386
G1 X105.191 Y94.286 E0.20340
G1 X106.032 Y95.127 E0.25827
G1 X106.246 Y94.785 E0.27688
G1 X105.474 Y94.013 E0.32725
G1 X105.771 Y93.755 E0.34544
G1 X106.486 Y94.469 E0.39204
G1 X106.769 Y94.197 E0.41018
G1 X106.069 Y93.496 E0.45588
G1 X106.367 Y93.238 E0.47406
G1 X107.080 Y93.951 E0.52062
G1 X107.446 Y93.761 E0.53965
G1 X106.752 Y93.067 E0.58496
G1 X107.215 Y92.975 E0.60678
G1 X107.841 Y93.600 E0.64756
G1 X108.323 Y93.526 E0.67006
G1 X107.679 Y92.882 E0.71204
G1 X108.143 Y92.790 E0.73386
G1 X108.856 Y93.503 E0.78039
G1 X109.490 Y93.581 E0.80985
G1 X108.633 Y92.724 E0.86580
G1 X109.257 Y92.791 E0.89475
G1 X112.550 Y96.085 E1.10965
G1 X112.348 Y95.326 E1.14587
G1 X109.970 Y92.949 E1.30102
G1 X111.292 Y93.715 F7800.000
G1 X111.655 Y94.078 E1.32467 F540.000
G92 E0
G1 X111.042 Y96.982 F7800.000
G1 X106.113 Y101.536 F7800.000
G1 X103.773 Y105.374 F7800.000
G1 X103.148 Y106.052 F7800.000
G1 X99.456 Y106.052 F7800.000
G1 X97.431 Y106.277 F7800.000
G1 X99.231 Y106.277 E0.08142 F378.000
G1 X99.231 Y107.519 E0.13762
G1 X87.122 Y107.519 E0.68554
G1 X87.122 Y106.277 E0.74174
G1 X92.371 Y106.277 E0.97926
G1 X92.371 Y92.673 E1.59483
G1 X93.982 Y92.673 E1.66773
G1 X93.982 Y105.032 E2.22695
G1 X93.982 Y106.277 E2.28330 F378.000
G1 X97.200 Y106.277 E2.42894
G1 X98.337 Y106.503 F7800.000
G1 X99.005 Y107.171 E2.47215 F540.000
G1 X98.576 Y107.293 E2.49255
G1 X97.786 Y106.503 E2.54366
G1 X97.234 Y106.503 E2.56887
G1 X98.024 Y107.293 E2.61997
G1 X97.473 Y107.293 E2.64518
G1 X96.683 Y106.503 E2.69629
G1 X96.132 Y106.503 E2.72150
G1 X96.922 Y107.293 E2.77260
G1 X96.371 Y107.293 E2.79781
G1 X95.581 Y106.503 E2.84891
G1 X95.029 Y106.503 E2.87413
G1 X95.820 Y107.293 E2.92523
G1 X95.268 Y107.293 E2.95044
G1 X94.478 Y106.503 E3.00154
G1 X93.927 Y106.503 E3.02675
G1 X94.717 Y107.293 E3.07786
G1 X94.166 Y107.293 E3.10307
G1 X92.597 Y105.724 E3.20456
G1 X92.597 Y105.173 E3.22977
G1 X93.756 Y106.332 E3.30474
G1 X93.756 Y105.781 E3.32995
G1 X92.597 Y104.621 E3.40493
G1 X92.597 Y104.070 E3.43014
G1 X93.756 Y105.229 E3.50511
G1 X93.756 Y104.678 E3.53032
G1 X92.597 Y103.519 E3.60529
G1 X92.597 Y102.968 E3.63050
G1 X93.756 Y104.127 E3.70547
G1 X93.756 Y103.576 E3.73068
G1 X92.597 Y102.417 E3.80565
G1 X92.597 Y101.865 E3.83086
G1 X93.756 Y103.024 E3.90583
G1 X93.756 Y102.473 E3.93104
G1 X92.597 Y101.314 E4.00601
G1 X92.597 Y100.763 E4.03122
G1 X93.756 Y101.922 E4.10620
G1 X93.756 Y101.371 E4.13141
G1 X92.597 Y100.212 E4.20638
G1 X92.597 Y99.660 E4.23159
G1 X93.756 Y100.820 E4.30656
G1 X93.756 Y100.268 E4.33177
G1 X92.597 Y99.109 E4.40674
G1 X92.597 Y98.558 E4.43195
G1 X93.756 Y99.717 E4.50692
G1 X93.756 Y99.166 E4.53213
G1 X92.597 Y98.007 E4.60710
G1 X92.597 Y97.456 E4.63231
G1 X93.756 Y98.615 E4.70728
G1 X93.756 Y98.064 E4.73249
G1 X92.597 Y96.904 E4.80747
G1 X92.597 Y96.353 E4.83268
G1 X93.756 Y97.512 E4.90765
G1 X93.756 Y96.961 E4.93286
G1 X92.597 Y95.802 E5.00783
G1 X92.597 Y95.251 E5.03304
G1 X93.756 Y96.410 E5.10801
G1 X93.756 Y95.859 E5.13322
G1 X92.597 Y94.700 E5.20819
G1 X92.597 Y94.148 E5.23340
G1 X93.756 Y95.307 E5.30837
G1 X93.756 Y94.756 E5.33358
G1 X92.597 Y93.597 E5.40855
G1 X92.597 Y93.046 E5.43376
G1 X93.756 Y94.205 E5.50874
G1 X93.756 Y93.654 E5.53395
G1 X93.001 Y92.899 E5.58277
G1 X93.552 Y92.899 E5.60798
G1 X93.756 Y93.103 E5.62115
G1 X92.597 Y106.275 F7800.000
G1 X93.615 Y107.293 E5.68699 F540.000
G1 X92.273 Y106.503 F7800.000
G1 X93.063 Y107.293 E5.73809 F540.000
G1 X92.512 Y107.293 E5.76330
G1 X91.722 Y106.503 E5.81441
G1 X91.171 Y106.503 E5.83962
G1 X91.961 Y107.293 E5.89072
G1 X91.410 Y107.293 E5.91593
G1 X90.620 Y106.503 E5.96704
G1 X90.068 Y106.503 E5.99225
G1 X90.859 Y107.293 E6.04335
G1 X90.307 Y107.293 E6.06856
G1 X89.517 Y106.503 E6.11966
G1 X88.966 Y106.503 E6.14488
G1 X89.756 Y107.293 E6.19598
G1 X89.205 Y107.293 E6.22119
G1 X88.415 Y106.503 E6.27229
G1 X87.864 Y106.503 E6.29750
G1 X88.654 Y107.293 E6.34861
G1 X88.102 Y107.293 E6.37382
G1 X87.348 Y106.538 E6.42264
G1 X87.348 Y107.089 E6.44785
G1 X87.551 Y107.293 E6.46102
M106 S255
G92 E0
G1 Z0.600 F7800.000
G1 X104.899 Y96.426 F7800.000
G1 X105.647 Y94.626 E0.58425 F600.000
G1 X106.316 Y93.931 E0.87318
G1 X106.766 Y93.558 E1.04832
G1 X107.046 Y93.448 E1.13848
G1 X107.854 Y93.220 E1.38994
G1 X108.627 Y93.101 E1.62452
G1 X109.406 Y93.189 E1.85919
G1 X109.685 Y93.245 E1.94451
G1 X110.248 Y93.476 E2.12696
G1 X110.537 Y93.625 E2.22431
G1 X111.003 Y94.013 E2.40605
G1 X111.194 Y94.196 E2.48522
G1 X111.589 Y94.798 E2.70119
G1 X111.674 Y94.940 E2.75056
G1 X111.944 Y95.785 E3.01629
G1 X111.982 Y95.985 E3.07740
G1 X112.073 Y97.075 E3.40518
G1 X112.073 Y106.052 E6.09506
G1 X111.991 Y106.632 E6.27054
G1 X111.042 Y106.898 E6.56585
G1 X108.090 Y106.898 E7.45041
G92 E0
G1 X104.398 Y106.052 F7800.000
G1 X103.148 Y106.052 F7800.000
G1 X99.456 Y106.052 F7800.000
G1 X94.924 Y106.052 F7800.000
G1 X92.146 Y106.898 E0.87020 F600.000
G1 X86.897 Y106.898 E2.44304
G1 X99.456 Y106.898 F7800.000
G1 X94.207 Y106.898 E4.01589 F600.000
G1 X93.176 Y106.584 E4.33867
G1 X93.176 Y92.448 E8.57453
G92 E0
G1 Z0.900 F7800.000
G1 X104.899 Y96.426 F7800.000
G1 X105.647 Y94.626 E0.58425 F600.000
G1 X106.316 Y93.931 E0.87318
G1 X106.766 Y93.558 E1.04832
G1 X107.046 Y93.448 E1.13848
G1 X107.854 Y93.220 E1.38994
G1 X108.627 Y93.101 E1.62452
G1 X109.406 Y93.189 E1.85919
G1 X109.685 Y93.245 E1.94451
G1 X110.248 Y93.476 E2.12696
G1 X110.537 Y93.625 E2.22431
G1 X111.003 Y94.013 E2.40605
G1 X111.194 Y94.196 E2.48522
G1 X111.589 Y94.798 E2.70119
G1 X111.674 Y94.940 E2.75056
G1 X111.944 Y95.785 E3.01629
G1 X111.982 Y95.985 E3.07740
G1 X112.073 Y97.075 E3.40518
G1 X112.073 Y106.052 E6.09506
G1 X111.991 Y106.632 E6.27054
G1 X111.042 Y106.898 E6.56585
G1 X108.090 Y106.898 E7.45041
G92 E0
G1 X104.398 Y106.052 F7800.000
G1 X103.148 Y106.052 F7800.000
G1 X99.456 Y106.052 F7800.000
G1 X94.924 Y106.052 F7800.000
G1 X92.146 Y106.898 E0.87020 F600.000
G1 X86.897 Y106.898 E2.44304
G1 X99.456 Y106.898 F7800.000
G1 X94.207 Y106.898 E4.01589 F600.000
G1 X93.176 Y106.584 E4.33867
G1 X93.176 Y92.448 E8.57453
G92 E0
G1 Z1.200 F7800.000
G1 X104.899 Y96.426 F7800.000
G1 X105.647 Y94.626 E0.58425 F600.000
G1 X106.316 Y93.931 E0.87318
G1 X106.766 Y93.558 E1.04832
G1 X107.046 Y93.448 E1.13848
G1 X107.854 Y93.220 E1.38994
G1 X108.627 Y93.101 E1.62452
G1 X109.406 Y93.189 E1.85919
G1 X109.685 Y93.245 E1.94451
G1 X110.248 Y93.476 E2.12696
G1 X110.537 Y93.625 E2.22431
G1 X111.003 Y94.013 E2.40605
G1 X111.194 Y94.196 E2.48522
G1 X111.589 Y94.798 E2.70119
G1 X111.674 Y94.940 E2.75056
G1 X111.944 Y95.785 E3.01629
G1 X111.982 Y95.985 E3.07740
G1 X112.073 Y97.075 E3.40518
G1 X112.073 Y106.052 E6.09506
G1 X111.991 Y106.632 E6.27054
G1 X111.042 Y106.898 E6.56585
G1 X108.090 Y106.898 E7.45041
G92 E0
G1 X104.398 Y106.052 F7800.000
G1 X103.148 Y106.052 F7800.000
G1 X99.456 Y106.052 F7800.000
G1 X94.924 Y106.052 F7800.000
G1 X92.146 Y106.898 E0.87020 F600.000
G1 X86.897 Y106.898 E2.44304
G1 X99.456 Y106.898 F7800.000
G1 X94.207 Y106.898 E4.01589 F600.000
G1 X93.176 Y106.584 E4.33867
G1 X93.176 Y92.448 E8.57453
G92 E0
G1 Z1.500 F7800.000
G1 X104.899 Y96.426 F7800.000
G1 X105.647 Y94.626 E0.58425 F600.000
G1 X106.316 Y93.931 E0.87318
G1 X106.766 Y93.558 E1.04832
G1 X107.046 Y93.448 E1.13848
G1 X107.854 Y93.220 E1.38994
G1 X108.627 Y93.101 E1.62452
G1 X109.406 Y93.189 E1.85919
G1 X109.685 Y93.245 E1.94451
G1 X110.248 Y93.476 E2.12696
G1 X110.537 Y93.625 E2.22431
G1 X111.003 Y94.013 E2.40605
G1 X111.194 Y94.196 E2.48522
G1 X111.589 Y94.798 E2.70119
G1 X111.674 Y94.940 E2.75056
G1 X111.944 Y95.785 E3.01629
G1 X111.982 Y95.985 E3.07740
G1 X112.073 Y97.075 E3.40518
G1 X112.073 Y106.052 E6.09506
G1 X111.991 Y106.632 E6.27054
G1 X111.042 Y106.898 E6.56585
G1 X108.090 Y106.898 E7.45041
G92 E0
G1 X104.398 Y106.052 F7800.000
G1 X103.148 Y106.052 F7800.000
G1 X99.456 Y106.052 F7800.000
G1 X94.924 Y106.052 F7800.000
G1 X92.146 Y106.898 E0.87020 F600.000
G1 X86.897 Y106.898 E2.44304
G1 X99.456 Y106.898 F7800.000
G1 X94.207 Y106.898 E4.01589 F600.000
G1 X93.176 Y106.584 E4.33867
G1 X93.176 Y92.448 E8.57453
G92 E0
G1 Z1.800 F7800.000
G1 X104.899 Y96.426 F7800.000
G1 X105.647 Y94.626 E0.58425 F600.000
G1 X106.316 Y93.931 E0.87318
G1 X106.766 Y93.558 E1.04832
G1 X107.046 Y93.448 E1.13848
G1 X107.854 Y93.220 E1.38994
G1 X108.627 Y93.101 E1.62452
G1 X109.406 Y93.189 E1.85919
G1 X109.685 Y93.245 E1.94451
G1 X110.248 Y93.476 E2.12696
G1 X110.537 Y93.625 E2.22431
G1 X111.003 Y94.013 E2.40605
G1 X111.194 Y94.196 E2.48522
G1 X111.589 Y94.798 E2.70119
G1 X111.674 Y94.940 E2.75056
G1 X111.944 Y95.785 E3.01629
G1 X111.982 Y95.985 E3.07740
G1 X112.073 Y97.075 E3.40518
G1 X112.073 Y106.052 E6.09506
G1 X111.991 Y106.632 E6.27054
G1 X111.042 Y106.898 E6.56585
G1 X108.090 Y106.898 E7.45041
G92 E0
G1 X104.398 Y106.052 F7800.000
G1 X103.148 Y106.052 F7800.000
G1 X99.456 Y106.052 F7800.000
G1 X94.924 Y106.052 F7800.000
G1 X92.146 Y106.898 E0.87020 F600.000
G1 X86.897 Y106.898 E2.44304
G1 X99.456 Y106.898 F7800.000
G1 X94.207 Y106.898 E4.01589 F600.000
G1 X93.176 Y106.584 E4.33867
G1 X93.176 Y92.448 E8.57453
G92 E0
G1 Z2.100 F7800.000
G1 X104.899 Y96.426 F7800.000
G1 X105.647 Y94.626 E0.58425 F600.000
G1 X106.316 Y93.931 E0.87318
G1 X106.764 Y93.559 E1.04770
G1 X107.046 Y93.449 E1.13845
G1 X107.701 Y93.253 E1.34308
G1 X108.658 Y93.104 E1.63344
G1 X109.406 Y93.189 E1.85889
G1 X109.685 Y93.245 E1.94421
G1 X110.248 Y93.476 E2.12666
G1 X110.537 Y93.625 E2.22402
G1 X111.003 Y94.013 E2.40575
G1 X111.194 Y94.196 E2.48492
G1 X111.589 Y94.798 E2.70089
G1 X111.674 Y94.940 E2.75027
G1 X111.944 Y95.785 E3.01599
G1 X111.982 Y95.985 E3.07711
G1 X112.073 Y97.075 E3.40488
G1 X112.073 Y106.052 E6.09477
G1 X111.991 Y106.632 E6.27025
G1 X111.042 Y106.898 E6.56555
G1 X108.090 Y106.898 E7.45011
G92 E0
G1 X104.398 Y106.052 F7800.000
G1 X103.148 Y106.052 F7800.000
G1 X99.456 Y106.052 F7800.000
G1 X94.924 Y106.052 F7800.000
G1 X92.146 Y106.898 E0.87020 F600.000
G1 X86.897 Y106.898 E2.44304
G92 E0
G1 X99.456 Y106.898 F7800.000
G1 X94.207 Y106.898 E1.57284 F600.000
G1 X93.176 Y106.584 E1.89563
G1 X93.176 Y92.448 E6.13148
G92 E0
M107
M104 S0 ; turn off temperature
G28 X0  ; home X axis
M84     ; disable motors

; filament used = 108.8mm (0.8cm3)

; avoid_crossing_perimeters = 1
; bed_shape = 0x0,250x0,250x250,0x250
; bed_temperature = 0
; before_layer_gcode = 
; bridge_acceleration = 0
; bridge_fan_speed = 100
; brim_width = 0
; complete_objects = 0
; cooling = 1
; default_acceleration = 0
; disable_fan_first_layers = 1
; duplicate_distance = 6
; end_gcode = M104 S0 ; turn off temperature\nG28 X0  ; home X axis\nM84     ; disable motors\n
; extruder_clearance_height = 20
; extruder_clearance_radius = 20
; extruder_offset = 0x0
; extrusion_axis = E
; extrusion_multiplier = 3
; fan_always_on = 0
; fan_below_layer_time = 60
; filament_colour = #FFFFFF
; filament_diameter = 3.125
; first_layer_acceleration = 0
; first_layer_bed_temperature = 0
; first_layer_extrusion_width = 150%
; first_layer_speed = 90%
; first_layer_temperature = 30
; gcode_arcs = 0
; gcode_comments = 0
; gcode_flavor = reprap
; infill_acceleration = 0
; infill_first = 0
; layer_gcode = 
; max_fan_speed = 100
; max_print_speed = 80
; max_volumetric_speed = 0
; min_fan_speed = 35
; min_print_speed = 10
; min_skirt_length = 0
; notes = 
; nozzle_diameter = 1.54
; only_retract_when_crossing_perimeters = 1
; ooze_prevention = 0
; output_filename_format = [input_filename_base].gcode
; perimeter_acceleration = 0
; post_process = 
; pressure_advance = 0
; resolution = 0
; retract_before_travel = 2
; retract_layer_change = 1
; retract_length = 0
; retract_length_toolchange = 10
; retract_lift = 0
; retract_restart_extra = 0
; retract_restart_extra_toolchange = 0
; retract_speed = 0
; skirt_distance = 6
; skirt_height = 1
; skirts = 0
; slowdown_below_layer_time = 30
; spiral_vase = 0
; standby_temperature_delta = -5
; start_gcode = G28 ; home all axes\nG1 Z5 F5000 ; lift nozzle\nM302\nM92 E10000\nM500\nM501\nG1 E100
; temperature = 30
; threads = 2
; toolchange_gcode = 
; travel_speed = 130
; use_firmware_retraction = 0
; use_relative_e_distances = 0
; use_volumetric_e = 0
; vibration_limit = 0
; wipe = 0
; z_offset = 0
; dont_support_bridges = 1
; extrusion_width = 0
; first_layer_height = 100%
; infill_only_where_needed = 0
; interface_shells = 0
; layer_height = 0.3
; raft_layers = 0
; seam_position = random
; support_material = 0
; support_material_angle = 0
; support_material_contact_distance = 0.2
; support_material_enforce_layers = 0
; support_material_extruder = 1
; support_material_extrusion_width = 0
; support_material_interface_extruder = 1
; support_material_interface_layers = 3
; support_material_interface_spacing = 0
