; generated by Slic3r 1.2.9 on 2016-03-11 at 01:30:32

; external perimeters extrusion width = 1.54mm
; perimeters extrusion width = 2.62mm
; infill extrusion width = 6.27mm
; solid infill extrusion width = 2.62mm
; top infill extrusion width = 2.62mm

M107
M104 S30 ; set temperature
G28 ; home all axes
G1 Z5 F5000 ; lift nozzle
M302
M92 E10000
M500
M501
G1 E100
M109 S30 ; wait for temperature to be reached
G21 ; set units to millimeters
G90 ; use absolute coordinates
M82 ; use absolute distances for extrusion
G92 E0
G1 Z0.300 F7800.000
G1 X104.758 Y107.377 F7800.000
G1 X104.758 Y107.423 E0.00208 F378.000
G1 X103.137 Y107.423 E0.07543
G1 X103.137 Y92.577 E0.74720
G1 X104.758 Y92.577 E0.82054
G1 X104.758 Y98.325 E1.08065
G1 X107.008 Y100.044 E1.20876 F378.000
G1 X113.165 Y92.577 E1.64672
G1 X115.142 Y92.577 E1.73618
G1 X107.966 Y101.015 E2.23739
G1 X114.229 Y107.423 E2.64285
G1 X112.419 Y107.423 E2.72472
G1 X104.758 Y99.424 E3.22590
G1 X104.758 Y107.146 E3.57533
G1 X103.363 Y106.993 F7800.000
G1 X103.567 Y107.197 E3.58874 F540.000
G1 X104.128 Y107.197 E3.61489
G1 X103.363 Y106.432 E3.66527
G1 X103.363 Y105.871 E3.69142
G1 X104.532 Y107.040 E3.76842
G1 X104.532 Y106.479 E3.79457
G1 X103.363 Y105.309 E3.87157
G1 X103.363 Y104.748 E3.89772
G1 X104.532 Y105.917 E3.97472
G1 X104.532 Y105.356 E4.00087
G1 X103.363 Y104.187 E4.07787
G1 X103.363 Y103.625 E4.10402
G1 X104.532 Y104.795 E4.18102
G1 X104.532 Y104.233 E4.20717
G1 X103.363 Y103.064 E4.28417
G1 X103.363 Y102.503 E4.31032
G1 X104.532 Y103.672 E4.38732
G1 X104.532 Y103.111 E4.41346
G1 X103.363 Y101.941 E4.49047
G1 X103.363 Y101.380 E4.51661
G1 X104.532 Y102.549 E4.59362
G1 X104.532 Y101.988 E4.61976
G1 X103.363 Y100.819 E4.69677
G1 X103.363 Y100.257 E4.72291
G1 X104.532 Y101.427 E4.79992
G1 X104.532 Y100.865 E4.82606
G1 X103.363 Y99.696 E4.90307
G1 X103.363 Y99.135 E4.92921
G1 X104.532 Y100.304 E5.00622
G1 X104.532 Y99.743 E5.03236
G1 X103.363 Y98.573 E5.10937
G1 X104.169 Y98.818 E5.14861
G1 X103.363 Y98.012 E5.20172
G1 X103.363 Y97.451 E5.22786
G1 X104.435 Y98.522 E5.29843
G1 X104.532 Y98.059 E5.32049
G1 X103.363 Y96.889 E5.39749
G1 X103.363 Y96.328 E5.42364
G1 X104.532 Y97.497 E5.50064
G1 X104.532 Y96.936 E5.52679
G1 X103.363 Y95.767 E5.60379
G1 X103.363 Y95.205 E5.62994
G1 X104.532 Y96.375 E5.70694
G1 X104.532 Y95.813 E5.73309
G1 X103.363 Y94.644 E5.81009
G1 X103.363 Y94.083 E5.83624
G1 X104.532 Y95.252 E5.91324
G1 X104.532 Y94.691 E5.93939
G1 X103.363 Y93.521 E6.01639
G1 X103.363 Y92.960 E6.04254
G1 X104.532 Y94.129 E6.11954
G1 X104.532 Y93.568 E6.14569
G1 X103.767 Y92.803 E6.19607
G1 X104.329 Y92.803 E6.22222
G1 X104.532 Y93.007 E6.23563
G1 X104.566 Y98.664 F7800.000
G1 X105.447 Y99.453 E6.35161 F540.000
G1 X105.602 Y99.584 F7800.000
G1 X113.215 Y107.197 E6.84650 F540.000
G1 X112.661 Y107.197 E6.87196
G1 X111.823 Y106.359 E6.92643
G1 X106.908 Y100.336 F7800.000
G1 X107.655 Y101.083 E6.97498 F540.000
G1 X107.910 Y100.784 E6.99305
G1 X107.218 Y100.092 E7.03800
G1 X107.468 Y99.789 E7.05609
G1 X108.164 Y100.484 E7.10131
G1 X108.419 Y100.185 E7.11938
G1 X107.719 Y99.485 E7.16488
G1 X107.969 Y99.181 E7.18297
G1 X108.673 Y99.886 E7.22875
G1 X108.928 Y99.586 E7.24681
G1 X108.219 Y98.878 E7.29287
G1 X108.470 Y98.574 E7.31096
G1 X109.183 Y99.287 E7.35729
G1 X109.437 Y98.988 E7.37536
G1 X108.720 Y98.271 E7.42197
G1 X108.971 Y97.967 E7.44005
G1 X109.692 Y98.688 E7.48694
G1 X109.946 Y98.389 E7.50501
G1 X109.221 Y97.663 E7.55217
G1 X109.471 Y97.360 E7.57026
G1 X110.201 Y98.090 E7.61770
G1 X110.456 Y97.790 E7.63576
G1 X109.722 Y97.056 E7.68348
G1 X109.972 Y96.753 E7.70157
G1 X110.710 Y97.491 E7.74957
G1 X110.965 Y97.192 E7.76763
G1 X110.222 Y96.449 E7.81590
G1 X110.473 Y96.145 E7.83399
G1 X111.219 Y96.892 E7.88254
G1 X111.474 Y96.593 E7.90060
G1 X110.723 Y95.842 E7.94943
G1 X110.973 Y95.538 E7.96751
G1 X111.729 Y96.294 E8.01662
G1 X111.983 Y95.994 E8.03468
G1 X111.224 Y95.235 E8.08406
G1 X111.474 Y94.931 E8.10215
G1 X112.238 Y95.695 E8.15180
G1 X112.493 Y95.396 E8.16987
G1 X111.724 Y94.627 E8.21980
G1 X111.975 Y94.324 E8.23789
G1 X112.747 Y95.096 E8.28810
G1 X113.002 Y94.797 E8.30616
G1 X112.225 Y94.020 E8.35665
G1 X112.475 Y93.717 E8.37473
G1 X113.256 Y94.497 E8.42550
G1 X113.511 Y94.198 E8.44356
G1 X112.726 Y93.413 E8.49460
G1 X112.976 Y93.109 E8.51269
G1 X113.766 Y93.899 E8.56401
G1 X114.020 Y93.599 E8.58207
G1 X113.226 Y92.806 E8.63366
G1 X113.778 Y92.803 E8.65900
G1 X114.275 Y93.300 E8.69131
G1 X114.332 Y92.803 E8.71431
G1 X114.529 Y93.001 E8.72717
G92 E0
G1 X106.972 Y99.734 F7800.000
G1 X104.983 Y91.352 F7800.000
G1 X102.912 Y91.352 F7800.000
G1 X97.297 Y100.352 F7800.000
G1 X96.930 Y100.707 F7800.000
G1 X96.930 Y105.956 F7800.000
G1 X85.313 Y106.181 F7800.000
G1 X89.845 Y106.181 E0.20505 F378.000
G1 X89.845 Y92.577 E0.82062
G1 X91.456 Y92.577 E0.89352
G1 X91.456 Y104.936 E1.45274
G1 X91.456 Y106.181 E1.50909 F378.000
G1 X96.705 Y106.181 E1.74660
G1 X96.705 Y107.423 E1.80280
G1 X84.596 Y107.423 E2.35073
G1 X84.596 Y106.181 E2.40693
G1 X85.082 Y106.181 E2.42894
G1 X85.025 Y107.197 F7800.000
G1 X84.822 Y106.993 E2.44210 F540.000
G1 X84.822 Y106.442 E2.46731
G1 X85.577 Y107.197 E2.51614
G1 X86.128 Y107.197 E2.54135
G1 X85.338 Y106.407 E2.59245
G1 X85.889 Y106.407 E2.61766
G1 X86.679 Y107.197 E2.66876
G1 X87.230 Y107.197 E2.69397
G1 X86.440 Y106.407 E2.74508
G1 X86.991 Y106.407 E2.77029
G1 X87.781 Y107.197 E2.82139
G1 X88.333 Y107.197 E2.84660
G1 X87.543 Y106.407 E2.89771
G1 X88.094 Y106.407 E2.92292
G1 X88.884 Y107.197 E2.97402
G1 X89.435 Y107.197 E2.99923
G1 X88.645 Y106.407 E3.05033
G1 X89.196 Y106.407 E3.07554
G1 X89.986 Y107.197 E3.12665
G1 X90.537 Y107.197 E3.15186
G1 X89.747 Y106.407 E3.20296
G1 X90.071 Y106.179 F7800.000
G1 X91.089 Y107.197 E3.26880 F540.000
G1 X95.811 Y106.407 F7800.000
G1 X96.479 Y107.075 E3.31202 F540.000
G1 X96.050 Y107.197 E3.33242
G1 X95.260 Y106.407 E3.38353
G1 X94.708 Y106.407 E3.40874
G1 X95.498 Y107.197 E3.45984
G1 X94.947 Y107.197 E3.48505
G1 X94.157 Y106.407 E3.53616
G1 X93.606 Y106.407 E3.56137
G1 X94.396 Y107.197 E3.61247
G1 X93.845 Y107.197 E3.63768
G1 X93.055 Y106.407 E3.68878
G1 X92.503 Y106.407 E3.71399
G1 X93.294 Y107.197 E3.76510
G1 X92.742 Y107.197 E3.79031
G1 X91.952 Y106.407 E3.84141
G1 X91.401 Y106.407 E3.86662
G1 X92.191 Y107.197 E3.91773
G1 X91.640 Y107.197 E3.94294
G1 X90.071 Y105.628 E4.04443
G1 X90.071 Y105.077 E4.06964
G1 X91.230 Y106.236 E4.14461
G1 X91.230 Y105.685 E4.16982
G1 X90.071 Y104.525 E4.24479
G1 X90.071 Y103.974 E4.27001
G1 X91.230 Y105.133 E4.34498
G1 X91.230 Y104.582 E4.37019
G1 X90.071 Y103.423 E4.44516
G1 X90.071 Y102.872 E4.47037
G1 X91.230 Y104.031 E4.54534
G1 X91.230 Y103.480 E4.57055
G1 X90.071 Y102.321 E4.64552
G1 X90.071 Y101.769 E4.67073
G1 X91.230 Y102.928 E4.74570
G1 X91.230 Y102.377 E4.77091
G1 X90.071 Y101.218 E4.84588
G1 X90.071 Y100.667 E4.87109
G1 X91.230 Y101.826 E4.94606
G1 X91.230 Y101.275 E4.97128
G1 X90.071 Y100.116 E5.04625
G1 X90.071 Y99.564 E5.07146
G1 X91.230 Y100.724 E5.14643
G1 X91.230 Y100.172 E5.17164
G1 X90.071 Y99.013 E5.24661
G1 X90.071 Y98.462 E5.27182
G1 X91.230 Y99.621 E5.34679
G1 X91.230 Y99.070 E5.37200
G1 X90.071 Y97.911 E5.44697
G1 X90.071 Y97.360 E5.47218
G1 X91.230 Y98.519 E5.54715
G1 X91.230 Y97.968 E5.57236
G1 X90.071 Y96.808 E5.64734
G1 X90.071 Y96.257 E5.67255
G1 X91.230 Y97.416 E5.74752
G1 X91.230 Y96.865 E5.77273
G1 X90.071 Y95.706 E5.84770
G1 X90.071 Y95.155 E5.87291
G1 X91.230 Y96.314 E5.94788
G1 X91.230 Y95.763 E5.97309
G1 X90.071 Y94.604 E6.04806
G1 X90.071 Y94.052 E6.07327
G1 X91.230 Y95.211 E6.14824
G1 X91.230 Y94.660 E6.17345
G1 X90.071 Y93.501 E6.24842
G1 X90.071 Y92.950 E6.27363
G1 X91.230 Y94.109 E6.34861
G1 X91.230 Y93.558 E6.37382
G1 X90.475 Y92.803 E6.42264
G1 X91.026 Y92.803 E6.44785
G1 X91.230 Y93.007 E6.46102
M106 S255
G92 E0
G1 Z0.600 F7800.000
G1 X114.336 Y92.352 F7800.000
G1 X107.671 Y100.310 E3.11050 F600.000
G1 X107.224 Y100.775 E3.30375
G1 X107.674 Y101.587 E3.58188
G1 X113.537 Y107.648 E6.10881
G92 E0
G1 X103.983 Y106.648 F7800.000
G1 X103.983 Y106.648 F7800.000
G1 X104.880 Y102.575 F7800.000
G1 X103.948 Y98.214 E1.33630 F600.000
G1 X103.948 Y92.352 E3.09283
G1 X103.948 Y107.648 F7800.000
G1 X103.948 Y99.984 E5.38932 F600.000
G1 X104.137 Y99.099 E5.66049
G1 X104.307 Y99.099 E5.71144
G1 X105.494 Y99.495 E6.08643
G1 X106.481 Y100.377 E6.48304
G1 X108.949 Y101.699 E7.32199
G92 E0
G1 X104.983 Y99.984 F7800.000
G1 X104.983 Y99.984 F7800.000
G1 X107.752 Y106.879 F7800.000
G1 X106.983 Y107.648 F7800.000
G1 X104.983 Y108.648 F7800.000
G1 X102.912 Y108.648 F7800.000
G1 X100.912 Y107.648 F7800.000
G1 X99.921 Y106.657 F7800.000
G1 X99.921 Y105.956 F7800.000
G1 X96.930 Y105.956 F7800.000
G1 X92.398 Y105.956 F7800.000
G1 X89.620 Y106.802 E0.87020 F600.000
G1 X84.371 Y106.802 E2.44305
G1 X96.930 Y106.802 F7800.000
G1 X91.681 Y106.802 E4.01589 F600.000
G1 X90.650 Y106.488 E4.33867
G1 X90.650 Y92.352 E8.57453
G92 E0
G1 Z0.900 F7800.000
G1 X114.336 Y92.352 F7800.000
G1 X107.671 Y100.310 E3.11050 F600.000
G1 X107.224 Y100.775 E3.30375
G1 X107.674 Y101.587 E3.58188
G1 X113.537 Y107.648 E6.10881
G92 E0
G1 X103.983 Y106.648 F7800.000
G1 X103.983 Y106.648 F7800.000
G1 X104.880 Y102.575 F7800.000
G1 X103.948 Y98.214 E1.33630 F600.000
G1 X103.948 Y92.352 E3.09283
G1 X103.948 Y107.648 F7800.000
G1 X103.948 Y99.984 E5.38932 F600.000
G1 X104.137 Y99.099 E5.66049
G1 X104.307 Y99.099 E5.71144
G1 X105.494 Y99.495 E6.08643
G1 X106.481 Y100.377 E6.48304
G1 X108.949 Y101.699 E7.32199
G92 E0
G1 X104.983 Y99.984 F7800.000
G1 X104.983 Y99.984 F7800.000
G1 X107.752 Y106.879 F7800.000
G1 X106.983 Y107.648 F7800.000
G1 X104.983 Y108.648 F7800.000
G1 X102.912 Y108.648 F7800.000
G1 X100.912 Y107.648 F7800.000
G1 X99.921 Y106.657 F7800.000
G1 X99.921 Y105.956 F7800.000
G1 X96.930 Y105.956 F7800.000
G1 X92.398 Y105.956 F7800.000
G1 X89.620 Y106.802 E0.87020 F600.000
G1 X84.371 Y106.802 E2.44305
G1 X96.930 Y106.802 F7800.000
G1 X91.681 Y106.802 E4.01589 F600.000
G1 X90.650 Y106.488 E4.33867
G1 X90.650 Y92.352 E8.57453
G92 E0
G1 Z1.200 F7800.000
G1 X114.336 Y92.352 F7800.000
G1 X107.671 Y100.310 E3.11050 F600.000
G1 X107.224 Y100.775 E3.30375
G1 X107.674 Y101.587 E3.58188
G1 X113.537 Y107.648 E6.10881
G92 E0
G1 X103.983 Y106.648 F7800.000
G1 X103.983 Y106.648 F7800.000
G1 X104.880 Y102.575 F7800.000
G1 X103.948 Y98.214 E1.33630 F600.000
G1 X103.948 Y92.352 E3.09283
G1 X103.948 Y107.648 F7800.000
G1 X103.948 Y99.984 E5.38931 F600.000
G1 X104.137 Y99.099 E5.66049
G1 X104.307 Y99.099 E5.71144
G1 X105.494 Y99.495 E6.08643
G1 X106.481 Y100.377 E6.48304
G1 X108.949 Y101.699 E7.32199
G92 E0
G1 X104.983 Y99.984 F7800.000
G1 X104.983 Y99.984 F7800.000
G1 X107.752 Y106.879 F7800.000
G1 X106.983 Y107.648 F7800.000
G1 X104.983 Y108.648 F7800.000
G1 X102.912 Y108.648 F7800.000
G1 X100.912 Y107.648 F7800.000
G1 X99.921 Y106.657 F7800.000
G1 X99.921 Y105.956 F7800.000
G1 X96.930 Y105.956 F7800.000
G1 X92.398 Y105.956 F7800.000
G1 X89.620 Y106.802 E0.87020 F600.000
G1 X84.371 Y106.802 E2.44305
G1 X96.930 Y106.802 F7800.000
G1 X91.681 Y106.802 E4.01589 F600.000
G1 X90.650 Y106.488 E4.33867
G1 X90.650 Y92.352 E8.57453
G92 E0
G1 Z1.500 F7800.000
G1 X114.336 Y92.352 F7800.000
G1 X107.671 Y100.310 E3.11050 F600.000
G1 X107.224 Y100.775 E3.30375
G1 X107.674 Y101.587 E3.58188
G1 X113.537 Y107.648 E6.10881
G92 E0
G1 X103.983 Y106.648 F7800.000
G1 X103.983 Y106.648 F7800.000
G1 X104.880 Y102.575 F7800.000
G1 X103.948 Y98.214 E1.33630 F600.000
G1 X103.948 Y92.352 E3.09283
G1 X103.948 Y107.648 F7800.000
G1 X103.948 Y99.984 E5.38932 F600.000
G1 X104.137 Y99.099 E5.66049
G1 X104.307 Y99.099 E5.71144
G1 X105.494 Y99.495 E6.08643
G1 X106.481 Y100.377 E6.48304
G1 X108.949 Y101.699 E7.32199
G92 E0
G1 X104.983 Y99.984 F7800.000
G1 X104.983 Y99.984 F7800.000
G1 X107.752 Y106.879 F7800.000
G1 X106.983 Y107.648 F7800.000
G1 X104.983 Y108.648 F7800.000
G1 X102.912 Y108.648 F7800.000
G1 X100.912 Y107.648 F7800.000
G1 X99.921 Y106.657 F7800.000
G1 X99.921 Y105.956 F7800.000
G1 X96.930 Y105.956 F7800.000
G1 X92.398 Y105.956 F7800.000
G1 X89.620 Y106.802 E0.87020 F600.000
G1 X84.371 Y106.802 E2.44305
G1 X96.930 Y106.802 F7800.000
G1 X91.681 Y106.802 E4.01589 F600.000
G1 X90.650 Y106.488 E4.33867
G1 X90.650 Y92.352 E8.57453
G92 E0
G1 Z1.800 F7800.000
G1 X114.336 Y92.352 F7800.000
G1 X107.671 Y100.310 E3.11050 F600.000
G1 X107.224 Y100.775 E3.30375
G1 X107.674 Y101.587 E3.58188
G1 X113.537 Y107.648 E6.10881
G92 E0
G1 X103.983 Y106.648 F7800.000
G1 X103.983 Y106.648 F7800.000
G1 X104.880 Y102.575 F7800.000
G1 X103.948 Y98.214 E1.33630 F600.000
G1 X103.948 Y92.352 E3.09283
G1 X103.948 Y107.648 F7800.000
G1 X103.948 Y99.984 E5.38931 F600.000
G1 X104.137 Y99.099 E5.66049
G1 X104.307 Y99.099 E5.71144
G1 X105.494 Y99.495 E6.08643
G1 X106.481 Y100.377 E6.48304
G1 X108.949 Y101.699 E7.32199
G92 E0
G1 X104.983 Y99.984 F7800.000
G1 X104.983 Y99.984 F7800.000
G1 X107.752 Y106.879 F7800.000
G1 X106.983 Y107.648 F7800.000
G1 X104.983 Y108.648 F7800.000
G1 X102.912 Y108.648 F7800.000
G1 X100.912 Y107.648 F7800.000
G1 X99.921 Y106.657 F7800.000
G1 X99.921 Y105.956 F7800.000
G1 X96.930 Y105.956 F7800.000
G1 X92.398 Y105.956 F7800.000
G1 X89.620 Y106.802 E0.87020 F600.000
G1 X84.371 Y106.802 E2.44305
G1 X96.930 Y106.802 F7800.000
G1 X91.681 Y106.802 E4.01589 F600.000
G1 X90.650 Y106.488 E4.33867
G1 X90.650 Y92.352 E8.57453
G92 E0
G1 Z2.100 F7800.000
G1 X114.336 Y92.352 F7800.000
G1 X107.671 Y100.310 E3.11050 F600.000
G1 X107.224 Y100.775 E3.30375
G1 X107.674 Y101.587 E3.58188
G1 X113.537 Y107.648 E6.10881
G92 E0
G1 X103.983 Y106.648 F7800.000
G1 X103.983 Y106.648 F7800.000
G1 X104.880 Y102.575 F7800.000
G1 X103.948 Y98.214 E1.33630 F600.000
G1 X103.948 Y92.352 E3.09283
G92 E0
G1 X103.948 Y107.648 F7800.000
G1 X103.948 Y99.984 E2.29649 F600.000
G1 X104.137 Y99.099 E2.56766
G1 X104.307 Y99.099 E2.61862
G1 X105.494 Y99.495 E2.99361
G1 X106.481 Y100.377 E3.39021
G1 X108.949 Y101.699 E4.22917
G92 E0
G1 X104.983 Y99.984 F7800.000
G1 X104.983 Y99.984 F7800.000
G1 X107.752 Y106.879 F7800.000
G1 X106.983 Y107.648 F7800.000
G1 X104.983 Y108.648 F7800.000
G1 X102.912 Y108.648 F7800.000
G1 X100.912 Y107.648 F7800.000
G1 X99.921 Y106.657 F7800.000
G1 X99.921 Y105.956 F7800.000
G1 X96.930 Y105.956 F7800.000
G1 X92.398 Y105.956 F7800.000
G1 X89.620 Y106.802 E0.87020 F600.000
G1 X84.371 Y106.802 E2.44305
G92 E0
G1 X96.930 Y106.802 F7800.000
G1 X91.681 Y106.802 E1.57284 F600.000
G1 X90.650 Y106.488 E1.89563
G1 X90.650 Y92.352 E6.13148
G92 E0
M107
M104 S0 ; turn off temperature
G28 X0  ; home X axis
M84     ; disable motors

; filament used = 147.2mm (1.1cm3)

; avoid_crossing_perimeters = 1
; bed_shape = 0x0,250x0,250x250,0x250
; bed_temperature = 0
; before_layer_gcode = 
; bridge_acceleration = 0
; bridge_fan_speed = 100
; brim_width = 0
; complete_objects = 0
; cooling = 1
; default_acceleration = 0
; disable_fan_first_layers = 1
; duplicate_distance = 6
; end_gcode = M104 S0 ; turn off temperature\nG28 X0  ; home X axis\nM84     ; disable motors\n
; extruder_clearance_height = 20
; extruder_clearance_radius = 20
; extruder_offset = 0x0
; extrusion_axis = E
; extrusion_multiplier = 3
; fan_always_on = 0
; fan_below_layer_time = 60
; filament_colour = #FFFFFF
; filament_diameter = 3.125
; first_layer_acceleration = 0
; first_layer_bed_temperature = 0
; first_layer_extrusion_width = 150%
; first_layer_speed = 90%
; first_layer_temperature = 30
; gcode_arcs = 0
; gcode_comments = 0
; gcode_flavor = reprap
; infill_acceleration = 0
; infill_first = 0
; layer_gcode = 
; max_fan_speed = 100
; max_print_speed = 80
; max_volumetric_speed = 0
; min_fan_speed = 35
; min_print_speed = 10
; min_skirt_length = 0
; notes = 
; nozzle_diameter = 1.54
; only_retract_when_crossing_perimeters = 1
; ooze_prevention = 0
; output_filename_format = [input_filename_base].gcode
; perimeter_acceleration = 0
; post_process = 
; pressure_advance = 0
; resolution = 0
; retract_before_travel = 2
; retract_layer_change = 1
; retract_length = 0
; retract_length_toolchange = 10
; retract_lift = 0
; retract_restart_extra = 0
; retract_restart_extra_toolchange = 0
