; generated by Slic3r 1.2.9 on 2016-03-11 at 01:30:34

; external perimeters extrusion width = 1.54mm
; perimeters extrusion width = 2.62mm
; infill extrusion width = 6.27mm
; solid infill extrusion width = 2.62mm
; top infill extrusion width = 2.62mm

M107
M104 S30 ; set temperature
G28 ; home all axes
G1 Z5 F5000 ; lift nozzle
M302
M92 E10000
M500
M501
G1 E100
M109 S30 ; wait for temperature to be reached
G21 ; set units to millimeters
G90 ; use absolute coordinates
M82 ; use absolute distances for extrusion
G92 E0
G1 Z0.300 F7800.000
G1 X116.474 Y101.082 F7800.000
G1 X116.474 Y107.423 E0.28693 F378.000
G1 X114.198 Y107.423 E0.38993
G1 X110.181 Y96.741 E0.90632
G1 X109.731 Y95.324 E0.97358
G1 X109.529 Y94.557 E1.00950
G1 X109.103 Y94.559 E1.02878
G1 X108.698 Y96.083 E1.10012
G1 X108.420 Y96.966 E1.14203
G1 X104.413 Y107.423 E1.64875
G1 X102.070 Y107.423 E1.75474
G1 X102.070 Y92.577 E2.42651
G1 X103.463 Y92.577 E2.48954
G1 X103.463 Y102.555 E2.94106
G1 X103.392 Y105.674 E3.08221 F378.000
G1 X103.867 Y105.750 E3.10396
G1 X104.185 Y104.688 E3.15411
G1 X104.789 Y102.851 E3.24166
G1 X108.733 Y92.577 E3.73960
G1 X109.876 Y92.577 E3.79132
G1 X113.766 Y102.853 E4.28849
G1 X114.058 Y103.672 E4.32783
G1 X114.374 Y104.678 E4.37556
G1 X114.662 Y105.690 E4.42319
G1 X115.144 Y105.611 E4.44528
G1 X115.070 Y103.667 E4.53327
G1 X115.059 Y102.557 E4.58353
G1 X115.059 Y92.577 E5.03511
G1 X116.474 Y92.577 E5.09914
G1 X116.474 Y100.851 E5.47353
G1 X115.699 Y106.304 F7800.000
G1 X115.541 Y106.490 F7800.000
G1 X114.802 Y106.551 F7800.000
G1 X114.669 Y106.475 F7800.000
G1 X113.150 Y101.960 F7800.000
G1 X111.982 Y100.792 E5.54862 F540.000
G1 X112.482 Y100.197 F7800.000
G1 X111.321 Y99.036 E5.62325 F540.000
G1 X111.815 Y98.434 F7800.000
G1 X110.661 Y97.280 E5.69743 F540.000
G1 X111.147 Y96.671 F7800.000
G1 X110.090 Y95.613 E5.76540 F540.000
G1 X110.814 Y95.789 F7800.000
G1 X109.861 Y94.836 E5.82665 F540.000
G1 X110.480 Y94.908 E5.85498
G1 X108.727 Y93.155 E5.96763
G1 X108.923 Y92.803 E5.98595
G1 X110.146 Y94.026 E6.06457
G1 X109.356 Y94.332 F7800.000
G1 X108.575 Y93.551 E6.11478 F540.000
G1 X108.423 Y93.947 E6.13405
G1 X108.919 Y94.443 E6.16591
G1 X108.804 Y94.875 E6.18626
G1 X108.272 Y94.343 E6.22049
G1 X108.120 Y94.739 E6.23977
G1 X108.689 Y95.308 E6.27637
G1 X108.574 Y95.741 E6.29672
G1 X107.968 Y95.135 E6.33569
G1 X107.816 Y95.530 E6.35496
G1 X108.455 Y96.170 E6.39608
G1 X108.324 Y96.587 E6.41593
G1 X107.664 Y95.926 E6.45838
G1 X107.512 Y96.322 E6.47765
G1 X108.190 Y97.000 E6.52126
G1 X108.038 Y97.396 E6.54054
G1 X107.360 Y96.718 E6.58415
G1 X107.208 Y97.114 E6.60343
G1 X107.886 Y97.793 E6.64705
G1 X107.735 Y98.189 E6.66633
G1 X107.056 Y97.510 E6.70997
G1 X106.904 Y97.906 E6.72925
G1 X107.583 Y98.585 E6.77290
G1 X107.431 Y98.981 E6.79218
G1 X106.752 Y98.301 E6.83584
G1 X106.600 Y98.697 E6.85511
G1 X107.279 Y99.377 E6.89879
G1 X107.128 Y99.773 E6.91807
G1 X106.448 Y99.093 E6.96176
G1 X106.296 Y99.489 E6.98103
G1 X106.976 Y100.169 E7.02473
G1 X106.824 Y100.565 E7.04401
G1 X106.144 Y99.885 E7.08772
G1 X105.992 Y100.281 E7.10700
G1 X106.672 Y100.961 E7.15072
G1 X106.521 Y101.357 E7.17000
G1 X105.840 Y100.677 E7.21374
G1 X105.688 Y101.072 E7.23301
G1 X106.369 Y101.753 E7.27676
G1 X106.217 Y102.149 E7.29604
G1 X105.536 Y101.468 E7.33980
G1 X105.384 Y101.864 E7.35908
G1 X106.065 Y102.545 E7.40285
G1 X105.914 Y102.941 E7.42213
G1 X105.232 Y102.260 E7.46592
G1 X105.080 Y102.656 E7.48519
G1 X105.762 Y103.337 E7.52899
G1 X105.610 Y103.733 E7.54827
G1 X104.936 Y103.059 E7.59160
G1 X104.800 Y103.472 E7.61132
G1 X105.458 Y104.129 E7.65361
G1 X105.306 Y104.525 E7.67289
G1 X104.665 Y103.884 E7.71414
G1 X104.529 Y104.296 E7.73387
G1 X105.155 Y104.922 E7.77407
G1 X105.003 Y105.318 E7.79335
G1 X104.394 Y104.709 E7.83250
G1 X104.267 Y105.130 E7.85250
G1 X104.851 Y105.714 E7.89002
G1 X104.699 Y106.110 E7.90930
G1 X104.141 Y105.551 E7.94518
G1 X104.015 Y105.973 E7.96518
G1 X104.548 Y106.506 E7.99943
G1 X104.396 Y106.902 E8.01871
G1 X103.415 Y105.921 E8.08178
G1 X103.168 Y105.674 F7800.000
G1 X102.296 Y104.802 E8.13781 F540.000
G1 X102.296 Y105.350 E8.16271
G1 X104.143 Y107.197 E8.28144
G1 X103.595 Y107.197 E8.30634
G1 X102.296 Y105.898 E8.38986
G1 X102.296 Y106.446 E8.41476
G1 X103.048 Y107.197 E8.46306
G1 X102.500 Y107.197 E8.48796
G1 X102.296 Y106.993 E8.50105
G1 X103.180 Y105.138 F7800.000
G1 X102.296 Y104.254 E8.55786 F540.000
G1 X102.296 Y103.707 E8.58276
G1 X103.192 Y104.603 E8.64037
G1 X103.205 Y104.067 E8.66472
G1 X102.296 Y103.159 E8.72310
G1 X102.296 Y102.611 E8.74801
G1 X103.217 Y103.531 E8.80718
G1 X103.229 Y102.996 E8.83153
G1 X102.296 Y102.063 E8.89149
G1 X102.296 Y101.515 E8.91640
G1 X103.237 Y102.456 E8.97689
G1 X103.237 Y101.909 E9.00179
G1 X102.296 Y100.967 E9.06229
G1 X102.296 Y100.420 E9.08719
G1 X103.237 Y101.361 E9.14769
G1 X103.237 Y100.813 E9.17259
G1 X102.296 Y99.872 E9.23308
G1 X102.296 Y99.324 E9.25798
G1 X103.237 Y100.265 E9.31848
G1 X103.237 Y99.717 E9.34338
G1 X102.296 Y98.776 E9.40388
G1 X102.296 Y98.228 E9.42878
G1 X103.237 Y99.169 E9.48927
G1 X103.237 Y98.622 E9.51417
G1 X102.296 Y97.680 E9.57467
G1 X102.296 Y97.133 E9.59957
G1 X103.237 Y98.074 E9.66007
G1 X103.237 Y97.526 E9.68497
G1 X102.296 Y96.585 E9.74546
G1 X102.296 Y96.037 E9.77036
G1 X103.237 Y96.978 E9.83086
G1 X103.237 Y96.430 E9.85576
G1 X102.296 Y95.489 E9.91626
G1 X102.296 Y94.941 E9.94116
G1 X103.237 Y95.882 E10.00165
G1 X103.237 Y95.335 E10.02655
G1 X102.296 Y94.394 E10.08705
G1 X102.296 Y93.846 E10.11195
G1 X103.237 Y94.787 E10.17245
G1 X103.237 Y94.239 E10.19735
G1 X102.296 Y93.298 E10.25784
G1 X102.349 Y92.803 E10.28047
G1 X103.237 Y93.691 E10.33756
G1 X103.237 Y93.143 E10.36247
G1 X102.897 Y92.803 E10.38435
G92 E0
G1 X109.100 Y93.784 F7800.000
G1 X109.302 Y93.644 F7800.000
G1 X109.303 Y93.406 F7800.000
G1 X109.266 Y93.352 F7800.000
G1 X109.471 Y92.803 F7800.000
G1 X109.812 Y93.145 E0.02196 F540.000
G1 X110.344 Y96.416 F7800.000
G1 X111.481 Y97.552 E0.09504 F540.000
G1 X110.991 Y98.158 F7800.000
G1 X112.149 Y99.316 E0.16944 F540.000
G1 X111.652 Y99.914 F7800.000
G1 X112.816 Y101.079 E0.24430 F540.000
G1 X112.312 Y101.670 F7800.000
G1 X113.484 Y102.842 E0.31961 F540.000
G1 X112.973 Y103.426 F7800.000
G1 X114.054 Y104.508 E0.38911 F540.000
G1 X113.303 Y104.305 E0.42447
G1 X114.286 Y105.287 E0.48764
G1 X113.633 Y105.183 E0.51768
G1 X114.504 Y106.053 E0.57364
G1 X114.871 Y105.872 E0.59224
G1 X116.195 Y107.197 E0.67739
G1 X116.248 Y106.702 E0.70001
G1 X115.341 Y105.795 E0.75835
G1 X115.360 Y105.266 E0.78241
G1 X116.248 Y106.154 E0.83953
G1 X116.248 Y105.607 E0.86443
G1 X115.338 Y104.696 E0.92293
G1 X115.317 Y104.127 E0.94883
G1 X116.248 Y105.059 E1.00873
G1 X116.248 Y104.511 E1.03363
G1 X115.296 Y103.558 E1.09487
G1 X115.290 Y103.005 E1.12001
G1 X116.248 Y103.963 E1.18159
G1 X116.248 Y103.415 E1.20650
G1 X115.285 Y102.452 E1.26841
G1 X115.285 Y101.904 E1.29331
G1 X116.248 Y102.867 E1.35522
G1 X116.248 Y102.320 E1.38012
G1 X115.285 Y101.356 E1.44203
G1 X115.285 Y100.809 E1.46693
G1 X116.248 Y101.772 E1.52884
G1 X116.248 Y101.224 E1.55374
G1 X115.285 Y100.261 E1.61565
G1 X115.285 Y99.713 E1.64055
G1 X116.248 Y100.676 E1.70246
G1 X116.248 Y100.128 E1.72736
G1 X115.285 Y99.165 E1.78927
G1 X115.285 Y98.617 E1.81417
G1 X116.248 Y99.580 E1.87608
G1 X116.248 Y99.033 E1.90098
G1 X115.285 Y98.070 E1.96289
G1 X115.285 Y97.522 E1.98780
G1 X116.248 Y98.485 E2.04971
G1 X116.248 Y97.937 E2.07461
G1 X115.285 Y96.974 E2.13652
G1 X115.285 Y96.426 E2.16142
G1 X116.248 Y97.389 E2.22333
G1 X116.248 Y96.841 E2.24823
G1 X115.285 Y95.878 E2.31014
G1 X115.285 Y95.330 E2.33504
G1 X116.248 Y96.293 E2.39695
G1 X116.248 Y95.746 E2.42185
G1 X115.285 Y94.783 E2.48376
G1 X115.285 Y94.235 E2.50866
G1 X116.248 Y95.198 E2.57057
G1 X116.248 Y94.650 E2.59547
G1 X115.285 Y93.687 E2.65738
G1 X115.285 Y93.139 E2.68228
G1 X116.248 Y94.102 E2.74419
G1 X116.248 Y93.554 E2.76909
G1 X115.497 Y92.803 E2.81740
G1 X116.045 Y92.803 E2.84230
G1 X116.248 Y93.007 E2.85539
G92 E0
G1 X109.503 Y93.782 F7800.000
G1 X109.503 Y93.782 F7800.000
G1 X112.642 Y102.548 F7800.000
G1 X113.794 Y103.700 E0.07402 F540.000
G1 X114.401 Y105.950 F7800.000
G1 X115.648 Y107.197 E0.15416 F540.000
G1 X115.100 Y107.197 E0.17906
G1 X113.963 Y106.061 E0.25211
G1 X114.294 Y106.939 F7800.000
G1 X114.552 Y107.197 E0.26872 F540.000
G92 E0
G1 X114.042 Y107.648 F7800.000
G1 X104.567 Y108.648 F7800.000
G1 X98.853 Y106.655 F7800.000
G1 X97.860 Y107.648 F7800.000
G1 X95.860 Y107.648 F7800.000
G1 X94.574 Y106.181 F7800.000
G1 X95.635 Y106.181 E0.04798 F378.000
G1 X95.635 Y107.423 E0.10418
G1 X83.526 Y107.423 E0.65211
G1 X83.526 Y106.181 E0.70831
G1 X88.775 Y106.181 E0.94582
G1 X88.775 Y92.577 E1.56139
G1 X90.386 Y92.577 E1.63429
G1 X90.386 Y104.936 E2.19351
G1 X90.386 Y106.181 E2.24986 F378.000
G1 X94.343 Y106.181 E2.42894
G1 X94.741 Y106.407 F7800.000
G1 X95.409 Y107.075 E2.47215 F540.000
G1 X94.980 Y107.197 E2.49255
G1 X94.190 Y106.407 E2.54366
G1 X93.638 Y106.407 E2.56887
G1 X94.428 Y107.197 E2.61997
G1 X93.877 Y107.197 E2.64518
G1 X93.087 Y106.407 E2.69629
G1 X92.536 Y106.407 E2.72150
G1 X93.326 Y107.197 E2.77260
G1 X92.775 Y107.197 E2.79781
G1 X91.985 Y106.407 E2.84892
G1 X91.433 Y106.407 E2.87413
G1 X92.224 Y107.197 E2.92523
G1 X91.672 Y107.197 E2.95044
G1 X90.882 Y106.407 E3.00154
G1 X90.331 Y106.407 E3.02675
G1 X91.121 Y107.197 E3.07786
G1 X90.570 Y107.197 E3.10307
G1 X89.001 Y105.628 E3.20456
G1 X89.001 Y105.077 E3.22977
G1 X90.160 Y106.236 E3.30475
G1 X90.160 Y105.685 E3.32996
G1 X89.001 Y104.525 E3.40493
G1 X89.001 Y103.974 E3.43014
G1 X90.160 Y105.133 E3.50511
G1 X90.160 Y104.582 E3.53032
G1 X89.001 Y103.423 E3.60529
G1 X89.001 Y102.872 E3.63050
G1 X90.160 Y104.031 E3.70547
G1 X90.160 Y103.480 E3.73068
G1 X89.001 Y102.321 E3.80565
G1 X89.001 Y101.769 E3.83086
G1 X90.160 Y102.928 E3.90583
G1 X90.160 Y102.377 E3.93104
G1 X89.001 Y101.218 E4.00602
G1 X89.001 Y100.667 E4.03123
G1 X90.160 Y101.826 E4.10620
G1 X90.160 Y101.275 E4.13141
G1 X89.001 Y100.116 E4.20638
G1 X89.001 Y99.564 E4.23159
G1 X90.160 Y100.724 E4.30656
G1 X90.160 Y100.172 E4.33177
G1 X89.001 Y99.013 E4.40674
G1 X89.001 Y98.462 E4.43195
G1 X90.160 Y99.621 E4.50692
G1 X90.160 Y99.070 E4.53213
G1 X89.001 Y97.911 E4.60710
G1 X89.001 Y97.360 E4.63231
G1 X90.160 Y98.519 E4.70728
G1 X90.160 Y97.968 E4.73250
G1 X89.001 Y96.808 E4.80747
G1 X89.001 Y96.257 E4.83268
G1 X90.160 Y97.416 E4.90765
G1 X90.160 Y96.865 E4.93286
G1 X89.001 Y95.706 E5.00783
G1 X89.001 Y95.155 E5.03304
G1 X90.160 Y96.314 E5.10801
G1 X90.160 Y95.763 E5.13322
G1 X89.001 Y94.604 E5.20819
G1 X89.001 Y94.052 E5.23340
G1 X90.160 Y95.211 E5.30837
G1 X90.160 Y94.660 E5.33358
G1 X89.001 Y93.501 E5.40856
G1 X89.001 Y92.950 E5.43377
G1 X90.160 Y94.109 E5.50874
G1 X90.160 Y93.558 E5.53395
G1 X89.405 Y92.803 E5.58277
G1 X89.956 Y92.803 E5.60798
G1 X90.160 Y93.007 E5.62115
G1 X89.001 Y106.179 F7800.000
G1 X90.019 Y107.197 E5.68699 F540.000
G1 X88.677 Y106.407 F7800.000
G1 X89.467 Y107.197 E5.73810 F540.000
G1 X88.916 Y107.197 E5.76331
G1 X88.126 Y106.407 E5.81441
G1 X87.575 Y106.407 E5.83962
G1 X88.365 Y107.197 E5.89072
G1 X87.814 Y107.197 E5.91593
G1 X87.024 Y106.407 E5.96704
G1 X86.472 Y106.407 E5.99225
G1 X87.263 Y107.197 E6.04335
G1 X86.711 Y107.197 E6.06856
G1 X85.921 Y106.407 E6.11967
G1 X85.370 Y106.407 E6.14488
G1 X86.160 Y107.197 E6.19598
G1 X85.609 Y107.197 E6.22119
G1 X84.819 Y106.407 E6.27229
G1 X84.268 Y106.407 E6.29750
G1 X85.058 Y107.197 E6.34861
G1 X84.506 Y107.197 E6.37382
G1 X83.752 Y106.442 E6.42264
G1 X83.752 Y106.993 E6.44785
G1 X83.955 Y107.197 E6.46102
M106 S255
G92 E0
G1 Z0.600 F7800.000
G1 X115.767 Y92.352 F7800.000
G1 X115.767 Y102.554 E3.05685 F600.000
G1 X115.805 Y105.387 E3.90604
G1 X115.506 Y106.455 E4.23827
G1 X115.094 Y106.527 E4.36357
G1 X114.808 Y106.542 E4.44950
G1 X114.096 Y105.643 E4.79315
G1 X113.494 Y103.861 E5.35680
G1 X113.201 Y103.060 E5.61221
G1 X110.743 Y96.547 E7.69832
G1 X110.079 Y94.592 E8.31689
G1 X109.351 Y93.677 E8.66733
G1 X109.302 Y93.644 E8.68489
G1 X108.538 Y94.587 E9.04853
G1 X107.815 Y96.755 E9.73346
G1 X105.394 Y103.066 E11.75884
G1 X104.462 Y105.723 E12.60259
G1 X103.825 Y106.569 E12.91989
G1 X103.448 Y106.559 E13.03285
G1 X103.013 Y106.480 E13.16538
G1 X102.733 Y105.463 E13.48158
G1 X102.767 Y102.547 E14.35514
G1 X102.767 Y92.352 E17.41017
G92 E0
G1 X103.688 Y91.352 F7800.000
G1 X101.845 Y91.352 F7800.000
G1 X96.228 Y100.351 F7800.000
G1 X95.860 Y100.707 F7800.000
G1 X95.860 Y105.956 F7800.000
G1 X91.328 Y105.956 F7800.000
G1 X88.550 Y106.802 E0.87020 F600.000
G1 X83.301 Y106.802 E2.44305
G1 X95.860 Y106.802 F7800.000
G1 X90.611 Y106.802 E4.01589 F600.000
G1 X89.580 Y106.488 E4.33867
G1 X89.580 Y92.352 E8.57453
G92 E0
G1 Z0.900 F7800.000
G1 X115.767 Y92.352 F7800.000
G1 X115.767 Y102.554 E3.05685 F600.000
G1 X115.805 Y105.387 E3.90604
G1 X115.506 Y106.455 E4.23827
G1 X115.094 Y106.527 E4.36357
G1 X114.808 Y106.542 E4.44950
G1 X114.096 Y105.643 E4.79315
G1 X113.494 Y103.861 E5.35680
G1 X113.201 Y103.060 E5.61221
G1 X110.743 Y96.547 E7.69832
G1 X110.079 Y94.592 E8.31689
G1 X109.351 Y93.677 E8.66733
G1 X109.302 Y93.644 E8.68489
G1 X108.538 Y94.587 E9.04853
G1 X107.815 Y96.755 E9.73346
G1 X105.394 Y103.066 E11.75884
G1 X104.462 Y105.723 E12.60259
G1 X103.825 Y106.569 E12.91989
G1 X103.448 Y106.559 E13.03285
G1 X103.013 Y106.480 E13.16538
G1 X102.733 Y105.463 E13.48158
G1 X102.767 Y102.547 E14.35514
G1 X102.767 Y92.352 E17.41017
G92 E0
G1 X103.688 Y91.352 F7800.000
G1 X101.845 Y91.352 F7800.000
G1 X96.228 Y100.351 F7800.000
G1 X95.860 Y100.707 F7800.000
G1 X95.860 Y105.956 F7800.000
G1 X91.328 Y105.956 F7800.000
G1 X88.550 Y106.802 E0.87020 F600.000
G1 X83.301 Y106.802 E2.44305
G1 X95.860 Y106.802 F7800.000
G1 X90.611 Y106.802 E4.01589 F600.000
G1 X89.580 Y106.488 E4.33867
G1 X89.580 Y92.352 E8.57453
G92 E0
G1 Z1.200 F7800.000
G1 X115.767 Y92.352 F7800.000
G1 X115.767 Y102.554 E3.05685 F600.000
G1 X115.805 Y105.387 E3.90604
G1 X115.506 Y106.455 E4.23827
G1 X115.094 Y106.527 E4.36357
G1 X114.808 Y106.542 E4.44950
G1 X114.096 Y105.643 E4.79315
G1 X113.494 Y103.861 E5.35680
G1 X113.201 Y103.060 E5.61221
G1 X110.743 Y96.547 E7.69832
G1 X110.079 Y94.592 E8.31689
G1 X109.351 Y93.677 E8.66733
G1 X109.302 Y93.644 E8.68489
G1 X108.538 Y94.587 E9.04853
G1 X107.815 Y96.755 E9.73346
G1 X105.394 Y103.066 E11.75884
G1 X104.462 Y105.723 E12.60259
G1 X103.825 Y106.569 E12.91989
G1 X103.448 Y106.559 E13.03286
G1 X103.013 Y106.480 E13.16538
G1 X102.733 Y105.463 E13.48158
G1 X102.767 Y102.547 E14.35514
G1 X102.767 Y92.352 E17.41017
G92 E0
G1 X101.845 Y91.352 F7800.000
G1 X96.228 Y98.814 F7800.000
G1 X95.860 Y100.707 F7800.000
G1 X95.860 Y105.956 F7800.000
G1 X91.328 Y105.956 F7800.000
G1 X88.550 Y106.802 E0.87020 F600.000
G1 X83.301 Y106.802 E2.44305
G1 X95.860 Y106.802 F7800.000
G1 X90.611 Y106.802 E4.01589 F600.000
G1 X89.580 Y106.488 E4.33867
G1 X89.580 Y92.352 E8.57453
G92 E0
G1 Z1.500 F7800.000
G1 X115.767 Y92.352 F7800.000
G1 X115.767 Y102.554 E3.05685 F600.000
G1 X115.805 Y105.387 E3.90604
G1 X115.506 Y106.455 E4.23827
G1 X115.094 Y106.527 E4.36357
G1 X114.808 Y106.542 E4.44950
G1 X114.096 Y105.643 E4.79315
G1 X113.494 Y103.861 E5.35680
G1 X113.201 Y103.060 E5.61221
G1 X110.743 Y96.547 E7.69832
G1 X110.079 Y94.592 E8.31689
G1 X109.351 Y93.677 E8.66733
G1 X109.302 Y93.644 E8.68489
G1 X108.538 Y94.587 E9.04853
G1 X107.815 Y96.755 E9.73346
G1 X105.394 Y103.066 E11.75884
G1 X104.462 Y105.723 E12.60259
G1 X103.825 Y106.569 E12.91989
G1 X103.448 Y106.559 E13.03285
G1 X103.013 Y106.480 E13.16538
G1 X102.733 Y105.463 E13.48158
G1 X102.767 Y102.547 E14.35514
G1 X102.767 Y92.352 E17.41017
G92 E0
G1 X101.845 Y91.352 F7800.000
G1 X96.228 Y96.773 F7800.000
G1 X95.860 Y100.707 F7800.000
G1 X95.860 Y105.956 F7800.000
G1 X91.328 Y105.956 F7800.000
G1 X88.550 Y106.802 E0.87020 F600.000
G1 X83.301 Y106.802 E2.44305
G1 X95.860 Y106.802 F7800.000
G1 X90.611 Y106.802 E4.01589 F600.000
G1 X89.580 Y106.488 E4.33867
G1 X89.580 Y92.352 E8.57453
G92 E0
G1 Z1.800 F7800.000
G1 X115.767 Y92.352 F7800.000
G1 X115.767 Y102.554 E3.05685 F600.000
G1 X115.805 Y105.387 E3.90604
