; generated by Slic3r 1.2.9 on 2016-03-11 at 01:30:35

; external perimeters extrusion width = 1.54mm
; perimeters extrusion width = 2.62mm
; infill extrusion width = 6.27mm
; solid infill extrusion width = 2.62mm
; top infill extrusion width = 2.62mm

M107
M104 S30 ; set temperature
G28 ; home all axes
G1 Z5 F5000 ; lift nozzle
M302
M92 E10000
M500
M501
G1 E100
M109 S30 ; wait for temperature to be reached
G21 ; set units to millimeters
G90 ; use absolute coordinates
M82 ; use absolute distances for extrusion
G92 E0
G1 Z0.300 F7800.000
G1 X104.642 Y103.774 F7800.000
G1 X104.571 Y105.392 E0.07326 F378.000
G1 X104.976 Y105.520 E0.09248
G1 X113.117 Y92.577 E0.78435
G1 X115.262 Y92.577 E0.88140
G1 X115.262 Y107.423 E1.55317
G1 X113.847 Y107.423 E1.61719
G1 X113.847 Y97.618 E2.06086
G1 X113.861 Y96.856 E2.09535
G1 X113.976 Y94.524 E2.20100
G1 X113.572 Y94.395 E2.22020
G1 X105.345 Y107.423 E2.91743
G1 X103.287 Y107.423 E3.01055
G1 X103.287 Y92.577 E3.68232
G1 X104.680 Y92.577 E3.74535
G1 X104.680 Y102.512 E4.19489
G1 X104.649 Y103.543 E4.24158 F378.000
G1 X104.365 Y105.073 F7800.000
G1 X103.513 Y104.221 E4.29705 F540.000
G1 X103.513 Y103.666 E4.32257
G1 X104.392 Y104.546 E4.37980
G1 X104.411 Y104.010 E4.40445
G1 X103.513 Y103.112 E4.46293
G1 X103.513 Y102.557 E4.48845
G1 X104.428 Y103.472 E4.54798
G1 X104.444 Y102.933 E4.57277
G1 X103.513 Y102.002 E4.63335
G1 X103.513 Y101.448 E4.65886
G1 X104.454 Y102.389 E4.72010
G1 X104.454 Y101.834 E4.74562
G1 X103.513 Y100.893 E4.80686
G1 X103.513 Y100.339 E4.83238
G1 X104.454 Y101.280 E4.89362
G1 X104.454 Y100.725 E4.91914
G1 X103.513 Y99.784 E4.98038
G1 X103.513 Y99.230 E5.00590
G1 X104.454 Y100.171 E5.06714
G1 X104.454 Y99.616 E5.09265
G1 X103.513 Y98.675 E5.15389
G1 X103.513 Y98.120 E5.17941
G1 X104.454 Y99.062 E5.24065
G1 X104.454 Y98.507 E5.26617
G1 X103.513 Y97.566 E5.32741
G1 X103.513 Y97.011 E5.35293
G1 X104.454 Y97.952 E5.41417
G1 X104.454 Y97.398 E5.43968
G1 X103.513 Y96.457 E5.50093
G1 X103.513 Y95.902 E5.52644
G1 X104.454 Y96.843 E5.58768
G1 X104.454 Y96.289 E5.61320
G1 X103.513 Y95.348 E5.67444
G1 X103.513 Y94.793 E5.69996
G1 X104.454 Y95.734 E5.76120
G1 X104.454 Y95.180 E5.78672
G1 X103.513 Y94.238 E5.84796
G1 X103.513 Y93.684 E5.87347
G1 X104.454 Y94.625 E5.93471
G1 X104.454 Y94.070 E5.96023
G1 X103.513 Y93.129 E6.02147
G1 X103.741 Y92.803 E6.03980
G1 X104.454 Y93.516 E6.08619
G92 E0
G1 X113.430 Y93.535 F7800.000
G1 X113.610 Y93.470 F7800.000
G1 X114.267 Y93.572 F7800.000
G1 X114.487 Y93.874 F7800.000
G1 X114.179 Y94.923 F7800.000
G1 X115.036 Y95.779 E0.05576 F540.000
G1 X115.036 Y96.334 E0.08127
G1 X114.153 Y95.451 E0.13873
G1 X114.127 Y95.979 E0.16308
G1 X115.036 Y96.889 E0.22224
G1 X115.036 Y97.443 E0.24775
G1 X114.101 Y96.508 E0.30861
G1 X114.082 Y97.044 E0.33329
G1 X115.036 Y97.998 E0.39536
G1 X115.036 Y98.552 E0.42088
G1 X114.073 Y97.589 E0.48355
G1 X114.073 Y98.144 E0.50907
G1 X115.036 Y99.107 E0.57174
G1 X115.036 Y99.661 E0.59726
G1 X114.073 Y98.698 E0.65993
G1 X114.073 Y99.253 E0.68545
G1 X115.036 Y100.216 E0.74812
G1 X115.036 Y100.770 E0.77364
G1 X114.073 Y99.807 E0.83631
G1 X114.073 Y100.362 E0.86182
G1 X115.036 Y101.325 E0.92450
G1 X115.036 Y101.880 E0.95001
G1 X114.073 Y100.917 E1.01269
G1 X114.073 Y101.471 E1.03820
G1 X115.036 Y102.434 E1.10088
G1 X115.036 Y102.989 E1.12639
G1 X114.073 Y102.026 E1.18907
G1 X114.073 Y102.580 E1.21458
G1 X115.036 Y103.543 E1.27726
G1 X115.036 Y104.098 E1.30277
G1 X114.073 Y103.135 E1.36544
G1 X114.073 Y103.689 E1.39096
G1 X115.036 Y104.652 E1.45363
G1 X115.036 Y105.207 E1.47915
G1 X114.073 Y104.244 E1.54182
G1 X114.073 Y104.798 E1.56734
G1 X115.036 Y105.762 E1.63001
G1 X115.036 Y106.316 E1.65553
G1 X114.073 Y105.353 E1.71820
G1 X114.073 Y105.908 E1.74372
G1 X115.036 Y106.871 E1.80639
G1 X114.808 Y107.197 E1.82472
G1 X114.073 Y106.462 E1.87254
G1 X114.073 Y107.017 E1.89806
G1 X114.253 Y107.197 E1.90979
G92 E0
G1 X105.093 Y106.370 F7800.000
G1 X104.819 Y106.470 F7800.000
G1 X104.317 Y106.392 F7800.000
G1 X104.062 Y106.648 F7800.000
G1 X103.513 Y106.993 F7800.000
G1 X103.716 Y107.197 E0.01325 F540.000
G1 X104.271 Y107.197 E0.03877
G1 X103.513 Y106.439 E0.08810
G1 X103.513 Y105.884 E0.11362
G1 X104.825 Y107.197 E0.19904
G1 X105.305 Y107.122 E0.22136
G1 X103.513 Y105.330 E0.33796
G1 X103.513 Y104.775 E0.36348
G1 X105.519 Y106.782 E0.49405
G1 X105.734 Y106.442 E0.51255
G1 X105.054 Y105.762 E0.55679
G1 X105.268 Y105.421 E0.57530
G1 X105.949 Y106.102 E0.61957
G1 X106.163 Y105.762 E0.63807
G1 X105.482 Y105.081 E0.68239
G1 X105.696 Y104.741 E0.70089
G1 X106.378 Y105.422 E0.74524
G1 X106.592 Y105.082 E0.76374
G1 X105.910 Y104.400 E0.80812
G1 X106.125 Y104.060 E0.82662
G1 X106.807 Y104.742 E0.87104
G1 X107.022 Y104.402 E0.88954
G1 X106.339 Y103.719 E0.93399
G1 X106.553 Y103.379 E0.95249
G1 X107.236 Y104.062 E0.99698
G1 X107.451 Y103.723 E1.01547
G1 X106.767 Y103.038 E1.05999
G1 X106.981 Y102.698 E1.07850
G1 X107.666 Y103.383 E1.12305
G1 X107.880 Y103.043 E1.14155
G1 X107.195 Y102.358 E1.18613
G1 X107.409 Y102.017 E1.20464
G1 X108.095 Y102.703 E1.24926
G1 X108.310 Y102.363 E1.26776
G1 X107.624 Y101.677 E1.31241
G1 X107.838 Y101.336 E1.33091
G1 X108.524 Y102.023 E1.37560
G1 X108.739 Y101.683 E1.39410
G1 X108.052 Y100.996 E1.43882
G1 X108.266 Y100.655 E1.45733
G1 X108.954 Y101.343 E1.50208
G1 X109.168 Y101.003 E1.52058
G1 X108.480 Y100.315 E1.56537
G1 X108.694 Y99.975 E1.58388
G1 X109.383 Y100.663 E1.62870
G1 X109.598 Y100.323 E1.64720
G1 X108.908 Y99.634 E1.69206
G1 X109.122 Y99.294 E1.71056
G1 X109.812 Y99.984 E1.75546
G1 X110.027 Y99.644 E1.77395
G1 X109.337 Y98.953 E1.81888
G1 X109.551 Y98.613 E1.83739
G1 X110.242 Y99.304 E1.88235
G1 X110.456 Y98.964 E1.90084
G1 X109.765 Y98.272 E1.94584
G1 X109.979 Y97.932 E1.96434
G1 X110.671 Y98.624 E2.00937
G1 X110.886 Y98.284 E2.02787
G1 X110.193 Y97.592 E2.07293
G1 X110.407 Y97.251 E2.09144
G1 X111.100 Y97.944 E2.13653
G1 X111.315 Y97.604 E2.15503
G1 X110.621 Y96.911 E2.20016
G1 X110.836 Y96.570 E2.21867
G1 X111.530 Y97.264 E2.26383
G1 X111.744 Y96.924 E2.28233
G1 X111.050 Y96.230 E2.32753
G1 X111.264 Y95.889 E2.34603
G1 X111.959 Y96.584 E2.39127
G1 X112.174 Y96.245 E2.40977
G1 X111.478 Y95.549 E2.45503
G1 X111.692 Y95.209 E2.47354
G1 X112.388 Y95.905 E2.51884
G1 X112.603 Y95.565 E2.53734
G1 X111.906 Y94.868 E2.58267
G1 X112.120 Y94.528 E2.60118
G1 X112.818 Y95.225 E2.64655
G1 X113.032 Y94.885 E2.66504
G1 X112.335 Y94.187 E2.71045
G1 X112.549 Y93.847 E2.72895
G1 X113.247 Y94.545 E2.77439
G1 X113.462 Y94.205 E2.79289
G1 X112.763 Y93.506 E2.83836
G1 X112.977 Y93.166 E2.85686
G1 X115.036 Y95.225 E2.99084
G1 X115.036 Y94.670 E3.01636
G1 X113.191 Y92.826 E3.13641
G1 X113.723 Y92.803 E3.16091
G1 X115.036 Y94.116 E3.24633
G1 X115.036 Y93.561 E3.27185
G1 X114.278 Y92.803 E3.32119
G1 X114.832 Y92.803 E3.34670
G1 X115.036 Y93.007 E3.35995
G92 E0
G1 X104.878 Y105.253 F7800.000
G1 X108.230 Y93.678 F7800.000
G1 X104.905 Y91.352 F7800.000
G1 X103.062 Y91.352 F7800.000
G1 X97.443 Y100.349 F7800.000
G1 X97.072 Y100.707 F7800.000
G1 X97.072 Y105.956 F7800.000
G1 X88.378 Y107.423 F7800.000
G1 X84.738 Y107.423 E0.16469 F378.000
G1 X84.738 Y106.181 E0.22089
G1 X89.987 Y106.181 E0.45840
G1 X89.987 Y92.577 E1.07397
G1 X91.598 Y92.577 E1.14687
G1 X91.598 Y104.936 E1.70609
G1 X91.598 Y106.181 E1.76244 F378.000
G1 X96.847 Y106.181 E1.99995
G1 X96.847 Y107.423 E2.05615
G1 X88.609 Y107.423 E2.42894
G1 X89.890 Y106.407 F7800.000
G1 X90.680 Y107.197 E2.48004 F540.000
G1 X90.129 Y107.197 E2.50525
G1 X89.339 Y106.407 E2.55635
G1 X88.787 Y106.407 E2.58156
G1 X89.578 Y107.197 E2.63267
G1 X89.026 Y107.197 E2.65788
G1 X88.236 Y106.407 E2.70898
G1 X87.685 Y106.407 E2.73419
G1 X88.475 Y107.197 E2.78530
G1 X87.924 Y107.197 E2.81051
G1 X87.134 Y106.407 E2.86161
G1 X86.583 Y106.407 E2.88682
G1 X87.373 Y107.197 E2.93792
G1 X86.821 Y107.197 E2.96314
G1 X86.031 Y106.407 E3.01424
G1 X85.480 Y106.407 E3.03945
G1 X86.270 Y107.197 E3.09055
G1 X85.719 Y107.197 E3.11576
G1 X84.964 Y106.442 E3.16458
G1 X84.964 Y106.993 E3.18979
G1 X85.168 Y107.197 E3.20296
G1 X90.213 Y106.179 F7800.000
G1 X91.231 Y107.197 E3.26880 F540.000
G1 X95.953 Y106.407 F7800.000
G1 X96.621 Y107.075 E3.31202 F540.000
G1 X96.192 Y107.197 E3.33242
G1 X95.402 Y106.407 E3.38353
G1 X94.851 Y106.407 E3.40874
G1 X95.641 Y107.197 E3.45984
G1 X95.090 Y107.197 E3.48505
G1 X94.300 Y106.407 E3.53616
G1 X93.748 Y106.407 E3.56137
G1 X94.538 Y107.197 E3.61247
G1 X93.987 Y107.197 E3.63768
G1 X93.197 Y106.407 E3.68878
G1 X92.646 Y106.407 E3.71399
G1 X93.436 Y107.197 E3.76510
G1 X92.885 Y107.197 E3.79031
G1 X92.095 Y106.407 E3.84141
G1 X91.544 Y106.407 E3.86662
G1 X92.334 Y107.197 E3.91773
G1 X91.782 Y107.197 E3.94294
G1 X90.213 Y105.628 E4.04443
G1 X90.213 Y105.077 E4.06964
G1 X91.372 Y106.236 E4.14461
G1 X91.372 Y105.685 E4.16982
G1 X90.213 Y104.525 E4.24479
G1 X90.213 Y103.974 E4.27000
G1 X91.372 Y105.133 E4.34498
G1 X91.372 Y104.582 E4.37019
G1 X90.213 Y103.423 E4.44516
G1 X90.213 Y102.872 E4.47037
G1 X91.372 Y104.031 E4.54534
G1 X91.372 Y103.480 E4.57055
G1 X90.213 Y102.321 E4.64552
G1 X90.213 Y101.769 E4.67073
G1 X91.372 Y102.928 E4.74570
G1 X91.372 Y102.377 E4.77091
G1 X90.213 Y101.218 E4.84588
G1 X90.213 Y100.667 E4.87109
G1 X91.372 Y101.826 E4.94606
G1 X91.372 Y101.275 E4.97127
G1 X90.213 Y100.116 E5.04625
G1 X90.213 Y99.564 E5.07146
G1 X91.372 Y100.724 E5.14643
G1 X91.372 Y100.172 E5.17164
G1 X90.213 Y99.013 E5.24661
G1 X90.213 Y98.462 E5.27182
G1 X91.372 Y99.621 E5.34679
G1 X91.372 Y99.070 E5.37200
G1 X90.213 Y97.911 E5.44697
G1 X90.213 Y97.360 E5.47218
G1 X91.372 Y98.519 E5.54715
G1 X91.372 Y97.968 E5.57236
G1 X90.213 Y96.808 E5.64733
G1 X90.213 Y96.257 E5.67254
G1 X91.372 Y97.416 E5.74752
G1 X91.372 Y96.865 E5.77273
G1 X90.213 Y95.706 E5.84770
G1 X90.213 Y95.155 E5.87291
G1 X91.372 Y96.314 E5.94788
G1 X91.372 Y95.763 E5.97309
G1 X90.213 Y94.604 E6.04806
G1 X90.213 Y94.052 E6.07327
G1 X91.372 Y95.211 E6.14824
G1 X91.372 Y94.660 E6.17345
G1 X90.213 Y93.501 E6.24842
G1 X90.213 Y92.950 E6.27363
G1 X91.372 Y94.109 E6.34860
G1 X91.372 Y93.558 E6.37382
G1 X90.617 Y92.803 E6.42264
G1 X91.169 Y92.803 E6.44785
G1 X91.372 Y93.007 E6.46102
M106 S255
G92 E0
G1 Z0.600 F7800.000
G1 X103.983 Y92.352 F7800.000
G1 X103.983 Y102.501 E3.04120 F600.000
G1 X103.934 Y105.185 E3.84543
G1 X104.320 Y106.390 E4.22466
G1 X104.508 Y106.422 E4.28197
G1 X104.808 Y106.449 E4.37217
G1 X105.631 Y105.726 E4.70041
G1 X112.907 Y94.181 E8.78971
G1 X113.631 Y93.507 E9.08590
G1 X114.030 Y93.535 E9.20580
G1 X114.262 Y93.577 E9.27643
G1 X114.614 Y94.729 E9.63745
G1 X114.554 Y97.625 E10.50542
G1 X114.554 Y107.648 E13.50885
G92 E0
G1 X105.469 Y108.648 F7800.000
G1 X100.067 Y106.653 F7800.000
G1 X99.072 Y107.648 F7800.000
G1 X97.072 Y107.648 F7800.000
G1 X92.540 Y105.956 F7800.000
G1 X89.762 Y106.802 E0.87020 F600.000
G1 X84.513 Y106.802 E2.44305
G1 X97.072 Y106.802 F7800.000
G1 X91.823 Y106.802 E4.01589 F600.000
G1 X90.793 Y106.488 E4.33867
G1 X90.793 Y92.352 E8.57453
G92 E0
G1 Z0.900 F7800.000
G1 X103.983 Y92.352 F7800.000
G1 X103.983 Y102.501 E3.04120 F600.000
G1 X103.934 Y105.185 E3.84543
G1 X104.320 Y106.390 E4.22466
G1 X104.508 Y106.422 E4.28197
G1 X104.808 Y106.449 E4.37217
G1 X105.631 Y105.726 E4.70041
G1 X112.907 Y94.181 E8.78971
G1 X113.631 Y93.507 E9.08590
G1 X114.030 Y93.535 E9.20580
G1 X114.262 Y93.577 E9.27643
G1 X114.614 Y94.729 E9.63746
G1 X114.554 Y97.625 E10.50542
G1 X114.554 Y107.648 E13.50885
G92 E0
G1 X105.469 Y108.648 F7800.000
G1 X100.067 Y106.653 F7800.000
G1 X99.072 Y107.648 F7800.000
G1 X97.072 Y107.648 F7800.000
G1 X92.540 Y105.956 F7800.000
G1 X89.762 Y106.802 E0.87020 F600.000
G1 X84.513 Y106.802 E2.44305
G1 X97.072 Y106.802 F7800.000
G1 X91.823 Y106.802 E4.01589 F600.000
G1 X90.793 Y106.488 E4.33867
G1 X90.793 Y92.352 E8.57453
G92 E0
G1 Z1.200 F7800.000
G1 X103.983 Y92.352 F7800.000
G1 X103.983 Y102.501 E3.04120 F600.000
G1 X103.934 Y105.185 E3.84543
G1 X104.320 Y106.390 E4.22466
G1 X104.508 Y106.422 E4.28198
G1 X104.808 Y106.449 E4.37217
G1 X105.631 Y105.726 E4.70041
G1 X112.907 Y94.181 E8.78971
G1 X113.631 Y93.507 E9.08590
G1 X114.030 Y93.535 E9.20580
G1 X114.262 Y93.577 E9.27643
G1 X114.614 Y94.729 E9.63745
G1 X114.554 Y97.625 E10.50542
G1 X114.554 Y107.648 E13.50885
G92 E0
G1 X105.469 Y108.648 F7800.000
G1 X100.067 Y106.653 F7800.000
G1 X99.072 Y107.648 F7800.000
G1 X97.072 Y107.648 F7800.000
G1 X92.540 Y105.956 F7800.000
G1 X89.762 Y106.802 E0.87020 F600.000
G1 X84.513 Y106.802 E2.44305
G1 X97.072 Y106.802 F7800.000
G1 X91.823 Y106.802 E4.01589 F600.000
G1 X90.793 Y106.488 E4.33867
G1 X90.793 Y92.352 E8.57453
G92 E0
G1 Z1.500 F7800.000
G1 X103.983 Y92.352 F7800.000
G1 X103.983 Y102.501 E3.04120 F600.000
G1 X103.934 Y105.185 E3.84543
G1 X104.320 Y106.390 E4.22466
G1 X104.508 Y106.422 E4.28197
G1 X104.808 Y106.449 E4.37217
G1 X105.631 Y105.726 E4.70041
G1 X112.907 Y94.181 E8.78971
G1 X113.631 Y93.507 E9.08590
G1 X114.030 Y93.535 E9.20580
G1 X114.262 Y93.577 E9.27643
G1 X114.614 Y94.729 E9.63746
G1 X114.554 Y97.625 E10.50541
G1 X114.554 Y107.648 E13.50885
G92 E0
G1 X105.469 Y108.648 F7800.000
G1 X100.067 Y106.653 F7800.000
G1 X99.072 Y107.648 F7800.000
G1 X97.072 Y107.648 F7800.000
G1 X92.540 Y105.956 F7800.000
G1 X89.762 Y106.802 E0.87020 F600.000
G1 X84.513 Y106.802 E2.44305
G1 X97.072 Y106.802 F7800.000
G1 X91.823 Y106.802 E4.01589 F600.000
G1 X90.793 Y106.488 E4.33867
G1 X90.793 Y92.352 E8.57453
G92 E0
G1 Z1.800 F7800.000
G1 X103.983 Y92.352 F7800.000
G1 X103.983 Y102.501 E3.04120 F600.000
G1 X103.934 Y105.185 E3.84543
G1 X104.320 Y106.390 E4.22466
G1 X104.508 Y106.422 E4.28197
G1 X104.808 Y106.449 E4.37217
G1 X105.631 Y105.726 E4.70041
G1 X112.907 Y94.181 E8.78971
G1 X113.631 Y93.507 E9.08590
G1 X114.030 Y93.535 E9.20580
G1 X114.262 Y93.577 E9.27643
G1 X114.614 Y94.729 E9.63745
G1 X114.554 Y97.625 E10.50542
G1 X114.554 Y107.648 E13.50885
G92 E0
G1 X105.469 Y108.648 F7800.000
G1 X100.067 Y106.653 F7800.000
G1 X99.072 Y107.648 F7800.000
G1 X97.072 Y107.648 F7800.000
G1 X92.540 Y105.956 F7800.000
G1 X89.762 Y106.802 E0.87020 F600.000
G1 X84.513 Y106.802 E2.44305
G1 X97.072 Y106.802 F7800.000
G1 X91.823 Y106.802 E4.01589 F600.000
G1 X90.793 Y106.488 E4.33867
G1 X90.793 Y92.352 E8.57453
G92 E0
G1 Z2.100 F7800.000
G1 X103.983 Y92.352 F7800.000
G1 X103.983 Y102.501 E3.04120 F600.000
G1 X103.934 Y105.185 E3.84543
G1 X104.320 Y106.390 E4.22466
G1 X104.508 Y106.422 E4.28197
G1 X104.808 Y106.449 E4.37217
G1 X105.631 Y105.726 E4.70041
G1 X112.907 Y94.181 E8.78971
G1 X113.631 Y93.507 E9.08590
G1 X114.030 Y93.535 E9.20580
G1 X114.262 Y93.577 E9.27643
G1 X114.614 Y94.729 E9.63746
G1 X114.554 Y97.625 E10.50542
G1 X114.554 Y107.648 E13.50885
G92 E0
G1 X105.469 Y108.648 F7800.000
G1 X100.067 Y106.653 F7800.000
G1 X99.072 Y107.648 F7800.000
G1 X97.072 Y107.648 F7800.000
G1 X92.540 Y105.956 F7800.000
G1 X89.762 Y106.802 E0.87020 F600.000
G1 X84.513 Y106.802 E2.44305
G92 E0
G1 X97.072 Y106.802 F7800.000
G1 X91.823 Y106.802 E1.57284 F600.000
G1 X90.793 Y106.488 E1.89563
G1 X90.793 Y92.352 E6.13148
G92 E0
M107
M104 S0 ; turn off temperature
G28 X0  ; home X axis
M84     ; disable motors

; filament used = 150.3mm (1.2cm3)

; avoid_crossing_perimeters = 1
; bed_shape = 0x0,250x0,250x250,0x250
; bed_temperature = 0
; before_layer_gcode = 
; bridge_acceleration = 0
; bridge_fan_speed = 100
; brim_width = 0
; complete_objects = 0
; cooling = 1
; default_acceleration = 0
; disable_fan_first_layers = 1
; duplicate_distance = 6
; end_gcode = M104 S0 ; turn off temperature\nG28 X0  ; home X axis\nM84     ; disable motors\n
; extruder_clearance_height = 20
; extruder_clearance_radius = 20
; extruder_offset = 0x0
; extrusion_axis = E
; extrusion_multiplier = 3
; fan_always_on = 0
; fan_below_layer_time = 60
; filament_colour = #FFFFFF
; filament_diameter = 3.125
; first_layer_acceleration = 0
; first_layer_bed_temperature = 0
; first_layer_extrusion_width = 150%
; first_layer_speed = 90%
; first_layer_temperature = 30
; gcode_arcs = 0
; gcode_comments = 0
; gcode_flavor = reprap
; infill_acceleration = 0
; infill_first = 0
; layer_gcode = 
; max_fan_speed = 100
; max_print_speed = 80
