; generated by Slic3r 1.2.9 on 2016-03-11 at 01:30:40

; external perimeters extrusion width = 1.54mm
; perimeters extrusion width = 2.62mm
; infill extrusion width = 6.27mm
; solid infill extrusion width = 2.62mm
; top infill extrusion width = 2.62mm

M107
M104 S30 ; set temperature
G28 ; home all axes
G1 Z5 F5000 ; lift nozzle
M302
M92 E10000
M500
M501
G1 E100
M109 S30 ; wait for temperature to be reached
G21 ; set units to millimeters
G90 ; use absolute coordinates
M82 ; use absolute distances for extrusion
G92 E0
G1 Z0.300 F7800.000
G1 X113.871 Y99.267 F7800.000
G1 X113.625 Y99.461 E0.01418 F378.000
G1 X113.288 Y99.675 E0.03227
G1 X112.923 Y99.867 E0.05089
G1 X112.127 Y100.205 E0.09005
G1 X111.267 Y100.480 E0.13089
G1 X108.167 Y101.222 E0.27512
G1 X107.220 Y101.487 E0.31961
G1 X106.574 Y101.724 E0.35078
G1 X106.114 Y101.967 E0.37430
G1 X105.727 Y102.246 E0.39590
G1 X105.411 Y102.568 E0.41630
G1 X105.176 Y102.947 E0.43646
G1 X105.036 Y103.384 E0.45724
G1 X104.990 Y103.877 E0.47965
G1 X105.106 Y104.675 E0.51615
G1 X105.465 Y105.346 E0.55059
G1 X106.055 Y105.864 E0.58611
G1 X106.844 Y106.224 E0.62538
G1 X107.815 Y106.434 E0.67031
G1 X108.968 Y106.503 E0.72258
G1 X110.028 Y106.441 E0.77061
G1 X110.934 Y106.250 E0.81253
G1 X111.689 Y105.925 E0.84972
G1 X112.297 Y105.449 E0.88466
G1 X112.757 Y104.813 E0.92019
G1 X112.991 Y104.221 E0.94896
G1 X114.576 Y104.500 E1.02178
G1 X114.229 Y105.373 E1.06430
G1 X113.620 Y106.231 E1.11188
G1 X112.844 Y106.848 E1.15674
G1 X111.842 Y107.270 E1.20596
G1 X110.556 Y107.528 E1.26530
G1 X108.991 Y107.615 E1.33624
G1 X107.306 Y107.499 E1.41263
G1 X105.921 Y107.157 E1.47722
G1 X104.831 Y106.595 E1.53270
G1 X104.050 Y105.839 E1.58188
G1 X103.584 Y104.901 E1.62928
G1 X103.425 Y103.754 E1.68168
G1 X103.455 Y103.243 E1.70486
G1 X103.544 Y102.768 E1.72670
G1 X103.692 Y102.338 E1.74729
G1 X103.897 Y101.947 E1.76728
G1 X104.154 Y101.589 E1.78722
G1 X104.465 Y101.265 E1.80751
G1 X104.846 Y100.966 E1.82945
G1 X105.317 Y100.681 E1.85435
G1 X105.878 Y100.413 E1.88248
G1 X106.582 Y100.153 E1.91643
G1 X107.483 Y99.890 E1.95891
G1 X110.482 Y99.180 E2.09836
G1 X111.036 Y99.030 E2.12435
G1 X111.542 Y98.855 E2.14856
G1 X111.999 Y98.655 E2.17113
G1 X112.405 Y98.420 E2.19237
G1 X112.753 Y98.141 E2.21254
G1 X113.040 Y97.817 E2.23215
G1 X113.254 Y97.431 E2.25211
G1 X113.381 Y96.981 E2.27326
G1 X113.423 Y96.467 E2.29658
G1 X113.292 Y95.589 E2.33677
G1 X112.892 Y94.847 E2.37491
G1 X112.233 Y94.270 E2.41454
G1 X111.356 Y93.866 E2.45824
G1 X110.286 Y93.629 E2.50782
G1 X109.022 Y93.551 E2.56511
G1 X107.792 Y93.624 E2.62088
G1 X106.734 Y93.847 E2.66980
G1 X105.848 Y94.225 E2.71342
G1 X105.136 Y94.774 E2.75406
G1 X104.610 Y95.498 E2.79459
G1 X104.349 Y96.185 E2.82782
G1 X102.822 Y95.880 E2.89830
G1 X103.768 Y94.045 E2.99170
G1 X105.827 Y92.808 E3.10040
G1 X108.954 Y92.386 E3.24315
G1 X110.641 Y92.503 E3.31968
G1 X110.760 Y92.512 E3.32508 F378.000
G1 X112.265 Y92.886 E3.39526
G1 X113.462 Y93.502 E3.45619
G1 X114.328 Y94.330 E3.51040
G1 X114.844 Y95.351 E3.56216
G1 X115.019 Y96.593 E3.61893
G1 X114.995 Y97.090 E3.64144
G1 X114.922 Y97.546 E3.66234
G1 X114.801 Y97.953 E3.68154
G1 X114.638 Y98.320 E3.69973
G1 X114.438 Y98.653 E3.71729
G1 X114.201 Y98.952 E3.73453
G1 X114.041 Y99.110 E3.74475
G1 X112.308 Y99.910 F7800.000
G1 X111.487 Y99.089 E3.79762 F540.000
G1 X111.874 Y98.928 E3.81673
G1 X112.693 Y99.747 E3.86947
G1 X113.065 Y99.569 E3.88822
G1 X112.238 Y98.743 E3.94144
G1 X112.575 Y98.531 E3.95957
G1 X113.411 Y99.367 E4.01338
G1 X113.727 Y99.135 E4.03127
G1 X112.880 Y98.287 E4.08586
G1 X113.138 Y97.996 E4.10357
G1 X114.011 Y98.869 E4.15981
G1 X114.259 Y98.568 E4.17757
G1 X113.351 Y97.661 E4.23602
G1 X113.513 Y97.274 E4.25513
G1 X114.462 Y98.223 E4.31625
G1 X114.621 Y97.833 E4.33542
G1 X113.614 Y96.825 E4.40032
G1 X113.640 Y96.302 E4.42418
G1 X114.730 Y97.393 E4.49440
G1 X114.782 Y96.896 E4.51713
G1 X113.544 Y95.658 E4.59690
G1 X113.112 Y94.677 F7800.000
G1 X114.738 Y96.303 E4.70162 F540.000
G1 X114.648 Y95.664 E4.73101
G1 X112.083 Y93.099 E4.89619
G1 X113.346 Y93.813 F7800.000
G1 X114.188 Y94.655 E4.95042 F540.000
G1 X112.823 Y94.388 F7800.000
G1 X111.349 Y92.914 E5.04538 F540.000
G1 X110.621 Y92.734 E5.07955
G1 X111.544 Y93.658 E5.13905
G1 X110.836 Y93.499 E5.17208
G1 X110.031 Y92.693 E5.22398
G1 X109.441 Y92.652 E5.25091
G1 X110.179 Y93.390 E5.29845
G1 X109.594 Y93.354 E5.32515
G1 X108.856 Y92.617 E5.37264
G1 X108.373 Y92.682 E5.39487
G1 X109.020 Y93.329 E5.43653
G1 X108.502 Y93.360 E5.46017
G1 X107.889 Y92.747 E5.49962
G1 X107.406 Y92.813 E5.52185
G1 X107.984 Y93.391 E5.55909
G1 X107.512 Y93.468 E5.58088
G1 X106.922 Y92.878 E5.61886
G1 X106.438 Y92.943 E5.64109
G1 X107.058 Y93.563 E5.68102
G1 X106.623 Y93.677 E5.70151
G1 X105.955 Y93.009 E5.74454
G1 X105.581 Y93.184 E5.76333
G1 X106.238 Y93.841 E5.80564
G1 X105.853 Y94.005 E5.82469
G1 X105.238 Y93.390 E5.86431
G1 X104.895 Y93.596 E5.88252
G1 X105.528 Y94.228 E5.92325
G1 X105.218 Y94.467 E5.94107
G1 X104.553 Y93.802 E5.98392
G1 X104.210 Y94.008 E6.00214
G1 X104.930 Y94.728 E6.04854
G1 X104.699 Y95.046 E6.06643
G1 X103.892 Y94.239 E6.11841
G1 X103.704 Y94.600 E6.13695
G1 X104.468 Y95.364 E6.18615
G1 X104.300 Y95.745 E6.20511
G1 X103.517 Y94.962 E6.25551
G1 X103.331 Y95.324 E6.27406
G1 X103.841 Y95.835 E6.30695
G92 E0
G1 X105.319 Y101.585 F7800.000
G1 X105.319 Y101.585 F7800.000
G1 X105.890 Y100.628 F7800.000
G1 X106.717 Y101.455 E0.05329 F540.000
G1 X106.338 Y101.625 E0.07220
G1 X105.518 Y100.805 E0.12501
G1 X105.165 Y101.001 E0.14340
G1 X105.985 Y101.821 E0.19621
G1 X105.667 Y102.051 E0.21411
G1 X104.835 Y101.220 E0.26769
G1 X104.535 Y101.469 E0.28544
G1 X105.386 Y102.320 E0.34023
G1 X105.145 Y102.627 E0.35804
G1 X104.273 Y101.755 E0.41420
G1 X104.049 Y102.081 E0.43218
G1 X104.950 Y102.981 E0.49018
G1 X104.817 Y103.397 E0.51006
G1 X103.869 Y102.450 E0.57105
G1 X103.741 Y102.870 E0.59108
G1 X104.768 Y103.897 E0.65722
G1 X104.842 Y104.521 E0.68581
G1 X103.670 Y103.349 E0.76130
G1 X103.688 Y103.915 E0.78709
G1 X105.193 Y105.420 E0.88407
G1 X105.827 Y106.054 F7800.000
G1 X106.921 Y107.149 E0.95459 F540.000
G1 X106.783 Y106.461 E0.98651
G1 X107.609 Y107.288 E1.03972
G1 X108.199 Y107.328 E1.06662
G1 X107.484 Y106.613 E1.11264
G1 X108.103 Y106.683 E1.14098
G1 X108.788 Y107.368 E1.18512
G1 X109.342 Y107.373 E1.21034
G1 X108.686 Y106.718 E1.25255
G1 X109.227 Y106.710 E1.27717
G1 X109.862 Y107.344 E1.31805
G1 X110.382 Y107.315 E1.34176
G1 X109.745 Y106.679 E1.38275
G1 X110.229 Y106.614 E1.40498
G1 X110.865 Y107.250 E1.44595
G1 X111.322 Y107.158 E1.46718
G1 X110.682 Y106.518 E1.50839
G1 X111.107 Y106.394 E1.52853
G1 X111.779 Y107.067 E1.57186
G1 X112.174 Y106.912 E1.59115
G1 X111.490 Y106.229 E1.63518
G1 X111.853 Y106.042 E1.65374
G1 X112.560 Y106.750 E1.69931
G1 X112.909 Y106.550 E1.71763
G1 X112.160 Y105.801 E1.76587
G1 X112.461 Y105.552 E1.78362
G1 X113.215 Y106.307 E1.83220
G1 X113.502 Y106.045 E1.84990
G1 X112.691 Y105.234 E1.90211
G1 X112.922 Y104.916 E1.92001
G1 X113.737 Y105.731 E1.97253
G1 X113.965 Y105.410 E1.99046
G1 X113.086 Y104.531 E2.04709
G1 X113.694 Y104.590 E2.07492
G1 X114.144 Y105.040 E2.10392
G92 E0
G1 X112.981 Y98.952 F7800.000
G1 X112.981 Y98.952 F7800.000
G1 X111.079 Y99.230 F7800.000
G1 X111.908 Y100.060 E0.05342 F540.000
G1 X111.493 Y100.193 E0.07330
G1 X110.649 Y99.350 E0.12763
G1 X110.210 Y99.459 E0.14824
G1 X111.065 Y100.314 E0.20327
G1 X110.622 Y100.420 E0.22401
G1 X109.766 Y99.564 E0.27910
G1 X109.322 Y99.670 E0.29987
G1 X110.179 Y100.526 E0.35502
G1 X109.736 Y100.632 E0.37576
G1 X108.879 Y99.775 E0.43097
G1 X108.435 Y99.880 E0.45174
G1 X109.293 Y100.738 E0.50700
G1 X108.850 Y100.844 E0.52775
G1 X107.991 Y99.985 E0.58307
G1 X107.547 Y100.090 E0.60384
G1 X108.407 Y100.950 E0.65922
G1 X107.971 Y101.062 E0.67975
G1 X107.119 Y100.211 E0.73457
G1 X106.694 Y100.335 E0.75473
G1 X107.542 Y101.182 E0.80929
G1 X107.119 Y101.308 E0.82939
G1 X106.288 Y100.478 E0.88288
G1 X103.775 Y104.551 F7800.000
G1 X106.193 Y106.969 E1.03855 F540.000
G1 X105.105 Y106.430 F7800.000
G1 X104.192 Y105.517 E1.09737 F540.000
G92 E0
G1 X103.366 Y104.968 F7800.000
G1 X99.293 Y102.471 F7800.000
G1 X97.981 Y100.077 F7800.000
G1 X93.085 Y104.936 F7800.000
G1 X92.065 Y105.956 F7800.000
G1 X84.980 Y106.181 F7800.000
G1 X90.229 Y106.181 E0.23751 F378.000
G1 X90.229 Y92.577 E0.85308
G1 X91.840 Y92.577 E0.92598
G1 X91.840 Y104.936 E1.48520
G1 X91.840 Y106.181 E1.54155 F378.000
G1 X97.089 Y106.181 E1.77906
G1 X97.089 Y107.423 E1.83526
G1 X84.980 Y107.423 E2.38319
G1 X84.980 Y106.412 E2.42894
G1 X85.409 Y107.197 F7800.000
G1 X85.206 Y106.993 E2.44210 F540.000
G1 X85.206 Y106.442 E2.46731
G1 X85.960 Y107.197 E2.51614
G1 X86.512 Y107.197 E2.54135
G1 X85.722 Y106.407 E2.59245
G1 X86.273 Y106.407 E2.61766
G1 X87.063 Y107.197 E2.66876
G1 X87.614 Y107.197 E2.69397
G1 X86.824 Y106.407 E2.74508
G1 X87.375 Y106.407 E2.77029
G1 X88.165 Y107.197 E2.82139
G1 X88.717 Y107.197 E2.84660
G1 X87.926 Y106.407 E2.89771
G1 X88.478 Y106.407 E2.92292
G1 X89.268 Y107.197 E2.97402
G1 X89.819 Y107.197 E2.99923
G1 X89.029 Y106.407 E3.05033
G1 X89.580 Y106.407 E3.07554
G1 X90.370 Y107.197 E3.12665
G1 X90.921 Y107.197 E3.15186
G1 X90.131 Y106.407 E3.20296
G1 X90.455 Y106.179 F7800.000
G1 X91.473 Y107.197 E3.26880 F540.000
G1 X96.195 Y106.407 F7800.000
G1 X96.863 Y107.075 E3.31201 F540.000
G1 X96.434 Y107.197 E3.33242
G1 X95.644 Y106.407 E3.38353
G1 X95.092 Y106.407 E3.40874
G1 X95.882 Y107.197 E3.45984
G1 X95.331 Y107.197 E3.48505
G1 X94.541 Y106.407 E3.53615
G1 X93.990 Y106.407 E3.56136
G1 X94.780 Y107.197 E3.61247
G1 X94.229 Y107.197 E3.63768
G1 X93.439 Y106.407 E3.68878
G1 X92.887 Y106.407 E3.71399
G1 X93.678 Y107.197 E3.76510
G1 X93.126 Y107.197 E3.79031
G1 X92.336 Y106.407 E3.84141
G1 X91.785 Y106.407 E3.86662
G1 X92.575 Y107.197 E3.91773
G1 X92.024 Y107.197 E3.94294
G1 X90.455 Y105.628 E4.04443
G1 X90.455 Y105.077 E4.06964
G1 X91.614 Y106.236 E4.14461
G1 X91.614 Y105.685 E4.16982
G1 X90.455 Y104.525 E4.24479
G1 X90.455 Y103.974 E4.27000
G1 X91.614 Y105.133 E4.34497
G1 X91.614 Y104.582 E4.37019
G1 X90.455 Y103.423 E4.44516
G1 X90.455 Y102.872 E4.47037
G1 X91.614 Y104.031 E4.54534
G1 X91.614 Y103.480 E4.57055
G1 X90.455 Y102.321 E4.64552
G1 X90.455 Y101.769 E4.67073
G1 X91.614 Y102.928 E4.74570
G1 X91.614 Y102.377 E4.77091
G1 X90.455 Y101.218 E4.84588
G1 X90.455 Y100.667 E4.87109
G1 X91.614 Y101.826 E4.94606
G1 X91.614 Y101.275 E4.97127
G1 X90.455 Y100.116 E5.04624
G1 X90.455 Y99.564 E5.07146
G1 X91.614 Y100.724 E5.14643
G1 X91.614 Y100.172 E5.17164
G1 X90.455 Y99.013 E5.24661
G1 X90.455 Y98.462 E5.27182
G1 X91.614 Y99.621 E5.34679
G1 X91.614 Y99.070 E5.37200
G1 X90.455 Y97.911 E5.44697
G1 X90.455 Y97.360 E5.47218
G1 X91.614 Y98.519 E5.54715
G1 X91.614 Y97.968 E5.57236
G1 X90.455 Y96.808 E5.64733
G1 X90.455 Y96.257 E5.67254
G1 X91.614 Y97.416 E5.74752
G1 X91.614 Y96.865 E5.77273
G1 X90.455 Y95.706 E5.84770
G1 X90.455 Y95.155 E5.87291
G1 X91.614 Y96.314 E5.94788
G1 X91.614 Y95.763 E5.97309
G1 X90.455 Y94.604 E6.04806
G1 X90.455 Y94.052 E6.07327
G1 X91.614 Y95.211 E6.14824
G1 X91.614 Y94.660 E6.17345
G1 X90.455 Y93.501 E6.24842
G1 X90.455 Y92.950 E6.27363
G1 X91.614 Y94.109 E6.34860
G1 X91.614 Y93.558 E6.37381
G1 X90.859 Y92.803 E6.42264
G1 X91.410 Y92.803 E6.44785
G1 X91.614 Y93.007 E6.46102
M106 S255
G92 E0
G1 Z0.600 F7800.000
G1 X114.138 Y104.194 F7800.000
G1 X113.059 Y105.700 E0.55491 F600.000
G1 X112.715 Y106.033 E0.69860
G1 X112.474 Y106.223 E0.79046
G1 X112.122 Y106.430 E0.91289
G1 X111.651 Y106.647 E1.06842
G1 X111.034 Y106.831 E1.26133
G1 X110.482 Y106.944 E1.43012
G1 X110.044 Y106.998 E1.56233
G1 X108.994 Y107.058 E1.87733
G1 X107.800 Y106.983 E2.23605
G1 X107.396 Y106.930 E2.35813
G1 X106.749 Y106.780 E2.55716
G1 X106.138 Y106.577 E2.74988
G1 X105.622 Y106.307 E2.92442
G1 X105.229 Y106.040 E3.06680
G1 X105.053 Y105.878 E3.13852
G1 X104.835 Y105.636 E3.23607
G1 X104.655 Y105.397 E3.32584
G1 X104.478 Y105.055 E3.44119
G1 X104.328 Y104.671 E3.56452
G1 X104.235 Y104.014 E3.76347
G1 X104.214 Y103.723 E3.85103
G1 X104.244 Y103.334 E3.96780
G1 X104.323 Y102.975 E4.07802
G1 X104.431 Y102.656 E4.17894
G1 X104.511 Y102.500 E4.23125
G1 X104.768 Y102.100 E4.37395
G1 X104.999 Y101.855 E4.47474
G1 X105.288 Y101.606 E4.58915
G1 X105.677 Y101.349 E4.72876
G1 X106.215 Y101.077 E4.90940
G1 X107.032 Y100.782 E5.16988
G1 X107.967 Y100.523 E5.46059
G1 X111.071 Y99.777 E6.41694
G1 X111.844 Y99.524 E6.66080
G1 X112.285 Y99.340 E6.80379
G1 X112.914 Y99.000 E7.01806
G1 X113.231 Y98.768 E7.13579
G1 X113.597 Y98.410 E7.28926
G1 X113.766 Y98.188 E7.37295
G1 X113.909 Y97.941 E7.45829
G1 X114.034 Y97.670 E7.54789
G1 X114.123 Y97.364 E7.64342
G1 X114.190 Y97.006 E7.75247
G1 X114.214 Y96.630 E7.86533
G1 X114.192 Y96.327 E7.95635
G1 X114.085 Y95.589 E8.17980
G1 X113.931 Y95.199 E8.30548
G1 X113.714 Y94.785 E8.44554
G1 X113.533 Y94.547 E8.53519
G1 X113.312 Y94.305 E8.63325
G1 X113.057 Y94.072 E8.73704
G1 X112.464 Y93.690 E8.94809
G1 X112.040 Y93.484 E9.08948
G1 X111.459 Y93.289 E9.27310
G1 X110.666 Y93.103 E9.51712
G1 X110.429 Y93.068 E9.58916
G1 X108.973 Y92.971 E10.02643
G1 X107.665 Y93.102 E10.42016
G1 X106.483 Y93.314 E10.78010
G1 X106.047 Y93.434 E10.91559
G1 X105.632 Y93.646 E11.05527
G1 X104.756 Y94.228 E11.37032
G1 X104.341 Y94.582 E11.53381
G1 X103.934 Y95.275 E11.77444
G1 X103.502 Y96.245 E12.09281
G92 E0
G1 X100.456 Y99.491 F7800.000
G1 X98.007 Y99.948 F7800.000
G1 X97.314 Y100.707 F7800.000
G1 X97.314 Y105.956 F7800.000
G1 X92.782 Y105.956 F7800.000
G1 X90.004 Y106.802 E0.87020 F600.000
G1 X84.755 Y106.802 E2.44304
G1 X97.314 Y106.802 F7800.000
G1 X92.065 Y106.802 E4.01589 F600.000
G1 X91.034 Y106.488 E4.33867
G1 X91.034 Y92.352 E8.57453
G92 E0
G1 Z0.900 F7800.000
G1 X114.138 Y104.194 F7800.000
G1 X113.059 Y105.700 E0.55491 F600.000
G1 X112.715 Y106.033 E0.69860
G1 X112.474 Y106.223 E0.79046
G1 X112.122 Y106.430 E0.91289
G1 X111.651 Y106.647 E1.06842
G1 X111.034 Y106.831 E1.26133
G1 X110.482 Y106.944 E1.43012
G1 X110.044 Y106.998 E1.56233
G1 X108.994 Y107.058 E1.87733
G1 X107.800 Y106.983 E2.23605
G1 X107.396 Y106.930 E2.35813
G1 X106.749 Y106.780 E2.55716
G1 X106.138 Y106.577 E2.74988
G1 X105.622 Y106.307 E2.92442
G1 X105.229 Y106.040 E3.06680
G1 X105.053 Y105.878 E3.13852
G1 X104.835 Y105.636 E3.23607
G1 X104.655 Y105.397 E3.32584
G1 X104.478 Y105.055 E3.44119
G1 X104.328 Y104.671 E3.56452
G1 X104.235 Y104.014 E3.76347
G1 X104.214 Y103.723 E3.85103
G1 X104.244 Y103.334 E3.96780
G1 X104.323 Y102.975 E4.07802
G1 X104.431 Y102.656 E4.17893
G1 X104.511 Y102.500 E4.23125
G1 X104.768 Y102.100 E4.37395
G1 X104.999 Y101.855 E4.47474
G1 X105.288 Y101.606 E4.58915
G1 X105.677 Y101.349 E4.72876
G1 X106.215 Y101.077 E4.90940
G1 X107.032 Y100.782 E5.16988
G1 X107.967 Y100.523 E5.46058
G1 X111.071 Y99.777 E6.41694
G1 X111.844 Y99.524 E6.66080
G1 X112.381 Y99.291 E6.83613
G1 X112.900 Y99.010 E7.01300
G1 X113.231 Y98.768 E7.13576
G1 X113.597 Y98.410 E7.28923
G1 X113.766 Y98.188 E7.37292
G1 X113.909 Y97.941 E7.45826
G1 X114.034 Y97.670 E7.54786
G1 X114.123 Y97.364 E7.64339
G1 X114.190 Y97.006 E7.75243
G1 X114.214 Y96.630 E7.86530
G1 X114.192 Y96.327 E7.95632
G1 X114.085 Y95.589 E8.17976
G1 X113.931 Y95.199 E8.30545
G1 X113.714 Y94.785 E8.44551
G1 X113.533 Y94.547 E8.53516
G1 X113.312 Y94.305 E8.63322
G1 X113.057 Y94.072 E8.73701
G1 X112.464 Y93.690 E8.94806
G1 X112.040 Y93.484 E9.08945
G1 X111.459 Y93.289 E9.27307
G1 X110.666 Y93.103 E9.51709
G1 X110.429 Y93.068 E9.58913
G1 X108.973 Y92.971 E10.02639
G1 X107.665 Y93.102 E10.42013
G1 X106.483 Y93.314 E10.78007
G1 X106.047 Y93.434 E10.91556
G1 X105.632 Y93.646 E11.05524
G1 X104.756 Y94.228 E11.37028
G1 X104.341 Y94.582 E11.53378
G1 X103.934 Y95.275 E11.77441
G1 X103.502 Y96.245 E12.09278
G92 E0
G1 X100.456 Y99.491 F7800.000
G1 X98.007 Y99.948 F7800.000
G1 X97.314 Y100.707 F7800.000
G1 X97.314 Y105.956 F7800.000
G1 X92.782 Y105.956 F7800.000
G1 X90.004 Y106.802 E0.87020 F600.000
G1 X84.755 Y106.802 E2.44304
G1 X97.314 Y106.802 F7800.000
G1 X92.065 Y106.802 E4.01589 F600.000
G1 X91.034 Y106.488 E4.33867
G1 X91.034 Y92.352 E8.57453
G92 E0
G1 Z1.200 F7800.000
