; generated by Slic3r 1.2.9 on 2016-03-11 at 01:30:41

; external perimeters extrusion width = 1.54mm
; perimeters extrusion width = 2.62mm
; infill extrusion width = 6.27mm
; solid infill extrusion width = 2.62mm
; top infill extrusion width = 2.62mm

M107
M104 S30 ; set temperature
G28 ; home all axes
G1 Z5 F5000 ; lift nozzle
M302
M92 E10000
M500
M501
G1 E100
M109 S30 ; wait for temperature to be reached
G21 ; set units to millimeters
G90 ; use absolute coordinates
M82 ; use absolute distances for extrusion
G92 E0
G1 Z0.300 F7800.000
G1 X107.806 Y96.444 F7800.000
G1 X107.806 Y92.577 E0.17499 F378.000
G1 X109.417 Y92.577 E0.24788
G1 X109.417 Y106.181 E0.86345
G1 X114.666 Y106.181 E1.10097 F378.000
G1 X114.666 Y107.423 E1.15717
G1 X102.557 Y107.423 E1.70509
G1 X102.557 Y106.181 E1.76129
G1 X107.806 Y106.181 E1.99880
G1 X107.806 Y96.675 E2.42893
G1 X109.191 Y93.007 F7800.000
G1 X108.987 Y92.803 E2.44210 F540.000
G1 X108.436 Y92.803 E2.46731
G1 X109.191 Y93.558 E2.51614
G1 X109.191 Y94.109 E2.54135
G1 X108.032 Y92.950 E2.61631
G1 X108.032 Y93.501 E2.64152
G1 X109.191 Y94.660 E2.71648
G1 X109.191 Y95.211 E2.74169
G1 X108.032 Y94.052 E2.81666
G1 X108.032 Y94.604 E2.84187
G1 X109.191 Y95.763 E2.91683
G1 X109.191 Y96.314 E2.94204
G1 X108.032 Y95.155 E3.01701
G1 X108.032 Y95.706 E3.04222
G1 X109.191 Y96.865 E3.11718
G1 X109.191 Y97.416 E3.14239
G1 X108.032 Y96.257 E3.21736
G1 X108.032 Y96.808 E3.24257
G1 X109.191 Y97.967 E3.31753
G1 X109.191 Y98.519 E3.34274
G1 X108.032 Y97.360 E3.41770
G1 X108.032 Y97.911 E3.44291
G1 X109.191 Y99.070 E3.51788
G1 X109.191 Y99.621 E3.54309
G1 X108.032 Y98.462 E3.61805
G1 X108.032 Y99.013 E3.64326
G1 X109.191 Y100.172 E3.71823
G1 X109.191 Y100.724 E3.74344
G1 X108.032 Y99.565 E3.81840
G1 X108.032 Y100.116 E3.84361
G1 X109.191 Y101.275 E3.91857
G1 X109.191 Y101.826 E3.94378
G1 X108.032 Y100.667 E4.01875
G1 X108.032 Y101.218 E4.04396
G1 X109.191 Y102.377 E4.11892
G1 X109.191 Y102.928 E4.14413
G1 X108.032 Y101.769 E4.21910
G1 X108.032 Y102.321 E4.24431
G1 X109.191 Y103.480 E4.31927
G1 X109.191 Y104.031 E4.34448
G1 X108.032 Y102.872 E4.41944
G1 X108.032 Y103.423 E4.44465
G1 X109.191 Y104.582 E4.51962
G1 X109.191 Y105.133 E4.54483
G1 X108.032 Y103.974 E4.61979
G1 X108.032 Y104.525 E4.64500
G1 X109.191 Y105.684 E4.71997
G1 X109.191 Y106.236 E4.74518
G1 X108.032 Y105.077 E4.82014
G1 X108.032 Y105.628 E4.84535
G1 X109.601 Y107.197 E4.94684
G1 X110.152 Y107.197 E4.97205
G1 X109.362 Y106.407 E5.02316
G1 X109.913 Y106.407 E5.04837
G1 X110.703 Y107.197 E5.09947
G1 X111.254 Y107.197 E5.12468
G1 X110.464 Y106.407 E5.17578
G1 X111.016 Y106.407 E5.20099
G1 X111.806 Y107.197 E5.25210
G1 X112.357 Y107.197 E5.27731
G1 X111.567 Y106.407 E5.32841
G1 X112.118 Y106.407 E5.35362
G1 X112.908 Y107.197 E5.40473
G1 X113.459 Y107.197 E5.42994
G1 X112.669 Y106.407 E5.48104
G1 X113.220 Y106.407 E5.50625
G1 X114.011 Y107.197 E5.55735
G1 X114.440 Y107.075 E5.57776
G1 X113.772 Y106.407 E5.62098
G1 X109.050 Y107.197 F7800.000
G1 X108.032 Y106.179 E5.68682 F540.000
G1 X107.708 Y106.407 F7800.000
G1 X108.498 Y107.197 E5.73792 F540.000
G1 X107.947 Y107.197 E5.76313
G1 X107.157 Y106.407 E5.81423
G1 X106.606 Y106.407 E5.83944
G1 X107.396 Y107.197 E5.89055
G1 X106.845 Y107.197 E5.91576
G1 X106.055 Y106.407 E5.96686
G1 X105.503 Y106.407 E5.99207
G1 X106.294 Y107.197 E6.04317
G1 X105.742 Y107.197 E6.06838
G1 X104.952 Y106.407 E6.11949
G1 X104.401 Y106.407 E6.14470
G1 X105.191 Y107.197 E6.19580
G1 X104.640 Y107.197 E6.22101
G1 X103.850 Y106.407 E6.27211
G1 X103.299 Y106.407 E6.29732
G1 X104.089 Y107.197 E6.34843
G1 X103.538 Y107.197 E6.37364
G1 X102.783 Y106.442 E6.42246
G1 X102.783 Y106.993 E6.44767
G1 X102.986 Y107.197 E6.46084
G92 E0
G1 X102.332 Y105.956 F7800.000
G1 X97.668 Y105.956 F7800.000
G1 X93.440 Y104.936 F7800.000
G1 X92.419 Y104.936 F7800.000
G1 X90.583 Y97.890 F7800.000
G1 X90.583 Y92.577 E0.24040 F378.000
G1 X92.194 Y92.577 E0.31330
G1 X92.194 Y104.936 E0.87252
G1 X92.194 Y106.181 E0.92887 F378.000
G1 X97.443 Y106.181 E1.16639
G1 X97.443 Y107.423 E1.22259
G1 X85.334 Y107.423 E1.77051
G1 X85.334 Y106.181 E1.82671
G1 X90.583 Y106.181 E2.06422
G1 X90.583 Y98.121 E2.42894
G1 X91.968 Y93.007 F7800.000
G1 X91.765 Y92.803 E2.44211 F540.000
G1 X91.213 Y92.803 E2.46732
G1 X91.968 Y93.558 E2.51614
G1 X91.968 Y94.109 E2.54135
G1 X90.809 Y92.950 E2.61632
G1 X90.809 Y93.501 E2.64153
G1 X91.968 Y94.660 E2.71650
G1 X91.968 Y95.211 E2.74171
G1 X90.809 Y94.052 E2.81668
G1 X90.809 Y94.604 E2.84189
G1 X91.968 Y95.763 E2.91686
G1 X91.968 Y96.314 E2.94207
G1 X90.809 Y95.155 E3.01705
G1 X90.809 Y95.706 E3.04226
G1 X91.968 Y96.865 E3.11723
G1 X91.968 Y97.416 E3.14244
G1 X90.809 Y96.257 E3.21741
G1 X90.809 Y96.808 E3.24262
G1 X91.968 Y97.968 E3.31759
G1 X91.968 Y98.519 E3.34280
G1 X90.809 Y97.360 E3.41777
G1 X90.809 Y97.911 E3.44298
G1 X91.968 Y99.070 E3.51795
G1 X91.968 Y99.621 E3.54316
G1 X90.809 Y98.462 E3.61813
G1 X90.809 Y99.013 E3.64335
G1 X91.968 Y100.172 E3.71832
G1 X91.968 Y100.724 E3.74353
G1 X90.809 Y99.564 E3.81850
G1 X90.809 Y100.116 E3.84371
G1 X91.968 Y101.275 E3.91868
G1 X91.968 Y101.826 E3.94389
G1 X90.809 Y100.667 E4.01886
G1 X90.809 Y101.218 E4.04407
G1 X91.968 Y102.377 E4.11904
G1 X91.968 Y102.928 E4.14425
G1 X90.809 Y101.769 E4.21922
G1 X90.809 Y102.321 E4.24443
G1 X91.968 Y103.480 E4.31940
G1 X91.968 Y104.031 E4.34461
G1 X90.809 Y102.872 E4.41959
G1 X90.809 Y103.423 E4.44480
G1 X91.968 Y104.582 E4.51977
G1 X91.968 Y105.133 E4.54498
G1 X90.809 Y103.974 E4.61995
G1 X90.809 Y104.525 E4.64516
G1 X91.968 Y105.685 E4.72013
G1 X91.968 Y106.236 E4.74534
G1 X90.809 Y105.077 E4.82031
G1 X90.809 Y105.628 E4.84552
G1 X92.378 Y107.197 E4.94702
G1 X92.930 Y107.197 E4.97223
G1 X92.140 Y106.407 E5.02333
G1 X92.691 Y106.407 E5.04854
G1 X93.481 Y107.197 E5.09965
G1 X94.032 Y107.197 E5.12486
G1 X93.242 Y106.407 E5.17596
G1 X93.793 Y106.407 E5.20117
G1 X94.583 Y107.197 E5.25227
G1 X95.134 Y107.197 E5.27748
G1 X94.344 Y106.407 E5.32859
G1 X94.896 Y106.407 E5.35380
G1 X95.686 Y107.197 E5.40490
G1 X96.237 Y107.197 E5.43011
G1 X95.447 Y106.407 E5.48122
G1 X95.998 Y106.407 E5.50643
G1 X96.788 Y107.197 E5.55753
G1 X97.217 Y107.075 E5.57794
G1 X96.549 Y106.407 E5.62115
G1 X91.827 Y107.197 F7800.000
G1 X90.809 Y106.179 E5.68699 F540.000
G1 X90.486 Y106.407 F7800.000
G1 X91.276 Y107.197 E5.73809 F540.000
G1 X90.725 Y107.197 E5.76331
G1 X89.935 Y106.407 E5.81441
G1 X89.383 Y106.407 E5.83962
G1 X90.174 Y107.197 E5.89072
G1 X89.622 Y107.197 E5.91593
G1 X88.832 Y106.407 E5.96704
G1 X88.281 Y106.407 E5.99225
G1 X89.071 Y107.197 E6.04335
G1 X88.520 Y107.197 E6.06856
G1 X87.730 Y106.407 E6.11967
G1 X87.179 Y106.407 E6.14488
G1 X87.969 Y107.197 E6.19598
G1 X87.417 Y107.197 E6.22119
G1 X86.627 Y106.407 E6.27229
G1 X86.076 Y106.407 E6.29750
G1 X86.866 Y107.197 E6.34861
G1 X86.315 Y107.197 E6.37382
G1 X85.560 Y106.442 E6.42264
G1 X85.560 Y106.993 E6.44785
G1 X85.764 Y107.197 E6.46102
M106 S255
G92 E0
G1 Z0.600 F7800.000
G1 X110.359 Y105.956 F7800.000
G1 X107.581 Y106.802 E0.87024 F600.000
G1 X102.332 Y106.802 E2.44308
G1 X114.891 Y106.802 F7800.000
G1 X109.642 Y106.802 E4.01595 F600.000
G1 X108.611 Y106.488 E4.33872
G1 X108.611 Y92.352 E8.57459
G92 E0
G1 X107.581 Y105.956 F7800.000
G1 X107.581 Y105.956 F7800.000
G1 X102.332 Y100.707 F7800.000
G1 X102.332 Y105.956 F7800.000
G1 X100.000 Y105.956 F7800.000
G1 X97.668 Y105.956 F7800.000
G1 X93.136 Y105.956 F7800.000
G1 X90.358 Y106.802 E0.87020 F600.000
G1 X85.109 Y106.802 E2.44305
G1 X97.668 Y106.802 F7800.000
G1 X92.419 Y106.802 E4.01589 F600.000
G1 X91.389 Y106.488 E4.33867
G1 X91.389 Y92.352 E8.57453
G92 E0
G1 Z0.900 F7800.000
G1 X110.359 Y105.956 F7800.000
G1 X107.581 Y106.802 E0.87024 F600.000
G1 X102.332 Y106.802 E2.44308
G1 X114.891 Y106.802 F7800.000
G1 X109.642 Y106.802 E4.01595 F600.000
G1 X108.611 Y106.488 E4.33872
G1 X108.611 Y92.352 E8.57459
G92 E0
G1 X107.581 Y105.956 F7800.000
G1 X107.581 Y105.956 F7800.000
G1 X102.332 Y100.707 F7800.000
G1 X102.332 Y105.956 F7800.000
G1 X100.000 Y105.956 F7800.000
G1 X97.668 Y105.956 F7800.000
G1 X93.136 Y105.956 F7800.000
G1 X90.358 Y106.802 E0.87020 F600.000
G1 X85.109 Y106.802 E2.44305
G1 X97.668 Y106.802 F7800.000
G1 X92.419 Y106.802 E4.01589 F600.000
G1 X91.389 Y106.488 E4.33867
G1 X91.389 Y92.352 E8.57453
G92 E0
G1 Z1.200 F7800.000
G1 X110.359 Y105.956 F7800.000
G1 X107.581 Y106.802 E0.87024 F600.000
G1 X102.332 Y106.802 E2.44308
G1 X114.891 Y106.802 F7800.000
G1 X109.642 Y106.802 E4.01595 F600.000
G1 X108.611 Y106.488 E4.33872
G1 X108.611 Y92.352 E8.57459
G92 E0
G1 X107.581 Y105.956 F7800.000
G1 X107.581 Y105.956 F7800.000
G1 X102.332 Y100.707 F7800.000
G1 X102.332 Y105.956 F7800.000
G1 X100.000 Y105.956 F7800.000
G1 X97.668 Y105.956 F7800.000
G1 X93.136 Y105.956 F7800.000
G1 X90.358 Y106.802 E0.87020 F600.000
G1 X85.109 Y106.802 E2.44305
G1 X97.668 Y106.802 F7800.000
G1 X92.419 Y106.802 E4.01589 F600.000
G1 X91.389 Y106.488 E4.33867
G1 X91.389 Y92.352 E8.57453
G92 E0
G1 Z1.500 F7800.000
G1 X110.359 Y105.956 F7800.000
G1 X107.581 Y106.802 E0.87024 F600.000
G1 X102.332 Y106.802 E2.44308
G1 X114.891 Y106.802 F7800.000
G1 X109.642 Y106.802 E4.01595 F600.000
G1 X108.611 Y106.488 E4.33872
G1 X108.611 Y92.352 E8.57459
G92 E0
G1 X107.581 Y105.956 F7800.000
G1 X107.581 Y105.956 F7800.000
G1 X102.332 Y100.707 F7800.000
G1 X102.332 Y105.956 F7800.000
G1 X100.000 Y105.956 F7800.000
G1 X97.668 Y105.956 F7800.000
G1 X93.136 Y105.956 F7800.000
G1 X90.358 Y106.802 E0.87020 F600.000
G1 X85.109 Y106.802 E2.44305
G1 X97.668 Y106.802 F7800.000
G1 X92.419 Y106.802 E4.01589 F600.000
G1 X91.389 Y106.488 E4.33867
G1 X91.389 Y92.352 E8.57453
G92 E0
G1 Z1.800 F7800.000
G1 X110.359 Y105.956 F7800.000
G1 X107.581 Y106.802 E0.87024 F600.000
G1 X102.332 Y106.802 E2.44308
G1 X114.891 Y106.802 F7800.000
G1 X109.642 Y106.802 E4.01595 F600.000
G1 X108.611 Y106.488 E4.33872
G1 X108.611 Y92.352 E8.57459
G92 E0
G1 X107.581 Y105.956 F7800.000
G1 X107.581 Y105.956 F7800.000
G1 X102.332 Y100.707 F7800.000
G1 X102.332 Y105.956 F7800.000
G1 X100.000 Y105.956 F7800.000
G1 X97.668 Y105.956 F7800.000
G1 X93.136 Y105.956 F7800.000
G1 X90.358 Y106.802 E0.87020 F600.000
G1 X85.109 Y106.802 E2.44305
G1 X97.668 Y106.802 F7800.000
G1 X92.419 Y106.802 E4.01589 F600.000
G1 X91.389 Y106.488 E4.33867
G1 X91.389 Y92.352 E8.57453
G92 E0
G1 Z2.100 F7800.000
G1 X110.359 Y105.956 F7800.000
G1 X107.581 Y106.802 E0.87024 F600.000
G1 X102.332 Y106.802 E2.44308
G92 E0
G1 X114.891 Y106.802 F7800.000
G1 X109.642 Y106.802 E1.57287 F600.000
G1 X108.611 Y106.488 E1.89564
G1 X108.611 Y92.352 E6.13151
G92 E0
G1 X107.581 Y105.956 F7800.000
G1 X107.581 Y105.956 F7800.000
G1 X102.332 Y100.707 F7800.000
G1 X102.332 Y105.956 F7800.000
G1 X100.000 Y105.956 F7800.000
G1 X97.668 Y105.956 F7800.000
G1 X93.136 Y105.956 F7800.000
G1 X90.358 Y106.802 E0.87020 F600.000
G1 X85.109 Y106.802 E2.44305
G92 E0
G1 X97.668 Y106.802 F7800.000
G1 X92.419 Y106.802 E1.57284 F600.000
G1 X91.389 Y106.488 E1.89563
G1 X91.389 Y92.352 E6.13148
G92 E0
M107
M104 S0 ; turn off temperature
G28 X0  ; home X axis
M84     ; disable motors

; filament used = 115.8mm (0.9cm3)

; avoid_crossing_perimeters = 1
; bed_shape = 0x0,250x0,250x250,0x250
; bed_temperature = 0
; before_layer_gcode = 
; bridge_acceleration = 0
; bridge_fan_speed = 100
; brim_width = 0
; complete_objects = 0
; cooling = 1
; default_acceleration = 0
; disable_fan_first_layers = 1
; duplicate_distance = 6
; end_gcode = M104 S0 ; turn off temperature\nG28 X0  ; home X axis\nM84     ; disable motors\n
; extruder_clearance_height = 20
; extruder_clearance_radius = 20
; extruder_offset = 0x0
; extrusion_axis = E
; extrusion_multiplier = 3
; fan_always_on = 0
; fan_below_layer_time = 60
; filament_colour = #FFFFFF
; filament_diameter = 3.125
; first_layer_acceleration = 0
; first_layer_bed_temperature = 0
; first_layer_extrusion_width = 150%
; first_layer_speed = 90%
; first_layer_temperature = 30
; gcode_arcs = 0
; gcode_comments = 0
; gcode_flavor = reprap
; infill_acceleration = 0
; infill_first = 0
; layer_gcode = 
; max_fan_speed = 100
; max_print_speed = 80
; max_volumetric_speed = 0
; min_fan_speed = 35
; min_print_speed = 10
; min_skirt_length = 0
; notes = 
; nozzle_diameter = 1.54
; only_retract_when_crossing_perimeters = 1
; ooze_prevention = 0
; output_filename_format = [input_filename_base].gcode
; perimeter_acceleration = 0
; post_process = 
; pressure_advance = 0
; resolution = 0
; retract_before_travel = 2
; retract_layer_change = 1
; retract_length = 0
; retract_length_toolchange = 10
; retract_lift = 0
; retract_restart_extra = 0
; retract_restart_extra_toolchange = 0
; retract_speed = 0
; skirt_distance = 6
; skirt_height = 1
; skirts = 0
; slowdown_below_layer_time = 30
; spiral_vase = 0
; standby_temperature_delta = -5
; start_gcode = G28 ; home all axes\nG1 Z5 F5000 ; lift nozzle\nM302\nM92 E10000\nM500\nM501\nG1 E100
; temperature = 30
; threads = 2
; toolchange_gcode = 
; travel_speed = 130
; use_firmware_retraction = 0
; use_relative_e_distances = 0
; use_volumetric_e = 0
; vibration_limit = 0
; wipe = 0
; z_offset = 0
; dont_support_bridges = 1
; extrusion_width = 0
; first_layer_height = 100%
; infill_only_where_needed = 0
; interface_shells = 0
; layer_height = 0.3
; raft_layers = 0
; seam_position = random
; support_material = 0
; support_material_angle = 0
; support_material_contact_distance = 0.2
; support_material_enforce_layers = 0
; support_material_extruder = 1
; support_material_extrusion_width = 0
; support_material_interface_extruder = 1
; support_material_interface_layers = 3
; support_material_interface_spacing = 0
; support_material_interface_speed = 100%
; support_material_pattern = pillars
; support_material_spacing = 2.5
; support_material_speed = 7
; support_material_threshold = 0
; xy_size_compensation = 0
; bottom_solid_layers = 3
; bridge_flow_ratio = 1
; bridge_speed = 10
; external_fill_pattern = rectilinear
; external_perimeter_extrusion_width = 0
; external_perimeter_speed = 70%
; external_perimeters_first = 1
; extra_perimeters = 1
; fill_angle = 45
; fill_density = 60%
; fill_pattern = rectilinear
; gap_fill_speed = 10
; infill_every_layers = 1
; infill_extruder = 1
; infill_extrusion_width = 0
; infill_overlap = 15%
; infill_speed = 10
; overhangs = 1
; perimeter_extruder = 1
; perimeter_extrusion_width = 0
; perimeter_speed = 10
; perimeters = 1
; small_perimeter_speed = 70%
; solid_infill_below_area = 70
; solid_infill_every_layers = 0
; solid_infill_extruder = 1
; solid_infill_extrusion_width = 0
; solid_infill_speed = 10
; thin_walls = 1
; top_infill_extrusion_width = 0
; top_solid_infill_speed = 10
; top_solid_layers = 3
