; generated by Slic3r 1.2.9 on 2016-03-11 at 01:30:46

; external perimeters extrusion width = 1.54mm
; perimeters extrusion width = 2.62mm
; infill extrusion width = 6.27mm
; solid infill extrusion width = 2.62mm
; top infill extrusion width = 2.62mm

M107
M104 S30 ; set temperature
G28 ; home all axes
G1 Z5 F5000 ; lift nozzle
M302
M92 E10000
M500
M501
G1 E100
M109 S30 ; wait for temperature to be reached
G21 ; set units to millimeters
G90 ; use absolute coordinates
M82 ; use absolute distances for extrusion
G92 E0
G1 Z0.300 F7800.000
G1 X107.791 Y95.222 F7800.000
G1 X107.791 Y92.577 E0.11970 F378.000
G1 X109.402 Y92.577 E0.19259
G1 X109.402 Y98.759 E0.47234
G1 X115.093 Y107.423 E0.94138 F378.000
G1 X113.356 Y107.423 E1.01998
G1 X108.619 Y99.942 E1.42064
G1 X103.854 Y107.423 E1.82197
G1 X102.117 Y107.423 E1.90058
G1 X107.791 Y98.759 E2.36922
G1 X107.791 Y95.453 E2.51881
G1 X109.176 Y93.007 F7800.000
G1 X108.973 Y92.803 E2.53207 F540.000
G1 X108.418 Y92.803 E2.55765
G1 X109.176 Y93.562 E2.60708
G1 X109.176 Y94.117 E2.63266
G1 X108.017 Y92.958 E2.70817
G1 X108.017 Y93.513 E2.73374
G1 X109.176 Y94.672 E2.80925
G1 X109.176 Y95.227 E2.83483
G1 X108.017 Y94.068 E2.91034
G1 X108.017 Y94.623 E2.93592
G1 X109.176 Y95.782 E3.01143
G1 X109.176 Y96.338 E3.03700
G1 X108.017 Y95.179 E3.11251
G1 X108.017 Y95.734 E3.13809
G1 X109.176 Y96.893 E3.21360
G1 X109.176 Y97.448 E3.23917
G1 X108.017 Y96.289 E3.31468
G1 X108.017 Y96.844 E3.34026
G1 X109.176 Y98.003 E3.41577
G1 X109.176 Y98.558 E3.44135
G1 X108.017 Y97.399 E3.51686
G1 X108.017 Y97.955 E3.54243
G1 X109.522 Y99.459 E3.64045
G1 X109.054 Y100.102 F7800.000
G1 X111.648 Y102.695 E3.80941 F540.000
G1 X110.971 Y103.129 F7800.000
G1 X113.773 Y105.931 E3.99195 F540.000
G1 X112.889 Y106.157 F7800.000
G1 X113.929 Y107.197 E4.05968 F540.000
G1 X114.484 Y107.197 E4.08526
G1 X111.930 Y104.643 E4.25162
G1 X112.710 Y104.313 F7800.000
G1 X110.013 Y101.616 E4.42737 F540.000
G1 X110.585 Y101.077 F7800.000
G1 X108.017 Y98.510 E4.59463 F540.000
G1 X107.900 Y98.948 E4.61552
G1 X108.585 Y99.633 E4.66014
G1 X108.369 Y99.972 E4.67866
G1 X107.680 Y99.283 E4.72352
G1 X107.461 Y99.619 E4.74199
G1 X108.153 Y100.311 E4.78709
G1 X107.937 Y100.650 E4.80562
G1 X107.241 Y99.954 E4.85095
G1 X107.021 Y100.290 E4.86943
G1 X107.721 Y100.989 E4.91501
G1 X107.505 Y101.329 E4.93353
G1 X106.802 Y100.625 E4.97935
G1 X106.582 Y100.961 E4.99782
G1 X107.289 Y101.668 E5.04388
G1 X107.073 Y102.007 E5.06241
G1 X106.362 Y101.296 E5.10871
G1 X106.142 Y101.632 E5.12718
G1 X106.857 Y102.346 E5.17372
G1 X106.641 Y102.685 E5.19224
G1 X105.923 Y101.967 E5.23902
G1 X105.703 Y102.303 E5.25750
G1 X106.425 Y103.024 E5.30452
G1 X106.209 Y103.363 E5.32304
G1 X105.483 Y102.638 E5.37030
G1 X105.263 Y102.973 E5.38878
G1 X105.993 Y103.703 E5.43628
G1 X105.777 Y104.042 E5.45480
G1 X105.044 Y103.309 E5.50254
G1 X104.824 Y103.644 E5.52102
G1 X105.561 Y104.381 E5.56900
G1 X105.345 Y104.720 E5.58752
G1 X104.604 Y103.980 E5.63575
G1 X104.385 Y104.315 E5.65422
G1 X105.129 Y105.059 E5.70268
G1 X104.912 Y105.398 E5.72121
G1 X104.165 Y104.651 E5.76991
G1 X103.945 Y104.986 E5.78838
G1 X104.696 Y105.738 E5.83733
G1 X104.480 Y106.077 E5.85585
G1 X103.725 Y105.322 E5.90503
G1 X103.506 Y105.657 E5.92351
G1 X104.264 Y106.416 E5.97293
G1 X104.048 Y106.755 E5.99146
G1 X103.286 Y105.993 E6.04112
G1 X103.066 Y106.328 E6.05959
G1 X103.832 Y107.094 E6.10950
G1 X103.380 Y107.197 E6.13087
G1 X102.847 Y106.664 E6.16562
G1 X102.627 Y106.999 E6.18410
G1 X102.825 Y107.197 E6.19700
G92 E0
G1 X101.700 Y107.648 F7800.000
G1 X99.672 Y105.956 F7800.000
G1 X97.049 Y100.707 F7800.000
G1 X92.820 Y104.936 F7800.000
G1 X91.800 Y104.936 F7800.000
G1 X91.575 Y97.218 F7800.000
G1 X91.575 Y104.936 E0.34923 F378.000
G1 X91.575 Y106.181 E0.40558 F378.000
G1 X96.824 Y106.181 E0.64310
G1 X96.824 Y107.423 E0.69930
G1 X84.715 Y107.423 E1.24722
G1 X84.715 Y106.181 E1.30342
G1 X89.964 Y106.181 E1.54093
G1 X89.964 Y92.577 E2.15650
G1 X91.575 Y92.577 E2.22940
G1 X91.575 Y96.987 E2.42894
G1 X91.349 Y93.007 F7800.000
G1 X91.145 Y92.803 E2.44211 F540.000
G1 X90.594 Y92.803 E2.46732
G1 X91.349 Y93.558 E2.51614
G1 X91.349 Y94.109 E2.54135
G1 X90.190 Y92.950 E2.61632
G1 X90.190 Y93.501 E2.64153
G1 X91.349 Y94.660 E2.71650
G1 X91.349 Y95.211 E2.74171
G1 X90.190 Y94.052 E2.81668
G1 X90.190 Y94.604 E2.84189
G1 X91.349 Y95.763 E2.91686
G1 X91.349 Y96.314 E2.94207
G1 X90.190 Y95.155 E3.01705
G1 X90.190 Y95.706 E3.04226
G1 X91.349 Y96.865 E3.11723
G1 X91.349 Y97.416 E3.14244
G1 X90.190 Y96.257 E3.21741
G1 X90.190 Y96.808 E3.24262
G1 X91.349 Y97.968 E3.31759
G1 X91.349 Y98.519 E3.34280
G1 X90.190 Y97.360 E3.41777
G1 X90.190 Y97.911 E3.44298
G1 X91.349 Y99.070 E3.51795
G1 X91.349 Y99.621 E3.54316
G1 X90.190 Y98.462 E3.61813
G1 X90.190 Y99.013 E3.64335
G1 X91.349 Y100.172 E3.71832
G1 X91.349 Y100.724 E3.74353
G1 X90.190 Y99.564 E3.81850
G1 X90.190 Y100.116 E3.84371
G1 X91.349 Y101.275 E3.91868
G1 X91.349 Y101.826 E3.94389
G1 X90.190 Y100.667 E4.01886
G1 X90.190 Y101.218 E4.04407
G1 X91.349 Y102.377 E4.11904
G1 X91.349 Y102.928 E4.14425
G1 X90.190 Y101.769 E4.21922
G1 X90.190 Y102.321 E4.24443
G1 X91.349 Y103.480 E4.31940
G1 X91.349 Y104.031 E4.34461
G1 X90.190 Y102.872 E4.41959
G1 X90.190 Y103.423 E4.44480
G1 X91.349 Y104.582 E4.51977
G1 X91.349 Y105.133 E4.54498
G1 X90.190 Y103.974 E4.61995
G1 X90.190 Y104.525 E4.64516
G1 X91.349 Y105.685 E4.72013
G1 X91.349 Y106.236 E4.74534
G1 X90.190 Y105.077 E4.82031
G1 X90.190 Y105.628 E4.84552
G1 X91.759 Y107.197 E4.94702
G1 X92.310 Y107.197 E4.97223
G1 X91.520 Y106.407 E5.02333
G1 X92.071 Y106.407 E5.04854
G1 X92.861 Y107.197 E5.09965
G1 X93.413 Y107.197 E5.12486
G1 X92.622 Y106.407 E5.17596
G1 X93.174 Y106.407 E5.20117
G1 X93.964 Y107.197 E5.25227
G1 X94.515 Y107.197 E5.27748
G1 X93.725 Y106.407 E5.32859
G1 X94.276 Y106.407 E5.35380
G1 X95.066 Y107.197 E5.40490
G1 X95.617 Y107.197 E5.43011
G1 X94.827 Y106.407 E5.48122
G1 X95.379 Y106.407 E5.50643
G1 X96.169 Y107.197 E5.55753
G1 X96.598 Y107.075 E5.57794
G1 X95.930 Y106.407 E5.62115
G1 X91.208 Y107.197 F7800.000
G1 X90.190 Y106.179 E5.68699 F540.000
G1 X89.866 Y106.407 F7800.000
G1 X90.656 Y107.197 E5.73810 F540.000
G1 X90.105 Y107.197 E5.76331
G1 X89.315 Y106.407 E5.81441
G1 X88.764 Y106.407 E5.83962
G1 X89.554 Y107.197 E5.89072
G1 X89.003 Y107.197 E5.91593
G1 X88.213 Y106.407 E5.96704
G1 X87.661 Y106.407 E5.99225
G1 X88.452 Y107.197 E6.04335
G1 X87.900 Y107.197 E6.06856
G1 X87.110 Y106.407 E6.11967
G1 X86.559 Y106.407 E6.14488
G1 X87.349 Y107.197 E6.19598
G1 X86.798 Y107.197 E6.22119
G1 X86.008 Y106.407 E6.27229
G1 X85.457 Y106.407 E6.29751
G1 X86.247 Y107.197 E6.34861
G1 X85.695 Y107.197 E6.37382
G1 X84.941 Y106.442 E6.42264
G1 X84.941 Y106.993 E6.44785
G1 X85.144 Y107.197 E6.46102
M106 S255
G92 E0
G1 Z0.600 F7800.000
G1 X108.597 Y92.352 F7800.000
G1 X108.597 Y99.209 E2.05473 F600.000
G1 X108.723 Y99.286 E2.09907
G1 X109.362 Y99.891 E2.36271
G1 X114.365 Y107.648 E5.12860
G1 X108.566 Y98.582 F7800.000
G1 X108.566 Y98.582 F7800.000
G1 X102.843 Y107.648 F7800.000
G1 X107.861 Y99.880 E7.89969 F600.000
G1 X108.474 Y99.287 E8.15525
G1 X109.627 Y98.560 E8.56368
G92 E0
G1 X101.700 Y107.648 F7800.000
G1 X101.700 Y107.648 F7800.000
G1 X99.582 Y106.260 F7800.000
G1 X99.387 Y107.310 F7800.000
G1 X99.049 Y107.648 F7800.000
G1 X97.049 Y107.648 F7800.000
G1 X92.517 Y105.956 F7800.000
G1 X89.739 Y106.802 E0.87020 F600.000
G1 X84.490 Y106.802 E2.44305
G1 X97.049 Y106.802 F7800.000
G1 X91.800 Y106.802 E4.01589 F600.000
G1 X90.769 Y106.488 E4.33867
G1 X90.769 Y92.352 E8.57453
G92 E0
G1 Z0.900 F7800.000
G1 X108.597 Y92.352 F7800.000
G1 X108.597 Y99.209 E2.05473 F600.000
G1 X108.723 Y99.286 E2.09907
G1 X109.362 Y99.891 E2.36271
G1 X114.365 Y107.648 E5.12860
G1 X108.566 Y98.582 F7800.000
G1 X108.566 Y98.582 F7800.000
G1 X102.843 Y107.648 F7800.000
G1 X107.861 Y99.880 E7.89969 F600.000
G1 X108.474 Y99.287 E8.15525
G1 X109.627 Y98.560 E8.56368
G92 E0
G1 X101.700 Y107.648 F7800.000
G1 X101.700 Y107.648 F7800.000
G1 X99.582 Y106.260 F7800.000
G1 X99.387 Y107.310 F7800.000
G1 X99.049 Y107.648 F7800.000
G1 X97.049 Y107.648 F7800.000
G1 X92.517 Y105.956 F7800.000
G1 X89.739 Y106.802 E0.87020 F600.000
G1 X84.490 Y106.802 E2.44305
G1 X97.049 Y106.802 F7800.000
G1 X91.800 Y106.802 E4.01589 F600.000
G1 X90.769 Y106.488 E4.33867
G1 X90.769 Y92.352 E8.57453
G92 E0
G1 Z1.200 F7800.000
G1 X108.597 Y92.352 F7800.000
G1 X108.597 Y99.209 E2.05473 F600.000
G1 X108.723 Y99.286 E2.09907
G1 X109.362 Y99.891 E2.36271
G1 X114.365 Y107.648 E5.12860
G1 X108.566 Y98.582 F7800.000
G1 X108.566 Y98.582 F7800.000
G1 X102.843 Y107.648 F7800.000
G1 X107.861 Y99.880 E7.89969 F600.000
G1 X108.474 Y99.287 E8.15525
G1 X109.627 Y98.560 E8.56368
G92 E0
G1 X101.700 Y107.648 F7800.000
G1 X101.700 Y107.648 F7800.000
G1 X99.582 Y106.260 F7800.000
G1 X99.387 Y107.310 F7800.000
G1 X99.049 Y107.648 F7800.000
G1 X97.049 Y107.648 F7800.000
G1 X92.517 Y105.956 F7800.000
G1 X89.739 Y106.802 E0.87020 F600.000
G1 X84.490 Y106.802 E2.44305
G1 X97.049 Y106.802 F7800.000
G1 X91.800 Y106.802 E4.01589 F600.000
G1 X90.769 Y106.488 E4.33867
G1 X90.769 Y92.352 E8.57453
G92 E0
G1 Z1.500 F7800.000
G1 X108.597 Y92.352 F7800.000
G1 X108.597 Y99.209 E2.05473 F600.000
G1 X108.723 Y99.286 E2.09907
G1 X109.362 Y99.891 E2.36271
G1 X114.365 Y107.648 E5.12860
G1 X108.566 Y98.582 F7800.000
G1 X108.566 Y98.582 F7800.000
G1 X102.843 Y107.648 F7800.000
G1 X107.861 Y99.880 E7.89969 F600.000
G1 X108.474 Y99.287 E8.15525
G1 X109.627 Y98.560 E8.56368
G92 E0
G1 X101.700 Y107.648 F7800.000
G1 X101.700 Y107.648 F7800.000
G1 X99.582 Y106.260 F7800.000
G1 X99.387 Y107.310 F7800.000
G1 X99.049 Y107.648 F7800.000
G1 X97.049 Y107.648 F7800.000
G1 X92.517 Y105.956 F7800.000
G1 X89.739 Y106.802 E0.87020 F600.000
G1 X84.490 Y106.802 E2.44305
G1 X97.049 Y106.802 F7800.000
G1 X91.800 Y106.802 E4.01589 F600.000
G1 X90.769 Y106.488 E4.33867
G1 X90.769 Y92.352 E8.57453
G92 E0
G1 Z1.800 F7800.000
G1 X108.597 Y92.352 F7800.000
G1 X108.597 Y99.209 E2.05473 F600.000
G1 X108.723 Y99.286 E2.09907
G1 X109.362 Y99.891 E2.36271
G1 X114.365 Y107.648 E5.12860
G1 X108.566 Y98.582 F7800.000
G1 X108.566 Y98.582 F7800.000
G1 X102.843 Y107.648 F7800.000
G1 X107.861 Y99.880 E7.89969 F600.000
G1 X108.474 Y99.287 E8.15525
G1 X109.627 Y98.560 E8.56368
G92 E0
G1 X101.700 Y107.648 F7800.000
G1 X101.700 Y107.648 F7800.000
G1 X99.582 Y106.260 F7800.000
G1 X99.387 Y107.310 F7800.000
G1 X99.049 Y107.648 F7800.000
G1 X97.049 Y107.648 F7800.000
G1 X92.517 Y105.956 F7800.000
G1 X89.739 Y106.802 E0.87020 F600.000
G1 X84.490 Y106.802 E2.44305
G1 X97.049 Y106.802 F7800.000
G1 X91.800 Y106.802 E4.01589 F600.000
G1 X90.769 Y106.488 E4.33867
G1 X90.769 Y92.352 E8.57453
G92 E0
G1 Z2.100 F7800.000
G1 X108.597 Y92.352 F7800.000
G1 X108.597 Y99.209 E2.05473 F600.000
G1 X108.723 Y99.286 E2.09907
G1 X109.362 Y99.891 E2.36271
G1 X114.365 Y107.648 E5.12860
G92 E0
G1 X108.566 Y98.582 F7800.000
G1 X108.566 Y98.582 F7800.000
G1 X102.843 Y107.648 F7800.000
G1 X107.861 Y99.880 E2.77109 F600.000
G1 X108.474 Y99.287 E3.02666
G1 X109.627 Y98.560 E3.43508
G92 E0
G1 X101.700 Y107.648 F7800.000
G1 X101.700 Y107.648 F7800.000
G1 X99.582 Y106.260 F7800.000
G1 X99.387 Y107.310 F7800.000
G1 X99.049 Y107.648 F7800.000
G1 X97.049 Y107.648 F7800.000
G1 X92.517 Y105.956 F7800.000
G1 X89.739 Y106.802 E0.87020 F600.000
G1 X84.490 Y106.802 E2.44305
G92 E0
G1 X97.049 Y106.802 F7800.000
G1 X91.800 Y106.802 E1.57284 F600.000
G1 X90.769 Y106.488 E1.89563
G1 X90.769 Y92.352 E6.13148
G92 E0
M107
M104 S0 ; turn off temperature
G28 X0  ; home X axis
M84     ; disable motors

; filament used = 115.5mm (0.9cm3)

; avoid_crossing_perimeters = 1
; bed_shape = 0x0,250x0,250x250,0x250
; bed_temperature = 0
; before_layer_gcode = 
; bridge_acceleration = 0
; bridge_fan_speed = 100
; brim_width = 0
; complete_objects = 0
; cooling = 1
; default_acceleration = 0
; disable_fan_first_layers = 1
; duplicate_distance = 6
; end_gcode = M104 S0 ; turn off temperature\nG28 X0  ; home X axis\nM84     ; disable motors\n
; extruder_clearance_height = 20
; extruder_clearance_radius = 20
; extruder_offset = 0x0
; extrusion_axis = E
; extrusion_multiplier = 3
; fan_always_on = 0
; fan_below_layer_time = 60
; filament_colour = #FFFFFF
; filament_diameter = 3.125
; first_layer_acceleration = 0
; first_layer_bed_temperature = 0
; first_layer_extrusion_width = 150%
; first_layer_speed = 90%
; first_layer_temperature = 30
; gcode_arcs = 0
; gcode_comments = 0
; gcode_flavor = reprap
; infill_acceleration = 0
; infill_first = 0
; layer_gcode = 
; max_fan_speed = 100
; max_print_speed = 80
; max_volumetric_speed = 0
; min_fan_speed = 35
; min_print_speed = 10
; min_skirt_length = 0
; notes = 
; nozzle_diameter = 1.54
; only_retract_when_crossing_perimeters = 1
; ooze_prevention = 0
; output_filename_format = [input_filename_base].gcode
; perimeter_acceleration = 0
; post_process = 
; pressure_advance = 0
; resolution = 0
; retract_before_travel = 2
; retract_layer_change = 1
; retract_length = 0
; retract_length_toolchange = 10
; retract_lift = 0
; retract_restart_extra = 0
; retract_restart_extra_toolchange = 0
; retract_speed = 0
; skirt_distance = 6
; skirt_height = 1
; skirts = 0
; slowdown_below_layer_time = 30
; spiral_vase = 0
; standby_temperature_delta = -5
; start_gcode = G28 ; home all axes\nG1 Z5 F5000 ; lift nozzle\nM302\nM92 E10000\nM500\nM501\nG1 E100
; temperature = 30
; threads = 2
; toolchange_gcode = 
; travel_speed = 130
; use_firmware_retraction = 0
; use_relative_e_distances = 0
; use_volumetric_e = 0
; vibration_limit = 0
; wipe = 0
; z_offset = 0
; dont_support_bridges = 1
; extrusion_width = 0
; first_layer_height = 100%
; infill_only_where_needed = 0
; interface_shells = 0
; layer_height = 0.3
; raft_layers = 0
; seam_position = random
; support_material = 0
; support_material_angle = 0
; support_material_contact_distance = 0.2
; support_material_enforce_layers = 0
; support_material_extruder = 1
; support_material_extrusion_width = 0
; support_material_interface_extruder = 1
; support_material_interface_layers = 3
; support_material_interface_spacing = 0
; support_material_interface_speed = 100%
; support_material_pattern = pillars
; support_material_spacing = 2.5
; support_material_speed = 7
; support_material_threshold = 0
; xy_size_compensation = 0
; bottom_solid_layers = 3
; bridge_flow_ratio = 1
; bridge_speed = 10
; external_fill_pattern = rectilinear
; external_perimeter_extrusion_width = 0
; external_perimeter_speed = 70%
; external_perimeters_first = 1
; extra_perimeters = 1
; fill_angle = 45
; fill_density = 60%
; fill_pattern = rectilinear
; gap_fill_speed = 10
; infill_every_layers = 1
; infill_extruder = 1
; infill_extrusion_width = 0
; infill_overlap = 15%
; infill_speed = 10
; overhangs = 1
; perimeter_extruder = 1
; perimeter_extrusion_width = 0
; perimeter_speed = 10
; perimeters = 1
; small_perimeter_speed = 70%
; solid_infill_below_area = 70
; solid_infill_every_layers = 0
; solid_infill_extruder = 1
; solid_infill_extrusion_width = 0
; solid_infill_speed = 10
; thin_walls = 1
; top_infill_extrusion_width = 0
; top_solid_infill_speed = 10
; top_solid_layers = 3
