; generated by Slic3r 1.2.9 on 2016-03-10 at 20:36:57

; external perimeters extrusion width = 1.54mm
; perimeters extrusion width = 2.62mm
; infill extrusion width = 6.27mm
; solid infill extrusion width = 2.62mm
; top infill extrusion width = 2.62mm

M107
M104 S30 ; set temperature
G28 ; home all axes
G1 Z5 F5000 ; lift nozzle
M302
M92 E10000
M500
M501
G1 E100
M109 S30 ; wait for temperature to be reached
G21 ; set units to millimeters
G90 ; use absolute coordinates
M82 ; use absolute distances for extrusion
G92 E0
G1 Z0.300 F7800.000
G1 X120.530 Y127.878 F7800.000
G1 X120.530 Y132.519 E0.21001 F600.000
G1 X118.909 Y132.519 E0.28336
G1 X118.909 Y123.030 E0.71271
G1 X118.993 Y121.914 E0.76338
G1 X119.240 Y120.920 E0.80973
G1 X119.650 Y120.037 E0.85377
G1 X120.207 Y119.275 E0.89650
G1 X120.898 Y118.644 E0.93885
G1 X121.726 Y118.142 E0.98266
G1 X122.678 Y117.776 E1.02881
G1 X123.738 Y117.555 E1.07780
G1 X124.908 Y117.481 E1.13083
G1 X126.031 Y117.553 E1.18177
G1 X127.222 Y117.788 E1.23670 F600.000
G1 X128.202 Y118.168 E1.28423
G1 X129.053 Y118.690 E1.32939
G1 X129.762 Y119.345 E1.37306
G1 X130.333 Y120.134 E1.41715
G1 X130.752 Y121.047 E1.46262
G1 X131.005 Y122.074 E1.51046
G1 X131.091 Y123.225 E1.56272
G1 X131.091 Y132.519 E1.98325
G1 X129.480 Y132.519 E2.05615
G1 X129.480 Y123.326 E2.47211
G1 X129.349 Y121.965 E2.53398
G1 X128.946 Y120.815 E2.58914
G1 X128.268 Y119.896 E2.64081
G1 X127.347 Y119.234 E2.69216
G1 X126.220 Y118.840 E2.74617
G1 X124.896 Y118.711 E2.80635
G1 X123.611 Y118.836 E2.86476
G1 X122.529 Y119.218 E2.91671
G1 X121.657 Y119.861 E2.96572
G1 X121.026 Y120.753 E3.01515
G1 X120.652 Y121.867 E3.06835
G1 X120.530 Y123.186 E3.12826
G1 X120.530 Y127.647 E3.33012
G1 X119.135 Y132.089 F7800.000
G1 X119.339 Y132.293 E3.34315 F600.000
G1 X119.884 Y132.293 E3.36783
G1 X119.135 Y131.544 E3.41577
G1 X119.135 Y130.999 E3.44045
G1 X120.304 Y132.168 E3.51527
G1 X120.304 Y131.622 E3.53995
G1 X119.135 Y130.453 E3.61477
G1 X119.135 Y129.908 E3.63945
G1 X120.304 Y131.077 E3.71427
G1 X120.304 Y130.532 E3.73895
G1 X119.135 Y129.362 E3.81377
G1 X119.135 Y128.817 E3.83845
G1 X120.304 Y129.986 E3.91327
G1 X120.304 Y129.441 E3.93796
G1 X119.135 Y128.272 E4.01278
G1 X119.135 Y127.726 E4.03746
G1 X120.304 Y128.895 E4.11228
G1 X120.304 Y128.350 E4.13696
G1 X119.135 Y127.181 E4.21178
G1 X119.135 Y126.635 E4.23646
G1 X120.304 Y127.805 E4.31128
G1 X120.304 Y127.259 E4.33596
G1 X119.135 Y126.090 E4.41078
G1 X119.135 Y125.545 E4.43546
G1 X120.304 Y126.714 E4.51028
G1 X120.304 Y126.168 E4.53496
G1 X119.135 Y124.999 E4.60978
G1 X119.135 Y124.454 E4.63447
G1 X120.304 Y125.623 E4.70929
G1 X120.304 Y125.078 E4.73397
G1 X119.135 Y123.908 E4.80879
G1 X119.135 Y123.363 E4.83347
G1 X120.304 Y124.532 E4.90829
G1 X120.304 Y123.987 E4.93297
G1 X119.145 Y122.828 E5.00715
G1 X119.183 Y122.320 E5.03018
G1 X120.304 Y123.441 E5.10193
G1 X120.334 Y122.926 E5.12529
G1 X119.230 Y121.822 E5.19593
G1 X119.339 Y121.386 E5.21630
G1 X120.380 Y122.427 E5.28294
G1 X120.426 Y121.928 E5.30563
G1 X119.448 Y120.949 E5.36827
G1 X119.619 Y120.575 E5.38688
G1 X120.556 Y121.511 E5.44680
G1 X120.693 Y121.103 E5.46629
G1 X119.792 Y120.203 E5.52391
G1 X120.009 Y119.874 E5.54173
G1 X120.830 Y120.695 E5.59426
G1 X121.056 Y120.375 E5.61197
G1 X120.239 Y119.559 E5.66421
G1 X120.505 Y119.279 E5.68167
G1 X121.282 Y120.056 E5.73140
G1 X121.508 Y119.737 E5.74911
G1 X120.782 Y119.011 E5.79559
G1 X121.079 Y118.763 E5.81311
G1 X121.819 Y119.502 E5.86042
G1 X122.132 Y119.270 E5.87807
G1 X121.419 Y118.557 E5.92372
G1 X121.758 Y118.351 E5.94169
G1 X122.446 Y119.038 E5.98569
G1 X122.844 Y118.891 E6.00489
G1 X122.149 Y118.196 E6.04937
G1 X122.543 Y118.045 E6.06847
G1 X123.247 Y118.749 E6.11354
G1 X123.656 Y118.612 E6.13305
G1 X122.974 Y117.930 E6.17671
G1 X123.425 Y117.836 E6.19757
G1 X124.153 Y118.564 E6.24415
G1 X124.650 Y118.515 E6.26674
G1 X123.901 Y117.767 E6.31467
G1 X124.414 Y117.734 E6.33793
G1 X125.183 Y118.504 E6.38718
G1 X125.788 Y118.563 E6.41466
G1 X124.941 Y117.715 E6.46889
G1 X125.523 Y117.752 E6.49529
G1 X126.402 Y118.631 E6.55154
G1 X127.239 Y118.923 F7800.000
G1 X126.138 Y117.822 E6.62204 F600.000
G1 X126.818 Y117.956 E6.65341
G1 X130.690 Y121.828 E6.90119
G1 X130.461 Y121.054 E6.93769
G1 X127.636 Y118.229 E7.11852
G1 X129.081 Y119.129 F7800.000
G1 X129.686 Y119.734 E7.15724 F600.000
G1 X129.267 Y120.951 F7800.000
G1 X130.803 Y122.487 E7.25557 F600.000
G1 X130.847 Y123.076 E7.28231
G1 X129.560 Y121.790 E7.36466
G1 X129.626 Y122.401 E7.39248
G1 X130.865 Y123.640 E7.47177
G1 X130.865 Y124.185 E7.49645
G1 X129.684 Y123.004 E7.57202
G1 X129.706 Y123.572 E7.59770
G1 X130.865 Y124.731 E7.67188
G1 X130.865 Y125.276 E7.69657
G1 X129.706 Y124.117 E7.77075
G1 X129.706 Y124.662 E7.79543
G1 X130.865 Y125.821 E7.86961
G1 X130.865 Y126.367 E7.89429
G1 X129.706 Y125.208 E7.96847
G1 X129.706 Y125.753 E7.99315
G1 X130.865 Y126.912 E8.06733
G1 X130.865 Y127.458 E8.09201
G1 X129.706 Y126.299 E8.16619
G1 X129.706 Y126.844 E8.19087
G1 X130.865 Y128.003 E8.26505
G1 X130.865 Y128.548 E8.28973
G1 X129.706 Y127.389 E8.36391
G1 X129.706 Y127.935 E8.38859
G1 X130.865 Y129.094 E8.46277
G1 X130.865 Y129.639 E8.48745
G1 X129.706 Y128.480 E8.56163
G1 X129.706 Y129.025 E8.58631
G1 X130.865 Y130.185 E8.66049
G1 X130.865 Y130.730 E8.68517
G1 X129.706 Y129.571 E8.75935
G1 X129.706 Y130.116 E8.78403
G1 X130.865 Y131.275 E8.85821
G1 X130.865 Y131.821 E8.88290
G1 X129.706 Y130.662 E8.95708
G1 X129.706 Y131.207 E8.98176
G1 X130.792 Y132.293 E9.05126
G1 X130.247 Y132.293 E9.07594
G1 X129.706 Y131.752 E9.11053
M106 S255
G92 E0
G1 Z0.600 F7800.000
G1 X119.719 Y132.744 F7800.000
G1 X119.722 Y123.101 E2.88959 F600.000
G1 X119.808 Y122.045 E3.20703
G1 X119.900 Y121.587 E3.34682
G1 X120.015 Y121.193 E3.46982
G1 X120.321 Y120.433 E3.71539
G1 X120.777 Y119.786 E3.95259
G1 X121.051 Y119.476 E4.07663
G1 X121.265 Y119.270 E4.16562
G1 X122.025 Y118.750 E4.44143
G1 X122.345 Y118.597 E4.54794
G1 X122.864 Y118.406 E4.71341
G1 X123.380 Y118.262 E4.87406
G1 X123.823 Y118.182 E5.00896
G1 X124.908 Y118.097 E5.33503
G1 X126.039 Y118.187 E5.67486
G1 X126.450 Y118.262 E5.80023
G1 X127.033 Y118.424 E5.98140
G1 X127.531 Y118.607 E6.14044
G1 X127.896 Y118.785 E6.26220
G1 X128.656 Y119.296 E6.53656
G1 X128.867 Y119.497 E6.62407
G1 X129.187 Y119.854 E6.76773
G1 X129.662 Y120.526 E7.01408
G1 X129.982 Y121.316 E7.26968
G1 X130.090 Y121.677 E7.38259
G1 X130.194 Y122.203 E7.54312
G1 X130.284 Y123.255 E7.85961
G1 X130.286 Y132.744 E10.70287
G92 E0
G1 Z0.900 F7800.000
G1 X119.719 Y132.744 F7800.000
G1 X119.722 Y123.101 E2.88959 F600.000
G1 X119.808 Y122.045 E3.20703
G1 X119.900 Y121.587 E3.34682
G1 X120.015 Y121.193 E3.46982
G1 X120.321 Y120.433 E3.71540
G1 X120.777 Y119.786 E3.95259
G1 X121.051 Y119.476 E4.07663
G1 X121.265 Y119.270 E4.16561
G1 X122.025 Y118.750 E4.44143
G1 X122.345 Y118.597 E4.54794
G1 X122.864 Y118.406 E4.71341
G1 X123.380 Y118.262 E4.87406
G1 X123.823 Y118.182 E5.00896
G1 X124.908 Y118.097 E5.33503
G1 X126.039 Y118.187 E5.67486
G1 X126.450 Y118.262 E5.80023
G1 X127.033 Y118.424 E5.98140
G1 X127.531 Y118.607 E6.14044
G1 X127.896 Y118.785 E6.26220
G1 X128.656 Y119.296 E6.53656
G1 X128.867 Y119.497 E6.62407
G1 X129.187 Y119.854 E6.76773
G1 X129.662 Y120.526 E7.01408
G1 X129.982 Y121.316 E7.26968
G1 X130.090 Y121.677 E7.38259
G1 X130.194 Y122.203 E7.54312
G1 X130.284 Y123.255 E7.85961
G1 X130.286 Y132.744 E10.70287
G92 E0
G1 Z1.200 F7800.000
G1 X119.719 Y132.744 F7800.000
G1 X119.722 Y123.101 E2.88959 F600.000
G1 X119.808 Y122.045 E3.20703
G1 X119.900 Y121.587 E3.34682
G1 X120.015 Y121.193 E3.46982
G1 X120.321 Y120.433 E3.71540
G1 X120.777 Y119.786 E3.95259
G1 X121.051 Y119.476 E4.07663
G1 X121.265 Y119.270 E4.16562
G1 X122.025 Y118.750 E4.44143
G1 X122.345 Y118.597 E4.54794
G1 X122.864 Y118.406 E4.71341
G1 X123.380 Y118.262 E4.87406
G1 X123.823 Y118.182 E5.00896
G1 X124.908 Y118.097 E5.33503
G1 X126.039 Y118.187 E5.67486
G1 X126.450 Y118.262 E5.80023
G1 X127.033 Y118.424 E5.98140
G1 X127.531 Y118.607 E6.14044
G1 X127.896 Y118.785 E6.26220
G1 X128.656 Y119.296 E6.53656
G1 X128.867 Y119.497 E6.62407
G1 X129.187 Y119.854 E6.76773
G1 X129.662 Y120.526 E7.01408
G1 X129.982 Y121.316 E7.26968
G1 X130.090 Y121.677 E7.38259
G1 X130.194 Y122.203 E7.54312
G1 X130.284 Y123.255 E7.85961
G1 X130.286 Y132.744 E10.70287
G92 E0
G1 Z1.500 F7800.000
G1 X119.719 Y132.744 F7800.000
G1 X119.722 Y123.101 E2.88959 F600.000
G1 X119.808 Y122.045 E3.20703
G1 X119.900 Y121.587 E3.34682
G1 X120.015 Y121.193 E3.46982
G1 X120.321 Y120.433 E3.71540
G1 X120.777 Y119.786 E3.95258
G1 X121.051 Y119.476 E4.07663
G1 X121.265 Y119.270 E4.16562
G1 X122.025 Y118.750 E4.44143
G1 X122.345 Y118.597 E4.54794
G1 X122.864 Y118.406 E4.71341
G1 X123.380 Y118.262 E4.87406
G1 X123.823 Y118.182 E5.00896
G1 X124.908 Y118.097 E5.33503
G1 X126.039 Y118.187 E5.67486
G1 X126.450 Y118.262 E5.80023
G1 X127.033 Y118.424 E5.98140
G1 X127.531 Y118.607 E6.14044
G1 X127.896 Y118.785 E6.26220
G1 X128.656 Y119.296 E6.53656
G1 X128.867 Y119.497 E6.62407
G1 X129.187 Y119.854 E6.76773
G1 X129.662 Y120.526 E7.01408
G1 X129.982 Y121.316 E7.26968
G1 X130.090 Y121.677 E7.38259
G1 X130.194 Y122.203 E7.54312
G1 X130.284 Y123.255 E7.85961
G1 X130.286 Y132.744 E10.70287
G92 E0
G1 Z1.800 F7800.000
G1 X119.719 Y132.744 F7800.000
G1 X119.722 Y123.101 E2.88959 F600.000
G1 X119.808 Y122.045 E3.20703
G1 X119.900 Y121.587 E3.34682
G1 X120.015 Y121.193 E3.46982
G1 X120.321 Y120.433 E3.71539
G1 X120.777 Y119.786 E3.95259
G1 X121.051 Y119.476 E4.07663
G1 X121.265 Y119.270 E4.16561
G1 X122.025 Y118.750 E4.44143
G1 X122.345 Y118.597 E4.54794
G1 X122.864 Y118.406 E4.71341
G1 X123.380 Y118.262 E4.87406
G1 X123.823 Y118.182 E5.00896
G1 X124.908 Y118.097 E5.33503
G1 X126.039 Y118.187 E5.67486
G1 X126.450 Y118.262 E5.80023
G1 X127.033 Y118.424 E5.98140
G1 X127.531 Y118.607 E6.14044
G1 X127.896 Y118.785 E6.26220
G1 X128.656 Y119.296 E6.53656
G1 X128.867 Y119.497 E6.62407
G1 X129.187 Y119.854 E6.76773
G1 X129.662 Y120.526 E7.01408
G1 X129.982 Y121.316 E7.26968
G1 X130.090 Y121.677 E7.38259
G1 X130.194 Y122.203 E7.54312
G1 X130.284 Y123.255 E7.85961
G1 X130.286 Y132.744 E10.70287
G92 E0
G1 Z2.100 F7800.000
G1 X119.719 Y132.744 F7800.000
G1 X119.722 Y123.101 E2.88959 F600.000
G1 X119.808 Y122.045 E3.20703
G1 X119.900 Y121.587 E3.34682
G1 X120.015 Y121.193 E3.46982
G1 X120.321 Y120.433 E3.71539
G1 X120.777 Y119.786 E3.95259
G1 X121.051 Y119.476 E4.07663
G1 X121.265 Y119.270 E4.16561
G1 X122.025 Y118.750 E4.44143
G1 X122.345 Y118.597 E4.54794
G1 X122.864 Y118.406 E4.71341
G1 X123.422 Y118.250 E4.88707
G1 X123.821 Y118.178 E5.00866
G1 X124.938 Y118.099 E5.34410
G1 X126.039 Y118.187 E5.67498
G1 X126.450 Y118.262 E5.80036
G1 X127.033 Y118.424 E5.98153
G1 X127.531 Y118.607 E6.14057
G1 X127.896 Y118.785 E6.26233
G1 X128.656 Y119.296 E6.53669
G1 X128.867 Y119.497 E6.62420
G1 X129.187 Y119.854 E6.76786
G1 X129.662 Y120.526 E7.01421
G1 X129.982 Y121.316 E7.26981
G1 X130.090 Y121.677 E7.38272
G1 X130.194 Y122.203 E7.54325
G1 X130.284 Y123.255 E7.85974
G1 X130.286 Y132.744 E10.70300
G92 E0
M107
M104 S0 ; turn off temperature
G28 X0  ; home X axis
M84     ; disable motors

; filament used = 73.3mm (0.6cm3)

; avoid_crossing_perimeters = 1
; bed_shape = 0x0,250x0,250x250,0x250
; bed_temperature = 0
; before_layer_gcode = 
; bridge_acceleration = 0
; bridge_fan_speed = 100
; brim_width = 0
; complete_objects = 0
; cooling = 1
; default_acceleration = 0
; disable_fan_first_layers = 1
; duplicate_distance = 6
; end_gcode = M104 S0 ; turn off temperature\nG28 X0  ; home X axis\nM84     ; disable motors\n
; extruder_clearance_height = 20
; extruder_clearance_radius = 20
; extruder_offset = 0x0
; extrusion_axis = E
; extrusion_multiplier = 3
; fan_always_on = 0
; fan_below_layer_time = 60
; filament_colour = #FFFFFF
; filament_diameter = 3.125
; first_layer_acceleration = 0
; first_layer_bed_temperature = 0
; first_layer_extrusion_width = 150%
; first_layer_speed = 90%
; first_layer_temperature = 30
; gcode_arcs = 0
; gcode_comments = 0
; gcode_flavor = reprap
; infill_acceleration = 0
; infill_first = 0
; layer_gcode = 
; max_fan_speed = 100
; max_print_speed = 80
; max_volumetric_speed = 0
; min_fan_speed = 35
; min_print_speed = 10
; min_skirt_length = 0
; notes = 
; nozzle_diameter = 1.54
; only_retract_when_crossing_perimeters = 1
; ooze_prevention = 0
; output_filename_format = [input_filename_base].gcode
; perimeter_acceleration = 0
; post_process = 
; pressure_advance = 0
; resolution = 0
; retract_before_travel = 2
; retract_layer_change = 1
; retract_length = 0
; retract_length_toolchange = 10
; retract_lift = 0
; retract_restart_extra = 0
; retract_restart_extra_toolchange = 0
; retract_speed = 0
; skirt_distance = 6
; skirt_height = 1
; skirts = 0
; slowdown_below_layer_time = 30
; spiral_vase = 0
; standby_temperature_delta = -5
; start_gcode = G28 ; home all axes\nG1 Z5 F5000 ; lift nozzle\nM302\nM92 E10000\nM500\nM501\nG1 E100
; temperature = 30
; threads = 2
; toolchange_gcode = 
; travel_speed = 130
; use_firmware_retraction = 0
; use_relative_e_distances = 0
; use_volumetric_e = 0
; vibration_limit = 0
; wipe = 0
; z_offset = 0
; dont_support_bridges = 1
; extrusion_width = 0
; first_layer_height = 100%
; infill_only_where_needed = 0
; interface_shells = 0
; layer_height = 0.3
; raft_layers = 0
; seam_position = random
; support_material = 0
; support_material_angle = 0
; support_material_contact_distance = 0.2
; support_material_enforce_layers = 0
; support_material_extruder = 1
; support_material_extrusion_width = 0
; support_material_interface_extruder = 1
; support_material_interface_layers = 3
; support_material_interface_spacing = 0
; support_material_interface_speed = 100%
; support_material_pattern = pillars
; support_material_spacing = 2.5
; support_material_speed = 7
; support_material_threshold = 0
; xy_size_compensation = 0
; bottom_solid_layers = 3
; bridge_flow_ratio = 1
; bridge_speed = 10
; external_fill_pattern = rectilinear
; external_perimeter_extrusion_width = 0
; external_perimeter_speed = 70%
; external_perimeters_first = 1
; extra_perimeters = 1
; fill_angle = 45
; fill_density = 60%
; fill_pattern = rectilinear
; gap_fill_speed = 10
; infill_every_layers = 1
; infill_extruder = 1
; infill_extrusion_width = 0
; infill_overlap = 15%
; infill_speed = 10
; overhangs = 1
; perimeter_extruder = 1
; perimeter_extrusion_width = 0
; perimeter_speed = 10
; perimeters = 1
; small_perimeter_speed = 70%
; solid_infill_below_area = 70
; solid_infill_every_layers = 0
; solid_infill_extruder = 1
; solid_infill_extrusion_width = 0
; solid_infill_speed = 10
; thin_walls = 1
; top_infill_extrusion_width = 0
; top_solid_infill_speed = 10
; top_solid_layers = 3
