; generated by Slic3r 1.2.9 on 2016-03-11 at 01:30:48

; external perimeters extrusion width = 1.54mm
; perimeters extrusion width = 2.62mm
; infill extrusion width = 6.27mm
; solid infill extrusion width = 2.62mm
; top infill extrusion width = 2.62mm

M107
M104 S30 ; set temperature
G28 ; home all axes
G1 Z5 F5000 ; lift nozzle
M302
M92 E10000
M500
M501
G1 E100
M109 S30 ; wait for temperature to be reached
G21 ; set units to millimeters
G90 ; use absolute coordinates
M82 ; use absolute distances for extrusion
G92 E0
G1 Z0.300 F7800.000
G1 X115.453 Y94.925 F7800.000
G1 X115.747 Y95.552 E0.03132 F378.000
G1 X115.903 Y96.746 E0.08580
G1 X115.800 Y97.648 E0.12691
G1 X115.494 Y98.435 E0.16509
G1 X114.983 Y99.112 E0.20345
G1 X114.281 Y99.657 E0.24369
G1 X113.394 Y100.042 E0.28743
G1 X112.275 Y100.273 E0.33913
G1 X112.252 Y100.696 E0.35826
G1 X113.105 Y100.974 E0.39888
G1 X113.775 Y101.363 E0.43394
G1 X114.310 Y101.874 E0.46744
G1 X114.702 Y102.494 E0.50058
G1 X114.937 Y103.206 E0.53453
G1 X115.015 Y103.997 E0.57050
G1 X114.452 Y105.949 E0.66241
G1 X112.773 Y107.115 E0.75491
G1 X109.859 Y107.519 E0.88802
G1 X104.558 Y107.519 E1.12791
G1 X104.558 Y92.673 E1.79968
G1 X110.515 Y92.673 E2.06924
G1 X112.016 Y92.789 E2.13736
G1 X112.117 Y92.796 E2.14194 F378.000
G1 X113.444 Y93.160 E2.20420
G1 X114.508 Y93.759 E2.25944
G1 X115.283 Y94.563 E2.30996
G1 X115.355 Y94.716 E2.31763
G1 X113.883 Y95.323 F7800.000
G1 X114.162 Y95.998 E2.35069 F378.000
G1 X114.266 Y96.927 E2.39296
G1 X113.812 Y98.541 E2.46884
G1 X112.441 Y99.516 E2.54497
G1 X110.269 Y99.825 E2.64427
G1 X106.179 Y99.825 E2.82934
G1 X106.179 Y93.882 E3.09825
G1 X110.424 Y93.882 E3.29032 F378.000
G1 X111.599 Y93.962 E3.34363
G1 X112.567 Y94.209 E3.38883
G1 X113.317 Y94.633 E3.42781
G1 X113.757 Y95.133 E3.45797
G92 E0
G1 X114.721 Y98.172 F7800.000
G1 X114.721 Y98.172 F7800.000
G1 X111.791 Y101.284 F7800.000
G1 X112.485 Y101.663 E0.03583 F378.000
G1 X112.990 Y102.213 E0.06959
G1 X113.290 Y102.921 E0.10440
G1 X113.387 Y103.772 E0.14316
G1 X113.286 Y104.585 E0.18024
G1 X112.971 Y105.250 E0.21353
G1 X112.444 Y105.739 E0.24607
G1 X111.743 Y106.062 E0.28098
G1 X110.888 Y106.249 E0.32059
G1 X109.881 Y106.310 E0.36623
G1 X106.179 Y106.310 E0.53374
G1 X106.179 Y100.991 E0.77442
G1 X109.882 Y100.991 E0.94196 F378.000
G1 X110.920 Y101.063 E0.98905
G1 X111.567 Y101.227 E1.01925
G1 X112.041 Y101.008 F7800.000
G1 X112.770 Y101.323 E1.09705 F540.000
G1 X112.101 Y99.935 F7800.000
G1 X112.538 Y99.859 E1.14050 F540.000
G1 X112.958 Y99.685 E1.18511
G1 X113.163 Y99.490 F7800.000
G1 X113.465 Y99.793 E1.20468 F540.000
G1 X113.849 Y99.626 E1.22383
G1 X113.339 Y99.115 E1.25683
G1 X113.661 Y98.886 E1.27490
G1 X114.228 Y99.453 E1.31155
G1 X114.538 Y99.213 E1.32950
G1 X113.983 Y98.657 E1.36540
G1 X114.113 Y98.237 E1.38554
G1 X114.847 Y98.971 E1.43302
G1 X115.084 Y98.657 E1.45101
G1 X114.234 Y97.806 E1.50599
G1 X114.355 Y97.376 E1.52641
G1 X115.315 Y98.337 E1.58851
G1 X115.470 Y97.940 E1.60796
G1 X114.476 Y96.946 E1.67223
G1 X114.440 Y96.359 E1.69912
G1 X115.597 Y97.516 E1.77393
G1 X115.653 Y97.022 E1.79668
G1 X114.318 Y95.687 E1.88298
G1 X115.110 Y94.825 F7800.000
G1 X114.171 Y93.887 E1.94367 F540.000
G1 X113.043 Y93.310 F7800.000
G1 X115.541 Y95.808 E2.10513 F540.000
G1 X115.624 Y96.442 E2.13437
G1 X112.284 Y93.102 E2.35029
G1 X111.623 Y92.991 E2.38095
G1 X112.589 Y93.958 E2.44343
G1 X111.850 Y93.769 E2.47832
G1 X111.026 Y92.945 E2.53158
G1 X110.429 Y92.900 E2.55895
G1 X111.234 Y93.705 E2.61103
G1 X110.643 Y93.665 E2.63812
G1 X109.877 Y92.899 E2.68763
G1 X109.326 Y92.899 E2.71281
G1 X110.083 Y93.656 E2.76176
G1 X109.532 Y93.656 E2.78695
G1 X108.775 Y92.899 E2.83590
G1 X108.224 Y92.899 E2.86108
G1 X108.981 Y93.656 E2.91003
G1 X108.431 Y93.656 E2.93522
G1 X107.673 Y92.899 E2.98417
G1 X107.122 Y92.899 E3.00936
G1 X107.880 Y93.656 E3.05830
G1 X107.329 Y93.656 E3.08349
G1 X106.571 Y92.899 E3.13244
G1 X106.021 Y92.899 E3.15763
G1 X106.778 Y93.656 E3.20657
G1 X106.227 Y93.656 E3.23176
G1 X105.470 Y92.899 E3.28071
G1 X104.919 Y92.899 E3.30590
G1 X105.953 Y93.933 E3.37277
G1 X105.953 Y94.484 E3.39796
G1 X104.784 Y93.315 E3.47354
G1 X104.784 Y93.866 E3.49873
G1 X105.953 Y95.035 E3.57431
G1 X105.953 Y95.586 E3.59950
G1 X104.784 Y94.417 E3.67509
G1 X104.784 Y94.968 E3.70027
G1 X105.953 Y96.137 E3.77586
G1 X105.953 Y96.688 E3.80105
G1 X104.784 Y95.519 E3.87663
G1 X104.784 Y96.070 E3.90182
G1 X105.953 Y97.239 E3.97740
G1 X105.953 Y97.790 E4.00259
G1 X104.784 Y96.621 E4.07817
G1 X104.784 Y97.172 E4.10336
G1 X105.953 Y98.341 E4.17895
G1 X105.953 Y98.892 E4.20414
G1 X104.784 Y97.723 E4.27972
G1 X104.784 Y98.274 E4.30491
G1 X105.953 Y99.443 E4.38049
G1 X105.953 Y99.994 E4.40568
G1 X104.784 Y98.825 E4.48126
G1 X104.784 Y99.376 E4.50645
G1 X106.173 Y100.765 E4.59627
G1 X105.953 Y101.096 F7800.000
G1 X104.784 Y99.927 E4.67185 F540.000
G1 X104.784 Y100.478 E4.69704
G1 X105.953 Y101.647 E4.77262
G1 X105.953 Y102.198 E4.79781
G1 X104.784 Y101.029 E4.87339
G1 X104.784 Y101.580 E4.89858
G1 X105.953 Y102.749 E4.97417
G1 X105.953 Y103.300 E4.99935
G1 X104.784 Y102.131 E5.07494
G1 X104.784 Y102.682 E5.10013
G1 X105.953 Y103.851 E5.17571
G1 X105.953 Y104.402 E5.20090
G1 X104.784 Y103.233 E5.27648
G1 X104.784 Y103.784 E5.30167
G1 X105.953 Y104.953 E5.37725
G1 X105.953 Y105.504 E5.40244
G1 X104.784 Y104.335 E5.47803
G1 X104.784 Y104.886 E5.50321
G1 X105.953 Y106.055 E5.57880
G1 X105.883 Y106.536 E5.60103
G1 X106.640 Y107.293 E5.64998
G1 X107.191 Y107.293 E5.67517
G1 X106.434 Y106.536 E5.72411
G1 X105.953 Y106.606 E5.74635
G1 X104.784 Y105.437 E5.82193
G1 X104.784 Y105.988 E5.84712
G1 X106.089 Y107.293 E5.93152
G1 X105.538 Y107.293 E5.95671
G1 X104.784 Y106.538 E6.00549
G1 X104.784 Y107.089 E6.03068
G1 X104.987 Y107.293 E6.04384
G1 X106.985 Y106.536 F7800.000
G1 X107.742 Y107.293 E6.09279 F540.000
G1 X108.293 Y107.293 E6.11798
G1 X107.536 Y106.536 E6.16693
G1 X108.087 Y106.536 E6.19211
G1 X108.844 Y107.293 E6.24106
G1 X109.395 Y107.293 E6.26625
G1 X108.638 Y106.536 E6.31520
G1 X109.189 Y106.536 E6.34039
G1 X109.943 Y107.290 E6.38913
G1 X110.427 Y107.223 E6.41146
G1 X109.740 Y106.536 E6.45585
G1 X110.263 Y106.508 E6.47981
G1 X110.911 Y107.156 E6.52165
G1 X111.394 Y107.088 E6.54398
G1 X110.783 Y106.477 E6.58351
G1 X111.243 Y106.386 E6.60497
G1 X111.878 Y107.021 E6.64601
G1 X112.362 Y106.954 E6.66833
G1 X111.695 Y106.287 E6.71143
G1 X112.083 Y106.124 E6.73067
G1 X112.811 Y106.852 E6.77771
G1 X113.136 Y106.626 E6.79581
G1 X112.461 Y105.951 E6.83949
G1 X112.764 Y105.704 E6.85739
G1 X113.461 Y106.401 E6.90245
G1 X113.787 Y106.175 E6.92055
G1 X113.050 Y105.438 E6.96817
G1 X113.262 Y105.099 E6.98645
G1 X114.112 Y105.949 E7.04139
G1 X114.333 Y105.619 E7.05955
G1 X113.439 Y104.726 E7.11730
G1 X113.542 Y104.278 E7.13831
G1 X114.456 Y105.191 E7.19736
G1 X114.579 Y104.763 E7.21771
G1 X113.604 Y103.788 E7.28077
G1 X113.558 Y103.192 E7.30811
G1 X114.702 Y104.336 E7.38207
G1 X114.765 Y103.847 E7.40459
G1 X113.385 Y102.467 E7.49378
G1 X112.928 Y101.460 F7800.000
G1 X114.665 Y103.196 E7.60602 F540.000
G1 X111.854 Y100.936 F7800.000
G1 X110.874 Y99.956 E7.66938 F540.000
G1 X110.392 Y100.025 E7.69165
G1 X111.259 Y100.892 E7.74773
G1 X110.626 Y100.810 E7.77692
G1 X109.867 Y100.051 E7.82599
G1 X109.316 Y100.051 E7.85118
G1 X110.034 Y100.769 E7.89762
G1 X109.479 Y100.765 E7.92299
G1 X108.765 Y100.051 E7.96916
G1 X108.214 Y100.051 E7.99435
G1 X108.928 Y100.765 E8.04052
G1 X108.377 Y100.765 E8.06571
G1 X107.663 Y100.051 E8.11187
G1 X107.112 Y100.051 E8.13706
G1 X107.826 Y100.765 E8.18323
G1 X107.275 Y100.765 E8.20842
G1 X106.561 Y100.051 E8.25458
G1 X106.010 Y100.051 E8.27977
G1 X106.724 Y100.765 E8.32594
G1 X111.356 Y99.888 F7800.000
G1 X111.952 Y100.483 E8.36443 F540.000
G92 E0
G1 X104.333 Y107.744 F7800.000
G1 X96.502 Y108.744 F7800.000
G1 X94.441 Y108.744 F7800.000
G1 X90.191 Y105.494 F7800.000
G1 X87.941 Y107.744 F7800.000
G1 X85.941 Y107.744 F7800.000
G1 X85.716 Y104.082 F7800.000
G1 X85.716 Y107.519 E0.15552 F378.000
G1 X84.095 Y107.519 E0.22887
G1 X84.095 Y98.030 E0.65822
G1 X84.179 Y96.914 E0.70889
G1 X84.426 Y95.920 E0.75524
G1 X84.836 Y95.037 E0.79928
G1 X85.393 Y94.275 E0.84201
G1 X86.085 Y93.644 E0.88436
G1 X86.913 Y93.142 E0.92817
G1 X87.865 Y92.776 E0.97432
G1 X88.925 Y92.555 E1.02331
G1 X90.094 Y92.481 E1.07634
G1 X91.186 Y92.551 E1.12583
G1 X91.310 Y92.558 E1.13146 F378.000
G1 X92.407 Y92.788 E1.18219
G1 X93.388 Y93.168 E1.22978
G1 X94.239 Y93.690 E1.27494
G1 X94.948 Y94.345 E1.31861
G1 X95.519 Y95.134 E1.36270
G1 X95.939 Y96.047 E1.40817
G1 X96.192 Y97.074 E1.45601
G1 X96.277 Y98.225 E1.50827
G1 X96.277 Y107.519 E1.92880
G1 X94.666 Y107.519 E2.00170
G1 X94.666 Y98.326 E2.41766
G1 X94.535 Y96.965 E2.47953
G1 X94.133 Y95.815 E2.53469
G1 X93.454 Y94.896 E2.58636
G1 X92.533 Y94.234 E2.63771
G1 X91.406 Y93.840 E2.69172
G1 X90.082 Y93.711 E2.75190
G1 X88.798 Y93.836 E2.81031
G1 X87.715 Y94.218 E2.86226
G1 X86.843 Y94.861 E2.91127
G1 X86.212 Y95.753 E2.96070
G1 X85.838 Y96.867 E3.01390
G1 X85.716 Y98.186 E3.07381
G1 X85.716 Y103.851 E3.33016
G1 X84.321 Y107.089 F7800.000
G1 X84.525 Y107.293 E3.34319 F540.000
G1 X85.070 Y107.293 E3.36787
G1 X84.321 Y106.544 E3.41581
G1 X84.321 Y105.999 E3.44049
G1 X85.490 Y107.168 E3.51531
G1 X85.490 Y106.622 E3.53999
G1 X84.321 Y105.453 E3.61481
G1 X84.321 Y104.908 E3.63949
G1 X85.490 Y106.077 E3.71431
G1 X85.490 Y105.532 E3.73899
G1 X84.321 Y104.362 E3.81381
G1 X84.321 Y103.817 E3.83849
G1 X85.490 Y104.986 E3.91331
G1 X85.490 Y104.441 E3.93800
G1 X84.321 Y103.272 E4.01282
G1 X84.321 Y102.726 E4.03750
G1 X85.490 Y103.895 E4.11232
G1 X85.490 Y103.350 E4.13700
G1 X84.321 Y102.181 E4.21182
G1 X84.321 Y101.635 E4.23650
G1 X85.490 Y102.805 E4.31132
G1 X85.490 Y102.259 E4.33600
G1 X84.321 Y101.090 E4.41082
G1 X84.321 Y100.545 E4.43550
G1 X85.490 Y101.714 E4.51032
G1 X85.490 Y101.168 E4.53500
G1 X84.321 Y99.999 E4.60982
G1 X84.321 Y99.454 E4.63450
G1 X85.490 Y100.623 E4.70932
G1 X85.490 Y100.078 E4.73401
G1 X84.321 Y98.908 E4.80883
G1 X84.321 Y98.363 E4.83351
G1 X85.490 Y99.532 E4.90833
G1 X85.490 Y98.987 E4.93301
G1 X84.331 Y97.828 E5.00719
G1 X84.369 Y97.320 E5.03022
G1 X85.490 Y98.441 E5.10197
G1 X85.520 Y97.926 E5.12533
G1 X84.417 Y96.822 E5.19597
G1 X84.525 Y96.386 E5.21634
G1 X85.566 Y97.427 E5.28298
G1 X85.613 Y96.928 E5.30567
G1 X84.634 Y95.949 E5.36831
G1 X84.806 Y95.575 E5.38692
G1 X85.742 Y96.511 E5.44684
G1 X85.879 Y96.103 E5.46633
G1 X84.978 Y95.203 E5.52395
G1 X85.195 Y94.874 E5.54177
G1 X86.016 Y95.695 E5.59430
G1 X86.242 Y95.375 E5.61201
G1 X85.425 Y94.559 E5.66425
G1 X85.691 Y94.279 E5.68171
G1 X86.468 Y95.056 E5.73144
G1 X86.694 Y94.737 E5.74915
G1 X85.968 Y94.011 E5.79563
G1 X86.266 Y93.763 E5.81315
G1 X87.005 Y94.502 E5.86046
G1 X87.318 Y94.270 E5.87811
G1 X86.605 Y93.557 E5.92376
G1 X86.945 Y93.351 E5.94173
G1 X87.632 Y94.038 E5.98573
G1 X88.030 Y93.891 E6.00493
G1 X87.335 Y93.196 E6.04941
G1 X87.729 Y93.045 E6.06851
G1 X88.433 Y93.749 E6.11358
G1 X88.842 Y93.612 E6.13309
G1 X88.160 Y92.930 E6.17675
G1 X88.611 Y92.836 E6.19761
G1 X89.339 Y93.564 E6.24419
G1 X89.836 Y93.515 E6.26678
G1 X89.087 Y92.767 E6.31471
G1 X89.600 Y92.734 E6.33797
G1 X90.370 Y93.504 E6.38722
G1 X90.974 Y93.563 E6.41470
G1 X90.127 Y92.715 E6.46893
G1 X90.709 Y92.752 E6.49533
G1 X91.588 Y93.631 E6.55158
G1 X92.426 Y93.923 F7800.000
G1 X91.310 Y92.808 E6.62294 F540.000
G1 X92.000 Y92.953 E6.65482
G1 X95.876 Y96.828 E6.90285
G1 X95.647 Y96.054 E6.93936
G1 X92.822 Y93.229 E7.12019
G1 X94.268 Y94.129 F7800.000
G1 X94.873 Y94.734 E7.15891 F540.000
G1 X94.453 Y95.951 F7800.000
G1 X95.989 Y97.487 E7.25724 F540.000
G1 X96.033 Y98.076 E7.28397
G1 X94.746 Y96.790 E7.36633
G1 X94.812 Y97.401 E7.39415
G1 X96.051 Y98.640 E7.47344
G1 X96.051 Y99.185 E7.49812
G1 X94.870 Y98.004 E7.57369
G1 X94.892 Y98.571 E7.59937
G1 X96.051 Y99.731 E7.67355
G1 X96.051 Y100.276 E7.69823
G1 X94.892 Y99.117 E7.77241
G1 X94.892 Y99.662 E7.79709
G1 X96.051 Y100.821 E7.87127
G1 X96.051 Y101.367 E7.89595
G1 X94.892 Y100.208 E7.97013
G1 X94.892 Y100.753 E7.99481
G1 X96.051 Y101.912 E8.06899
G1 X96.051 Y102.458 E8.09368
G1 X94.892 Y101.298 E8.16786
G1 X94.892 Y101.844 E8.19254
G1 X96.051 Y103.003 E8.26672
G1 X96.051 Y103.548 E8.29140
G1 X94.892 Y102.389 E8.36558
G1 X94.892 Y102.935 E8.39026
G1 X96.051 Y104.094 E8.46444
G1 X96.051 Y104.639 E8.48912
G1 X94.892 Y103.480 E8.56330
G1 X94.892 Y104.025 E8.58798
G1 X96.051 Y105.185 E8.66216
G1 X96.051 Y105.730 E8.68684
G1 X94.892 Y104.571 E8.76102
G1 X94.892 Y105.116 E8.78570
G1 X96.051 Y106.275 E8.85988
G1 X96.051 Y106.821 E8.88456
G1 X94.892 Y105.662 E8.95874
G1 X94.892 Y106.207 E8.98342
G1 X95.978 Y107.293 E9.05292
G1 X95.433 Y107.293 E9.07760
G1 X94.892 Y106.752 E9.11220
M106 S255
G92 E0
G1 Z0.600 F7800.000
G1 X106.207 Y103.897 F7800.000
G1 X105.368 Y99.600 E1.31181 F600.000
G1 X105.368 Y94.107 E2.95776
G1 X105.441 Y93.557 E3.12413
G1 X106.404 Y93.277 E3.42438
G1 X110.472 Y93.278 E4.64347
G1 X111.769 Y93.379 E5.03313
G1 X112.009 Y93.418 E5.10601
G1 X112.905 Y93.671 E5.38515
G1 X113.186 Y93.787 E5.47621
G1 X113.615 Y94.028 E5.62360
G1 X114.051 Y94.350 E5.78597
G1 X114.385 Y94.711 E5.93341
G1 X114.587 Y94.971 E6.03194
G1 X114.951 Y95.785 E6.29912
G1 X115.075 Y96.791 E6.60296
G1 X115.036 Y97.189 E6.72259
G1 X114.985 Y97.447 E6.80143
G1 X114.787 Y98.040 E6.98890
G1 X114.494 Y98.629 E7.18601
G1 X114.087 Y99.065 E7.36456
G1 X113.978 Y99.146 E7.40540
G1 X113.242 Y99.562 E7.65872
G1 X112.707 Y99.795 E7.83360
G1 X112.372 Y99.888 E7.93769
G1 X111.517 Y100.404 E8.23704
G1 X110.719 Y101.274 E8.59083
G1 X105.526 Y100.408 F7800.000
G1 X110.369 Y100.420 E10.04218 F600.000
G1 X110.945 Y100.399 E10.21478
G1 X111.501 Y100.422 E10.38162
G1 X111.875 Y100.835 E10.54857
G1 X112.009 Y100.944 E10.60022
G1 X112.296 Y101.118 E10.70087
G1 X112.851 Y101.378 E10.88451
G1 X113.424 Y101.830 E11.10325
G1 X113.776 Y102.311 E11.28197
G1 X114.024 Y102.814 E11.44985
G1 X114.148 Y103.373 E11.62149
G1 X114.189 Y103.921 E11.78630
G1 X114.041 Y104.643 E12.00707
G1 X113.954 Y104.943 E12.10049
G1 X113.761 Y105.453 E12.26403
G1 X113.422 Y105.800 E12.40935
G1 X112.922 Y106.202 E12.60159
G1 X112.517 Y106.459 E12.74542
G1 X111.846 Y106.645 E12.95422
G1 X111.024 Y106.792 E13.20420
G1 X109.818 Y106.914 E13.56765
G1 X106.404 Y106.914 E14.59055
G1 X105.441 Y106.635 E14.89081
G1 X105.368 Y106.085 E15.05717
G1 X105.368 Y101.216 E16.51615
G1 X105.526 Y100.408 E16.76283
G92 E0
G1 X104.333 Y107.744 F7800.000
G1 X100.418 Y105.829 F7800.000
G1 X98.502 Y107.744 F7800.000
G1 X96.502 Y107.744 F7800.000
G1 X95.472 Y107.744 F7800.000
G1 X95.470 Y98.255 E2.84325 F600.000
G1 X95.380 Y97.203 E3.15975
G1 X95.276 Y96.677 E3.32028
G1 X95.168 Y96.316 E3.43319
G1 X94.848 Y95.526 E3.68879
G1 X94.373 Y94.854 E3.93514
G1 X94.053 Y94.497 E4.07880
G1 X93.842 Y94.296 E4.16631
G1 X93.082 Y93.785 E4.44066
G1 X92.717 Y93.607 E4.56243
G1 X92.219 Y93.424 E4.72147
G1 X91.636 Y93.262 E4.90264
G1 X91.225 Y93.187 E5.02801
G1 X90.094 Y93.097 E5.36784
G1 X89.009 Y93.182 E5.69391
G1 X88.566 Y93.262 E5.82880
G1 X88.050 Y93.406 E5.98946
G1 X87.532 Y93.597 E6.15493
G1 X87.211 Y93.750 E6.26143
G1 X86.451 Y94.270 E6.53725
G1 X86.237 Y94.476 E6.62624
G1 X85.963 Y94.786 E6.75028
G1 X85.507 Y95.433 E6.98747
G1 X85.201 Y96.193 E7.23304
G1 X85.086 Y96.587 E7.35605
G1 X84.995 Y97.045 E7.49584
G1 X84.908 Y98.101 E7.81328
G1 X84.906 Y107.744 E10.70287
G92 E0
G1 Z0.900 F7800.000
G1 X106.207 Y103.897 F7800.000
G1 X105.368 Y99.600 E1.31181 F600.000
G1 X105.368 Y94.107 E2.95776
G1 X105.441 Y93.557 E3.12413
G1 X106.404 Y93.277 E3.42438
G1 X110.472 Y93.278 E4.64347
G1 X111.769 Y93.379 E5.03312
G1 X112.009 Y93.418 E5.10601
G1 X112.905 Y93.671 E5.38515
G1 X113.186 Y93.787 E5.47621
G1 X113.615 Y94.028 E5.62360
G1 X114.051 Y94.349 E5.78597
G1 X114.385 Y94.711 E5.93341
G1 X114.587 Y94.971 E6.03194
G1 X114.951 Y95.785 E6.29912
G1 X115.075 Y96.791 E6.60296
G1 X115.036 Y97.189 E6.72259
G1 X114.985 Y97.447 E6.80143
G1 X114.787 Y98.040 E6.98890
G1 X114.494 Y98.629 E7.18601
G1 X114.087 Y99.065 E7.36456
G1 X113.978 Y99.146 E7.40540
G1 X113.242 Y99.562 E7.65872
G1 X112.707 Y99.795 E7.83360
