; generated by Slic3r 1.2.9 on 2016-03-11 at 01:30:51

; external perimeters extrusion width = 1.54mm
; perimeters extrusion width = 2.62mm
; infill extrusion width = 6.27mm
; solid infill extrusion width = 2.62mm
; top infill extrusion width = 2.62mm

M107
M104 S30 ; set temperature
G28 ; home all axes
G1 Z5 F5000 ; lift nozzle
M302
M92 E10000
M500
M501
G1 E100
M109 S30 ; wait for temperature to be reached
G21 ; set units to millimeters
G90 ; use absolute coordinates
M82 ; use absolute distances for extrusion
G92 E0
G1 Z0.300 F7800.000
G1 X106.560 Y92.673 F7800.000
G1 X116.013 Y92.673 E0.42774 F378.000
G1 X116.013 Y93.915 E0.48393
G1 X106.070 Y93.915 E0.93385 F378.000
G1 X106.070 Y99.707 E1.19593
G1 X114.919 Y99.707 E1.59634
G1 X114.919 Y100.927 E1.65155
G1 X106.070 Y100.927 E2.05196
G1 X106.070 Y106.277 E2.29404
G1 X115.569 Y106.277 E2.72386
G1 X115.569 Y107.519 E2.78006
G1 X104.449 Y107.519 E3.28324
G1 X104.449 Y92.673 E3.95501
G1 X106.329 Y92.673 E4.04008
G1 X106.007 Y93.689 F7800.000
G1 X105.217 Y92.899 E4.09067 F540.000
G1 X105.762 Y92.899 E4.11537
G1 X106.553 Y93.689 E4.16595
G1 X107.098 Y93.689 E4.19066
G1 X106.308 Y92.899 E4.24124
G1 X106.854 Y92.899 E4.26594
G1 X107.644 Y93.689 E4.31653
G1 X108.189 Y93.689 E4.34123
G1 X107.399 Y92.899 E4.39182
G1 X107.945 Y92.899 E4.41652
G1 X108.735 Y93.689 E4.46710
G1 X109.281 Y93.689 E4.49180
G1 X108.491 Y92.899 E4.54239
G1 X109.036 Y92.899 E4.56709
G1 X109.826 Y93.689 E4.61768
G1 X110.372 Y93.689 E4.64238
G1 X109.582 Y92.899 E4.69296
G1 X110.127 Y92.899 E4.71767
G1 X110.918 Y93.689 E4.76825
G1 X111.463 Y93.689 E4.79295
G1 X110.673 Y92.899 E4.84354
G1 X111.219 Y92.899 E4.86824
G1 X112.009 Y93.689 E4.91883
G1 X112.554 Y93.689 E4.94353
G1 X111.764 Y92.899 E4.99411
G1 X112.310 Y92.899 E5.01882
G1 X113.100 Y93.689 E5.06940
G1 X113.646 Y93.689 E5.09410
G1 X112.856 Y92.899 E5.14469
G1 X113.401 Y92.899 E5.16939
G1 X114.191 Y93.689 E5.21998
G1 X114.737 Y93.689 E5.24468
G1 X113.947 Y92.899 E5.29526
G1 X114.493 Y92.899 E5.31997
G1 X115.283 Y93.689 E5.37055
G1 X115.787 Y93.648 E5.39348
G1 X115.038 Y92.899 E5.44145
G1 X115.584 Y92.899 E5.46615
G1 X115.787 Y93.103 E5.47919
G92 E0
G1 X105.295 Y93.448 F7800.000
G1 X105.295 Y93.448 F7800.000
G1 X114.693 Y100.193 F7800.000
G1 X114.433 Y99.933 E0.01665 F540.000
G1 X113.888 Y99.933 E0.04135
G1 X114.656 Y100.701 E0.09053
G1 X114.110 Y100.701 E0.11523
G1 X113.342 Y99.933 E0.16441
G1 X112.796 Y99.933 E0.18911
G1 X113.565 Y100.701 E0.23829
G1 X113.019 Y100.701 E0.26299
G1 X112.251 Y99.933 E0.31217
G1 X111.705 Y99.933 E0.33687
G1 X112.473 Y100.701 E0.38605
G1 X111.928 Y100.701 E0.41075
G1 X111.160 Y99.933 E0.45993
G1 X110.614 Y99.933 E0.48463
G1 X111.382 Y100.701 E0.53381
G1 X110.836 Y100.701 E0.55851
G1 X110.068 Y99.933 E0.60769
G1 X109.523 Y99.933 E0.63239
G1 X110.291 Y100.701 E0.68157
G1 X109.745 Y100.701 E0.70627
G1 X108.977 Y99.933 E0.75545
G1 X108.431 Y99.933 E0.78015
G1 X109.199 Y100.701 E0.82932
G1 X108.654 Y100.701 E0.85403
G1 X107.886 Y99.933 E0.90320
G1 X107.340 Y99.933 E0.92791
G1 X108.108 Y100.701 E0.97708
G1 X107.563 Y100.701 E1.00179
G1 X106.795 Y99.933 E1.05096
G1 X106.249 Y99.933 E1.07567
G1 X107.017 Y100.701 E1.12484
G1 X106.471 Y100.701 E1.14954
G1 X104.675 Y98.905 E1.26454
G1 X104.675 Y98.359 E1.28924
G1 X105.844 Y99.528 E1.36409
G1 X105.844 Y98.983 E1.38879
G1 X104.675 Y97.814 E1.46364
G1 X104.675 Y97.268 E1.48834
G1 X105.844 Y98.437 E1.56320
G1 X105.844 Y97.892 E1.58790
G1 X104.675 Y96.722 E1.66275
G1 X104.675 Y96.177 E1.68745
G1 X105.844 Y97.346 E1.76230
G1 X105.844 Y96.800 E1.78700
G1 X104.675 Y95.631 E1.86186
G1 X104.675 Y95.086 E1.88656
G1 X105.844 Y96.255 E1.96141
G1 X105.844 Y95.709 E1.98611
G1 X104.675 Y94.540 E2.06096
G1 X104.675 Y93.994 E2.08566
G1 X105.844 Y95.163 E2.16052
G1 X105.844 Y94.618 E2.18522
G1 X104.675 Y93.449 E2.26007
G1 X104.693 Y92.921 E2.28397
G1 X105.844 Y94.072 E2.35768
G1 X104.675 Y99.451 F7800.000
G1 X105.926 Y100.701 E2.43773 F540.000
G1 X105.844 Y101.165 E2.45907
G1 X104.675 Y99.996 E2.53393
G1 X104.675 Y100.542 E2.55863
G1 X105.844 Y101.711 E2.63348
G1 X105.844 Y102.257 E2.65818
G1 X104.675 Y101.088 E2.73303
G1 X104.675 Y101.633 E2.75773
G1 X105.844 Y102.802 E2.83259
G1 X105.844 Y103.348 E2.85729
G1 X104.675 Y102.179 E2.93214
G1 X104.675 Y102.724 E2.95684
G1 X105.844 Y103.894 E3.03169
G1 X105.844 Y104.439 E3.05639
G1 X104.675 Y103.270 E3.13125
G1 X104.675 Y103.816 E3.15595
G1 X105.844 Y104.985 E3.23080
G1 X105.844 Y105.530 E3.25550
G1 X104.675 Y104.361 E3.33035
G1 X104.675 Y104.907 E3.35505
G1 X105.844 Y106.076 E3.42991
G1 X105.726 Y106.503 E3.44997
G1 X106.516 Y107.293 E3.50055
G1 X105.970 Y107.293 E3.52525
G1 X104.675 Y105.998 E3.60816
G1 X104.675 Y105.453 E3.63286
G1 X105.844 Y106.622 E3.70771
G1 X106.271 Y106.503 E3.72777
G1 X107.061 Y107.293 E3.77836
G1 X107.607 Y107.293 E3.80306
G1 X106.817 Y106.503 E3.85364
G1 X107.363 Y106.503 E3.87835
G1 X108.153 Y107.293 E3.92893
G1 X108.698 Y107.293 E3.95363
G1 X107.908 Y106.503 E4.00422
G1 X108.454 Y106.503 E4.02892
G1 X109.244 Y107.293 E4.07951
G1 X109.790 Y107.293 E4.10421
G1 X108.999 Y106.503 E4.15480
G1 X109.545 Y106.503 E4.17950
G1 X110.335 Y107.293 E4.23008
G1 X110.881 Y107.293 E4.25479
G1 X110.091 Y106.503 E4.30537
G1 X110.636 Y106.503 E4.33007
G1 X111.426 Y107.293 E4.38066
G1 X111.972 Y107.293 E4.40536
G1 X111.182 Y106.503 E4.45595
G1 X111.728 Y106.503 E4.48065
G1 X112.518 Y107.293 E4.53124
G1 X113.063 Y107.293 E4.55594
G1 X112.273 Y106.503 E4.60652
G1 X112.819 Y106.503 E4.63123
G1 X113.609 Y107.293 E4.68181
G1 X114.155 Y107.293 E4.70651
G1 X113.365 Y106.503 E4.75710
G1 X113.910 Y106.503 E4.78180
G1 X114.700 Y107.293 E4.83239
G1 X114.456 Y106.503 F7800.000
G1 X115.246 Y107.293 E4.88297 F540.000
G1 X115.343 Y106.845 E4.90373
G1 X115.001 Y106.503 E4.92563
G1 X104.675 Y106.544 F7800.000
G1 X105.425 Y107.293 E4.97360 F540.000
G1 X104.879 Y107.293 E4.99830
G1 X104.675 Y107.089 E5.01133
G92 E0
G1 X106.295 Y101.152 F7800.000
G1 X116.691 Y101.152 F7800.000
G1 X117.238 Y94.140 F7800.000
G1 X116.238 Y91.352 F7800.000
G1 X102.032 Y92.448 F7800.000
G1 X98.659 Y93.617 F7800.000
G1 X97.021 Y92.739 F7800.000
G1 X95.009 Y94.194 F7800.000
G1 X88.689 Y93.836 F7800.000
G1 X87.606 Y94.218 E0.05195 F378.000
G1 X86.735 Y94.861 E0.10097
G1 X86.103 Y95.753 E0.15039
G1 X85.729 Y96.867 E0.20359
G1 X85.608 Y98.186 E0.26351
G1 X85.608 Y107.519 E0.68583
G1 X83.987 Y107.519 E0.75918
G1 X83.987 Y98.030 E1.18853
G1 X84.070 Y96.914 E1.23920
G1 X84.318 Y95.920 E1.28555
G1 X84.727 Y95.037 E1.32959
G1 X85.285 Y94.275 E1.37232
G1 X85.976 Y93.644 E1.41467
G1 X86.804 Y93.142 E1.45848
G1 X87.756 Y92.776 E1.50463
G1 X88.816 Y92.555 E1.55362
G1 X89.986 Y92.481 E1.60665
G1 X91.077 Y92.551 E1.65614
G1 X91.201 Y92.558 E1.66177 F378.000
G1 X92.299 Y92.788 E1.71250
G1 X93.279 Y93.168 E1.76009
G1 X94.130 Y93.690 E1.80525
G1 X94.839 Y94.345 E1.84892
G1 X95.410 Y95.134 E1.89301
G1 X95.830 Y96.047 E1.93848
G1 X96.083 Y97.074 E1.98632
G1 X96.169 Y98.225 E2.03858
G1 X96.169 Y107.519 E2.45911
G1 X94.558 Y107.519 E2.53201
G1 X94.558 Y98.326 E2.94797
G1 X94.427 Y96.965 E3.00984
G1 X94.024 Y95.815 E3.06500
G1 X93.346 Y94.896 E3.11667
G1 X92.424 Y94.234 E3.16802
G1 X91.297 Y93.840 E3.22203
G1 X89.974 Y93.711 E3.28221
G1 X88.919 Y93.814 E3.33016
G1 X91.479 Y93.631 F7800.000
G1 X90.600 Y92.752 E3.38641 F540.000
G1 X90.018 Y92.715 E3.41281
G1 X90.866 Y93.563 E3.46704
G1 X90.261 Y93.504 E3.49452
G1 X89.492 Y92.734 E3.54377
G1 X88.979 Y92.767 E3.56703
G1 X89.728 Y93.515 E3.61496
G1 X89.231 Y93.564 E3.63755
G1 X88.503 Y92.836 E3.68413
G1 X88.051 Y92.930 E3.70499
G1 X88.734 Y93.612 E3.74866
G1 X88.325 Y93.749 E3.76816
G1 X87.621 Y93.045 E3.81323
G1 X87.227 Y93.196 E3.83233
G1 X87.921 Y93.891 E3.87681
G1 X87.524 Y94.038 E3.89602
G1 X86.836 Y93.351 E3.94001
G1 X86.497 Y93.557 E3.95798
G1 X87.210 Y94.270 E4.00363
G1 X86.896 Y94.502 E4.02128
G1 X86.157 Y93.763 E4.06859
G1 X85.859 Y94.011 E4.08611
G1 X86.586 Y94.737 E4.13259
G1 X86.360 Y95.056 E4.15030
G1 X85.582 Y94.279 E4.20003
G1 X85.317 Y94.559 E4.21749
G1 X86.133 Y95.375 E4.26973
G1 X85.907 Y95.695 E4.28744
G1 X85.086 Y94.874 E4.33997
G1 X84.870 Y95.203 E4.35779
G1 X85.770 Y96.103 E4.41541
G1 X85.633 Y96.511 E4.43490
G1 X84.697 Y95.575 E4.49482
G1 X84.525 Y95.949 E4.51343
G1 X85.504 Y96.928 E4.57607
G1 X85.458 Y97.427 E4.59876
G1 X84.417 Y96.386 E4.66540
G1 X84.308 Y96.822 E4.68577
G1 X85.412 Y97.926 E4.75641
G1 X85.382 Y98.441 E4.77977
G1 X84.261 Y97.320 E4.85152
G1 X84.223 Y97.828 E4.87455
G1 X85.382 Y98.987 E4.94873
G1 X85.382 Y99.532 E4.97341
G1 X84.213 Y98.363 E5.04823
G1 X84.213 Y98.908 E5.07291
G1 X85.382 Y100.078 E5.14773
G1 X85.382 Y100.623 E5.17242
G1 X84.213 Y99.454 E5.24724
G1 X84.213 Y99.999 E5.27192
G1 X85.382 Y101.168 E5.34674
G1 X85.382 Y101.714 E5.37142
G1 X84.213 Y100.545 E5.44624
G1 X84.213 Y101.090 E5.47092
G1 X85.382 Y102.259 E5.54574
G1 X85.382 Y102.805 E5.57042
G1 X84.213 Y101.635 E5.64524
G1 X84.213 Y102.181 E5.66992
G1 X85.382 Y103.350 E5.74474
G1 X85.382 Y103.895 E5.76942
G1 X84.213 Y102.726 E5.84424
G1 X84.213 Y103.272 E5.86893
G1 X85.382 Y104.441 E5.94375
G1 X85.382 Y104.986 E5.96843
G1 X84.213 Y103.817 E6.04325
G1 X84.213 Y104.362 E6.06793
G1 X85.382 Y105.532 E6.14275
G1 X85.382 Y106.077 E6.16743
G1 X84.213 Y104.908 E6.24225
G1 X84.213 Y105.453 E6.26693
G1 X85.382 Y106.622 E6.34175
G1 X85.382 Y107.168 E6.36643
G1 X84.213 Y105.999 E6.44125
G1 X84.213 Y106.544 E6.46593
G1 X84.962 Y107.293 E6.51387
G1 X84.416 Y107.293 E6.53855
G1 X84.213 Y107.089 E6.55158
G92 E0
G1 X84.833 Y106.744 F7800.000
G1 X84.833 Y106.744 F7800.000
G1 X94.784 Y106.752 F7800.000
G1 X95.324 Y107.293 E0.03459 F540.000
G1 X95.870 Y107.293 E0.05928
G1 X94.784 Y106.207 E0.12877
G1 X94.784 Y105.662 E0.15346
G1 X95.943 Y106.821 E0.22763
G1 X95.943 Y106.275 E0.25232
G1 X94.784 Y105.116 E0.32650
G1 X94.784 Y104.571 E0.35118
G1 X95.943 Y105.730 E0.42536
G1 X95.943 Y105.185 E0.45004
G1 X94.784 Y104.025 E0.52422
G1 X94.784 Y103.480 E0.54890
G1 X95.943 Y104.639 E0.62308
G1 X95.943 Y104.094 E0.64776
G1 X94.784 Y102.935 E0.72194
G1 X94.784 Y102.389 E0.74662
G1 X95.943 Y103.548 E0.82080
G1 X95.943 Y103.003 E0.84548
G1 X94.784 Y101.844 E0.91966
G1 X94.784 Y101.298 E0.94434
G1 X95.943 Y102.458 E1.01852
G1 X95.943 Y101.912 E1.04320
G1 X94.784 Y100.753 E1.11738
G1 X94.784 Y100.208 E1.14206
G1 X95.943 Y101.367 E1.21624
G1 X95.943 Y100.821 E1.24092
G1 X94.784 Y99.662 E1.31510
G1 X94.784 Y99.117 E1.33978
G1 X95.943 Y100.276 E1.41396
G1 X95.943 Y99.731 E1.43864
G1 X94.784 Y98.572 E1.51282
G1 X94.762 Y98.004 E1.53851
G1 X95.943 Y99.185 E1.61407
G1 X95.943 Y98.640 E1.63876
G1 X94.704 Y97.401 E1.71805
G1 X94.638 Y96.790 E1.74587
G1 X95.925 Y98.076 E1.82822
G1 X95.881 Y97.487 E1.85496
G1 X94.344 Y95.951 E1.95329
G1 X94.764 Y94.734 F7800.000
G1 X94.159 Y94.129 E1.99201 F540.000
G1 X92.713 Y93.229 F7800.000
G1 X95.539 Y96.054 E2.17284 F540.000
G1 X95.767 Y96.828 E2.20934
G1 X91.892 Y92.953 E2.45737
G1 X91.202 Y92.808 E2.48926
G1 X92.317 Y93.923 E2.56062
M106 S255
G92 E0
G1 Z0.600 F7800.000
G1 X116.238 Y93.294 F7800.000
G1 X106.295 Y93.294 E2.97938 F600.000
G1 X105.340 Y93.564 E3.27683
G1 X105.260 Y94.140 E3.45118
G1 X105.260 Y99.482 E5.05189
G1 X106.131 Y103.802 E6.37226
G1 X105.295 Y106.744 F7800.000
G1 X105.295 Y106.744 F7800.000
G1 X115.794 Y106.898 F7800.000
G1 X106.295 Y106.898 E9.21860 F600.000
G1 X105.340 Y106.628 E9.51604
G1 X105.260 Y106.052 E9.69039
G1 X105.260 Y101.152 E11.15866
G1 X105.428 Y100.317 E11.41390
G1 X115.144 Y100.317 E14.32531
G92 E0
G1 X117.016 Y107.744 F7800.000
G1 X102.224 Y107.744 F7800.000
G1 X98.394 Y107.744 F7800.000
G1 X96.394 Y107.744 F7800.000
G1 X95.363 Y107.744 F7800.000
G1 X95.362 Y98.255 E2.84325 F600.000
G1 X95.272 Y97.203 E3.15975
G1 X95.167 Y96.677 E3.32028
G1 X95.060 Y96.316 E3.43319
G1 X94.739 Y95.526 E3.68879
G1 X94.265 Y94.854 E3.93514
G1 X93.945 Y94.497 E4.07880
G1 X93.734 Y94.296 E4.16631
G1 X92.974 Y93.785 E4.44066
G1 X92.608 Y93.607 E4.56243
G1 X92.110 Y93.424 E4.72147
G1 X91.528 Y93.262 E4.90264
G1 X91.116 Y93.187 E5.02801
G1 X89.986 Y93.097 E5.36784
G1 X88.901 Y93.182 E5.69391
G1 X88.458 Y93.262 E5.82880
G1 X87.941 Y93.406 E5.98946
G1 X87.423 Y93.597 E6.15493
G1 X87.103 Y93.750 E6.26143
G1 X86.343 Y94.270 E6.53725
G1 X86.129 Y94.476 E6.62624
G1 X85.855 Y94.786 E6.75028
G1 X85.399 Y95.433 E6.98747
G1 X85.092 Y96.193 E7.23304
G1 X84.978 Y96.587 E7.35605
G1 X84.886 Y97.045 E7.49584
G1 X84.799 Y98.101 E7.81328
G1 X84.797 Y107.744 E10.70287
G92 E0
G1 Z0.900 F7800.000
G1 X116.238 Y93.294 F7800.000
G1 X106.295 Y93.294 E2.97938 F600.000
G1 X105.340 Y93.564 E3.27683
G1 X105.260 Y94.140 E3.45118
G1 X105.260 Y99.482 E5.05189
G1 X106.131 Y103.802 E6.37226
G1 X105.295 Y106.744 F7800.000
G1 X105.295 Y106.744 F7800.000
G1 X115.794 Y106.898 F7800.000
G1 X106.295 Y106.898 E9.21860 F600.000
G1 X105.340 Y106.628 E9.51604
G1 X105.260 Y106.052 E9.69039
G1 X105.260 Y101.152 E11.15866
G1 X105.428 Y100.317 E11.41390
G1 X115.144 Y100.317 E14.32531
G92 E0
G1 X117.016 Y107.744 F7800.000
G1 X102.224 Y107.744 F7800.000
G1 X98.394 Y107.744 F7800.000
G1 X96.394 Y107.744 F7800.000
G1 X95.363 Y107.744 F7800.000
G1 X95.362 Y98.255 E2.84325 F600.000
G1 X95.272 Y97.203 E3.15975
G1 X95.167 Y96.677 E3.32028
G1 X95.060 Y96.316 E3.43319
G1 X94.739 Y95.526 E3.68879
G1 X94.265 Y94.854 E3.93514
G1 X93.945 Y94.497 E4.07880
G1 X93.734 Y94.296 E4.16631
G1 X92.974 Y93.785 E4.44066
G1 X92.608 Y93.607 E4.56243
G1 X92.110 Y93.424 E4.72147
G1 X91.528 Y93.262 E4.90264
G1 X91.116 Y93.187 E5.02801
G1 X89.986 Y93.097 E5.36783
G1 X88.901 Y93.182 E5.69391
G1 X88.458 Y93.262 E5.82881
G1 X87.941 Y93.406 E5.98946
G1 X87.423 Y93.597 E6.15493
G1 X87.103 Y93.750 E6.26143
G1 X86.343 Y94.270 E6.53725
G1 X86.129 Y94.476 E6.62624
G1 X85.855 Y94.786 E6.75028
G1 X85.399 Y95.433 E6.98747
G1 X85.092 Y96.193 E7.23305
G1 X84.978 Y96.587 E7.35605
G1 X84.886 Y97.045 E7.49584
G1 X84.799 Y98.101 E7.81328
G1 X84.797 Y107.744 E10.70287
G92 E0
G1 Z1.200 F7800.000
G1 X116.238 Y93.294 F7800.000
G1 X106.295 Y93.294 E2.97938 F600.000
G1 X105.340 Y93.564 E3.27683
G1 X105.260 Y94.140 E3.45118
G1 X105.260 Y99.482 E5.05189
G1 X106.131 Y103.802 E6.37226
G1 X105.295 Y106.744 F7800.000
G1 X105.295 Y106.744 F7800.000
G1 X115.794 Y106.898 F7800.000
G1 X106.295 Y106.898 E9.21860 F600.000
G1 X105.340 Y106.628 E9.51604
G1 X105.260 Y106.052 E9.69039
G1 X105.260 Y101.152 E11.15866
G1 X105.428 Y100.317 E11.41390
G1 X115.144 Y100.317 E14.32531
G92 E0
G1 X117.016 Y107.744 F7800.000
G1 X102.224 Y107.744 F7800.000
G1 X98.394 Y107.744 F7800.000
G1 X96.394 Y107.744 F7800.000
G1 X95.363 Y107.744 F7800.000
G1 X95.362 Y98.255 E2.84325 F600.000
G1 X95.272 Y97.203 E3.15975
G1 X95.167 Y96.677 E3.32028
G1 X95.060 Y96.316 E3.43319
G1 X94.739 Y95.526 E3.68879
G1 X94.265 Y94.854 E3.93514
G1 X93.945 Y94.497 E4.07880
G1 X93.734 Y94.296 E4.16631
G1 X92.974 Y93.785 E4.44066
G1 X92.608 Y93.607 E4.56243
G1 X92.110 Y93.424 E4.72147
G1 X91.528 Y93.262 E4.90264
G1 X91.116 Y93.187 E5.02801
G1 X89.986 Y93.097 E5.36784
G1 X88.901 Y93.182 E5.69391
G1 X88.458 Y93.262 E5.82881
G1 X87.941 Y93.406 E5.98946
G1 X87.423 Y93.597 E6.15493
G1 X87.103 Y93.750 E6.26143
G1 X86.343 Y94.270 E6.53725
G1 X86.129 Y94.476 E6.62624
G1 X85.855 Y94.786 E6.75028
G1 X85.399 Y95.433 E6.98747
G1 X85.092 Y96.193 E7.23305
G1 X84.978 Y96.587 E7.35605
G1 X84.886 Y97.045 E7.49584
G1 X84.799 Y98.101 E7.81328
G1 X84.797 Y107.744 E10.70287
G92 E0
G1 Z1.500 F7800.000
G1 X116.238 Y93.294 F7800.000
G1 X106.295 Y93.294 E2.97938 F600.000
G1 X105.340 Y93.564 E3.27683
G1 X105.260 Y94.140 E3.45118
G1 X105.260 Y99.482 E5.05189
G1 X106.131 Y103.802 E6.37226
G1 X105.295 Y106.744 F7800.000
G1 X105.295 Y106.744 F7800.000
G1 X115.794 Y106.898 F7800.000
G1 X106.295 Y106.898 E9.21860 F600.000
G1 X105.340 Y106.628 E9.51604
G1 X105.260 Y106.052 E9.69039
G1 X105.260 Y101.152 E11.15866
G1 X105.428 Y100.317 E11.41390
G1 X115.144 Y100.317 E14.32531
G92 E0
G1 X117.016 Y107.744 F7800.000
G1 X102.224 Y107.744 F7800.000
G1 X98.394 Y107.744 F7800.000
G1 X96.394 Y107.744 F7800.000
G1 X95.363 Y107.744 F7800.000
G1 X95.362 Y98.255 E2.84325 F600.000
G1 X95.272 Y97.203 E3.15975
