; generated by Slic3r 1.2.9 on 2016-03-11 at 01:30:52

; external perimeters extrusion width = 1.54mm
; perimeters extrusion width = 2.62mm
; infill extrusion width = 6.27mm
; solid infill extrusion width = 2.62mm
; top infill extrusion width = 2.62mm

M107
M104 S30 ; set temperature
G28 ; home all axes
G1 Z5 F5000 ; lift nozzle
M302
M92 E10000
M500
M501
G1 E100
M109 S30 ; wait for temperature to be reached
G21 ; set units to millimeters
G90 ; use absolute coordinates
M82 ; use absolute distances for extrusion
G92 E0
G1 Z0.300 F7800.000
G1 X114.033 Y106.277 F7800.000
G1 X115.437 Y106.277 E0.06353 F378.000
G1 X115.437 Y107.519 E0.11973
G1 X105.030 Y107.519 E0.59064
G1 X105.030 Y92.673 E1.26241
G1 X106.651 Y92.673 E1.33576
G1 X106.651 Y98.896 E1.61735
G1 X115.176 Y98.896 E2.00310 F378.000
G1 X115.176 Y100.159 E2.06025
G1 X106.651 Y100.159 E2.44600
G1 X106.651 Y106.277 E2.72283
G1 X113.802 Y106.277 E3.04641
G1 X115.211 Y106.679 F7800.000
G1 X115.035 Y106.503 E3.05767 F540.000
G1 X114.489 Y106.503 E3.08236
G1 X115.211 Y107.224 E3.12855
G1 X114.734 Y107.293 E3.15036
G1 X113.944 Y106.503 E3.20094
G1 X113.398 Y106.503 E3.22564
G1 X114.188 Y107.293 E3.27622
G1 X113.643 Y107.293 E3.30091
G1 X112.853 Y106.503 E3.35149
G1 X112.307 Y106.503 E3.37619
G1 X113.097 Y107.293 E3.42677
G1 X112.552 Y107.293 E3.45146
G1 X111.762 Y106.503 E3.50204
G1 X111.216 Y106.503 E3.52674
G1 X112.006 Y107.293 E3.57732
G1 X111.461 Y107.293 E3.60202
G1 X110.670 Y106.503 E3.65259
G1 X110.125 Y106.503 E3.67729
G1 X110.915 Y107.293 E3.72787
G1 X110.369 Y107.293 E3.75257
G1 X109.579 Y106.503 E3.80315
G1 X109.034 Y106.503 E3.82784
G1 X109.824 Y107.293 E3.87842
G1 X109.278 Y107.293 E3.90312
G1 X108.488 Y106.503 E3.95370
G1 X107.943 Y106.503 E3.97839
G1 X108.733 Y107.293 E4.02897
G1 X108.187 Y107.293 E4.05367
G1 X107.397 Y106.503 E4.10425
G1 X106.852 Y106.503 E4.12894
G1 X107.642 Y107.293 E4.17952
G1 X107.096 Y107.293 E4.20422
G1 X105.256 Y105.453 E4.32203
G1 X105.256 Y104.907 E4.34672
G1 X106.425 Y106.076 E4.42157
G1 X106.425 Y105.531 E4.44626
G1 X105.256 Y104.362 E4.52110
G1 X105.256 Y103.816 E4.54580
G1 X106.425 Y104.985 E4.62064
G1 X106.425 Y104.440 E4.64534
G1 X105.256 Y103.271 E4.72018
G1 X105.256 Y102.725 E4.74488
G1 X106.425 Y103.894 E4.81972
G1 X106.425 Y103.348 E4.84441
G1 X105.256 Y102.179 E4.91926
G1 X105.256 Y101.634 E4.94395
G1 X106.425 Y102.803 E5.01879
G1 X106.425 Y102.257 E5.04349
G1 X105.256 Y101.088 E5.11833
G1 X105.256 Y100.543 E5.14303
G1 X106.425 Y101.712 E5.21787
G1 X106.425 Y101.166 E5.24257
G1 X105.256 Y99.997 E5.31741
G1 X105.256 Y99.452 E5.34210
G1 X106.425 Y100.621 E5.41695
G1 X106.425 Y100.075 E5.44164
G1 X105.256 Y98.906 E5.51648
G1 X105.256 Y98.360 E5.54118
G1 X106.828 Y99.933 E5.64185
G1 X107.374 Y99.933 E5.66655
G1 X106.563 Y99.122 E5.71847
G1 X107.108 Y99.122 E5.74317
G1 X107.920 Y99.933 E5.79509
G1 X108.465 Y99.933 E5.81979
G1 X107.654 Y99.122 E5.87171
G1 X108.200 Y99.122 E5.89641
G1 X109.011 Y99.933 E5.94833
G1 X109.556 Y99.933 E5.97303
G1 X108.745 Y99.122 E6.02495
G1 X109.291 Y99.122 E6.04965
G1 X110.102 Y99.933 E6.10157
G1 X110.647 Y99.933 E6.12627
G1 X109.836 Y99.122 E6.17819
G1 X110.382 Y99.122 E6.20289
G1 X111.193 Y99.933 E6.25481
G1 X111.738 Y99.933 E6.27951
G1 X110.927 Y99.122 E6.33143
G1 X111.473 Y99.122 E6.35613
G1 X112.284 Y99.933 E6.40805
G1 X112.830 Y99.933 E6.43275
G1 X112.018 Y99.122 E6.48467
G1 X112.564 Y99.122 E6.50937
G1 X113.375 Y99.933 E6.56129
G1 X113.921 Y99.933 E6.58599
G1 X113.110 Y99.122 E6.63791
G1 X113.655 Y99.122 E6.66261
G1 X114.466 Y99.933 E6.71453
G1 X114.950 Y99.871 E6.73660
G1 X114.201 Y99.122 E6.78456
G1 X114.746 Y99.122 E6.80926
G1 X114.950 Y99.326 E6.82229
G1 X106.425 Y98.984 F7800.000
G1 X105.256 Y97.815 E6.89713 F540.000
G1 X105.256 Y97.269 E6.92183
G1 X106.425 Y98.438 E6.99667
G1 X106.425 Y97.893 E7.02137
G1 X105.256 Y96.724 E7.09621
G1 X105.256 Y96.178 E7.12091
G1 X106.425 Y97.347 E7.19575
G1 X106.425 Y96.802 E7.22044
G1 X105.256 Y95.633 E7.29529
G1 X105.256 Y95.087 E7.31998
G1 X106.425 Y96.256 E7.39482
G1 X106.425 Y95.711 E7.41952
G1 X105.256 Y94.542 E7.49436
G1 X105.256 Y93.996 E7.51906
G1 X106.425 Y95.165 E7.59390
G1 X106.425 Y94.619 E7.61860
G1 X105.256 Y93.450 E7.69344
G1 X105.273 Y92.922 E7.71737
G1 X106.425 Y94.074 E7.79112
G1 X106.425 Y93.528 E7.81582
G1 X105.795 Y92.899 E7.85611
G1 X105.256 Y107.089 F7800.000
G1 X105.459 Y107.293 E7.86915 F540.000
G1 X106.005 Y107.293 E7.89384
G1 X105.256 Y106.544 E7.94180
G1 X105.256 Y105.998 E7.96650
G1 X106.551 Y107.293 E8.04938
G92 E0
G1 X104.805 Y107.744 F7800.000
G1 X96.970 Y108.744 F7800.000
G1 X94.909 Y108.744 F7800.000
G1 X90.659 Y105.494 F7800.000
G1 X88.409 Y107.744 F7800.000
G1 X86.409 Y107.744 F7800.000
G1 X86.184 Y105.206 F7800.000
G1 X86.184 Y107.519 E0.10467 F378.000
G1 X84.563 Y107.519 E0.17802
G1 X84.563 Y98.030 E0.60738
G1 X84.647 Y96.914 E0.65804
G1 X84.894 Y95.920 E0.70439
G1 X85.304 Y95.037 E0.74844
G1 X85.861 Y94.275 E0.79116
G1 X86.553 Y93.644 E0.83351
G1 X87.381 Y93.142 E0.87733
G1 X88.333 Y92.776 E0.92347
G1 X89.393 Y92.555 E0.97247
G1 X90.562 Y92.481 E1.02549
G1 X91.654 Y92.551 E1.07498
G1 X91.778 Y92.558 E1.08061 F378.000
G1 X92.875 Y92.788 E1.13134
G1 X93.856 Y93.168 E1.17894
G1 X94.707 Y93.690 E1.22409
G1 X95.416 Y94.345 E1.26776
G1 X95.987 Y95.134 E1.31185
G1 X96.407 Y96.047 E1.35732
G1 X96.660 Y97.074 E1.40517
G1 X96.745 Y98.225 E1.45742
G1 X96.745 Y107.519 E1.87795
G1 X95.134 Y107.519 E1.95085
G1 X95.134 Y98.326 E2.36682
G1 X95.003 Y96.965 E2.42868
G1 X94.601 Y95.815 E2.48384
G1 X93.922 Y94.896 E2.53552
G1 X93.001 Y94.234 E2.58686
G1 X91.874 Y93.840 E2.64087
G1 X90.550 Y93.711 E2.70105
G1 X89.266 Y93.836 E2.75946
G1 X88.183 Y94.218 E2.81141
G1 X87.311 Y94.861 E2.86043
G1 X86.680 Y95.753 E2.90985
G1 X86.306 Y96.867 E2.96305
G1 X86.184 Y98.186 E3.02296
G1 X86.184 Y104.975 E3.33016
G1 X84.789 Y107.089 F7800.000
G1 X84.993 Y107.293 E3.34319 F540.000
G1 X85.538 Y107.293 E3.36787
G1 X84.789 Y106.544 E3.41581
G1 X84.789 Y105.999 E3.44049
G1 X85.958 Y107.168 E3.51531
G1 X85.958 Y106.622 E3.53999
G1 X84.789 Y105.453 E3.61481
G1 X84.789 Y104.908 E3.63949
G1 X85.958 Y106.077 E3.71431
G1 X85.958 Y105.532 E3.73899
G1 X84.789 Y104.362 E3.81381
G1 X84.789 Y103.817 E3.83849
G1 X85.958 Y104.986 E3.91331
G1 X85.958 Y104.441 E3.93800
G1 X84.789 Y103.272 E4.01282
G1 X84.789 Y102.726 E4.03750
G1 X85.958 Y103.895 E4.11232
G1 X85.958 Y103.350 E4.13700
G1 X84.789 Y102.181 E4.21182
G1 X84.789 Y101.635 E4.23650
G1 X85.958 Y102.805 E4.31132
G1 X85.958 Y102.259 E4.33600
G1 X84.789 Y101.090 E4.41082
G1 X84.789 Y100.545 E4.43550
G1 X85.958 Y101.714 E4.51032
G1 X85.958 Y101.168 E4.53500
G1 X84.789 Y99.999 E4.60982
G1 X84.789 Y99.454 E4.63451
G1 X85.958 Y100.623 E4.70933
G1 X85.958 Y100.078 E4.73401
G1 X84.789 Y98.908 E4.80883
G1 X84.789 Y98.363 E4.83351
G1 X85.958 Y99.532 E4.90833
G1 X85.958 Y98.987 E4.93301
G1 X84.799 Y97.828 E5.00719
G1 X84.837 Y97.320 E5.03022
G1 X85.958 Y98.441 E5.10197
G1 X85.988 Y97.926 E5.12533
G1 X84.885 Y96.822 E5.19597
G1 X84.993 Y96.386 E5.21634
G1 X86.034 Y97.427 E5.28298
G1 X86.081 Y96.928 E5.30568
G1 X85.102 Y95.949 E5.36831
G1 X85.274 Y95.575 E5.38692
G1 X86.210 Y96.511 E5.44684
G1 X86.347 Y96.103 E5.46633
G1 X85.446 Y95.203 E5.52395
G1 X85.663 Y94.874 E5.54177
G1 X86.484 Y95.695 E5.59430
G1 X86.710 Y95.375 E5.61201
G1 X85.893 Y94.559 E5.66425
G1 X86.159 Y94.279 E5.68171
G1 X86.936 Y95.056 E5.73144
G1 X87.162 Y94.737 E5.74915
G1 X86.436 Y94.011 E5.79563
G1 X86.734 Y93.763 E5.81315
G1 X87.473 Y94.502 E5.86046
G1 X87.786 Y94.270 E5.87811
G1 X87.073 Y93.557 E5.92376
G1 X87.413 Y93.351 E5.94173
G1 X88.100 Y94.038 E5.98573
G1 X88.498 Y93.891 E6.00493
G1 X87.803 Y93.196 E6.04941
G1 X88.197 Y93.045 E6.06851
G1 X88.901 Y93.749 E6.11358
G1 X89.310 Y93.612 E6.13309
G1 X88.628 Y92.930 E6.17675
G1 X89.079 Y92.836 E6.19761
G1 X89.807 Y93.564 E6.24419
G1 X90.304 Y93.515 E6.26678
G1 X89.555 Y92.767 E6.31471
G1 X90.068 Y92.734 E6.33797
G1 X90.838 Y93.504 E6.38722
G1 X91.442 Y93.563 E6.41470
G1 X90.595 Y92.715 E6.46893
G1 X91.177 Y92.752 E6.49533
G1 X92.056 Y93.631 E6.55158
G1 X92.894 Y93.923 F7800.000
G1 X91.778 Y92.808 E6.62294 F540.000
G1 X92.468 Y92.953 E6.65482
G1 X96.344 Y96.828 E6.90285
G1 X96.115 Y96.054 E6.93936
G1 X93.290 Y93.229 E7.12019
G1 X94.736 Y94.129 F7800.000
G1 X95.341 Y94.734 E7.15891 F540.000
G1 X94.921 Y95.951 F7800.000
G1 X96.457 Y97.487 E7.25724 F540.000
G1 X96.501 Y98.076 E7.28397
G1 X95.214 Y96.790 E7.36633
G1 X95.280 Y97.401 E7.39415
G1 X96.519 Y98.640 E7.47344
G1 X96.519 Y99.185 E7.49812
G1 X95.338 Y98.004 E7.57369
G1 X95.360 Y98.572 E7.59937
G1 X96.519 Y99.731 E7.67355
G1 X96.519 Y100.276 E7.69823
G1 X95.360 Y99.117 E7.77241
G1 X95.360 Y99.662 E7.79709
G1 X96.519 Y100.821 E7.87127
G1 X96.519 Y101.367 E7.89595
G1 X95.360 Y100.208 E7.97013
G1 X95.360 Y100.753 E7.99482
G1 X96.519 Y101.912 E8.06899
G1 X96.519 Y102.458 E8.09368
G1 X95.360 Y101.298 E8.16786
G1 X95.360 Y101.844 E8.19254
G1 X96.519 Y103.003 E8.26672
G1 X96.519 Y103.548 E8.29140
G1 X95.360 Y102.389 E8.36558
G1 X95.360 Y102.935 E8.39026
G1 X96.519 Y104.094 E8.46444
G1 X96.519 Y104.639 E8.48912
G1 X95.360 Y103.480 E8.56330
G1 X95.360 Y104.025 E8.58798
G1 X96.519 Y105.185 E8.66216
G1 X96.519 Y105.730 E8.68684
G1 X95.360 Y104.571 E8.76102
G1 X95.360 Y105.116 E8.78570
G1 X96.519 Y106.275 E8.85988
G1 X96.519 Y106.821 E8.88456
G1 X95.360 Y105.662 E8.95874
G1 X95.360 Y106.207 E8.98342
G1 X96.446 Y107.293 E9.05292
G1 X95.901 Y107.293 E9.07760
G1 X95.360 Y106.752 E9.11220
M106 S255
G92 E0
G1 Z0.600 F7800.000
G1 X106.737 Y103.008 F7800.000
G1 X105.840 Y98.671 E1.32720 F600.000
G1 X105.840 Y92.448 E3.19190
G1 X105.876 Y93.448 F7800.000
G1 X105.840 Y93.483 F7800.000
G1 X105.840 Y106.708 F7800.000
G1 X105.876 Y106.744 F7800.000
G1 X115.662 Y106.898 F7800.000
G1 X106.876 Y106.898 E5.82459 F600.000
G1 X105.921 Y106.628 E6.12204
G1 X105.840 Y106.052 E6.29639
G1 X105.840 Y100.384 E7.99479
G1 X106.017 Y99.527 E8.25686
G1 X115.401 Y99.527 E11.06856
G92 E0
G1 X116.662 Y107.744 F7800.000
G1 X102.805 Y107.744 F7800.000
G1 X98.970 Y107.744 F7800.000
G1 X96.970 Y107.744 F7800.000
G1 X95.940 Y107.744 F7800.000
G1 X95.938 Y98.255 E2.84325 F600.000
G1 X95.848 Y97.203 E3.15975
G1 X95.744 Y96.677 E3.32028
G1 X95.636 Y96.316 E3.43319
G1 X95.316 Y95.526 E3.68879
G1 X94.841 Y94.854 E3.93514
G1 X94.521 Y94.497 E4.07880
G1 X94.310 Y94.296 E4.16631
G1 X93.550 Y93.785 E4.44066
G1 X93.185 Y93.607 E4.56243
G1 X92.687 Y93.424 E4.72147
G1 X92.104 Y93.262 E4.90264
G1 X91.693 Y93.187 E5.02801
G1 X90.562 Y93.097 E5.36784
G1 X89.477 Y93.182 E5.69391
G1 X89.034 Y93.262 E5.82880
G1 X88.518 Y93.406 E5.98946
G1 X88.000 Y93.597 E6.15493
G1 X87.679 Y93.750 E6.26143
G1 X86.919 Y94.270 E6.53725
G1 X86.705 Y94.476 E6.62624
G1 X86.431 Y94.786 E6.75028
G1 X85.975 Y95.433 E6.98747
G1 X85.669 Y96.193 E7.23304
G1 X85.554 Y96.587 E7.35605
G1 X85.463 Y97.045 E7.49584
G1 X85.376 Y98.101 E7.81328
G1 X85.374 Y107.744 E10.70287
G92 E0
G1 Z0.900 F7800.000
G1 X106.737 Y103.008 F7800.000
G1 X105.840 Y98.671 E1.32720 F600.000
G1 X105.840 Y92.448 E3.19190
G1 X105.876 Y93.448 F7800.000
G1 X105.840 Y93.483 F7800.000
G1 X105.840 Y106.708 F7800.000
G1 X105.876 Y106.744 F7800.000
G1 X115.662 Y106.898 F7800.000
G1 X106.876 Y106.898 E5.82459 F600.000
G1 X105.921 Y106.628 E6.12204
G1 X105.840 Y106.052 E6.29639
G1 X105.840 Y100.384 E7.99479
G1 X106.017 Y99.527 E8.25686
G1 X115.401 Y99.527 E11.06856
G92 E0
G1 X116.662 Y107.744 F7800.000
G1 X102.805 Y107.744 F7800.000
G1 X98.970 Y107.744 F7800.000
G1 X96.970 Y107.744 F7800.000
G1 X95.940 Y107.744 F7800.000
G1 X95.938 Y98.255 E2.84325 F600.000
G1 X95.848 Y97.203 E3.15975
G1 X95.744 Y96.677 E3.32028
G1 X95.636 Y96.316 E3.43319
G1 X95.316 Y95.526 E3.68879
G1 X94.841 Y94.854 E3.93514
G1 X94.521 Y94.497 E4.07880
G1 X94.310 Y94.296 E4.16631
G1 X93.550 Y93.785 E4.44066
G1 X93.185 Y93.607 E4.56243
G1 X92.687 Y93.424 E4.72147
G1 X92.104 Y93.262 E4.90264
G1 X91.693 Y93.187 E5.02801
G1 X90.562 Y93.097 E5.36783
G1 X89.477 Y93.182 E5.69391
G1 X89.034 Y93.262 E5.82881
G1 X88.518 Y93.406 E5.98946
G1 X88.000 Y93.597 E6.15493
G1 X87.679 Y93.750 E6.26143
G1 X86.919 Y94.270 E6.53725
G1 X86.705 Y94.476 E6.62624
G1 X86.431 Y94.786 E6.75028
G1 X85.975 Y95.433 E6.98747
G1 X85.669 Y96.193 E7.23305
G1 X85.554 Y96.587 E7.35605
G1 X85.463 Y97.045 E7.49584
G1 X85.376 Y98.101 E7.81328
G1 X85.374 Y107.744 E10.70287
G92 E0
G1 Z1.200 F7800.000
G1 X106.737 Y103.008 F7800.000
G1 X105.840 Y98.671 E1.32720 F600.000
G1 X105.840 Y92.448 E3.19190
G1 X105.876 Y93.448 F7800.000
G1 X105.840 Y93.483 F7800.000
G1 X105.840 Y106.708 F7800.000
G1 X105.876 Y106.744 F7800.000
G1 X115.662 Y106.898 F7800.000
G1 X106.876 Y106.898 E5.82459 F600.000
G1 X105.921 Y106.628 E6.12204
G1 X105.840 Y106.052 E6.29639
G1 X105.840 Y100.384 E7.99479
G1 X106.017 Y99.527 E8.25686
G1 X115.401 Y99.527 E11.06856
G92 E0
G1 X116.662 Y107.744 F7800.000
G1 X102.805 Y107.744 F7800.000
G1 X98.970 Y107.744 F7800.000
G1 X96.970 Y107.744 F7800.000
G1 X95.940 Y107.744 F7800.000
G1 X95.938 Y98.255 E2.84325 F600.000
G1 X95.848 Y97.203 E3.15975
G1 X95.744 Y96.677 E3.32028
G1 X95.636 Y96.316 E3.43319
G1 X95.316 Y95.526 E3.68879
G1 X94.841 Y94.854 E3.93514
G1 X94.521 Y94.497 E4.07880
G1 X94.310 Y94.296 E4.16631
G1 X93.550 Y93.785 E4.44066
G1 X93.185 Y93.607 E4.56243
G1 X92.687 Y93.424 E4.72147
G1 X92.104 Y93.262 E4.90264
G1 X91.693 Y93.187 E5.02801
G1 X90.562 Y93.097 E5.36784
G1 X89.477 Y93.182 E5.69391
G1 X89.034 Y93.262 E5.82881
G1 X88.518 Y93.406 E5.98946
G1 X88.000 Y93.597 E6.15493
G1 X87.679 Y93.750 E6.26143
G1 X86.919 Y94.270 E6.53725
G1 X86.705 Y94.476 E6.62624
G1 X86.431 Y94.786 E6.75028
G1 X85.975 Y95.433 E6.98747
G1 X85.669 Y96.193 E7.23305
G1 X85.554 Y96.587 E7.35605
G1 X85.463 Y97.045 E7.49584
G1 X85.376 Y98.101 E7.81328
G1 X85.374 Y107.744 E10.70287
G92 E0
G1 Z1.500 F7800.000
G1 X106.737 Y103.008 F7800.000
G1 X105.840 Y98.671 E1.32720 F600.000
G1 X105.840 Y92.448 E3.19190
G1 X105.876 Y93.448 F7800.000
G1 X105.840 Y93.483 F7800.000
G1 X105.840 Y106.708 F7800.000
G1 X105.876 Y106.744 F7800.000
G1 X115.662 Y106.898 F7800.000
G1 X106.876 Y106.898 E5.82459 F600.000
G1 X105.921 Y106.628 E6.12204
G1 X105.840 Y106.052 E6.29639
G1 X105.840 Y100.384 E7.99479
G1 X106.017 Y99.527 E8.25686
G1 X115.401 Y99.527 E11.06856
G92 E0
G1 X116.662 Y107.744 F7800.000
G1 X102.805 Y107.744 F7800.000
G1 X98.970 Y107.744 F7800.000
G1 X96.970 Y107.744 F7800.000
G1 X95.940 Y107.744 F7800.000
G1 X95.938 Y98.255 E2.84325 F600.000
G1 X95.848 Y97.203 E3.15975
G1 X95.744 Y96.677 E3.32028
G1 X95.636 Y96.316 E3.43319
G1 X95.316 Y95.526 E3.68879
G1 X94.841 Y94.854 E3.93514
G1 X94.521 Y94.497 E4.07880
G1 X94.310 Y94.296 E4.16631
G1 X93.550 Y93.785 E4.44066
G1 X93.185 Y93.607 E4.56243
G1 X92.687 Y93.424 E4.72147
G1 X92.104 Y93.262 E4.90264
G1 X91.693 Y93.187 E5.02801
G1 X90.562 Y93.097 E5.36783
G1 X89.477 Y93.182 E5.69391
G1 X89.034 Y93.262 E5.82881
G1 X88.518 Y93.406 E5.98946
G1 X88.000 Y93.597 E6.15493
G1 X87.679 Y93.750 E6.26143
G1 X86.919 Y94.270 E6.53725
G1 X86.705 Y94.476 E6.62624
G1 X86.431 Y94.786 E6.75028
G1 X85.975 Y95.433 E6.98747
G1 X85.669 Y96.193 E7.23305
G1 X85.554 Y96.587 E7.35605
G1 X85.463 Y97.045 E7.49584
G1 X85.376 Y98.101 E7.81328
G1 X85.374 Y107.744 E10.70287
G92 E0
G1 Z1.800 F7800.000
G1 X106.737 Y103.008 F7800.000
G1 X105.840 Y98.671 E1.32720 F600.000
G1 X105.840 Y92.448 E3.19190
G1 X105.876 Y93.448 F7800.000
G1 X105.840 Y93.483 F7800.000
G1 X105.840 Y106.708 F7800.000
G1 X105.876 Y106.744 F7800.000
G1 X115.662 Y106.898 F7800.000
G1 X106.876 Y106.898 E5.82459 F600.000
G1 X105.921 Y106.628 E6.12204
G1 X105.840 Y106.052 E6.29639
G1 X105.840 Y100.384 E7.99479
G1 X106.017 Y99.527 E8.25686
G1 X115.401 Y99.527 E11.06856
G92 E0
G1 X116.662 Y107.744 F7800.000
G1 X102.805 Y107.744 F7800.000
G1 X98.970 Y107.744 F7800.000
G1 X96.970 Y107.744 F7800.000
G1 X95.940 Y107.744 F7800.000
G1 X95.938 Y98.255 E2.84325 F600.000
G1 X95.848 Y97.203 E3.15975
G1 X95.744 Y96.677 E3.32028
G1 X95.636 Y96.316 E3.43319
G1 X95.316 Y95.526 E3.68879
G1 X94.841 Y94.854 E3.93514
G1 X94.521 Y94.497 E4.07880
G1 X94.310 Y94.296 E4.16631
G1 X93.550 Y93.785 E4.44066
