; generated by Slic3r 1.2.9 on 2016-03-11 at 01:30:53

; external perimeters extrusion width = 1.54mm
; perimeters extrusion width = 2.62mm
; infill extrusion width = 6.27mm
; solid infill extrusion width = 2.62mm
; top infill extrusion width = 2.62mm

M107
M104 S30 ; set temperature
G28 ; home all axes
G1 Z5 F5000 ; lift nozzle
M302
M92 E10000
M500
M501
G1 E100
M109 S30 ; wait for temperature to be reached
G21 ; set units to millimeters
G90 ; use absolute coordinates
M82 ; use absolute distances for extrusion
G92 E0
G1 Z0.300 F7800.000
G1 X115.449 Y95.870 F7800.000
G1 X115.449 Y95.430 E0.01991 F378.000
G1 X114.764 Y94.866 E0.06008
G1 X114.035 Y94.436 E0.09834
G1 X113.199 Y94.084 E0.13939
G1 X112.287 Y93.824 E0.18231
G1 X111.331 Y93.668 E0.22615
G1 X110.324 Y93.615 E0.27176
G1 X108.652 Y93.806 E0.34794
G1 X107.220 Y94.387 E0.41784
G1 X106.050 Y95.358 E0.48664
G1 X105.189 Y96.660 E0.55725
G1 X104.677 Y98.231 E0.63203
G1 X104.507 Y100.064 E0.71535
G1 X104.667 Y101.895 E0.79848
G1 X105.149 Y103.443 E0.87188
G1 X105.962 Y104.705 E0.93980
G1 X107.089 Y105.636 E1.00591
G1 X108.499 Y106.191 E1.07450
G1 X110.174 Y106.374 E1.15075
G1 X111.282 Y106.306 E1.20100
G1 X112.267 Y106.102 E1.24647
G1 X113.131 Y105.758 E1.28858
G1 X113.880 Y105.261 E1.32927
G1 X114.512 Y104.600 E1.37063
G1 X114.922 Y103.944 E1.40565
G1 X116.459 Y104.397 E1.47815
G1 X115.961 Y105.266 E1.52346
G1 X115.180 Y106.137 E1.57640
G1 X114.247 Y106.789 E1.62791
G1 X113.128 Y107.245 E1.68259
G1 X111.790 Y107.522 E1.74440
G1 X110.238 Y107.614 E1.81477
G1 X108.055 Y107.393 E1.91403
G1 X106.244 Y106.736 E2.00123
G1 X104.788 Y105.648 E2.08349
G1 X103.718 Y104.161 E2.16637
G1 X103.073 Y102.303 E2.25537
G1 X102.855 Y100.062 E2.35726
G1 X102.955 Y98.552 E2.42572
G1 X103.252 Y97.183 E2.48911
G1 X103.746 Y95.956 E2.54894
G1 X104.425 Y94.893 E2.60604
G1 X105.277 Y94.012 E2.66151
G1 X106.306 Y93.309 E2.71788
G1 X107.498 Y92.797 E2.77659
G1 X108.839 Y92.489 E2.83885
G1 X110.333 Y92.385 E2.90659
G1 X111.512 Y92.452 E2.96002
G1 X111.646 Y92.459 E2.96611 F378.000
G1 X112.893 Y92.680 E3.02341
G1 X114.073 Y93.048 E3.07936
G1 X115.160 Y93.550 E3.13353
G1 X116.126 Y94.172 E3.18548
G1 X116.907 Y94.857 E3.23251
G1 X116.907 Y99.807 E3.45650
G1 X110.881 Y99.807 E3.72917
G1 X110.881 Y98.522 E3.78732
G1 X115.449 Y98.522 E3.99402
G1 X115.449 Y96.101 E4.10358
G1 X116.681 Y95.656 F7800.000
G1 X114.621 Y93.597 E4.23631 F540.000
G1 X114.106 Y94.180 F7800.000
G1 X112.864 Y92.937 E4.31634 F540.000
G1 X112.176 Y92.798 E4.34833
G1 X113.201 Y93.823 E4.41435
G1 X113.662 Y93.186 F7800.000
G1 X116.681 Y96.206 E4.60890 F540.000
G1 X116.681 Y96.755 E4.63392
G1 X115.675 Y95.749 E4.69875
G1 X115.675 Y96.298 E4.72377
G1 X116.681 Y97.304 E4.78859
G1 X116.681 Y97.853 E4.81361
G1 X115.675 Y96.847 E4.87844
G1 X115.675 Y97.396 E4.90346
G1 X116.681 Y98.402 E4.96829
G1 X116.681 Y98.951 E4.99331
G1 X115.675 Y97.945 E5.05813
G1 X115.675 Y98.494 E5.08315
G1 X116.681 Y99.500 E5.14798
G1 X116.213 Y99.581 E5.16964
G1 X115.380 Y98.748 E5.22332
G1 X114.831 Y98.748 E5.24834
G1 X115.664 Y99.581 E5.30202
G1 X115.115 Y99.581 E5.32703
G1 X114.282 Y98.748 E5.38071
G1 X113.733 Y98.748 E5.40573
G1 X114.566 Y99.581 E5.45941
G1 X114.017 Y99.581 E5.48443
G1 X113.183 Y98.748 E5.53811
G1 X112.634 Y98.748 E5.56313
G1 X113.467 Y99.581 E5.61681
G1 X112.918 Y99.581 E5.64183
G1 X112.085 Y98.748 E5.69551
G1 X111.536 Y98.748 E5.72053
G1 X112.369 Y99.581 E5.77421
G1 X111.820 Y99.581 E5.79923
G1 X111.107 Y98.868 E5.84515
G92 E0
G1 X105.267 Y95.137 F7800.000
G1 X105.267 Y95.137 F7800.000
G1 X111.776 Y93.497 F7800.000
G1 X110.929 Y92.650 E0.05457 F540.000
G1 X111.511 Y92.683 E0.08112
G1 X112.432 Y93.604 E0.14049
G1 X111.158 Y93.428 F7800.000
G1 X110.347 Y92.617 E0.19272 F540.000
G1 X109.823 Y92.642 E0.21665
G1 X110.579 Y93.398 E0.26538
G1 X110.059 Y93.427 E0.28911
G1 X109.309 Y92.677 E0.33741
G1 X108.797 Y92.714 E0.36082
G1 X109.566 Y93.483 E0.41040
G1 X109.073 Y93.540 E0.43300
G1 X108.350 Y92.817 E0.47959
G1 X107.904 Y92.919 E0.50046
G1 X108.596 Y93.612 E0.54508
G1 X108.206 Y93.770 E0.56428
G1 X107.465 Y93.030 E0.61200
G1 X107.081 Y93.195 E0.63105
G1 X107.815 Y93.929 E0.67836
G1 X107.425 Y94.087 E0.69757
G1 X106.697 Y93.359 E0.74447
G1 X106.322 Y93.534 E0.76331
G1 X107.059 Y94.271 E0.81082
G1 X106.759 Y94.520 E0.82859
G1 X105.995 Y93.756 E0.87778
G1 X105.669 Y93.979 E0.89579
G1 X106.459 Y94.769 E0.94667
G1 X106.159 Y95.018 E0.96444
G1 X105.365 Y94.224 E1.01556
G1 X105.091 Y94.499 E1.03325
G1 X105.870 Y95.278 E1.08346
G1 X105.651 Y95.609 E1.10151
G1 X104.816 Y94.774 E1.15533
G1 X104.551 Y95.058 E1.17303
G1 X105.433 Y95.939 E1.22984
G1 X105.214 Y96.270 E1.24789
G1 X104.337 Y95.393 E1.30440
G1 X104.123 Y95.728 E1.32252
G1 X104.995 Y96.600 E1.37873
G1 X104.859 Y97.013 E1.39852
G1 X103.917 Y96.071 E1.45921
G1 X103.759 Y96.463 E1.47844
G1 X104.724 Y97.427 E1.54058
G1 X104.589 Y97.841 E1.56042
G1 X103.602 Y96.854 E1.62401
G1 X103.452 Y97.254 E1.64345
G1 X104.455 Y98.256 E1.70804
G1 X104.408 Y98.759 E1.73104
G1 X103.354 Y97.705 E1.79897
G1 X103.256 Y98.156 E1.82000
G1 X104.362 Y99.261 E1.89125
G1 X104.315 Y99.764 E1.91425
G1 X103.171 Y98.620 E1.98797
G1 X103.137 Y99.135 E2.01149
G1 X104.293 Y100.291 E2.08595
G1 X104.345 Y100.892 E2.11346
G1 X103.103 Y99.650 E2.19348
G1 X103.104 Y100.200 E2.21852
G1 X104.398 Y101.494 E2.30189
G1 X104.469 Y102.114 E2.33036
G1 X103.163 Y100.808 E2.41454
G1 X103.222 Y101.416 E2.44238
G1 X104.718 Y102.912 E2.53877
G1 X105.016 Y103.760 F7800.000
G1 X103.281 Y102.024 E2.65060 F540.000
G1 X103.523 Y102.816 E2.68832
G1 X107.694 Y106.987 E2.95708
G1 X108.454 Y107.198 E2.99301
G1 X107.229 Y105.972 E3.07196
G1 X106.833 Y106.675 F7800.000
G1 X103.816 Y103.658 E3.26637 F540.000
G1 X104.855 Y105.246 F7800.000
G1 X105.205 Y105.596 E3.28893 F540.000
G1 X108.135 Y106.329 F7800.000
G1 X109.065 Y107.260 E3.34889 F540.000
G1 X109.676 Y107.322 E3.37688
G1 X108.817 Y106.463 E3.43222
G1 X109.434 Y106.530 E3.46046
G1 X110.287 Y107.383 E3.51547
G1 X110.812 Y107.358 E3.53937
G1 X110.050 Y106.597 E3.58844
G1 X110.573 Y106.571 E3.61231
G1 X111.330 Y107.328 E3.66106
G1 X111.846 Y107.295 E3.68463
G1 X111.091 Y106.539 E3.73330
G1 X111.564 Y106.463 E3.75513
G1 X112.301 Y107.201 E3.80264
G1 X112.756 Y107.106 E3.82381
G1 X112.019 Y106.369 E3.87133
G1 X112.446 Y106.248 E3.89158
G1 X113.198 Y106.999 E3.94003
G1 X113.588 Y106.840 E3.95922
G1 X112.839 Y106.091 E4.00749
G1 X113.226 Y105.929 E4.02660
G1 X113.978 Y106.681 E4.07509
G1 X114.336 Y106.490 E4.09358
G1 X113.556 Y105.710 E4.14388
G1 X113.886 Y105.490 E4.16193
G1 X114.660 Y106.265 E4.21181
G1 X114.980 Y106.036 E4.22974
G1 X114.175 Y105.231 E4.28162
G1 X114.443 Y104.950 E4.29932
G1 X115.255 Y105.761 E4.35159
G1 X115.516 Y105.474 E4.36930
G1 X114.704 Y104.661 E4.42167
G1 X114.915 Y104.323 E4.43982
G1 X115.776 Y105.184 E4.49528
G1 X115.980 Y104.839 E4.51355
G1 X115.526 Y104.385 E4.54279
G92 E0
G1 X115.267 Y104.854 F7800.000
G1 X115.267 Y104.854 F7800.000
G1 X116.681 Y95.107 F7800.000
G1 X116.283 Y94.709 E0.02569 F540.000
G92 E0
G1 X107.428 Y92.583 F7800.000
G1 X103.572 Y92.330 F7800.000
G1 X99.701 Y94.305 F7800.000
G1 X99.320 Y94.849 F7800.000
G1 X95.149 Y95.877 F7800.000
G1 X94.428 Y94.916 F7800.000
G1 X94.516 Y95.038 E0.00684 F378.000
G1 X94.936 Y95.951 E0.05231
G1 X95.189 Y96.978 E0.10015
G1 X95.275 Y98.129 E0.15241
G1 X95.275 Y107.423 E0.57294
G1 X93.664 Y107.423 E0.64583
G1 X93.664 Y98.230 E1.06180
G1 X93.533 Y96.869 E1.12366
G1 X93.130 Y95.719 E1.17882
G1 X92.452 Y94.800 E1.23050
G1 X91.530 Y94.138 E1.28185
G1 X90.403 Y93.744 E1.33585
G1 X89.080 Y93.615 E1.39604
G1 X87.795 Y93.740 E1.45444
G1 X86.712 Y94.122 E1.50640
G1 X85.841 Y94.765 E1.55541
G1 X85.209 Y95.657 E1.60484
G1 X84.835 Y96.771 E1.65803
G1 X84.714 Y98.090 E1.71795
G1 X84.714 Y107.423 E2.14028
G1 X83.093 Y107.423 E2.21363
G1 X83.093 Y97.934 E2.64298
G1 X83.176 Y96.818 E2.69364
G1 X83.424 Y95.824 E2.73999
G1 X83.833 Y94.941 E2.78404
G1 X84.391 Y94.179 E2.82676
G1 X85.082 Y93.548 E2.86911
G1 X85.910 Y93.046 E2.91293
G1 X86.862 Y92.680 E2.95907
G1 X87.922 Y92.459 E3.00807
G1 X89.092 Y92.385 E3.06109
G1 X90.183 Y92.455 E3.11059
G1 X90.307 Y92.462 E3.11621 F378.000
G1 X91.405 Y92.692 E3.16695
G1 X92.385 Y93.072 E3.21454
G1 X93.236 Y93.594 E3.25970
G1 X93.945 Y94.249 E3.30337
G1 X94.293 Y94.728 E3.33016
G1 X93.870 Y94.638 F7800.000
G1 X93.265 Y94.033 E3.36888 F540.000
G1 X91.819 Y93.133 F7800.000
G1 X94.645 Y95.958 E3.54972 F540.000
G1 X94.873 Y96.732 E3.58622
G1 X90.998 Y92.857 E3.83425
G1 X90.308 Y92.712 E3.86613
G1 X91.423 Y93.827 E3.93749
G1 X90.585 Y93.535 F7800.000
G1 X89.706 Y92.656 E3.99374 F540.000
G1 X89.124 Y92.619 E4.02014
G1 X89.972 Y93.467 E4.07437
G1 X89.367 Y93.408 E4.10185
G1 X88.598 Y92.638 E4.15110
G1 X88.085 Y92.671 E4.17436
G1 X88.834 Y93.419 E4.22229
G1 X88.337 Y93.468 E4.24488
G1 X87.609 Y92.740 E4.29146
G1 X87.157 Y92.834 E4.31233
G1 X87.840 Y93.516 E4.35599
G1 X87.431 Y93.653 E4.37549
G1 X86.727 Y92.949 E4.42056
G1 X86.333 Y93.100 E4.43966
G1 X87.027 Y93.795 E4.48414
G1 X86.630 Y93.942 E4.50335
G1 X85.942 Y93.255 E4.54734
G1 X85.603 Y93.461 E4.56531
G1 X86.316 Y94.174 E4.61096
G1 X86.002 Y94.406 E4.62861
G1 X85.263 Y93.667 E4.67592
G1 X84.965 Y93.915 E4.69344
G1 X85.692 Y94.641 E4.73993
G1 X85.466 Y94.960 E4.75763
G1 X84.688 Y94.183 E4.80736
G1 X84.423 Y94.463 E4.82482
G1 X85.239 Y95.279 E4.87707
G1 X85.013 Y95.599 E4.89477
G1 X84.192 Y94.778 E4.94730
G1 X83.976 Y95.107 E4.96512
G1 X84.876 Y96.007 E5.02274
G1 X84.739 Y96.415 E5.04223
G1 X83.803 Y95.479 E5.10215
G1 X83.631 Y95.853 E5.12076
G1 X84.610 Y96.832 E5.18340
G1 X84.564 Y97.331 E5.20609
G1 X83.523 Y96.290 E5.27273
G1 X83.414 Y96.726 E5.29310
G1 X84.518 Y97.830 E5.36374
G1 X84.488 Y98.345 E5.38710
G1 X83.367 Y97.224 E5.45885
G1 X83.329 Y97.732 E5.48188
G1 X84.488 Y98.891 E5.55606
G1 X84.488 Y99.436 E5.58074
G1 X83.319 Y98.267 E5.65556
G1 X83.319 Y98.812 E5.68024
G1 X84.488 Y99.982 E5.75506
G1 X84.488 Y100.527 E5.77975
G1 X83.319 Y99.358 E5.85457
G1 X83.319 Y99.903 E5.87925
G1 X84.488 Y101.072 E5.95407
G1 X84.488 Y101.618 E5.97875
G1 X83.319 Y100.449 E6.05357
G1 X83.319 Y100.994 E6.07825
G1 X84.488 Y102.163 E6.15307
G1 X84.488 Y102.709 E6.17775
G1 X83.319 Y101.539 E6.25257
G1 X83.319 Y102.085 E6.27725
G1 X84.488 Y103.254 E6.35207
G1 X84.488 Y103.799 E6.37675
G1 X83.319 Y102.630 E6.45157
G1 X83.319 Y103.176 E6.47626
G1 X84.488 Y104.345 E6.55108
G1 X84.488 Y104.890 E6.57576
G1 X83.319 Y103.721 E6.65058
G1 X83.319 Y104.266 E6.67526
G1 X84.488 Y105.436 E6.75008
G1 X84.488 Y105.981 E6.77476
G1 X83.319 Y104.812 E6.84958
G1 X83.319 Y105.357 E6.87426
G1 X84.488 Y106.526 E6.94908
G1 X84.488 Y107.072 E6.97376
G1 X83.319 Y105.903 E7.04858
G1 X83.319 Y106.448 E7.07326
G1 X84.068 Y107.197 E7.12120
G1 X83.522 Y107.197 E7.14588
G1 X83.319 Y106.993 E7.15891
G92 E0
G1 X83.939 Y106.648 F7800.000
G1 X83.939 Y106.648 F7800.000
G1 X93.890 Y106.656 F7800.000
G1 X94.430 Y107.197 E0.03459 F540.000
G1 X94.976 Y107.197 E0.05928
G1 X93.890 Y106.111 E0.12877
G1 X93.890 Y105.566 E0.15346
G1 X95.049 Y106.725 E0.22764
G1 X95.049 Y106.179 E0.25232
G1 X93.890 Y105.020 E0.32650
G1 X93.890 Y104.475 E0.35118
G1 X95.049 Y105.634 E0.42536
G1 X95.049 Y105.089 E0.45004
G1 X93.890 Y103.929 E0.52422
G1 X93.890 Y103.384 E0.54890
G1 X95.049 Y104.543 E0.62308
G1 X95.049 Y103.998 E0.64776
G1 X93.890 Y102.839 E0.72194
G1 X93.890 Y102.293 E0.74662
G1 X95.049 Y103.452 E0.82080
G1 X95.049 Y102.907 E0.84548
G1 X93.890 Y101.748 E0.91966
G1 X93.890 Y101.202 E0.94434
G1 X95.049 Y102.362 E1.01852
G1 X95.049 Y101.816 E1.04320
G1 X93.890 Y100.657 E1.11738
G1 X93.890 Y100.112 E1.14206
G1 X95.049 Y101.271 E1.21624
G1 X95.049 Y100.725 E1.24092
G1 X93.890 Y99.566 E1.31510
G1 X93.890 Y99.021 E1.33979
G1 X95.049 Y100.180 E1.41396
G1 X95.049 Y99.635 E1.43865
G1 X93.890 Y98.475 E1.51283
G1 X93.868 Y97.908 E1.53851
G1 X95.049 Y99.089 E1.61408
G1 X95.049 Y98.544 E1.63876
G1 X93.810 Y97.305 E1.71805
G1 X93.744 Y96.694 E1.74587
G1 X95.031 Y97.980 E1.82822
G1 X94.987 Y97.391 E1.85496
G1 X93.450 Y95.855 E1.95329
M106 S255
G92 E0
G1 Z0.600 F7800.000
G1 X115.918 Y104.003 F7800.000
G1 X115.047 Y105.143 E0.42993 F600.000
G1 X114.665 Y105.556 E0.59836
G1 X114.433 Y105.755 E0.68994
G1 X113.893 Y106.138 E0.88840
G1 X113.537 Y106.326 E1.00906
G1 X112.926 Y106.582 E1.20743
G1 X112.379 Y106.740 E1.37822
G1 X111.705 Y106.879 E1.58430
G1 X111.425 Y106.916 E1.66885
G1 X110.251 Y106.991 E2.02148
G1 X110.089 Y106.982 E2.07023
G1 X108.462 Y106.811 E2.56037
G1 X108.238 Y106.772 E2.62851
G1 X106.880 Y106.264 E3.06302
G1 X106.623 Y106.143 E3.14797
G1 X105.525 Y105.289 E3.56479
G1 X105.331 Y105.114 E3.64303
G1 X104.502 Y103.897 E4.08442
G1 X104.433 Y103.789 E4.12263
G1 X104.382 Y103.650 E4.16696
G1 X103.880 Y102.126 E4.64788
G1 X103.690 Y100.156 E5.24098
G1 X103.688 Y99.968 E5.29712
G1 X103.791 Y98.670 E5.68749
G1 X103.914 Y97.955 E5.90469
G1 X104.056 Y97.430 E6.06773
G1 X104.462 Y96.325 E6.42053
G1 X105.060 Y95.395 E6.75200
G1 X105.402 Y94.969 E6.91539
G1 X105.772 Y94.598 E7.07249
G1 X106.650 Y93.936 E7.40216
G1 X106.998 Y93.748 E7.52064
G1 X107.712 Y93.450 E7.75227
G1 X108.611 Y93.182 E8.03358
G1 X108.934 Y93.127 E8.13175
G1 X110.337 Y93.001 E8.55369
G1 X111.442 Y93.063 E8.88546
G1 X112.374 Y93.214 E9.16812
G1 X112.743 Y93.296 E9.28159
G1 X113.358 Y93.480 E9.47385
G1 X113.841 Y93.653 E9.62751
G1 X114.374 Y93.893 E9.80268
G1 X114.839 Y94.136 E9.95988
G1 X115.084 Y94.288 E10.04643
G1 X115.810 Y94.823 E10.31674
G1 X116.149 Y95.201 E10.46870
G1 X116.178 Y95.536 E10.56953
G1 X116.178 Y98.297 E11.39686
G1 X116.062 Y98.962 E11.59915
G1 X111.524 Y99.164 E12.96047
G1 X117.132 Y99.164 E14.64104
G92 E0
G1 X110.656 Y100.032 F7800.000
G1 X110.656 Y100.032 F7800.000
G1 X110.656 Y103.073 F7800.000
G1 X110.850 Y103.067 F7800.000
G1 X111.341 Y103.016 F7800.000
G1 X111.663 Y102.955 F7800.000
G1 X111.891 Y102.886 F7800.000
G1 X112.161 Y102.771 F7800.000
G1 X112.802 Y102.415 F7800.000
G1 X115.349 Y101.894 F7800.000
G1 X117.028 Y102.136 F7800.000
G1 X117.311 Y102.515 F7800.000
G1 X117.881 Y104.885 F7800.000
G1 X117.532 Y106.195 F7800.000
G1 X117.420 Y106.540 F7800.000
G1 X116.981 Y107.689 F7800.000
G1 X116.910 Y107.721 F7800.000
G1 X116.442 Y107.899 F7800.000
G1 X115.253 Y108.273 F7800.000
G1 X114.914 Y108.359 F7800.000
G1 X113.660 Y108.605 F7800.000
G1 X113.437 Y108.638 F7800.000
G1 X112.034 Y108.782 F7800.000
G1 X111.882 Y108.792 F7800.000
G1 X110.293 Y108.839 F7800.000
G1 X110.132 Y108.837 F7800.000
G1 X107.892 Y108.724 F7800.000
G1 X107.614 Y108.693 F7800.000
G1 X105.626 Y108.343 F7800.000
G1 X105.170 Y108.228 F7800.000
G1 X103.284 Y107.601 F7800.000
G1 X102.558 Y107.294 F7800.000
G1 X100.659 Y106.320 F7800.000
G1 X99.637 Y105.703 F7800.000
G1 X97.692 Y107.648 F7800.000
G1 X95.500 Y107.648 F7800.000
G1 X94.469 Y107.648 F7800.000
G1 X94.468 Y98.159 E2.84325 F600.000
G1 X94.378 Y97.107 E3.15975
G1 X94.273 Y96.581 E3.32028
G1 X94.166 Y96.220 E3.43319
G1 X93.845 Y95.430 E3.68879
G1 X93.371 Y94.758 E3.93514
G1 X93.051 Y94.401 E4.07880
G1 X92.840 Y94.200 E4.16631
G1 X92.080 Y93.689 E4.44066
G1 X91.714 Y93.511 E4.56243
G1 X91.216 Y93.328 E4.72147
G1 X90.634 Y93.166 E4.90264
G1 X90.222 Y93.091 E5.02801
G1 X89.092 Y93.001 E5.36784
G1 X88.007 Y93.086 E5.69391
G1 X87.564 Y93.166 E5.82880
G1 X87.047 Y93.310 E5.98946
G1 X86.529 Y93.501 E6.15493
G1 X86.209 Y93.654 E6.26143
G1 X85.449 Y94.174 E6.53725
G1 X85.235 Y94.380 E6.62624
G1 X84.961 Y94.690 E6.75028
G1 X84.505 Y95.337 E6.98747
G1 X84.198 Y96.097 E7.23304
G1 X84.084 Y96.491 E7.35605
G1 X83.992 Y96.949 E7.49584
G1 X83.905 Y98.005 E7.81328
G1 X83.903 Y107.648 E10.70287
G92 E0
G1 Z0.900 F7800.000
G1 X115.918 Y104.003 F7800.000
G1 X115.047 Y105.143 E0.42993 F600.000
G1 X114.665 Y105.556 E0.59836
G1 X114.433 Y105.755 E0.68994
G1 X113.893 Y106.138 E0.88840
G1 X113.537 Y106.326 E1.00906
G1 X112.926 Y106.582 E1.20743
G1 X112.379 Y106.740 E1.37822
G1 X111.705 Y106.879 E1.58430
G1 X111.425 Y106.916 E1.66885
G1 X110.251 Y106.991 E2.02148
G1 X110.089 Y106.982 E2.07023
G1 X108.462 Y106.811 E2.56037
G1 X108.238 Y106.772 E2.62851
G1 X106.880 Y106.264 E3.06302
G1 X106.623 Y106.143 E3.14797
