; generated by Slic3r 1.2.9 on 2016-03-11 at 01:30:54

; external perimeters extrusion width = 1.54mm
; perimeters extrusion width = 2.62mm
; infill extrusion width = 6.27mm
; solid infill extrusion width = 2.62mm
; top infill extrusion width = 2.62mm

M107
M104 S30 ; set temperature
G28 ; home all axes
G1 Z5 F5000 ; lift nozzle
M302
M92 E10000
M500
M501
G1 E100
M109 S30 ; wait for temperature to be reached
G21 ; set units to millimeters
G90 ; use absolute coordinates
M82 ; use absolute distances for extrusion
G92 E0
G1 Z0.300 F7800.000
G1 X105.868 Y105.347 F7800.000
G1 X105.868 Y107.519 E0.09826 F378.000
G1 X104.247 Y107.519 E0.17161
G1 X104.247 Y92.673 E0.84338
G1 X105.868 Y92.673 E0.91673
G1 X105.868 Y99.770 E1.23787
G1 X114.601 Y99.770 E1.63303 F378.000
G1 X114.601 Y92.673 E1.95416
G1 X116.222 Y92.673 E2.02751
G1 X116.222 Y107.519 E2.69928
G1 X114.601 Y107.519 E2.77263
G1 X114.601 Y101.055 E3.06512
G1 X105.868 Y101.055 E3.46028
G1 X105.868 Y105.116 E3.64406
G1 X104.473 Y107.089 F7800.000
G1 X104.677 Y107.293 E3.65731 F540.000
G1 X105.231 Y107.293 E3.68282
G1 X104.473 Y106.535 E3.73216
G1 X104.473 Y105.980 E3.75768
G1 X105.642 Y107.149 E3.83375
G1 X105.642 Y106.595 E3.85927
G1 X104.473 Y105.426 E3.93535
G1 X104.473 Y104.871 E3.96087
G1 X105.642 Y106.040 E4.03694
G1 X105.642 Y105.486 E4.06246
G1 X104.473 Y104.317 E4.13854
G1 X104.473 Y103.762 E4.16406
G1 X105.642 Y104.931 E4.24013
G1 X105.642 Y104.377 E4.26565
G1 X104.473 Y103.208 E4.34173
G1 X104.473 Y102.653 E4.36724
G1 X105.642 Y103.822 E4.44332
G1 X105.642 Y103.267 E4.46884
G1 X104.473 Y102.098 E4.54492
G1 X104.473 Y101.544 E4.57043
G1 X105.642 Y102.713 E4.64651
G1 X105.642 Y102.158 E4.67203
G1 X104.473 Y100.989 E4.74811
G1 X104.473 Y100.435 E4.77362
G1 X105.642 Y101.604 E4.84970
G1 X105.642 Y101.049 E4.87522
G1 X104.473 Y99.880 E4.95129
G1 X104.473 Y99.326 E4.97681
G1 X105.977 Y100.829 E5.07465
G1 X106.531 Y100.829 E5.10017
G1 X105.698 Y99.996 E5.15438
G1 X106.253 Y99.996 E5.17990
G1 X107.086 Y100.829 E5.23411
G1 X107.640 Y100.829 E5.25963
G1 X106.807 Y99.996 E5.31384
G1 X107.362 Y99.996 E5.33936
G1 X108.195 Y100.829 E5.39357
G1 X108.750 Y100.829 E5.41909
G1 X107.917 Y99.996 E5.47330
G1 X108.471 Y99.996 E5.49882
G1 X109.304 Y100.829 E5.55303
G1 X109.859 Y100.829 E5.57855
G1 X109.026 Y99.996 E5.63276
G1 X109.580 Y99.996 E5.65828
G1 X110.413 Y100.829 E5.71249
G1 X110.968 Y100.829 E5.73801
G1 X110.135 Y99.996 E5.79222
G1 X110.689 Y99.996 E5.81774
G1 X111.522 Y100.829 E5.87195
G1 X112.077 Y100.829 E5.89747
G1 X111.244 Y99.996 E5.95168
G1 X111.798 Y99.996 E5.97720
G1 X112.632 Y100.829 E6.03141
G1 X113.186 Y100.829 E6.05693
G1 X112.353 Y99.996 E6.11114
G1 X112.908 Y99.996 E6.13666
G1 X113.741 Y100.829 E6.19087
G1 X114.295 Y100.829 E6.21639
G1 X113.462 Y99.996 E6.27060
G1 X114.017 Y99.996 E6.29612
G1 X115.996 Y101.976 E6.42494
G1 X115.996 Y101.421 E6.45046
G1 X114.571 Y99.996 E6.54320
G1 X114.827 Y99.697 F7800.000
G1 X115.996 Y100.866 E6.61927 F540.000
G1 X115.996 Y100.312 E6.64479
G1 X114.827 Y99.143 E6.72087
G1 X114.827 Y98.588 E6.74638
G1 X115.996 Y99.757 E6.82246
G1 X115.996 Y99.203 E6.84798
G1 X114.827 Y98.034 E6.92406
G1 X114.827 Y97.479 E6.94957
G1 X115.996 Y98.648 E7.02565
G1 X115.996 Y98.094 E7.05117
G1 X114.827 Y96.925 E7.12725
G1 X114.827 Y96.370 E7.15276
G1 X115.996 Y97.539 E7.22884
G1 X115.996 Y96.985 E7.25436
G1 X114.827 Y95.815 E7.33043
G1 X114.827 Y95.261 E7.35595
G1 X115.996 Y96.430 E7.43203
G1 X115.996 Y95.875 E7.45755
G1 X114.827 Y94.706 E7.53362
G1 X114.827 Y94.152 E7.55914
G1 X115.996 Y95.321 E7.63522
G1 X115.996 Y94.766 E7.66074
G1 X114.827 Y93.597 E7.73681
G1 X114.827 Y93.043 E7.76233
G1 X115.996 Y94.212 E7.83841
G1 X115.996 Y93.657 E7.86392
G1 X115.238 Y92.899 E7.91326
G1 X115.793 Y92.899 E7.93878
G1 X115.996 Y93.103 E7.95203
G1 X114.827 Y101.361 F7800.000
G1 X115.996 Y102.530 E8.02811 F540.000
G1 X115.996 Y103.085 E8.05362
G1 X114.827 Y101.916 E8.12970
G1 X114.827 Y102.470 E8.15522
G1 X115.996 Y103.639 E8.23129
G1 X115.996 Y104.194 E8.25681
G1 X114.827 Y103.025 E8.33289
G1 X114.827 Y103.579 E8.35841
G1 X115.996 Y104.748 E8.43448
G1 X115.996 Y105.303 E8.46000
G1 X114.827 Y104.134 E8.53608
G1 X114.827 Y104.688 E8.56160
G1 X115.996 Y105.858 E8.63767
G1 X115.996 Y106.412 E8.66319
G1 X114.827 Y105.243 E8.73927
G1 X114.827 Y105.798 E8.76479
G1 X115.996 Y106.967 E8.84086
G1 X115.768 Y107.293 E8.85919
G1 X114.827 Y106.352 E8.92041
G1 X114.827 Y106.907 E8.94593
G1 X115.214 Y107.293 E8.97107
G92 E0
G1 X115.376 Y106.744 F7800.000
G1 X115.376 Y106.744 F7800.000
G1 X105.642 Y99.940 F7800.000
G1 X104.473 Y98.771 E0.07608 F540.000
G1 X104.473 Y98.216 E0.10159
G1 X105.642 Y99.386 E0.17767
G1 X105.642 Y98.831 E0.20319
G1 X104.473 Y97.662 E0.27927
G1 X104.473 Y97.107 E0.30478
G1 X105.642 Y98.276 E0.38086
G1 X105.642 Y97.722 E0.40638
G1 X104.473 Y96.553 E0.48246
G1 X104.473 Y95.998 E0.50797
G1 X105.642 Y97.167 E0.58405
G1 X105.642 Y96.613 E0.60957
G1 X104.473 Y95.444 E0.68565
G1 X104.473 Y94.889 E0.71116
G1 X105.642 Y96.058 E0.78724
G1 X105.642 Y95.504 E0.81276
G1 X104.473 Y94.334 E0.88883
G1 X104.473 Y93.780 E0.91435
G1 X105.642 Y94.949 E0.99043
G1 X105.642 Y94.394 E1.01595
G1 X104.473 Y93.225 E1.09202
G1 X104.701 Y92.899 E1.11035
G1 X105.642 Y93.840 E1.17158
G1 X105.642 Y93.285 E1.19709
G1 X105.256 Y92.899 E1.22224
G92 E0
G1 X106.093 Y99.545 F7800.000
G1 X110.235 Y94.397 F7800.000
G1 X106.093 Y91.352 F7800.000
G1 X101.830 Y92.448 F7800.000
G1 X100.001 Y96.076 F7800.000
G1 X100.098 Y97.926 F7800.000
G1 X96.185 Y98.217 F7800.000
G1 X94.349 Y105.345 F7800.000
G1 X94.349 Y98.326 E0.31758 F378.000
G1 X94.218 Y96.965 E0.37944
G1 X93.815 Y95.815 E0.43460
G1 X93.137 Y94.896 E0.48627
G1 X92.215 Y94.234 E0.53762
G1 X91.088 Y93.840 E0.59163
G1 X89.765 Y93.711 E0.65181
G1 X88.480 Y93.836 E0.71022
G1 X87.397 Y94.218 E0.76217
G1 X86.526 Y94.861 E0.81119
G1 X85.894 Y95.753 E0.86061
G1 X85.520 Y96.867 E0.91381
G1 X85.399 Y98.186 E0.97372
G1 X85.399 Y107.519 E1.39605
G1 X83.778 Y107.519 E1.46940
G1 X83.778 Y98.030 E1.89875
G1 X83.861 Y96.914 E1.94942
G1 X84.109 Y95.920 E1.99576
G1 X84.518 Y95.037 E2.03981
G1 X85.076 Y94.275 E2.08254
G1 X85.767 Y93.644 E2.12489
G1 X86.595 Y93.142 E2.16870
G1 X87.547 Y92.776 E2.21485
G1 X88.607 Y92.555 E2.26384
G1 X89.777 Y92.481 E2.31687
G1 X90.868 Y92.551 E2.36636
G1 X90.992 Y92.558 E2.37199 F378.000
G1 X92.090 Y92.788 E2.42272
G1 X93.070 Y93.168 E2.47031
G1 X93.921 Y93.690 E2.51547
G1 X94.630 Y94.345 E2.55914
G1 X95.201 Y95.134 E2.60323
G1 X95.621 Y96.047 E2.64870
G1 X95.874 Y97.074 E2.69654
G1 X95.960 Y98.225 E2.74880
G1 X95.960 Y107.519 E3.16933
G1 X94.349 Y107.519 E3.24222
G1 X94.349 Y105.576 E3.33016
G1 X94.575 Y106.752 F7800.000
G1 X95.115 Y107.293 E3.36476 F540.000
G1 X95.661 Y107.293 E3.38944
G1 X94.575 Y106.207 E3.45894
G1 X94.575 Y105.662 E3.48362
G1 X95.734 Y106.821 E3.55780
G1 X95.734 Y106.275 E3.58248
G1 X94.575 Y105.116 E3.65666
G1 X94.575 Y104.571 E3.68134
G1 X95.734 Y105.730 E3.75552
G1 X95.734 Y105.185 E3.78020
G1 X94.575 Y104.025 E3.85438
G1 X94.575 Y103.480 E3.87906
G1 X95.734 Y104.639 E3.95324
G1 X95.734 Y104.094 E3.97792
G1 X94.575 Y102.935 E4.05210
G1 X94.575 Y102.389 E4.07678
G1 X95.734 Y103.548 E4.15096
G1 X95.734 Y103.003 E4.17565
G1 X94.575 Y101.844 E4.24983
G1 X94.575 Y101.298 E4.27451
G1 X95.734 Y102.458 E4.34869
G1 X95.734 Y101.912 E4.37337
G1 X94.575 Y100.753 E4.44755
G1 X94.575 Y100.208 E4.47223
G1 X95.734 Y101.367 E4.54641
G1 X95.734 Y100.821 E4.57109
G1 X94.575 Y99.662 E4.64527
G1 X94.575 Y99.117 E4.66995
G1 X95.734 Y100.276 E4.74413
G1 X95.734 Y99.731 E4.76881
G1 X94.575 Y98.571 E4.84299
G1 X94.553 Y98.004 E4.86867
G1 X95.734 Y99.185 E4.94424
G1 X95.734 Y98.640 E4.96892
G1 X94.495 Y97.401 E5.04821
G1 X94.429 Y96.790 E5.07603
G1 X95.716 Y98.076 E5.15839
G1 X95.672 Y97.487 E5.18513
G1 X94.135 Y95.951 E5.28345
G1 X94.555 Y94.734 F7800.000
G1 X93.950 Y94.129 E5.32217 F540.000
G1 X92.504 Y93.229 F7800.000
G1 X95.330 Y96.054 E5.50301 F540.000
G1 X95.558 Y96.828 E5.53951
G1 X91.683 Y92.953 E5.78754
G1 X90.993 Y92.808 E5.81942
G1 X92.108 Y93.923 E5.89078
G1 X91.270 Y93.631 F7800.000
G1 X90.391 Y92.752 E5.94703 F540.000
G1 X89.809 Y92.715 E5.97343
G1 X90.657 Y93.563 E6.02766
G1 X90.052 Y93.504 E6.05514
G1 X89.283 Y92.734 E6.10439
G1 X88.770 Y92.767 E6.12765
G1 X89.519 Y93.515 E6.17558
G1 X89.022 Y93.564 E6.19817
G1 X88.294 Y92.836 E6.24475
G1 X87.842 Y92.930 E6.26562
G1 X88.525 Y93.612 E6.30928
G1 X88.116 Y93.749 E6.32878
G1 X87.412 Y93.045 E6.37385
G1 X87.018 Y93.196 E6.39295
G1 X87.712 Y93.891 E6.43743
G1 X87.315 Y94.038 E6.45664
G1 X86.627 Y93.351 E6.50063
G1 X86.288 Y93.557 E6.51860
G1 X87.001 Y94.270 E6.56425
G1 X86.687 Y94.502 E6.58190
G1 X85.948 Y93.763 E6.62921
G1 X85.650 Y94.011 E6.64673
G1 X86.377 Y94.737 E6.69322
G1 X86.151 Y95.056 E6.71092
G1 X85.373 Y94.279 E6.76065
G1 X85.108 Y94.559 E6.77811
G1 X85.924 Y95.375 E6.83036
G1 X85.698 Y95.695 E6.84806
G1 X84.877 Y94.874 E6.90059
G1 X84.661 Y95.203 E6.91841
G1 X85.561 Y96.103 E6.97603
G1 X85.424 Y96.511 E6.99552
G1 X84.488 Y95.575 E7.05544
G1 X84.316 Y95.949 E7.07405
G1 X85.295 Y96.928 E7.13669
G1 X85.249 Y97.427 E7.15938
G1 X84.208 Y96.386 E7.22602
G1 X84.099 Y96.822 E7.24639
G1 X85.203 Y97.926 E7.31703
G1 X85.173 Y98.441 E7.34039
G1 X84.052 Y97.320 E7.41214
G1 X84.014 Y97.828 E7.43517
G1 X85.173 Y98.987 E7.50935
G1 X85.173 Y99.532 E7.53403
G1 X84.004 Y98.363 E7.60885
G1 X84.004 Y98.908 E7.63353
G1 X85.173 Y100.078 E7.70835
G1 X85.173 Y100.623 E7.73304
G1 X84.004 Y99.454 E7.80786
G1 X84.004 Y99.999 E7.83254
G1 X85.173 Y101.168 E7.90736
G1 X85.173 Y101.714 E7.93204
G1 X84.004 Y100.545 E8.00686
G1 X84.004 Y101.090 E8.03154
G1 X85.173 Y102.259 E8.10636
G1 X85.173 Y102.805 E8.13104
G1 X84.004 Y101.635 E8.20586
G1 X84.004 Y102.181 E8.23054
G1 X85.173 Y103.350 E8.30536
G1 X85.173 Y103.895 E8.33004
G1 X84.004 Y102.726 E8.40486
G1 X84.004 Y103.272 E8.42955
G1 X85.173 Y104.441 E8.50437
G1 X85.173 Y104.986 E8.52905
G1 X84.004 Y103.817 E8.60387
G1 X84.004 Y104.362 E8.62855
G1 X85.173 Y105.532 E8.70337
G1 X85.173 Y106.077 E8.72805
G1 X84.004 Y104.908 E8.80287
G1 X84.004 Y105.453 E8.82755
G1 X85.173 Y106.622 E8.90237
G1 X85.173 Y107.168 E8.92705
G1 X84.004 Y105.999 E9.00187
G1 X84.004 Y106.544 E9.02655
G1 X84.753 Y107.293 E9.07449
G1 X84.207 Y107.293 E9.09917
G1 X84.004 Y107.089 E9.11220
M106 S255
G92 E0
G1 Z0.600 F7800.000
G1 X105.058 Y92.448 F7800.000
G1 X105.058 Y99.545 E2.12659 F600.000
G1 X105.968 Y103.892 E3.45730
G92 E0
G1 X115.376 Y106.744 F7800.000
G1 X115.376 Y106.744 F7800.000
G1 X115.412 Y107.744 F7800.000
G1 X115.412 Y101.280 E1.93691 F600.000
G1 X115.230 Y100.412 E2.20250
G1 X115.412 Y99.545 E2.46808
G1 X115.412 Y92.448 E4.59467
G92 E0
G1 X105.093 Y93.448 F7800.000
G1 X105.058 Y93.483 F7800.000
G1 X105.058 Y106.708 F7800.000
G1 X105.093 Y106.744 F7800.000
G1 X105.058 Y107.744 F7800.000
G1 X105.058 Y101.280 E1.93691 F600.000
G1 X105.240 Y100.412 E2.20250
G1 X116.447 Y100.412 E5.56087
G92 E0
G1 X106.093 Y101.280 F7800.000
G1 X106.093 Y101.280 F7800.000
G1 X110.235 Y105.421 F7800.000
G1 X110.235 Y105.603 F7800.000
G1 X108.093 Y107.744 F7800.000
G1 X106.093 Y108.744 F7800.000
G1 X104.022 Y108.744 F7800.000
G1 X102.022 Y107.744 F7800.000
G1 X100.104 Y105.825 F7800.000
G1 X98.185 Y107.744 F7800.000
G1 X96.185 Y107.744 F7800.000
G1 X95.154 Y107.744 F7800.000
G1 X95.153 Y98.255 E2.84325 F600.000
G1 X95.063 Y97.203 E3.15975
G1 X94.958 Y96.677 E3.32028
G1 X94.851 Y96.316 E3.43319
G1 X94.530 Y95.526 E3.68879
G1 X94.056 Y94.854 E3.93514
G1 X93.736 Y94.497 E4.07880
G1 X93.525 Y94.296 E4.16631
G1 X92.765 Y93.785 E4.44066
G1 X92.399 Y93.607 E4.56243
G1 X91.901 Y93.424 E4.72147
G1 X91.319 Y93.262 E4.90264
G1 X90.907 Y93.187 E5.02801
G1 X89.777 Y93.097 E5.36784
G1 X88.692 Y93.182 E5.69391
G1 X88.249 Y93.262 E5.82880
G1 X87.732 Y93.406 E5.98946
G1 X87.214 Y93.597 E6.15493
G1 X86.894 Y93.750 E6.26143
G1 X86.134 Y94.270 E6.53725
G1 X85.920 Y94.476 E6.62624
G1 X85.646 Y94.786 E6.75028
G1 X85.190 Y95.433 E6.98747
G1 X84.883 Y96.193 E7.23304
G1 X84.769 Y96.587 E7.35605
G1 X84.677 Y97.045 E7.49584
G1 X84.590 Y98.101 E7.81328
G1 X84.588 Y107.744 E10.70287
G92 E0
G1 Z0.900 F7800.000
G1 X105.058 Y92.448 F7800.000
G1 X105.058 Y99.545 E2.12659 F600.000
G1 X105.968 Y103.892 E3.45730
G92 E0
G1 X115.376 Y106.744 F7800.000
G1 X115.376 Y106.744 F7800.000
G1 X115.412 Y107.744 F7800.000
G1 X115.412 Y101.280 E1.93691 F600.000
G1 X115.230 Y100.412 E2.20250
G1 X115.412 Y99.545 E2.46808
G1 X115.412 Y92.448 E4.59467
G92 E0
G1 X105.093 Y93.448 F7800.000
G1 X105.058 Y93.483 F7800.000
G1 X105.058 Y106.708 F7800.000
G1 X105.093 Y106.744 F7800.000
G1 X105.058 Y107.744 F7800.000
G1 X105.058 Y101.280 E1.93691 F600.000
G1 X105.240 Y100.412 E2.20250
G1 X116.447 Y100.412 E5.56087
G92 E0
G1 X106.093 Y101.280 F7800.000
G1 X106.093 Y101.280 F7800.000
G1 X110.235 Y105.421 F7800.000
G1 X110.235 Y105.603 F7800.000
G1 X108.093 Y107.744 F7800.000
G1 X106.093 Y108.744 F7800.000
G1 X104.022 Y108.744 F7800.000
G1 X102.022 Y107.744 F7800.000
G1 X100.104 Y105.825 F7800.000
G1 X98.185 Y107.744 F7800.000
G1 X96.185 Y107.744 F7800.000
G1 X95.154 Y107.744 F7800.000
G1 X95.153 Y98.255 E2.84325 F600.000
G1 X95.063 Y97.203 E3.15975
G1 X94.958 Y96.677 E3.32028
G1 X94.851 Y96.316 E3.43319
G1 X94.530 Y95.526 E3.68879
G1 X94.056 Y94.854 E3.93514
G1 X93.736 Y94.497 E4.07880
G1 X93.525 Y94.296 E4.16631
G1 X92.765 Y93.785 E4.44066
G1 X92.399 Y93.607 E4.56243
G1 X91.901 Y93.424 E4.72147
G1 X91.319 Y93.262 E4.90264
G1 X90.907 Y93.187 E5.02801
G1 X89.777 Y93.097 E5.36783
G1 X88.692 Y93.182 E5.69391
G1 X88.249 Y93.262 E5.82881
G1 X87.732 Y93.406 E5.98946
G1 X87.214 Y93.597 E6.15493
G1 X86.894 Y93.750 E6.26143
G1 X86.134 Y94.270 E6.53725
G1 X85.920 Y94.476 E6.62624
G1 X85.646 Y94.786 E6.75028
G1 X85.190 Y95.433 E6.98747
G1 X84.883 Y96.193 E7.23305
G1 X84.769 Y96.587 E7.35605
G1 X84.677 Y97.045 E7.49584
G1 X84.590 Y98.101 E7.81328
G1 X84.588 Y107.744 E10.70287
G92 E0
G1 Z1.200 F7800.000
G1 X105.058 Y92.448 F7800.000
G1 X105.058 Y99.545 E2.12659 F600.000
G1 X105.968 Y103.892 E3.45730
G92 E0
G1 X115.376 Y106.744 F7800.000
G1 X115.376 Y106.744 F7800.000
G1 X115.412 Y107.744 F7800.000
G1 X115.412 Y101.280 E1.93691 F600.000
G1 X115.230 Y100.412 E2.20250
G1 X115.412 Y99.545 E2.46808
G1 X115.412 Y92.448 E4.59467
G92 E0
G1 X105.093 Y93.448 F7800.000
G1 X105.058 Y93.483 F7800.000
G1 X105.058 Y106.708 F7800.000
G1 X105.093 Y106.744 F7800.000
G1 X105.058 Y107.744 F7800.000
G1 X105.058 Y101.280 E1.93691 F600.000
G1 X105.240 Y100.412 E2.20250
G1 X116.447 Y100.412 E5.56087
G92 E0
G1 X106.093 Y101.280 F7800.000
G1 X106.093 Y101.280 F7800.000
G1 X110.235 Y105.421 F7800.000
G1 X110.235 Y105.603 F7800.000
G1 X108.093 Y107.744 F7800.000
G1 X106.093 Y108.744 F7800.000
G1 X104.022 Y108.744 F7800.000
G1 X102.022 Y107.744 F7800.000
G1 X100.104 Y105.825 F7800.000
G1 X98.185 Y107.744 F7800.000
G1 X96.185 Y107.744 F7800.000
G1 X95.154 Y107.744 F7800.000
G1 X95.153 Y98.255 E2.84325 F600.000
G1 X95.063 Y97.203 E3.15975
G1 X94.958 Y96.677 E3.32028
G1 X94.851 Y96.316 E3.43319
G1 X94.530 Y95.526 E3.68879
G1 X94.056 Y94.854 E3.93514
G1 X93.736 Y94.497 E4.07880
G1 X93.525 Y94.296 E4.16631
G1 X92.765 Y93.785 E4.44066
G1 X92.399 Y93.607 E4.56243
G1 X91.901 Y93.424 E4.72147
G1 X91.319 Y93.262 E4.90264
G1 X90.907 Y93.187 E5.02801
G1 X89.777 Y93.097 E5.36784
G1 X88.692 Y93.182 E5.69391
G1 X88.249 Y93.262 E5.82881
G1 X87.732 Y93.406 E5.98946
G1 X87.214 Y93.597 E6.15493
G1 X86.894 Y93.750 E6.26143
G1 X86.134 Y94.270 E6.53725
G1 X85.920 Y94.476 E6.62624
G1 X85.646 Y94.786 E6.75028
G1 X85.190 Y95.433 E6.98747
G1 X84.883 Y96.193 E7.23305
G1 X84.769 Y96.587 E7.35605
G1 X84.677 Y97.045 E7.49584
G1 X84.590 Y98.101 E7.81328
G1 X84.588 Y107.744 E10.70287
G92 E0
G1 Z1.500 F7800.000
G1 X105.058 Y92.448 F7800.000
G1 X105.058 Y99.545 E2.12659 F600.000
G1 X105.968 Y103.892 E3.45730
G92 E0
G1 X115.376 Y106.744 F7800.000
G1 X115.376 Y106.744 F7800.000
G1 X115.412 Y107.744 F7800.000
G1 X115.412 Y101.280 E1.93691 F600.000
G1 X115.230 Y100.412 E2.20250
G1 X115.412 Y99.545 E2.46808
G1 X115.412 Y92.448 E4.59467
G92 E0
G1 X105.093 Y93.448 F7800.000
