; generated by Slic3r 1.2.9 on 2016-03-11 at 01:30:58

; external perimeters extrusion width = 1.54mm
; perimeters extrusion width = 2.62mm
; infill extrusion width = 6.27mm
; solid infill extrusion width = 2.62mm
; top infill extrusion width = 2.62mm

M107
M104 S30 ; set temperature
G28 ; home all axes
G1 Z5 F5000 ; lift nozzle
M302
M92 E10000
M500
M501
G1 E100
M109 S30 ; wait for temperature to be reached
G21 ; set units to millimeters
G90 ; use absolute coordinates
M82 ; use absolute distances for extrusion
G92 E0
G1 Z0.300 F7800.000
G1 X114.287 Y93.915 F7800.000
G1 X107.183 Y93.915 E0.32145 F378.000
G1 X107.183 Y107.519 E0.93702
G1 X105.562 Y107.519 E1.01037
G1 X105.562 Y92.673 E1.68214
G1 X114.905 Y92.673 E2.10490
G1 X114.905 Y93.915 E2.16110
G1 X114.518 Y93.915 E2.17862 F378.000
G1 X114.679 Y93.103 F7800.000
G1 X114.475 Y92.899 E2.19195 F540.000
G1 X113.917 Y92.899 E2.21778
G1 X114.679 Y93.661 E2.26765
G1 X114.149 Y93.689 E2.29220
G1 X113.359 Y92.899 E2.34393
G1 X112.801 Y92.899 E2.36977
G1 X113.591 Y93.689 E2.42150
G1 X113.033 Y93.689 E2.44734
G1 X112.243 Y92.899 E2.49907
G1 X111.685 Y92.899 E2.52490
G1 X112.475 Y93.689 E2.57663
G1 X111.917 Y93.689 E2.60247
G1 X111.127 Y92.899 E2.65420
G1 X110.569 Y92.899 E2.68004
G1 X111.359 Y93.689 E2.73177
G1 X110.801 Y93.689 E2.75760
G1 X110.011 Y92.899 E2.80933
G1 X109.453 Y92.899 E2.83517
G1 X110.243 Y93.689 E2.88690
G1 X109.685 Y93.689 E2.91274
G1 X108.895 Y92.899 E2.96447
G1 X108.337 Y92.899 E2.99030
G1 X109.127 Y93.689 E3.04203
G1 X108.569 Y93.689 E3.06787
G1 X107.779 Y92.899 E3.11960
G1 X107.221 Y92.899 E3.14544
G1 X108.011 Y93.689 E3.19717
G1 X107.453 Y93.689 E3.22300
G1 X106.663 Y92.899 E3.27474
G1 X106.105 Y92.899 E3.30057
G1 X106.957 Y93.751 E3.35633
G1 X106.957 Y94.309 E3.38217
G1 X105.788 Y93.139 E3.45871
G1 X105.788 Y93.697 E3.48455
G1 X106.957 Y94.867 E3.56110
G1 X106.957 Y95.425 E3.58693
G1 X105.788 Y94.255 E3.66348
G1 X105.788 Y94.813 E3.68931
G1 X106.957 Y95.983 E3.76586
G1 X106.957 Y96.541 E3.79170
G1 X105.788 Y95.371 E3.86825
G1 X105.788 Y95.929 E3.89408
G1 X106.957 Y97.099 E3.97063
G1 X106.957 Y97.657 E3.99646
G1 X105.788 Y96.487 E4.07301
G1 X105.788 Y97.045 E4.09885
G1 X106.957 Y98.215 E4.17540
G1 X106.957 Y98.773 E4.20123
G1 X105.788 Y97.603 E4.27778
G1 X105.788 Y98.161 E4.30361
G1 X106.957 Y99.331 E4.38016
G1 X106.957 Y99.889 E4.40600
G1 X105.788 Y98.719 E4.48254
G1 X105.788 Y99.277 E4.50838
G1 X106.957 Y100.447 E4.58493
G1 X106.957 Y101.005 E4.61076
G1 X105.788 Y99.835 E4.68731
G1 X105.788 Y100.393 E4.71315
G1 X106.957 Y101.563 E4.78969
G1 X106.957 Y102.121 E4.81553
G1 X105.788 Y100.951 E4.89208
G1 X105.788 Y101.509 E4.91791
G1 X106.957 Y102.679 E4.99446
G1 X106.957 Y103.237 E5.02029
G1 X105.788 Y102.067 E5.09684
G1 X105.788 Y102.625 E5.12268
G1 X106.957 Y103.795 E5.19923
G1 X106.957 Y104.353 E5.22506
G1 X105.788 Y103.183 E5.30161
G1 X105.788 Y103.741 E5.32744
G1 X106.957 Y104.911 E5.40399
G1 X106.957 Y105.469 E5.42983
G1 X105.788 Y104.299 E5.50638
G1 X105.788 Y104.857 E5.53221
G1 X106.957 Y106.027 E5.60876
G1 X106.957 Y106.585 E5.63459
G1 X105.788 Y105.415 E5.71114
G1 X105.788 Y105.973 E5.73698
G1 X106.957 Y107.143 E5.81352
G1 X106.549 Y107.293 E5.83364
G1 X105.788 Y106.531 E5.88350
G1 X105.788 Y107.089 E5.90934
G1 X105.991 Y107.293 E5.92267
G92 E0
G1 X105.337 Y107.744 F7800.000
G1 X103.337 Y107.744 F7800.000
G1 X101.420 Y98.217 F7800.000
G1 X97.502 Y98.217 F7800.000
G1 X96.273 Y94.794 F7800.000
G1 X96.519 Y95.134 E0.01897 F378.000
G1 X96.939 Y96.047 E0.06444
G1 X97.192 Y97.074 E0.11229
G1 X97.277 Y98.225 E0.16454
G1 X97.277 Y107.519 E0.58507
G1 X95.666 Y107.519 E0.65797
G1 X95.666 Y98.326 E1.07394
G1 X95.535 Y96.965 E1.13580
G1 X95.133 Y95.815 E1.19096
G1 X94.454 Y94.896 E1.24264
G1 X93.533 Y94.234 E1.29398
G1 X92.406 Y93.840 E1.34799
G1 X91.082 Y93.711 E1.40817
G1 X89.798 Y93.836 E1.46658
G1 X88.715 Y94.218 E1.51853
G1 X87.843 Y94.861 E1.56755
G1 X87.212 Y95.753 E1.61697
G1 X86.838 Y96.867 E1.67017
G1 X86.716 Y98.186 E1.73008
G1 X86.716 Y107.519 E2.15241
G1 X85.095 Y107.519 E2.22576
G1 X85.095 Y98.030 E2.65511
G1 X85.179 Y96.914 E2.70578
G1 X85.426 Y95.920 E2.75213
G1 X85.836 Y95.037 E2.79617
G1 X86.393 Y94.275 E2.83890
G1 X87.085 Y93.644 E2.88125
G1 X87.913 Y93.142 E2.92506
G1 X88.865 Y92.776 E2.97121
G1 X89.925 Y92.555 E3.02020
G1 X91.094 Y92.481 E3.07323
G1 X92.186 Y92.551 E3.12272
G1 X92.310 Y92.558 E3.12835 F378.000
G1 X93.407 Y92.788 E3.17908
G1 X94.388 Y93.168 E3.22667
G1 X95.239 Y93.690 E3.27183
G1 X95.948 Y94.345 E3.31550
G1 X96.138 Y94.607 E3.33016
G1 X95.873 Y94.734 F7800.000
G1 X95.268 Y94.129 E3.36888 F540.000
G1 X93.822 Y93.229 F7800.000
G1 X96.647 Y96.054 E3.54972 F540.000
G1 X96.876 Y96.828 E3.58622
G1 X93.000 Y92.953 E3.83425
G1 X92.310 Y92.808 E3.86613
G1 X93.426 Y93.923 E3.93750
G1 X92.588 Y93.631 F7800.000
G1 X91.709 Y92.752 E3.99374 F540.000
G1 X91.127 Y92.715 E4.02014
G1 X91.974 Y93.563 E4.07437
G1 X91.370 Y93.504 E4.10185
G1 X90.600 Y92.734 E4.15110
G1 X90.087 Y92.767 E4.17436
G1 X90.836 Y93.515 E4.22229
G1 X90.339 Y93.564 E4.24488
G1 X89.611 Y92.836 E4.29146
G1 X89.160 Y92.930 E4.31233
G1 X89.842 Y93.612 E4.35599
G1 X89.433 Y93.749 E4.37549
G1 X88.729 Y93.045 E4.42056
G1 X88.335 Y93.196 E4.43967
G1 X89.030 Y93.891 E4.48414
G1 X88.632 Y94.038 E4.50335
G1 X87.945 Y93.351 E4.54734
G1 X87.605 Y93.557 E4.56531
G1 X88.318 Y94.270 E4.61096
G1 X88.005 Y94.502 E4.62861
G1 X87.266 Y93.763 E4.67592
G1 X86.968 Y94.011 E4.69344
G1 X87.694 Y94.737 E4.73993
G1 X87.468 Y95.056 E4.75763
G1 X86.691 Y94.279 E4.80736
G1 X86.425 Y94.559 E4.82482
G1 X87.242 Y95.375 E4.87707
G1 X87.016 Y95.695 E4.89477
G1 X86.195 Y94.874 E4.94730
G1 X85.978 Y95.203 E4.96512
G1 X86.879 Y96.103 E5.02274
G1 X86.742 Y96.511 E5.04223
G1 X85.806 Y95.575 E5.10215
G1 X85.634 Y95.949 E5.12076
G1 X86.613 Y96.928 E5.18340
G1 X86.566 Y97.427 E5.20609
G1 X85.525 Y96.386 E5.27273
G1 X85.417 Y96.822 E5.29310
G1 X86.520 Y97.926 E5.36374
G1 X86.490 Y98.441 E5.38710
G1 X85.369 Y97.320 E5.45885
G1 X85.331 Y97.828 E5.48188
G1 X86.490 Y98.987 E5.55606
G1 X86.490 Y99.532 E5.58074
G1 X85.321 Y98.363 E5.65556
G1 X85.321 Y98.908 E5.68025
G1 X86.490 Y100.078 E5.75507
G1 X86.490 Y100.623 E5.77975
G1 X85.321 Y99.454 E5.85457
G1 X85.321 Y99.999 E5.87925
G1 X86.490 Y101.168 E5.95407
G1 X86.490 Y101.714 E5.97875
G1 X85.321 Y100.545 E6.05357
G1 X85.321 Y101.090 E6.07825
G1 X86.490 Y102.259 E6.15307
G1 X86.490 Y102.805 E6.17775
G1 X85.321 Y101.635 E6.25257
G1 X85.321 Y102.181 E6.27725
G1 X86.490 Y103.350 E6.35207
G1 X86.490 Y103.895 E6.37676
G1 X85.321 Y102.726 E6.45158
G1 X85.321 Y103.272 E6.47626
G1 X86.490 Y104.441 E6.55108
G1 X86.490 Y104.986 E6.57576
G1 X85.321 Y103.817 E6.65058
G1 X85.321 Y104.362 E6.67526
G1 X86.490 Y105.532 E6.75008
G1 X86.490 Y106.077 E6.77476
G1 X85.321 Y104.908 E6.84958
G1 X85.321 Y105.453 E6.87426
G1 X86.490 Y106.622 E6.94908
G1 X86.490 Y107.168 E6.97376
G1 X85.321 Y105.999 E7.04858
G1 X85.321 Y106.544 E7.07327
G1 X86.070 Y107.293 E7.12120
G1 X85.525 Y107.293 E7.14588
G1 X85.321 Y107.089 E7.15891
G92 E0
G1 X85.941 Y106.744 F7800.000
G1 X85.941 Y106.744 F7800.000
G1 X95.892 Y106.752 F7800.000
G1 X96.433 Y107.293 E0.03459 F540.000
G1 X96.978 Y107.293 E0.05928
G1 X95.892 Y106.207 E0.12877
G1 X95.892 Y105.662 E0.15346
G1 X97.051 Y106.821 E0.22763
G1 X97.051 Y106.275 E0.25232
G1 X95.892 Y105.116 E0.32650
G1 X95.892 Y104.571 E0.35118
G1 X97.051 Y105.730 E0.42536
G1 X97.051 Y105.185 E0.45004
G1 X95.892 Y104.025 E0.52422
G1 X95.892 Y103.480 E0.54890
G1 X97.051 Y104.639 E0.62308
G1 X97.051 Y104.094 E0.64776
G1 X95.892 Y102.935 E0.72194
G1 X95.892 Y102.389 E0.74662
G1 X97.051 Y103.548 E0.82080
G1 X97.051 Y103.003 E0.84548
G1 X95.892 Y101.844 E0.91966
G1 X95.892 Y101.298 E0.94434
G1 X97.051 Y102.458 E1.01852
G1 X97.051 Y101.912 E1.04320
G1 X95.892 Y100.753 E1.11738
G1 X95.892 Y100.208 E1.14206
G1 X97.051 Y101.367 E1.21624
G1 X97.051 Y100.821 E1.24092
G1 X95.892 Y99.662 E1.31510
G1 X95.892 Y99.117 E1.33978
G1 X97.051 Y100.276 E1.41396
G1 X97.051 Y99.731 E1.43865
G1 X95.892 Y98.572 E1.51282
G1 X95.870 Y98.004 E1.53851
G1 X97.051 Y99.185 E1.61408
G1 X97.051 Y98.640 E1.63876
G1 X95.812 Y97.401 E1.71805
G1 X95.746 Y96.790 E1.74587
G1 X97.033 Y98.076 E1.82822
G1 X96.989 Y97.487 E1.85496
G1 X95.453 Y95.951 E1.95329
M106 S255
G92 E0
G1 Z0.600 F7800.000
G1 X106.372 Y107.744 F7800.000
G1 X106.372 Y94.140 E4.07639 F600.000
G1 X106.453 Y93.564 E4.25074
G1 X107.408 Y93.294 E4.54819
G1 X115.130 Y93.294 E6.86205
G92 E0
G1 X107.408 Y94.140 F7800.000
G1 X107.408 Y94.140 F7800.000
G1 X112.269 Y99.001 F7800.000
G1 X112.269 Y104.883 F7800.000
G1 X109.408 Y107.744 F7800.000
G1 X107.408 Y108.744 F7800.000
G1 X105.337 Y108.744 F7800.000
G1 X103.337 Y107.744 F7800.000
G1 X101.420 Y105.827 F7800.000
G1 X101.420 Y98.217 F7800.000
G1 X97.502 Y98.217 F7800.000
G1 X96.472 Y107.744 F7800.000
G1 X96.470 Y98.255 E2.84325 F600.000
G1 X96.380 Y97.203 E3.15975
G1 X96.276 Y96.677 E3.32028
G1 X96.168 Y96.316 E3.43319
G1 X95.848 Y95.526 E3.68879
G1 X95.373 Y94.854 E3.93514
G1 X95.053 Y94.497 E4.07880
G1 X94.842 Y94.296 E4.16631
G1 X94.082 Y93.785 E4.44066
G1 X93.717 Y93.607 E4.56243
G1 X93.219 Y93.424 E4.72147
G1 X92.636 Y93.262 E4.90264
G1 X92.225 Y93.187 E5.02801
G1 X91.094 Y93.097 E5.36784
G1 X90.009 Y93.182 E5.69391
G1 X89.566 Y93.262 E5.82880
G1 X89.050 Y93.406 E5.98946
G1 X88.532 Y93.597 E6.15493
G1 X88.211 Y93.750 E6.26143
G1 X87.451 Y94.270 E6.53725
G1 X87.237 Y94.476 E6.62624
G1 X86.963 Y94.786 E6.75028
G1 X86.507 Y95.433 E6.98747
G1 X86.201 Y96.193 E7.23304
G1 X86.086 Y96.587 E7.35605
G1 X85.995 Y97.045 E7.49584
G1 X85.908 Y98.101 E7.81328
G1 X85.906 Y107.744 E10.70287
G92 E0
G1 Z0.900 F7800.000
G1 X106.372 Y107.744 F7800.000
G1 X106.372 Y94.140 E4.07639 F600.000
G1 X106.453 Y93.564 E4.25074
G1 X107.408 Y93.294 E4.54819
G1 X115.130 Y93.294 E6.86205
G92 E0
G1 X107.408 Y94.140 F7800.000
G1 X107.408 Y94.140 F7800.000
G1 X112.269 Y99.001 F7800.000
G1 X112.269 Y104.883 F7800.000
G1 X109.408 Y107.744 F7800.000
G1 X107.408 Y108.744 F7800.000
G1 X105.337 Y108.744 F7800.000
G1 X103.337 Y107.744 F7800.000
G1 X101.420 Y105.827 F7800.000
G1 X101.420 Y98.217 F7800.000
G1 X97.502 Y98.217 F7800.000
G1 X96.472 Y107.744 F7800.000
G1 X96.470 Y98.255 E2.84325 F600.000
G1 X96.380 Y97.203 E3.15975
G1 X96.276 Y96.677 E3.32028
G1 X96.168 Y96.316 E3.43319
G1 X95.848 Y95.526 E3.68879
G1 X95.373 Y94.854 E3.93514
G1 X95.053 Y94.497 E4.07880
G1 X94.842 Y94.296 E4.16631
G1 X94.082 Y93.785 E4.44066
G1 X93.717 Y93.607 E4.56243
G1 X93.219 Y93.424 E4.72147
G1 X92.636 Y93.262 E4.90264
G1 X92.225 Y93.187 E5.02801
G1 X91.094 Y93.097 E5.36783
G1 X90.009 Y93.182 E5.69391
G1 X89.566 Y93.262 E5.82881
G1 X89.050 Y93.406 E5.98946
G1 X88.532 Y93.597 E6.15493
G1 X88.211 Y93.750 E6.26143
G1 X87.451 Y94.270 E6.53725
G1 X87.237 Y94.476 E6.62624
G1 X86.963 Y94.786 E6.75028
G1 X86.507 Y95.433 E6.98747
G1 X86.201 Y96.193 E7.23305
G1 X86.086 Y96.587 E7.35605
G1 X85.995 Y97.045 E7.49584
G1 X85.908 Y98.101 E7.81328
G1 X85.906 Y107.744 E10.70287
G92 E0
G1 Z1.200 F7800.000
G1 X106.372 Y107.744 F7800.000
G1 X106.372 Y94.140 E4.07639 F600.000
G1 X106.453 Y93.564 E4.25074
G1 X107.408 Y93.294 E4.54819
G1 X115.130 Y93.294 E6.86205
G92 E0
G1 X107.408 Y94.140 F7800.000
G1 X107.408 Y94.140 F7800.000
G1 X112.269 Y99.001 F7800.000
G1 X112.269 Y104.883 F7800.000
G1 X109.408 Y107.744 F7800.000
G1 X107.408 Y108.744 F7800.000
G1 X105.337 Y108.744 F7800.000
G1 X103.337 Y107.744 F7800.000
G1 X101.420 Y105.827 F7800.000
G1 X101.420 Y98.217 F7800.000
G1 X97.502 Y98.217 F7800.000
G1 X96.472 Y107.744 F7800.000
G1 X96.470 Y98.255 E2.84325 F600.000
G1 X96.380 Y97.203 E3.15975
G1 X96.276 Y96.677 E3.32028
G1 X96.168 Y96.316 E3.43319
G1 X95.848 Y95.526 E3.68879
G1 X95.373 Y94.854 E3.93514
G1 X95.053 Y94.497 E4.07880
G1 X94.842 Y94.296 E4.16631
G1 X94.082 Y93.785 E4.44066
G1 X93.717 Y93.607 E4.56243
G1 X93.219 Y93.424 E4.72147
G1 X92.636 Y93.262 E4.90264
G1 X92.225 Y93.187 E5.02801
G1 X91.094 Y93.097 E5.36784
G1 X90.009 Y93.182 E5.69391
G1 X89.566 Y93.262 E5.82881
G1 X89.050 Y93.406 E5.98946
G1 X88.532 Y93.597 E6.15493
G1 X88.211 Y93.750 E6.26143
G1 X87.451 Y94.270 E6.53725
G1 X87.237 Y94.476 E6.62624
G1 X86.963 Y94.786 E6.75028
G1 X86.507 Y95.433 E6.98747
G1 X86.201 Y96.193 E7.23305
G1 X86.086 Y96.587 E7.35605
G1 X85.995 Y97.045 E7.49584
G1 X85.908 Y98.101 E7.81328
G1 X85.906 Y107.744 E10.70287
G92 E0
G1 Z1.500 F7800.000
G1 X106.372 Y107.744 F7800.000
G1 X106.372 Y94.140 E4.07639 F600.000
G1 X106.453 Y93.564 E4.25074
G1 X107.408 Y93.294 E4.54819
G1 X115.130 Y93.294 E6.86205
G92 E0
G1 X107.408 Y94.140 F7800.000
G1 X107.408 Y94.140 F7800.000
G1 X112.269 Y99.001 F7800.000
G1 X112.269 Y104.883 F7800.000
G1 X109.408 Y107.744 F7800.000
G1 X107.408 Y108.744 F7800.000
G1 X105.337 Y108.744 F7800.000
G1 X103.337 Y107.744 F7800.000
G1 X101.420 Y105.827 F7800.000
G1 X101.420 Y98.217 F7800.000
G1 X97.502 Y98.217 F7800.000
G1 X96.472 Y107.744 F7800.000
G1 X96.470 Y98.255 E2.84325 F600.000
G1 X96.380 Y97.203 E3.15975
G1 X96.276 Y96.677 E3.32028
G1 X96.168 Y96.316 E3.43319
G1 X95.848 Y95.526 E3.68879
G1 X95.373 Y94.854 E3.93514
G1 X95.053 Y94.497 E4.07880
G1 X94.842 Y94.296 E4.16631
G1 X94.082 Y93.785 E4.44066
G1 X93.717 Y93.607 E4.56243
G1 X93.219 Y93.424 E4.72147
G1 X92.636 Y93.262 E4.90264
G1 X92.225 Y93.187 E5.02801
G1 X91.094 Y93.097 E5.36783
G1 X90.009 Y93.182 E5.69391
G1 X89.566 Y93.262 E5.82881
G1 X89.050 Y93.406 E5.98946
G1 X88.532 Y93.597 E6.15493
G1 X88.211 Y93.750 E6.26143
G1 X87.451 Y94.270 E6.53725
G1 X87.237 Y94.476 E6.62624
G1 X86.963 Y94.786 E6.75028
G1 X86.507 Y95.433 E6.98747
G1 X86.201 Y96.193 E7.23305
G1 X86.086 Y96.587 E7.35605
G1 X85.995 Y97.045 E7.49584
G1 X85.908 Y98.101 E7.81328
G1 X85.906 Y107.744 E10.70287
G92 E0
G1 Z1.800 F7800.000
G1 X106.372 Y107.744 F7800.000
G1 X106.372 Y94.140 E4.07639 F600.000
G1 X106.453 Y93.564 E4.25074
G1 X107.408 Y93.294 E4.54819
G1 X115.130 Y93.294 E6.86205
G92 E0
G1 X107.408 Y94.140 F7800.000
G1 X107.408 Y94.140 F7800.000
G1 X112.269 Y99.001 F7800.000
G1 X112.269 Y104.883 F7800.000
G1 X109.408 Y107.744 F7800.000
G1 X107.408 Y108.744 F7800.000
G1 X105.337 Y108.744 F7800.000
G1 X103.337 Y107.744 F7800.000
G1 X101.420 Y105.827 F7800.000
G1 X101.420 Y98.217 F7800.000
G1 X97.502 Y98.217 F7800.000
G1 X96.472 Y107.744 F7800.000
G1 X96.470 Y98.255 E2.84325 F600.000
G1 X96.380 Y97.203 E3.15975
G1 X96.276 Y96.677 E3.32028
G1 X96.168 Y96.316 E3.43319
G1 X95.848 Y95.526 E3.68879
G1 X95.373 Y94.854 E3.93514
G1 X95.053 Y94.497 E4.07880
G1 X94.842 Y94.296 E4.16631
G1 X94.082 Y93.785 E4.44066
G1 X93.717 Y93.607 E4.56242
G1 X93.219 Y93.424 E4.72147
G1 X92.636 Y93.262 E4.90264
G1 X92.225 Y93.187 E5.02801
G1 X91.094 Y93.097 E5.36783
G1 X90.009 Y93.182 E5.69391
G1 X89.566 Y93.262 E5.82881
G1 X89.050 Y93.406 E5.98946
G1 X88.532 Y93.597 E6.15493
G1 X88.211 Y93.750 E6.26143
G1 X87.451 Y94.270 E6.53725
G1 X87.237 Y94.476 E6.62624
G1 X86.963 Y94.786 E6.75028
G1 X86.507 Y95.433 E6.98747
G1 X86.201 Y96.193 E7.23305
G1 X86.086 Y96.587 E7.35605
G1 X85.995 Y97.045 E7.49584
G1 X85.908 Y98.101 E7.81328
G1 X85.906 Y107.744 E10.70287
G92 E0
G1 Z2.100 F7800.000
G1 X106.372 Y107.744 F7800.000
G1 X106.372 Y94.140 E4.07639 F600.000
G1 X106.453 Y93.564 E4.25074
G1 X107.408 Y93.294 E4.54819
G1 X115.130 Y93.294 E6.86205
G92 E0
G1 X107.408 Y94.140 F7800.000
G1 X107.408 Y94.140 F7800.000
G1 X112.269 Y99.001 F7800.000
G1 X112.269 Y104.883 F7800.000
G1 X109.408 Y107.744 F7800.000
G1 X107.408 Y108.744 F7800.000
G1 X105.337 Y108.744 F7800.000
G1 X103.337 Y107.744 F7800.000
G1 X101.420 Y105.827 F7800.000
G1 X101.420 Y98.217 F7800.000
G1 X97.502 Y98.217 F7800.000
G1 X96.472 Y107.744 F7800.000
G1 X96.470 Y98.255 E2.84325 F600.000
G1 X96.380 Y97.203 E3.15975
G1 X96.276 Y96.677 E3.32028
G1 X96.168 Y96.316 E3.43319
G1 X95.848 Y95.526 E3.68879
G1 X95.373 Y94.854 E3.93514
G1 X95.053 Y94.497 E4.07880
G1 X94.842 Y94.296 E4.16631
G1 X94.082 Y93.785 E4.44066
G1 X93.717 Y93.607 E4.56243
G1 X93.219 Y93.424 E4.72147
G1 X92.636 Y93.262 E4.90264
G1 X92.225 Y93.187 E5.02801
G1 X91.124 Y93.099 E5.35890
G1 X90.008 Y93.182 E5.69426
G1 X89.566 Y93.262 E5.82874
