; generated by Slic3r 1.2.9 on 2016-03-11 at 01:31:03

; external perimeters extrusion width = 1.54mm
; perimeters extrusion width = 2.62mm
; infill extrusion width = 6.27mm
; solid infill extrusion width = 2.62mm
; top infill extrusion width = 2.62mm

M107
M104 S30 ; set temperature
G28 ; home all axes
G1 Z5 F5000 ; lift nozzle
M302
M92 E10000
M500
M501
G1 E100
M109 S30 ; wait for temperature to be reached
G21 ; set units to millimeters
G90 ; use absolute coordinates
M82 ; use absolute distances for extrusion
G92 E0
G1 Z0.300 F7800.000
G1 X102.570 Y102.852 F7800.000
G1 X102.492 Y102.055 E0.03622 F378.000
G1 X102.580 Y100.611 E0.10169
G1 X102.847 Y99.290 E0.16268
G1 X103.289 Y98.094 E0.22035
G1 X103.897 Y97.048 E0.27511
G1 X104.660 Y96.169 E0.32775
G1 X105.581 Y95.456 E0.38045
G1 X106.647 Y94.918 E0.43449
G1 X107.844 Y94.566 E0.49098
G1 X109.328 Y94.383 E0.55861
G1 X109.861 Y92.960 E0.62736
G1 X110.418 Y91.961 E0.67911
G1 X111.045 Y91.243 E0.72223
G1 X111.766 Y90.760 E0.76150
G1 X112.612 Y90.468 E0.80200
G1 X113.597 Y90.369 E0.84682
G1 X114.150 Y90.393 E0.87186
G1 X114.823 Y90.473 E0.90253 F378.000
G1 X115.297 Y90.567 E0.92438
G1 X115.297 Y91.566 E0.96957
G1 X114.727 Y91.490 E0.99560
G1 X114.268 Y91.470 E1.01638
G1 X113.532 Y91.541 E1.04983
G1 X112.872 Y91.762 E1.08134
G1 X112.299 Y92.132 E1.11217
G1 X111.814 Y92.661 E1.14467
G1 X111.404 Y93.357 E1.18119
G1 X110.976 Y94.442 E1.23398
G1 X112.988 Y94.939 E1.32775
G1 X114.443 Y95.730 E1.40271
G1 X115.626 Y96.886 E1.47754
G1 X116.501 Y98.354 E1.55484
G1 X117.028 Y100.076 E1.63637
G1 X117.205 Y102.063 E1.72660
G1 X117.107 Y103.562 E1.79460
G1 X116.812 Y104.919 E1.85740
G1 X116.324 Y106.130 E1.91652
G1 X115.654 Y107.179 E1.97282
G1 X114.813 Y108.044 E2.02743
G1 X113.797 Y108.730 E2.08290
G1 X112.624 Y109.229 E2.14056
G1 X111.312 Y109.530 E2.20147
G1 X109.863 Y109.630 E2.26721
G1 X107.699 Y109.406 E2.36565
G1 X105.895 Y108.738 E2.45268
G1 X104.436 Y107.631 E2.53556
G1 X103.360 Y106.131 E2.61912
G1 X102.710 Y104.276 E2.70803
G1 X102.593 Y103.081 E2.76235
G1 X104.222 Y102.936 F7800.000
G1 X104.144 Y102.059 E2.80221 F378.000
G1 X104.309 Y100.230 E2.88529
G1 X104.808 Y98.659 E2.95991
G1 X105.646 Y97.350 E3.03023
G1 X106.789 Y96.369 E3.09839
G1 X108.191 Y95.781 E3.16718
G1 X109.692 Y95.604 E3.23559
G1 X109.837 Y95.587 E3.24219 F378.000
G1 X111.521 Y95.774 E3.31886
G1 X112.937 Y96.343 E3.38791
G1 X114.072 Y97.295 E3.45494
G1 X114.894 Y98.588 E3.52426
G1 X115.382 Y100.178 E3.59952
G1 X115.543 Y102.059 E3.68497
G1 X115.380 Y103.869 E3.76717
G1 X114.888 Y105.414 E3.84055
G1 X114.060 Y106.688 E3.90930
G1 X112.925 Y107.636 E3.97621
G1 X111.521 Y108.203 E4.04476
G1 X109.860 Y108.390 E4.12037
G1 X108.187 Y108.206 E4.19653
G1 X106.774 Y107.647 E4.26531
G1 X105.633 Y106.711 E4.33209
G1 X104.801 Y105.443 E4.40069
G1 X104.307 Y103.890 E4.47443
G1 X104.243 Y103.166 E4.50732
G1 X104.359 Y104.893 F7800.000
G1 X102.859 Y103.393 E4.60382 F540.000
G1 X102.799 Y102.785 E4.63161
G1 X104.103 Y104.089 E4.71550
G1 X104.035 Y103.473 E4.74367
G1 X102.739 Y102.177 E4.82706
G1 X102.739 Y101.629 E4.85198
G1 X103.982 Y102.871 E4.93191
G1 X103.928 Y102.270 E4.95938
G1 X102.771 Y101.112 E5.03381
G1 X102.803 Y100.596 E5.05734
G1 X103.952 Y101.746 E5.13128
G1 X103.998 Y101.243 E5.15424
G1 X102.892 Y100.137 E5.22538
G1 X102.984 Y99.681 E5.24655
G1 X104.043 Y100.740 E5.31469
G1 X104.091 Y100.240 E5.33755
G1 X103.084 Y99.233 E5.40231
G1 X103.232 Y98.833 E5.42172
G1 X104.223 Y99.824 E5.48545
G1 X104.355 Y99.408 E5.50531
G1 X103.380 Y98.433 E5.56802
G1 X103.543 Y98.047 E5.58704
G1 X104.487 Y98.991 E5.64777
G1 X104.626 Y98.582 E5.66744
G1 X103.744 Y97.700 E5.72414
G1 X103.946 Y97.354 E5.74238
G1 X104.840 Y98.248 E5.79990
G1 X105.054 Y97.914 E5.81795
G1 X104.168 Y97.028 E5.87491
G1 X104.423 Y96.735 E5.89258
G1 X105.268 Y97.580 E5.94691
G1 X105.482 Y97.245 E5.96496
G1 X104.684 Y96.447 E6.01629
G1 X104.963 Y96.179 E6.03392
G1 X105.772 Y96.988 E6.08597
G1 X106.067 Y96.735 E6.10365
G1 X105.272 Y95.939 E6.15481
G1 X105.581 Y95.700 E6.17258
G1 X106.362 Y96.481 E6.22284
G1 X106.657 Y96.228 E6.24052
G1 X105.930 Y95.501 E6.28727
G1 X106.295 Y95.317 E6.30583
G1 X107.028 Y96.051 E6.35299
G1 X107.414 Y95.889 E6.37204
G1 X106.659 Y95.134 E6.42061
G1 X107.079 Y95.006 E6.44060
G1 X107.800 Y95.727 E6.48697
G1 X108.186 Y95.565 E6.50601
G1 X107.503 Y94.881 E6.54997
G1 X107.942 Y94.772 E6.57055
G1 X108.675 Y95.505 E6.61769
G1 X109.165 Y95.447 E6.64015
G1 X108.430 Y94.712 E6.68745
G1 X108.918 Y94.651 E6.70981
G1 X109.656 Y95.389 E6.75728
G1 X110.205 Y95.391 E6.78226
G1 X109.406 Y94.591 E6.83367
G1 X109.599 Y94.236 E6.85205
G1 X110.822 Y95.459 E6.93072
G1 X111.439 Y95.528 E6.95895
G1 X110.487 Y94.576 E7.02016
G1 X110.799 Y94.340 E7.03796
G1 X109.898 Y93.439 E7.09596
G1 X110.047 Y93.040 E7.11532
G1 X110.954 Y93.947 E7.17368
G1 X111.110 Y93.554 E7.19290
G1 X110.240 Y92.684 E7.24887
G1 X110.436 Y92.332 E7.26719
G1 X111.282 Y93.179 E7.32163
G1 X111.485 Y92.834 E7.33984
G1 X110.645 Y91.993 E7.39389
G1 X110.900 Y91.701 E7.41156
G1 X111.700 Y92.501 E7.46301
G1 X111.963 Y92.215 E7.48066
G1 X111.156 Y91.408 E7.53253
G1 X111.481 Y91.185 E7.55046
G1 X112.237 Y91.941 E7.59907
G1 X112.569 Y91.725 E7.61710
G1 X111.809 Y90.965 E7.66601
G1 X112.214 Y90.821 E7.68553
G1 X112.922 Y91.530 E7.73109
G1 X113.333 Y91.392 E7.75080
G1 X112.627 Y90.686 E7.79622
G1 X113.125 Y90.636 E7.81899
G1 X113.786 Y91.297 E7.86150
G1 X114.285 Y91.248 E7.88433
G1 X113.638 Y90.601 E7.92597
G1 X114.224 Y90.640 E7.95272
G1 X114.852 Y91.267 E7.99307
G1 X114.862 Y90.729 E8.01755
G1 X115.071 Y90.938 E8.03100
G92 E0
G1 X111.079 Y92.382 F7800.000
G1 X110.679 Y93.085 F7800.000
G1 X113.793 Y95.690 F7800.000
G1 X115.759 Y97.656 E0.12646 F540.000
G1 X114.590 Y97.583 F7800.000
G1 X116.622 Y99.615 E0.25714 F540.000
G1 X116.380 Y98.824 F7800.000
G1 X112.671 Y95.116 E0.49568 F540.000
G1 X111.943 Y94.936 E0.52979
G1 X113.154 Y96.147 E0.60771
G1 X112.238 Y95.779 F7800.000
G1 X111.215 Y94.756 E0.67353 F540.000
G1 X110.644 Y94.733 E0.69951
G1 X109.748 Y93.838 E0.75714
G92 E0
G1 X109.990 Y94.824 F7800.000
G1 X109.990 Y94.824 F7800.000
G1 X109.991 Y94.823 F7800.000
G1 X109.992 Y94.824 F7800.000
G1 X115.209 Y98.750 F7800.000
G1 X116.819 Y100.360 E0.10358 F540.000
G1 X116.873 Y100.962 E0.13106
G1 X115.451 Y99.541 E0.22248
G1 X115.623 Y100.260 E0.25612
G1 X116.926 Y101.564 E0.33996
G1 X116.977 Y102.163 E0.36732
G1 X115.674 Y100.860 E0.45114
G1 X115.725 Y101.459 E0.47851
G1 X116.944 Y102.677 E0.55687
G1 X116.910 Y103.192 E0.58031
G1 X115.764 Y102.046 E0.65403
G1 X115.719 Y102.549 E0.67700
G1 X116.863 Y103.693 E0.75061
G1 X116.765 Y104.144 E0.77157
G1 X115.673 Y103.052 E0.84180
G1 X115.628 Y103.555 E0.86477
G1 X116.668 Y104.594 E0.93161
G1 X116.552 Y105.026 E0.95198
G1 X115.547 Y104.021 E1.01663
G1 X115.414 Y104.437 E1.03647
G1 X116.394 Y105.417 E1.09951
G1 X116.237 Y105.808 E1.11867
G1 X115.282 Y104.853 E1.18011
G1 X115.149 Y105.268 E1.19995
G1 X116.061 Y106.180 E1.25859
G1 X115.847 Y106.515 E1.27664
G1 X114.973 Y105.640 E1.33289
G1 X114.757 Y105.972 E1.35091
G1 X115.634 Y106.849 E1.40729
G1 X115.396 Y107.160 E1.42507
G1 X114.541 Y106.305 E1.48008
G1 X114.325 Y106.637 E1.49810
G1 X115.122 Y107.434 E1.54936
G1 X114.848 Y107.708 E1.56699
G1 X114.070 Y106.930 E1.61701
G1 X113.772 Y107.180 E1.63471
G1 X114.567 Y107.975 E1.68588
G1 X114.240 Y108.196 E1.70384
G1 X113.473 Y107.429 E1.75318
G1 X113.175 Y107.679 E1.77088
G1 X113.913 Y108.417 E1.81838
G1 X113.561 Y108.613 E1.83672
G1 X112.837 Y107.889 E1.88328
G1 X112.446 Y108.047 E1.90244
G1 X113.176 Y108.777 E1.94938
G1 X112.791 Y108.940 E1.96839
G1 X112.056 Y108.204 E2.01572
G1 X111.665 Y108.362 E2.03487
G1 X112.374 Y109.071 E2.08048
G1 X111.928 Y109.173 E2.10129
G1 X111.212 Y108.457 E2.14739
G1 X110.719 Y108.512 E2.16993
G1 X111.482 Y109.276 E2.21903
G1 X110.990 Y109.331 E2.24158
G1 X110.226 Y108.568 E2.29067
G1 X109.722 Y108.612 E2.31368
G1 X110.477 Y109.367 E2.36222
G1 X109.964 Y109.402 E2.38559
G1 X109.106 Y108.544 E2.44077
G1 X108.490 Y108.476 E2.46896
G1 X109.356 Y109.341 E2.52461
G1 X108.744 Y109.278 E2.55258
G1 X107.801 Y108.335 E2.61325
G1 X106.894 Y107.976 F7800.000
G1 X108.132 Y109.214 E2.69291 F540.000
G1 X107.381 Y109.011 E2.72831
G1 X103.165 Y104.795 E2.99950
G1 X102.919 Y104.001 E3.03733
G1 X104.653 Y105.735 E3.14887
G1 X103.460 Y105.639 F7800.000
G1 X106.511 Y108.690 E3.34510 F540.000
G1 X104.859 Y107.586 F7800.000
G1 X104.505 Y107.231 E3.36791 F540.000
G92 E0
G1 X102.266 Y102.059 F7800.000
G1 X97.393 Y109.664 F7800.000
G1 X93.140 Y110.760 F7800.000
G1 X88.890 Y100.461 F7800.000
G1 X88.883 Y100.311 F7800.000
G1 X84.640 Y100.116 F7800.000
G1 X82.794 Y100.224 F7800.000
G1 X82.794 Y99.950 E0.01239 F378.000
G1 X82.878 Y98.834 E0.06306
G1 X83.125 Y97.840 E0.10941
G1 X83.535 Y96.957 E0.15345
G1 X84.092 Y96.195 E0.19618
G1 X84.784 Y95.564 E0.23853
G1 X85.612 Y95.062 E0.28234
G1 X86.564 Y94.696 E0.32849
G1 X87.624 Y94.475 E0.37748
G1 X88.793 Y94.401 E0.43051
G1 X89.917 Y94.473 E0.48145
G1 X91.107 Y94.708 E0.53638 F378.000
G1 X92.087 Y95.088 E0.58391
G1 X92.938 Y95.610 E0.62907
G1 X93.647 Y96.265 E0.67274
G1 X94.218 Y97.054 E0.71683
G1 X94.638 Y97.967 E0.76230
G1 X94.891 Y98.994 E0.81014
G1 X94.976 Y100.145 E0.86240
G1 X94.976 Y109.439 E1.28293
G1 X93.365 Y109.439 E1.35583
G1 X93.365 Y100.246 E1.77179
G1 X93.234 Y98.885 E1.83366
G1 X92.832 Y97.735 E1.88882
G1 X92.153 Y96.816 E1.94049
G1 X91.232 Y96.154 E1.99184
G1 X90.105 Y95.760 E2.04585
G1 X88.781 Y95.631 E2.10603
G1 X87.497 Y95.756 E2.16444
G1 X86.414 Y96.138 E2.21639
G1 X85.542 Y96.781 E2.26540
G1 X84.911 Y97.673 E2.31483
G1 X84.537 Y98.787 E2.36803
G1 X84.415 Y100.106 E2.42794
G1 X84.415 Y109.439 E2.85027
G1 X82.794 Y109.439 E2.92362
G1 X82.794 Y100.455 E3.33012
G1 X83.020 Y109.009 F7800.000
G1 X83.224 Y109.213 E3.34315 F540.000
G1 X83.769 Y109.213 E3.36783
G1 X83.020 Y108.464 E3.41577
G1 X83.020 Y107.919 E3.44045
G1 X84.189 Y109.088 E3.51527
G1 X84.189 Y108.542 E3.53995
G1 X83.020 Y107.373 E3.61477
G1 X83.020 Y106.828 E3.63945
G1 X84.189 Y107.997 E3.71427
G1 X84.189 Y107.452 E3.73895
G1 X83.020 Y106.282 E3.81377
G1 X83.020 Y105.737 E3.83845
G1 X84.189 Y106.906 E3.91327
G1 X84.189 Y106.361 E3.93796
G1 X83.020 Y105.192 E4.01278
G1 X83.020 Y104.646 E4.03746
G1 X84.189 Y105.815 E4.11228
G1 X84.189 Y105.270 E4.13696
G1 X83.020 Y104.101 E4.21178
G1 X83.020 Y103.555 E4.23646
G1 X84.189 Y104.725 E4.31128
G1 X84.189 Y104.179 E4.33596
G1 X83.020 Y103.010 E4.41078
G1 X83.020 Y102.465 E4.43546
G1 X84.189 Y103.634 E4.51028
G1 X84.189 Y103.088 E4.53496
G1 X83.020 Y101.919 E4.60978
G1 X83.020 Y101.374 E4.63447
G1 X84.189 Y102.543 E4.70929
G1 X84.189 Y101.998 E4.73397
G1 X83.020 Y100.828 E4.80879
G1 X83.020 Y100.283 E4.83347
G1 X84.189 Y101.452 E4.90829
G1 X84.189 Y100.907 E4.93297
G1 X83.030 Y99.748 E5.00715
G1 X83.068 Y99.240 E5.03018
G1 X84.189 Y100.361 E5.10193
G1 X84.219 Y99.846 E5.12529
G1 X83.116 Y98.742 E5.19593
G1 X83.224 Y98.306 E5.21630
G1 X84.265 Y99.347 E5.28294
G1 X84.312 Y98.848 E5.30563
G1 X83.333 Y97.869 E5.36827
G1 X83.505 Y97.495 E5.38688
G1 X84.441 Y98.431 E5.44680
G1 X84.578 Y98.023 E5.46629
G1 X83.677 Y97.123 E5.52391
G1 X83.894 Y96.794 E5.54173
G1 X84.715 Y97.615 E5.59426
G1 X84.941 Y97.295 E5.61197
G1 X84.124 Y96.479 E5.66421
G1 X84.390 Y96.199 E5.68167
G1 X85.167 Y96.976 E5.73140
G1 X85.393 Y96.657 E5.74911
G1 X84.667 Y95.931 E5.79559
G1 X84.965 Y95.683 E5.81311
G1 X85.704 Y96.422 E5.86042
G1 X86.017 Y96.190 E5.87807
G1 X85.304 Y95.477 E5.92372
G1 X85.644 Y95.271 E5.94169
G1 X86.331 Y95.958 E5.98569
G1 X86.729 Y95.811 E6.00489
G1 X86.034 Y95.116 E6.04937
G1 X86.428 Y94.965 E6.06847
G1 X87.132 Y95.669 E6.11354
G1 X87.541 Y95.532 E6.13305
G1 X86.859 Y94.850 E6.17671
G1 X87.310 Y94.756 E6.19757
G1 X88.038 Y95.484 E6.24415
G1 X88.535 Y95.435 E6.26674
G1 X87.786 Y94.687 E6.31467
G1 X88.299 Y94.654 E6.33793
G1 X89.069 Y95.424 E6.38718
G1 X89.673 Y95.483 E6.41466
G1 X88.826 Y94.635 E6.46889
G1 X89.408 Y94.672 E6.49529
G1 X90.287 Y95.551 E6.55154
G1 X91.125 Y95.843 F7800.000
G1 X90.023 Y94.742 E6.62203 F540.000
G1 X90.703 Y94.876 E6.65341
G1 X94.575 Y98.748 E6.90119
G1 X94.346 Y97.974 E6.93769
G1 X91.521 Y95.149 E7.11852
G1 X92.967 Y96.049 F7800.000
G1 X93.572 Y96.654 E7.15724 F540.000
G1 X93.152 Y97.871 F7800.000
G1 X94.688 Y99.407 E7.25557 F540.000
G1 X94.732 Y99.996 E7.28231
G1 X93.445 Y98.710 E7.36466
G1 X93.511 Y99.321 E7.39248
G1 X94.750 Y100.560 E7.47177
G1 X94.750 Y101.105 E7.49645
G1 X93.569 Y99.924 E7.57202
G1 X93.591 Y100.492 E7.59770
G1 X94.750 Y101.651 E7.67188
G1 X94.750 Y102.196 E7.69657
G1 X93.591 Y101.037 E7.77074
G1 X93.591 Y101.582 E7.79543
G1 X94.750 Y102.741 E7.86961
G1 X94.750 Y103.287 E7.89429
G1 X93.591 Y102.128 E7.96847
G1 X93.591 Y102.673 E7.99315
G1 X94.750 Y103.832 E8.06733
G1 X94.750 Y104.378 E8.09201
G1 X93.591 Y103.219 E8.16619
G1 X93.591 Y103.764 E8.19087
G1 X94.750 Y104.923 E8.26505
G1 X94.750 Y105.468 E8.28973
G1 X93.591 Y104.309 E8.36391
G1 X93.591 Y104.855 E8.38859
G1 X94.750 Y106.014 E8.46277
G1 X94.750 Y106.559 E8.48745
G1 X93.591 Y105.400 E8.56163
G1 X93.591 Y105.945 E8.58631
G1 X94.750 Y107.105 E8.66049
G1 X94.750 Y107.650 E8.68517
G1 X93.591 Y106.491 E8.75935
G1 X93.591 Y107.036 E8.78403
G1 X94.750 Y108.195 E8.85821
G1 X94.750 Y108.741 E8.88290
G1 X93.591 Y107.582 E8.95708
G1 X93.591 Y108.127 E8.98176
G1 X94.677 Y109.213 E9.05125
G1 X94.132 Y109.213 E9.07594
G1 X93.591 Y108.672 E9.11053
M106 S255
G92 E0
G1 Z0.600 F7800.000
G1 X109.113 Y94.182 F7800.000
G1 X111.078 Y95.103 E0.65005 F600.000
G1 X111.768 Y95.241 E0.86105
G1 X112.748 Y95.558 E1.16951
G1 X113.140 Y95.742 E1.29935
G1 X113.375 Y95.877 E1.38056
G1 X114.014 Y96.312 E1.61213
G1 X114.490 Y96.743 E1.80458
G1 X114.684 Y96.948 E1.88903
G1 X115.020 Y97.363 E2.04931
G1 X115.511 Y98.160 E2.32964
G1 X115.762 Y98.681 E2.50306
G1 X116.141 Y99.920 E2.89118
G1 X116.214 Y100.236 E2.98832
G1 X116.372 Y102.072 E3.54075
G1 X116.267 Y103.444 E3.95301
G1 X116.148 Y104.140 E4.16441
G1 X116.007 Y104.671 E4.32910
G1 X115.608 Y105.761 E4.67709
G1 X115.022 Y106.678 E5.00312
G1 X114.710 Y107.070 E5.15320
G1 X114.323 Y107.459 E5.31763
G1 X113.459 Y108.109 E5.64163
G1 X113.145 Y108.275 E5.74798
G1 X112.413 Y108.578 E5.98535
G1 X111.785 Y108.776 E6.18271
G1 X111.217 Y108.888 E6.35614
G1 X109.873 Y109.008 E6.76039
G1 X108.149 Y108.827 E7.27991
G1 X107.847 Y108.769 E7.37202
G1 X106.562 Y108.277 E7.78428
G1 X106.237 Y108.115 E7.89327
G1 X105.198 Y107.296 E8.28979
G1 X104.983 Y107.098 E8.37711
G1 X104.073 Y105.760 E8.86225
G1 X103.516 Y104.098 E9.38732
G1 X103.320 Y102.040 E10.00693
G1 X103.418 Y100.721 E10.40332
G1 X103.541 Y99.961 E10.63395
G1 X103.655 Y99.519 E10.77064
G1 X104.026 Y98.441 E11.11219
G1 X104.151 Y98.202 E11.19290
G1 X104.564 Y97.525 E11.43077
G1 X104.983 Y96.965 E11.64044
G1 X105.172 Y96.747 E11.72671
G1 X105.979 Y96.086 E12.03909
G1 X106.310 Y95.865 E12.15847
G1 X106.558 Y95.726 E12.24366
G1 X106.903 Y95.567 E12.35762
G1 X107.973 Y95.188 E12.69779
G1 X109.380 Y95.005 E13.12286
G1 X109.730 Y94.900 E13.23237
G1 X110.199 Y94.691 E13.38609
G1 X110.205 Y94.566 E13.42364
G1 X110.341 Y93.914 E13.62308
G1 X110.580 Y93.293 E13.82265
G1 X110.749 Y92.950 E13.93705
G1 X111.058 Y92.411 E14.12319
G1 X111.273 Y92.132 E14.22869
G1 X111.552 Y91.820 E14.35431
G1 X111.933 Y91.513 E14.50104
G1 X112.089 Y91.410 E14.55678
G1 X112.692 Y91.132 E14.75571
G1 X113.501 Y90.962 E15.00357
G1 X114.313 Y90.946 E15.24701
G1 X115.522 Y91.078 E15.61131
G92 E0
G1 X109.656 Y92.865 F7800.000
G1 X109.656 Y92.865 F7800.000
G1 X106.925 Y91.342 F7800.000
G1 X106.911 Y91.325 F7800.000
G1 X106.899 Y91.310 F7800.000
G1 X105.619 Y91.494 F7800.000
G1 X105.001 Y91.612 F7800.000
G1 X103.765 Y91.906 F7800.000
G1 X103.024 Y92.121 F7800.000
G1 X101.816 Y92.534 F7800.000
G1 X100.921 Y92.891 F7800.000
G1 X99.714 Y93.441 F7800.000
G1 X99.055 Y93.767 F7800.000
G1 X99.056 Y94.213 F7800.000
G1 X99.043 Y94.812 F7800.000
G1 X99.004 Y95.629 F7800.000
G1 X98.993 Y95.989 F7800.000
G1 X98.987 Y96.482 F7800.000
G1 X98.973 Y96.877 F7800.000
G1 X98.918 Y97.855 F7800.000
G1 X98.910 Y98.023 F7800.000
G1 X98.894 Y98.474 F7800.000
