; generated by Slic3r 1.2.9 on 2016-03-11 at 01:31:08

; external perimeters extrusion width = 1.54mm
; perimeters extrusion width = 2.62mm
; infill extrusion width = 6.27mm
; solid infill extrusion width = 2.62mm
; top infill extrusion width = 2.62mm

M107
M104 S30 ; set temperature
G28 ; home all axes
G1 Z5 F5000 ; lift nozzle
M302
M92 E10000
M500
M501
G1 E100
M109 S30 ; wait for temperature to be reached
G21 ; set units to millimeters
G90 ; use absolute coordinates
M82 ; use absolute distances for extrusion
G92 E0
G1 Z0.300 F7800.000
G1 X112.757 Y98.730 F7800.000
G1 X115.991 Y106.682 E0.38844 F378.000
G1 X116.331 Y107.519 E0.42935 F378.000
G1 X114.640 Y107.519 E0.50590
G1 X110.501 Y96.896 E1.02176
G1 X109.579 Y94.152 E1.15277
G1 X109.184 Y94.152 E1.17065
G1 X108.261 Y96.896 E1.30167
G1 X104.101 Y107.519 E1.81789
G1 X102.410 Y107.519 E1.89441
G1 X108.449 Y92.673 E2.61963
G1 X110.293 Y92.673 E2.70308
G1 X112.670 Y98.516 E2.98848
G1 X112.444 Y98.659 F7800.000
G1 X110.846 Y97.061 E3.09125 F540.000
G1 X111.693 Y96.813 F7800.000
G1 X110.263 Y95.382 E3.18318 F540.000
G1 X110.942 Y94.966 F7800.000
G1 X108.875 Y92.899 E3.31604 F540.000
G1 X108.503 Y93.074 E3.33476
G1 X109.354 Y93.926 E3.38948
G1 X108.985 Y94.104 F7800.000
G1 X108.345 Y93.464 E3.43064 F540.000
G1 X108.186 Y93.853 E3.44975
G1 X108.847 Y94.514 E3.49222
G1 X108.709 Y94.924 E3.51188
G1 X108.028 Y94.243 E3.55568
G1 X107.869 Y94.632 E3.57479
G1 X108.571 Y95.334 E3.61991
G1 X108.433 Y95.744 E3.63957
G1 X107.711 Y95.022 E3.68601
G1 X107.553 Y95.411 E3.70512
G1 X108.296 Y96.154 E3.75287
G1 X108.158 Y96.564 E3.77254
G1 X107.394 Y95.800 E3.82161
G1 X107.236 Y96.190 E3.84072
G1 X108.016 Y96.970 E3.89086
G1 X107.862 Y97.364 E3.91008
G1 X107.077 Y96.579 E3.96049
G1 X106.919 Y96.969 E3.97960
G1 X107.707 Y97.757 E4.03029
G1 X107.553 Y98.151 E4.04951
G1 X106.761 Y97.358 E4.10047
G1 X106.602 Y97.748 E4.11958
G1 X107.399 Y98.545 E4.17081
G1 X107.245 Y98.938 E4.19003
G1 X106.444 Y98.137 E4.24153
G1 X106.285 Y98.527 E4.26064
G1 X107.091 Y99.332 E4.31242
G1 X106.937 Y99.726 E4.33164
G1 X106.127 Y98.916 E4.38368
G1 X105.969 Y99.305 E4.40280
G1 X106.782 Y100.119 E4.45512
G1 X106.628 Y100.513 E4.47434
G1 X105.810 Y99.695 E4.52693
G1 X105.652 Y100.084 E4.54604
G1 X106.474 Y100.907 E4.59891
G1 X106.320 Y101.300 E4.61813
G1 X105.493 Y100.474 E4.67127
G1 X105.335 Y100.863 E4.69038
G1 X106.166 Y101.694 E4.74379
G1 X106.012 Y102.088 E4.76301
G1 X105.176 Y101.253 E4.81670
G1 X105.018 Y101.642 E4.83581
G1 X105.857 Y102.481 E4.88977
G1 X105.703 Y102.875 E4.90899
G1 X104.860 Y102.031 E4.96322
G1 X104.701 Y102.421 E4.98233
G1 X105.549 Y103.269 E5.03683
G1 X105.395 Y103.662 E5.05605
G1 X104.543 Y102.810 E5.11083
G1 X104.384 Y103.200 E5.12994
G1 X105.241 Y104.056 E5.18499
G1 X105.087 Y104.450 E5.20421
G1 X104.226 Y103.589 E5.25953
G1 X104.068 Y103.979 E5.27864
G1 X104.932 Y104.843 E5.33424
G1 X104.778 Y105.237 E5.35346
G1 X103.909 Y104.368 E5.40933
G1 X103.751 Y104.757 E5.42844
G1 X104.624 Y105.631 E5.48458
G1 X104.470 Y106.024 E5.50380
G1 X103.592 Y105.147 E5.56021
G1 X103.434 Y105.536 E5.57932
G1 X104.316 Y106.418 E5.63601
G1 X104.162 Y106.812 E5.65523
G1 X103.276 Y105.926 E5.71219
G1 X103.117 Y106.315 E5.73130
G1 X104.007 Y107.206 E5.78853
G1 X103.547 Y107.293 E5.80983
G1 X102.959 Y106.705 E5.84766
G1 X102.800 Y107.094 E5.86677
G1 X102.999 Y107.293 E5.87956
G92 E0
G1 X103.840 Y106.062 F7800.000
G1 X103.840 Y106.062 F7800.000
G1 X113.293 Y103.343 F7800.000
G1 X115.073 Y105.123 E0.11444 F540.000
G1 X114.698 Y104.200 F7800.000
G1 X112.944 Y102.446 E0.22720 F540.000
G1 X112.594 Y101.548 F7800.000
G1 X114.322 Y103.276 E0.33831 F540.000
G1 X113.947 Y102.353 F7800.000
G1 X112.244 Y100.651 E0.44774 F540.000
G1 X113.196 Y100.506 F7800.000
G1 X111.545 Y98.856 E0.55384 F540.000
G1 X111.195 Y97.958 F7800.000
G1 X112.820 Y99.583 E0.65827 F540.000
G1 X111.895 Y99.753 F7800.000
G1 X113.571 Y101.430 E0.76604 F540.000
G1 X113.643 Y104.240 F7800.000
G1 X115.449 Y106.047 E0.88214 F540.000
G1 X114.342 Y106.035 F7800.000
G1 X115.600 Y107.293 E0.96299 F540.000
G1 X115.824 Y106.970 E0.98088
G1 X113.992 Y105.138 E1.09865
G1 X114.692 Y106.933 F7800.000
G1 X115.052 Y107.293 E1.12180 F540.000
G1 X112.069 Y97.736 F7800.000
G1 X110.540 Y96.207 E1.22006 F540.000
G1 X111.318 Y95.889 F7800.000
G1 X109.986 Y94.557 E1.30567 F540.000
G1 X110.567 Y94.042 F7800.000
G1 X109.423 Y92.899 E1.37917 F540.000
G1 X109.971 Y92.899 E1.40408
G1 X110.191 Y93.119 E1.41822
G92 E0
G1 X108.298 Y92.448 F7800.000
G1 X99.138 Y106.549 F7800.000
G1 X97.966 Y107.744 F7800.000
G1 X93.905 Y108.744 F7800.000
G1 X89.655 Y98.541 F7800.000
G1 X89.648 Y98.391 F7800.000
G1 X85.405 Y98.196 F7800.000
G1 X85.180 Y105.175 F7800.000
G1 X85.180 Y107.519 E0.10605 F378.000
G1 X83.559 Y107.519 E0.17940
G1 X83.559 Y98.030 E0.60875
G1 X83.643 Y96.914 E0.65942
G1 X83.890 Y95.920 E0.70576
G1 X84.300 Y95.037 E0.74981
G1 X84.857 Y94.275 E0.79254
G1 X85.549 Y93.644 E0.83488
G1 X86.377 Y93.142 E0.87870
G1 X87.329 Y92.776 E0.92484
G1 X88.389 Y92.555 E0.97384
G1 X89.558 Y92.481 E1.02686
G1 X90.650 Y92.551 E1.07636
G1 X90.774 Y92.558 E1.08198 F378.000
G1 X91.871 Y92.788 E1.13272
G1 X92.852 Y93.168 E1.18031
G1 X93.703 Y93.690 E1.22547
G1 X94.412 Y94.345 E1.26914
G1 X94.983 Y95.134 E1.31322
G1 X95.403 Y96.047 E1.35870
G1 X95.656 Y97.074 E1.40654
G1 X95.741 Y98.225 E1.45879
G1 X95.741 Y107.519 E1.87933
G1 X94.130 Y107.519 E1.95222
G1 X94.130 Y98.326 E2.36819
G1 X93.999 Y96.965 E2.43005
G1 X93.597 Y95.815 E2.48521
G1 X92.918 Y94.896 E2.53689
G1 X91.997 Y94.234 E2.58823
G1 X90.870 Y93.840 E2.64224
G1 X89.546 Y93.711 E2.70243
G1 X88.262 Y93.836 E2.76083
G1 X87.179 Y94.218 E2.81278
G1 X86.307 Y94.861 E2.86180
G1 X85.676 Y95.753 E2.91122
G1 X85.302 Y96.867 E2.96442
G1 X85.180 Y98.186 E3.02434
G1 X85.180 Y104.944 E3.33016
G1 X83.785 Y107.089 F7800.000
G1 X83.989 Y107.293 E3.34319 F540.000
G1 X84.534 Y107.293 E3.36787
G1 X83.785 Y106.544 E3.41581
G1 X83.785 Y105.999 E3.44049
G1 X84.954 Y107.168 E3.51531
G1 X84.954 Y106.622 E3.53999
G1 X83.785 Y105.453 E3.61481
G1 X83.785 Y104.908 E3.63949
G1 X84.954 Y106.077 E3.71431
G1 X84.954 Y105.532 E3.73899
G1 X83.785 Y104.362 E3.81381
G1 X83.785 Y103.817 E3.83849
G1 X84.954 Y104.986 E3.91331
G1 X84.954 Y104.441 E3.93800
G1 X83.785 Y103.272 E4.01282
G1 X83.785 Y102.726 E4.03750
G1 X84.954 Y103.895 E4.11232
G1 X84.954 Y103.350 E4.13700
G1 X83.785 Y102.181 E4.21182
G1 X83.785 Y101.635 E4.23650
G1 X84.954 Y102.805 E4.31132
G1 X84.954 Y102.259 E4.33600
G1 X83.785 Y101.090 E4.41082
G1 X83.785 Y100.545 E4.43550
G1 X84.954 Y101.714 E4.51032
G1 X84.954 Y101.168 E4.53500
G1 X83.785 Y99.999 E4.60982
G1 X83.785 Y99.454 E4.63451
G1 X84.954 Y100.623 E4.70933
G1 X84.954 Y100.078 E4.73401
G1 X83.785 Y98.908 E4.80883
G1 X83.785 Y98.363 E4.83351
G1 X84.954 Y99.532 E4.90833
G1 X84.954 Y98.987 E4.93301
G1 X83.795 Y97.828 E5.00719
G1 X83.833 Y97.320 E5.03022
G1 X84.954 Y98.441 E5.10197
G1 X84.984 Y97.926 E5.12533
G1 X83.881 Y96.822 E5.19597
G1 X83.989 Y96.386 E5.21634
G1 X85.030 Y97.427 E5.28298
G1 X85.077 Y96.928 E5.30568
G1 X84.098 Y95.949 E5.36831
G1 X84.270 Y95.575 E5.38692
G1 X85.206 Y96.511 E5.44684
G1 X85.343 Y96.103 E5.46633
G1 X84.442 Y95.203 E5.52395
G1 X84.659 Y94.874 E5.54177
G1 X85.480 Y95.695 E5.59430
G1 X85.706 Y95.375 E5.61201
G1 X84.889 Y94.559 E5.66425
G1 X85.155 Y94.279 E5.68171
G1 X85.932 Y95.056 E5.73144
G1 X86.158 Y94.737 E5.74915
G1 X85.432 Y94.011 E5.79563
G1 X85.730 Y93.763 E5.81315
G1 X86.469 Y94.502 E5.86046
G1 X86.782 Y94.270 E5.87811
G1 X86.069 Y93.557 E5.92376
G1 X86.409 Y93.351 E5.94173
G1 X87.096 Y94.038 E5.98573
G1 X87.494 Y93.891 E6.00493
G1 X86.799 Y93.196 E6.04941
G1 X87.193 Y93.045 E6.06851
G1 X87.897 Y93.749 E6.11358
G1 X88.306 Y93.612 E6.13309
G1 X87.624 Y92.930 E6.17675
G1 X88.075 Y92.836 E6.19761
G1 X88.803 Y93.564 E6.24419
G1 X89.300 Y93.515 E6.26678
G1 X88.551 Y92.767 E6.31471
G1 X89.064 Y92.734 E6.33797
G1 X89.834 Y93.504 E6.38722
G1 X90.438 Y93.563 E6.41470
G1 X89.591 Y92.715 E6.46893
G1 X90.173 Y92.752 E6.49533
G1 X91.052 Y93.631 E6.55158
G1 X91.890 Y93.923 F7800.000
G1 X90.774 Y92.808 E6.62294 F540.000
G1 X91.464 Y92.953 E6.65482
G1 X95.340 Y96.828 E6.90285
G1 X95.111 Y96.054 E6.93936
G1 X92.286 Y93.229 E7.12019
G1 X93.732 Y94.129 F7800.000
G1 X94.337 Y94.734 E7.15891 F540.000
G1 X93.917 Y95.951 F7800.000
G1 X95.453 Y97.487 E7.25724 F540.000
G1 X95.497 Y98.076 E7.28397
G1 X94.210 Y96.790 E7.36633
G1 X94.276 Y97.401 E7.39415
G1 X95.515 Y98.640 E7.47344
G1 X95.515 Y99.185 E7.49812
G1 X94.334 Y98.004 E7.57369
G1 X94.356 Y98.572 E7.59937
G1 X95.515 Y99.731 E7.67355
G1 X95.515 Y100.276 E7.69823
G1 X94.356 Y99.117 E7.77241
G1 X94.356 Y99.662 E7.79709
G1 X95.515 Y100.821 E7.87127
G1 X95.515 Y101.367 E7.89595
G1 X94.356 Y100.208 E7.97013
G1 X94.356 Y100.753 E7.99481
G1 X95.515 Y101.912 E8.06899
G1 X95.515 Y102.458 E8.09368
G1 X94.356 Y101.298 E8.16785
G1 X94.356 Y101.844 E8.19254
G1 X95.515 Y103.003 E8.26672
G1 X95.515 Y103.548 E8.29140
G1 X94.356 Y102.389 E8.36558
G1 X94.356 Y102.935 E8.39026
G1 X95.515 Y104.094 E8.46444
G1 X95.515 Y104.639 E8.48912
G1 X94.356 Y103.480 E8.56330
G1 X94.356 Y104.025 E8.58798
G1 X95.515 Y105.185 E8.66216
G1 X95.515 Y105.730 E8.68684
G1 X94.356 Y104.571 E8.76102
G1 X94.356 Y105.116 E8.78570
G1 X95.515 Y106.275 E8.85988
G1 X95.515 Y106.821 E8.88456
G1 X94.356 Y105.662 E8.95874
G1 X94.356 Y106.207 E8.98342
G1 X95.442 Y107.293 E9.05292
G1 X94.897 Y107.293 E9.07760
G1 X94.356 Y106.752 E9.11220
M106 S255
G92 E0
G1 Z0.600 F7800.000
G1 X115.573 Y107.744 F7800.000
G1 X111.159 Y96.658 E3.57549 F600.000
G1 X110.214 Y94.109 E4.39000
G1 X109.774 Y93.445 E4.62869
G1 X109.346 Y93.412 E4.75724
G1 X108.971 Y93.449 E4.87012
G1 X108.541 Y94.106 E5.10552
G1 X107.595 Y96.654 E5.91986
G1 X103.168 Y107.744 E9.49798
G92 E0
G1 X102.076 Y107.744 F7800.000
G1 X99.132 Y106.578 F7800.000
G1 X97.966 Y107.744 F7800.000
G1 X95.966 Y107.744 F7800.000
G1 X94.936 Y107.744 F7800.000
G1 X94.934 Y98.255 E2.84325 F600.000
G1 X94.844 Y97.203 E3.15975
G1 X94.740 Y96.677 E3.32028
G1 X94.632 Y96.316 E3.43319
G1 X94.312 Y95.526 E3.68879
G1 X93.837 Y94.854 E3.93514
G1 X93.517 Y94.497 E4.07880
G1 X93.306 Y94.296 E4.16631
G1 X92.546 Y93.785 E4.44066
G1 X92.181 Y93.607 E4.56243
G1 X91.683 Y93.424 E4.72147
G1 X91.100 Y93.262 E4.90264
G1 X90.689 Y93.187 E5.02801
G1 X89.558 Y93.097 E5.36784
G1 X88.473 Y93.182 E5.69391
G1 X88.030 Y93.262 E5.82880
G1 X87.514 Y93.406 E5.98946
G1 X86.996 Y93.597 E6.15493
G1 X86.675 Y93.750 E6.26143
G1 X85.915 Y94.270 E6.53725
G1 X85.701 Y94.476 E6.62624
G1 X85.427 Y94.786 E6.75028
G1 X84.971 Y95.433 E6.98747
G1 X84.665 Y96.193 E7.23304
G1 X84.550 Y96.587 E7.35605
G1 X84.459 Y97.045 E7.49584
G1 X84.372 Y98.101 E7.81328
G1 X84.370 Y107.744 E10.70287
G92 E0
G1 Z0.900 F7800.000
G1 X115.573 Y107.744 F7800.000
G1 X111.159 Y96.658 E3.57549 F600.000
G1 X110.214 Y94.109 E4.39000
G1 X109.774 Y93.445 E4.62869
G1 X109.346 Y93.412 E4.75724
G1 X108.971 Y93.449 E4.87012
G1 X108.541 Y94.106 E5.10552
G1 X107.595 Y96.654 E5.91986
G1 X103.168 Y107.744 E9.49798
G92 E0
G1 X102.076 Y107.744 F7800.000
G1 X99.132 Y106.578 F7800.000
G1 X97.966 Y107.744 F7800.000
G1 X95.966 Y107.744 F7800.000
G1 X94.936 Y107.744 F7800.000
G1 X94.934 Y98.255 E2.84325 F600.000
G1 X94.844 Y97.203 E3.15975
G1 X94.740 Y96.677 E3.32028
G1 X94.632 Y96.316 E3.43319
G1 X94.312 Y95.526 E3.68879
G1 X93.837 Y94.854 E3.93514
G1 X93.517 Y94.497 E4.07880
G1 X93.306 Y94.296 E4.16631
G1 X92.546 Y93.785 E4.44066
G1 X92.181 Y93.607 E4.56243
G1 X91.683 Y93.424 E4.72147
G1 X91.100 Y93.262 E4.90264
G1 X90.689 Y93.187 E5.02801
G1 X89.558 Y93.097 E5.36783
G1 X88.473 Y93.182 E5.69391
G1 X88.030 Y93.262 E5.82881
G1 X87.514 Y93.406 E5.98946
G1 X86.996 Y93.597 E6.15493
G1 X86.675 Y93.750 E6.26143
G1 X85.915 Y94.270 E6.53725
G1 X85.701 Y94.476 E6.62624
G1 X85.427 Y94.786 E6.75028
G1 X84.971 Y95.433 E6.98747
G1 X84.665 Y96.193 E7.23305
G1 X84.550 Y96.587 E7.35605
G1 X84.459 Y97.045 E7.49584
G1 X84.372 Y98.101 E7.81328
G1 X84.370 Y107.744 E10.70287
G92 E0
G1 Z1.200 F7800.000
G1 X115.573 Y107.744 F7800.000
G1 X111.159 Y96.658 E3.57549 F600.000
G1 X110.214 Y94.109 E4.39000
G1 X109.774 Y93.445 E4.62869
G1 X109.346 Y93.412 E4.75724
G1 X108.971 Y93.449 E4.87012
G1 X108.541 Y94.106 E5.10552
G1 X107.595 Y96.654 E5.91986
G1 X103.168 Y107.744 E9.49798
G92 E0
G1 X102.076 Y107.744 F7800.000
G1 X99.132 Y106.578 F7800.000
G1 X97.966 Y107.744 F7800.000
G1 X95.966 Y107.744 F7800.000
G1 X94.936 Y107.744 F7800.000
G1 X94.934 Y98.255 E2.84325 F600.000
G1 X94.844 Y97.203 E3.15975
G1 X94.740 Y96.677 E3.32028
G1 X94.632 Y96.316 E3.43319
G1 X94.312 Y95.526 E3.68879
G1 X93.837 Y94.854 E3.93514
G1 X93.517 Y94.497 E4.07880
G1 X93.306 Y94.296 E4.16631
G1 X92.546 Y93.785 E4.44066
G1 X92.181 Y93.607 E4.56243
G1 X91.683 Y93.424 E4.72147
G1 X91.100 Y93.262 E4.90264
G1 X90.689 Y93.187 E5.02801
G1 X89.558 Y93.097 E5.36784
G1 X88.473 Y93.182 E5.69391
G1 X88.030 Y93.262 E5.82881
G1 X87.514 Y93.406 E5.98946
G1 X86.996 Y93.597 E6.15493
G1 X86.675 Y93.750 E6.26143
G1 X85.915 Y94.270 E6.53725
G1 X85.701 Y94.476 E6.62624
G1 X85.427 Y94.786 E6.75028
G1 X84.971 Y95.433 E6.98747
G1 X84.665 Y96.193 E7.23305
G1 X84.550 Y96.587 E7.35605
G1 X84.459 Y97.045 E7.49584
G1 X84.372 Y98.101 E7.81328
G1 X84.370 Y107.744 E10.70287
G92 E0
G1 Z1.500 F7800.000
G1 X115.573 Y107.744 F7800.000
G1 X111.159 Y96.658 E3.57549 F600.000
G1 X110.214 Y94.109 E4.39000
G1 X109.774 Y93.445 E4.62869
G1 X109.346 Y93.412 E4.75724
G1 X108.971 Y93.449 E4.87012
G1 X108.541 Y94.106 E5.10552
G1 X107.595 Y96.654 E5.91986
G1 X103.168 Y107.744 E9.49798
G92 E0
G1 X102.076 Y107.744 F7800.000
G1 X99.132 Y106.578 F7800.000
G1 X97.966 Y107.744 F7800.000
G1 X95.966 Y107.744 F7800.000
G1 X94.936 Y107.744 F7800.000
G1 X94.934 Y98.255 E2.84325 F600.000
G1 X94.844 Y97.203 E3.15975
G1 X94.740 Y96.677 E3.32028
G1 X94.632 Y96.316 E3.43319
G1 X94.312 Y95.526 E3.68879
G1 X93.837 Y94.854 E3.93514
G1 X93.517 Y94.497 E4.07880
G1 X93.306 Y94.296 E4.16631
G1 X92.546 Y93.785 E4.44066
G1 X92.181 Y93.607 E4.56243
G1 X91.683 Y93.424 E4.72147
G1 X91.100 Y93.262 E4.90264
G1 X90.689 Y93.187 E5.02801
G1 X89.558 Y93.097 E5.36783
G1 X88.473 Y93.182 E5.69391
G1 X88.030 Y93.262 E5.82881
G1 X87.514 Y93.406 E5.98946
G1 X86.996 Y93.597 E6.15493
G1 X86.675 Y93.750 E6.26143
G1 X85.915 Y94.270 E6.53725
G1 X85.701 Y94.476 E6.62624
G1 X85.427 Y94.786 E6.75028
G1 X84.971 Y95.433 E6.98747
G1 X84.665 Y96.193 E7.23305
G1 X84.550 Y96.587 E7.35605
G1 X84.459 Y97.045 E7.49584
G1 X84.372 Y98.101 E7.81328
G1 X84.370 Y107.744 E10.70287
G92 E0
G1 Z1.800 F7800.000
G1 X115.573 Y107.744 F7800.000
G1 X111.159 Y96.658 E3.57549 F600.000
G1 X110.214 Y94.109 E4.39000
G1 X109.774 Y93.445 E4.62869
G1 X109.346 Y93.412 E4.75724
G1 X108.971 Y93.449 E4.87012
G1 X108.541 Y94.106 E5.10552
G1 X107.595 Y96.654 E5.91986
G1 X103.168 Y107.744 E9.49798
G92 E0
G1 X102.076 Y107.744 F7800.000
G1 X99.132 Y106.578 F7800.000
G1 X97.966 Y107.744 F7800.000
G1 X95.966 Y107.744 F7800.000
G1 X94.936 Y107.744 F7800.000
G1 X94.934 Y98.255 E2.84325 F600.000
G1 X94.844 Y97.203 E3.15975
G1 X94.740 Y96.677 E3.32028
G1 X94.632 Y96.316 E3.43319
G1 X94.312 Y95.526 E3.68879
G1 X93.837 Y94.854 E3.93514
G1 X93.517 Y94.497 E4.07880
G1 X93.306 Y94.296 E4.16631
G1 X92.546 Y93.785 E4.44066
G1 X92.181 Y93.607 E4.56242
G1 X91.683 Y93.424 E4.72147
G1 X91.100 Y93.262 E4.90264
G1 X90.689 Y93.187 E5.02801
G1 X89.558 Y93.097 E5.36783
G1 X88.473 Y93.182 E5.69391
G1 X88.030 Y93.262 E5.82881
G1 X87.514 Y93.406 E5.98946
G1 X86.996 Y93.597 E6.15493
G1 X86.675 Y93.750 E6.26143
G1 X85.915 Y94.270 E6.53725
G1 X85.701 Y94.476 E6.62624
G1 X85.427 Y94.786 E6.75028
G1 X84.971 Y95.433 E6.98747
G1 X84.665 Y96.193 E7.23305
G1 X84.550 Y96.587 E7.35605
G1 X84.459 Y97.045 E7.49584
G1 X84.372 Y98.101 E7.81328
G1 X84.370 Y107.744 E10.70287
G92 E0
G1 Z2.100 F7800.000
G1 X115.573 Y107.744 F7800.000
G1 X111.159 Y96.658 E3.57549 F600.000
G1 X110.214 Y94.109 E4.39000
G1 X109.774 Y93.445 E4.62869
G1 X109.346 Y93.412 E4.75724
G1 X108.971 Y93.449 E4.87012
G1 X108.541 Y94.106 E5.10552
G1 X107.595 Y96.654 E5.91985
G1 X103.168 Y107.744 E9.49798
G92 E0
G1 X102.076 Y107.744 F7800.000
