; generated by Slic3r 1.2.9 on 2016-03-11 at 01:31:10

; external perimeters extrusion width = 1.54mm
; perimeters extrusion width = 2.62mm
; infill extrusion width = 6.27mm
; solid infill extrusion width = 2.62mm
; top infill extrusion width = 2.62mm

M107
M104 S30 ; set temperature
G28 ; home all axes
G1 Z5 F5000 ; lift nozzle
M302
M92 E10000
M500
M501
G1 E100
M109 S30 ; wait for temperature to be reached
G21 ; set units to millimeters
G90 ; use absolute coordinates
M82 ; use absolute distances for extrusion
G92 E0
G1 Z0.300 F7800.000
G1 X106.436 Y94.970 F7800.000
G1 X109.085 Y98.762 E0.20931 F378.000
G1 X109.622 Y99.531 E0.25172 F378.000
G1 X114.313 Y92.673 E0.62767
G1 X116.048 Y92.673 E0.70619
G1 X110.545 Y100.472 E1.13809
G1 X115.600 Y107.519 E1.53051
G1 X113.868 Y107.519 E1.60885
G1 X109.633 Y101.347 E1.94754
G1 X105.276 Y107.519 E2.28940
G1 X103.547 Y107.519 E2.36763
G1 X108.740 Y100.395 E2.76655
G1 X103.104 Y92.673 E3.19914
G1 X104.832 Y92.673 E3.27733
G1 X106.304 Y94.781 E3.39367
G1 X105.507 Y94.142 F7800.000
G1 X104.264 Y92.899 E3.47425 F540.000
G1 X103.711 Y92.899 E3.49958
G1 X106.787 Y95.974 E3.69896
G1 X106.388 Y96.680 F7800.000
G1 X110.255 Y100.547 E3.94965 F540.000
G1 X110.483 Y100.223 E3.96783
G1 X109.830 Y99.570 E4.01017
G1 X110.054 Y99.242 E4.02839
G1 X110.712 Y99.899 E4.07101
G1 X110.940 Y99.575 E4.08918
G1 X110.279 Y98.914 E4.13207
G1 X110.503 Y98.586 E4.15029
G1 X111.169 Y99.251 E4.19344
G1 X111.397 Y98.927 E4.21161
G1 X110.728 Y98.258 E4.25503
G1 X110.952 Y97.930 E4.27325
G1 X111.626 Y98.604 E4.31695
G1 X111.855 Y98.280 E4.33512
G1 X111.176 Y97.602 E4.37908
G1 X111.401 Y97.273 E4.39730
G1 X112.083 Y97.956 E4.44153
G1 X112.312 Y97.632 E4.45970
G1 X111.625 Y96.945 E4.50420
G1 X111.850 Y96.617 E4.52242
G1 X112.540 Y97.308 E4.56719
G1 X112.769 Y96.984 E4.58536
G1 X112.074 Y96.289 E4.63040
G1 X112.298 Y95.961 E4.64862
G1 X112.997 Y96.660 E4.69392
G1 X113.226 Y96.336 E4.71210
G1 X112.523 Y95.633 E4.75767
G1 X112.747 Y95.305 E4.77589
G1 X113.454 Y96.012 E4.82174
G1 X113.683 Y95.688 E4.83991
G1 X112.972 Y94.977 E4.88602
G1 X113.196 Y94.649 E4.90424
G1 X113.912 Y95.364 E4.95063
G1 X114.140 Y95.040 E4.96880
G1 X113.421 Y94.321 E5.01545
G1 X113.645 Y93.993 E5.03367
G1 X114.369 Y94.717 E5.08059
G1 X114.597 Y94.393 E5.09877
G1 X113.869 Y93.665 E5.14595
G1 X114.094 Y93.337 E5.16418
G1 X114.826 Y94.069 E5.21163
G1 X115.054 Y93.745 E5.22981
G1 X114.318 Y93.009 E5.27754
G1 X114.761 Y92.899 E5.29845
G1 X115.283 Y93.421 E5.33228
G1 X115.314 Y92.899 E5.35625
G1 X115.511 Y93.097 E5.36908
G92 E0
G1 X108.067 Y97.807 F7800.000
G1 X104.894 Y94.634 E0.20569 F540.000
G1 X107.881 Y98.726 F7800.000
G1 X111.615 Y102.460 E0.44777 F540.000
G1 X111.257 Y103.207 F7800.000
G1 X114.419 Y106.369 E0.65272 F540.000
G1 X113.673 Y106.728 F7800.000
G1 X114.238 Y107.293 E0.68935 F540.000
G1 X114.791 Y107.293 E0.71468
G1 X112.465 Y104.968 E0.86543
G1 X113.017 Y104.414 F7800.000
G1 X108.987 Y100.385 E1.12667 F540.000
G1 X108.754 Y100.704 E1.14480
G1 X109.397 Y101.347 E1.18644
G1 X109.168 Y101.670 E1.20462
G1 X108.521 Y101.024 E1.24654
G1 X108.288 Y101.343 E1.26467
G1 X108.939 Y101.994 E1.30687
G1 X108.711 Y102.318 E1.32504
G1 X108.056 Y101.663 E1.36753
G1 X107.823 Y101.982 E1.38565
G1 X108.482 Y102.642 E1.42841
G1 X108.254 Y102.966 E1.44659
G1 X107.590 Y102.302 E1.48963
G1 X107.357 Y102.621 E1.50775
G1 X108.025 Y103.290 E1.55107
G1 X107.796 Y103.614 E1.56924
G1 X107.124 Y102.941 E1.61284
G1 X106.891 Y103.261 E1.63097
G1 X107.568 Y103.937 E1.67485
G1 X107.339 Y104.261 E1.69302
G1 X106.658 Y103.580 E1.73717
G1 X106.425 Y103.900 E1.75530
G1 X107.110 Y104.585 E1.79973
G1 X106.882 Y104.909 E1.81791
G1 X106.192 Y104.219 E1.86262
G1 X105.959 Y104.539 E1.88075
G1 X106.653 Y105.233 E1.92574
G1 X106.425 Y105.557 E1.94391
G1 X105.726 Y104.858 E1.98918
G1 X105.493 Y105.178 E2.00731
G1 X106.196 Y105.880 E2.05286
G1 X105.967 Y106.204 E2.07103
G1 X105.260 Y105.497 E2.11686
G1 X105.027 Y105.817 E2.13499
G1 X105.739 Y106.528 E2.18109
G1 X105.510 Y106.852 E2.19926
G1 X104.794 Y106.136 E2.24565
G1 X104.562 Y106.456 E2.26378
G1 X105.281 Y107.176 E2.31044
G1 X104.846 Y107.293 E2.33111
G1 X104.329 Y106.776 E2.36465
G1 X104.096 Y107.095 E2.38278
G1 X104.294 Y107.293 E2.39561
G92 E0
G1 X103.105 Y107.744 F7800.000
G1 X96.150 Y108.744 F7800.000
G1 X94.089 Y108.744 F7800.000
G1 X89.839 Y105.494 F7800.000
G1 X87.589 Y107.744 F7800.000
G1 X85.589 Y107.744 F7800.000
G1 X85.364 Y105.401 F7800.000
G1 X85.364 Y107.519 E0.09582 F378.000
G1 X83.743 Y107.519 E0.16917
G1 X83.743 Y98.030 E0.59852
G1 X83.827 Y96.914 E0.64919
G1 X84.074 Y95.920 E0.69553
G1 X84.484 Y95.037 E0.73958
G1 X85.041 Y94.275 E0.78231
G1 X85.733 Y93.644 E0.82465
G1 X86.561 Y93.142 E0.86847
G1 X87.513 Y92.776 E0.91461
G1 X88.573 Y92.555 E0.96361
G1 X89.742 Y92.481 E1.01664
G1 X90.834 Y92.551 E1.06613
G1 X90.958 Y92.558 E1.07176 F378.000
G1 X92.055 Y92.788 E1.12249
G1 X93.036 Y93.168 E1.17008
G1 X93.887 Y93.690 E1.21524
G1 X94.596 Y94.345 E1.25891
G1 X95.167 Y95.134 E1.30300
G1 X95.587 Y96.047 E1.34847
G1 X95.840 Y97.074 E1.39631
G1 X95.925 Y98.225 E1.44857
G1 X95.925 Y107.519 E1.86910
G1 X94.314 Y107.519 E1.94199
G1 X94.314 Y98.326 E2.35796
G1 X94.183 Y96.965 E2.41982
G1 X93.781 Y95.815 E2.47498
G1 X93.102 Y94.896 E2.52666
G1 X92.181 Y94.234 E2.57801
G1 X91.054 Y93.840 E2.63201
G1 X89.730 Y93.711 E2.69220
G1 X88.446 Y93.836 E2.75060
G1 X87.363 Y94.218 E2.80256
G1 X86.491 Y94.861 E2.85157
G1 X85.860 Y95.753 E2.90100
G1 X85.486 Y96.867 E2.95419
G1 X85.364 Y98.186 E3.01411
G1 X85.364 Y105.170 E3.33016
G1 X83.969 Y107.089 F7800.000
G1 X84.173 Y107.293 E3.34319 F540.000
G1 X84.718 Y107.293 E3.36787
G1 X83.969 Y106.544 E3.41581
G1 X83.969 Y105.999 E3.44049
G1 X85.138 Y107.168 E3.51531
G1 X85.138 Y106.622 E3.53999
G1 X83.969 Y105.453 E3.61481
G1 X83.969 Y104.908 E3.63949
G1 X85.138 Y106.077 E3.71431
G1 X85.138 Y105.532 E3.73899
G1 X83.969 Y104.362 E3.81381
G1 X83.969 Y103.817 E3.83849
G1 X85.138 Y104.986 E3.91331
G1 X85.138 Y104.441 E3.93799
G1 X83.969 Y103.272 E4.01281
G1 X83.969 Y102.726 E4.03750
G1 X85.138 Y103.895 E4.11232
G1 X85.138 Y103.350 E4.13700
G1 X83.969 Y102.181 E4.21182
G1 X83.969 Y101.635 E4.23650
G1 X85.138 Y102.805 E4.31132
G1 X85.138 Y102.259 E4.33600
G1 X83.969 Y101.090 E4.41082
G1 X83.969 Y100.545 E4.43550
G1 X85.138 Y101.714 E4.51032
G1 X85.138 Y101.168 E4.53500
G1 X83.969 Y99.999 E4.60982
G1 X83.969 Y99.454 E4.63450
G1 X85.138 Y100.623 E4.70932
G1 X85.138 Y100.078 E4.73401
G1 X83.969 Y98.908 E4.80883
G1 X83.969 Y98.363 E4.83351
G1 X85.138 Y99.532 E4.90833
G1 X85.138 Y98.987 E4.93301
G1 X83.979 Y97.828 E5.00719
G1 X84.017 Y97.320 E5.03022
G1 X85.138 Y98.441 E5.10197
G1 X85.168 Y97.926 E5.12533
G1 X84.065 Y96.822 E5.19597
G1 X84.173 Y96.386 E5.21634
G1 X85.214 Y97.427 E5.28298
G1 X85.261 Y96.928 E5.30567
G1 X84.282 Y95.949 E5.36831
G1 X84.454 Y95.575 E5.38692
G1 X85.390 Y96.511 E5.44684
G1 X85.527 Y96.103 E5.46633
G1 X84.626 Y95.203 E5.52395
G1 X84.843 Y94.874 E5.54177
G1 X85.664 Y95.695 E5.59430
G1 X85.890 Y95.375 E5.61201
G1 X85.073 Y94.559 E5.66425
G1 X85.339 Y94.279 E5.68171
G1 X86.116 Y95.056 E5.73144
G1 X86.342 Y94.737 E5.74914
G1 X85.616 Y94.011 E5.79563
G1 X85.914 Y93.763 E5.81315
G1 X86.653 Y94.502 E5.86046
G1 X86.966 Y94.270 E5.87811
G1 X86.253 Y93.557 E5.92376
G1 X86.593 Y93.351 E5.94173
G1 X87.280 Y94.038 E5.98572
G1 X87.678 Y93.891 E6.00493
G1 X86.983 Y93.196 E6.04941
G1 X87.377 Y93.045 E6.06851
G1 X88.081 Y93.749 E6.11358
G1 X88.490 Y93.612 E6.13308
G1 X87.808 Y92.930 E6.17675
G1 X88.259 Y92.836 E6.19761
G1 X88.987 Y93.564 E6.24419
G1 X89.484 Y93.515 E6.26678
G1 X88.735 Y92.767 E6.31471
G1 X89.248 Y92.734 E6.33797
G1 X90.018 Y93.504 E6.38722
G1 X90.622 Y93.563 E6.41470
G1 X89.775 Y92.715 E6.46893
G1 X90.357 Y92.752 E6.49533
G1 X91.236 Y93.631 E6.55158
G1 X92.074 Y93.923 F7800.000
G1 X90.958 Y92.808 E6.62294 F540.000
G1 X91.648 Y92.953 E6.65482
G1 X95.524 Y96.828 E6.90285
G1 X95.295 Y96.054 E6.93935
G1 X92.470 Y93.229 E7.12019
G1 X93.916 Y94.129 F7800.000
G1 X94.521 Y94.734 E7.15891 F540.000
G1 X94.101 Y95.951 F7800.000
G1 X95.637 Y97.487 E7.25723 F540.000
G1 X95.681 Y98.076 E7.28397
G1 X94.394 Y96.790 E7.36633
G1 X94.460 Y97.401 E7.39415
G1 X95.699 Y98.640 E7.47344
G1 X95.699 Y99.185 E7.49812
G1 X94.518 Y98.004 E7.57369
G1 X94.540 Y98.571 E7.59937
G1 X95.699 Y99.731 E7.67355
G1 X95.699 Y100.276 E7.69823
G1 X94.540 Y99.117 E7.77241
G1 X94.540 Y99.662 E7.79709
G1 X95.699 Y100.821 E7.87127
G1 X95.699 Y101.367 E7.89595
G1 X94.540 Y100.208 E7.97013
G1 X94.540 Y100.753 E7.99481
G1 X95.699 Y101.912 E8.06899
G1 X95.699 Y102.458 E8.09367
G1 X94.540 Y101.298 E8.16785
G1 X94.540 Y101.844 E8.19253
G1 X95.699 Y103.003 E8.26671
G1 X95.699 Y103.548 E8.29140
G1 X94.540 Y102.389 E8.36558
G1 X94.540 Y102.935 E8.39026
G1 X95.699 Y104.094 E8.46444
G1 X95.699 Y104.639 E8.48912
G1 X94.540 Y103.480 E8.56330
G1 X94.540 Y104.025 E8.58798
G1 X95.699 Y105.185 E8.66216
G1 X95.699 Y105.730 E8.68684
G1 X94.540 Y104.571 E8.76102
G1 X94.540 Y105.116 E8.78570
G1 X95.699 Y106.275 E8.85988
G1 X95.699 Y106.821 E8.88456
G1 X94.540 Y105.662 E8.95874
G1 X94.540 Y106.207 E8.98342
G1 X95.626 Y107.293 E9.05292
G1 X95.081 Y107.293 E9.07760
G1 X94.540 Y106.752 E9.11220
M106 S255
G92 E0
G1 Z0.600 F7800.000
G1 X115.332 Y92.448 F7800.000
G1 X110.343 Y99.629 E2.62027 F600.000
G1 X110.068 Y99.940 E2.74445
G1 X109.645 Y100.320 E2.91494
G1 X109.637 Y100.555 E2.98522
G1 X110.100 Y100.988 E3.17516
G1 X110.335 Y101.258 E3.28236
G1 X114.885 Y107.744 E5.65652
G1 X112.262 Y102.726 F7800.000
G1 X109.167 Y99.881 E6.91634 F600.000
G1 X108.932 Y99.616 E7.02241
G1 X103.813 Y92.448 E9.66156
G92 E0
G1 X104.255 Y107.744 F7800.000
G1 X108.921 Y101.240 E2.39857 F600.000
G1 X109.201 Y100.934 E2.52286
G1 X112.321 Y98.224 E3.76123
G92 E0
G1 X103.105 Y107.744 F7800.000
G1 X99.831 Y106.064 F7800.000
G1 X98.150 Y107.744 F7800.000
G1 X96.150 Y107.744 F7800.000
G1 X95.120 Y107.744 F7800.000
G1 X95.118 Y98.255 E2.84325 F600.000
G1 X95.028 Y97.203 E3.15975
G1 X94.924 Y96.677 E3.32028
G1 X94.816 Y96.316 E3.43319
G1 X94.496 Y95.526 E3.68879
G1 X94.021 Y94.854 E3.93514
G1 X93.701 Y94.497 E4.07880
G1 X93.490 Y94.296 E4.16631
G1 X92.730 Y93.785 E4.44066
G1 X92.365 Y93.607 E4.56243
G1 X91.867 Y93.424 E4.72147
G1 X91.284 Y93.262 E4.90264
G1 X90.873 Y93.187 E5.02801
G1 X89.742 Y93.097 E5.36784
G1 X88.657 Y93.182 E5.69391
G1 X88.214 Y93.262 E5.82880
G1 X87.698 Y93.406 E5.98946
G1 X87.180 Y93.597 E6.15493
G1 X86.859 Y93.750 E6.26143
G1 X86.099 Y94.270 E6.53725
G1 X85.885 Y94.476 E6.62624
G1 X85.611 Y94.786 E6.75028
G1 X85.155 Y95.433 E6.98747
G1 X84.849 Y96.193 E7.23304
G1 X84.734 Y96.587 E7.35605
G1 X84.643 Y97.045 E7.49584
G1 X84.556 Y98.101 E7.81328
G1 X84.554 Y107.744 E10.70287
G92 E0
G1 Z0.900 F7800.000
G1 X115.332 Y92.448 F7800.000
G1 X110.343 Y99.629 E2.62027 F600.000
G1 X110.068 Y99.940 E2.74445
G1 X109.645 Y100.320 E2.91494
G1 X109.637 Y100.555 E2.98522
G1 X110.100 Y100.988 E3.17516
G1 X110.335 Y101.258 E3.28236
G1 X114.885 Y107.744 E5.65652
G1 X112.262 Y102.726 F7800.000
G1 X109.167 Y99.881 E6.91634 F600.000
G1 X108.932 Y99.616 E7.02241
G1 X103.813 Y92.448 E9.66156
G92 E0
G1 X104.255 Y107.744 F7800.000
G1 X108.921 Y101.240 E2.39857 F600.000
G1 X109.201 Y100.934 E2.52286
G1 X112.321 Y98.224 E3.76123
G92 E0
G1 X103.105 Y107.744 F7800.000
G1 X99.831 Y106.064 F7800.000
G1 X98.150 Y107.744 F7800.000
G1 X96.150 Y107.744 F7800.000
G1 X95.120 Y107.744 F7800.000
G1 X95.118 Y98.255 E2.84325 F600.000
G1 X95.028 Y97.203 E3.15975
G1 X94.924 Y96.677 E3.32028
G1 X94.816 Y96.316 E3.43319
G1 X94.496 Y95.526 E3.68879
G1 X94.021 Y94.854 E3.93514
G1 X93.701 Y94.497 E4.07880
G1 X93.490 Y94.296 E4.16631
G1 X92.730 Y93.785 E4.44066
G1 X92.365 Y93.607 E4.56243
G1 X91.867 Y93.424 E4.72147
G1 X91.284 Y93.262 E4.90264
G1 X90.873 Y93.187 E5.02801
G1 X89.742 Y93.097 E5.36783
G1 X88.657 Y93.182 E5.69391
G1 X88.214 Y93.262 E5.82881
G1 X87.698 Y93.406 E5.98946
G1 X87.180 Y93.597 E6.15493
G1 X86.859 Y93.750 E6.26143
G1 X86.099 Y94.270 E6.53725
G1 X85.885 Y94.476 E6.62624
G1 X85.611 Y94.786 E6.75028
G1 X85.155 Y95.433 E6.98747
G1 X84.849 Y96.193 E7.23305
G1 X84.734 Y96.587 E7.35605
G1 X84.643 Y97.045 E7.49584
G1 X84.556 Y98.101 E7.81328
G1 X84.554 Y107.744 E10.70287
G92 E0
G1 Z1.200 F7800.000
G1 X115.332 Y92.448 F7800.000
G1 X110.343 Y99.629 E2.62027 F600.000
G1 X110.068 Y99.940 E2.74445
G1 X109.645 Y100.320 E2.91494
G1 X109.637 Y100.555 E2.98522
G1 X110.100 Y100.988 E3.17516
G1 X110.335 Y101.258 E3.28236
G1 X114.885 Y107.744 E5.65652
G1 X112.262 Y102.726 F7800.000
G1 X109.167 Y99.881 E6.91634 F600.000
G1 X108.932 Y99.616 E7.02241
G1 X103.813 Y92.448 E9.66156
G92 E0
G1 X104.255 Y107.744 F7800.000
G1 X108.921 Y101.240 E2.39857 F600.000
G1 X109.201 Y100.934 E2.52286
G1 X112.321 Y98.224 E3.76123
G92 E0
G1 X103.105 Y107.744 F7800.000
G1 X99.831 Y106.064 F7800.000
G1 X98.150 Y107.744 F7800.000
G1 X96.150 Y107.744 F7800.000
G1 X95.120 Y107.744 F7800.000
G1 X95.118 Y98.255 E2.84325 F600.000
G1 X95.028 Y97.203 E3.15975
G1 X94.924 Y96.677 E3.32028
G1 X94.816 Y96.316 E3.43319
G1 X94.496 Y95.526 E3.68879
G1 X94.021 Y94.854 E3.93514
G1 X93.701 Y94.497 E4.07880
G1 X93.490 Y94.296 E4.16631
G1 X92.730 Y93.785 E4.44066
G1 X92.365 Y93.607 E4.56243
G1 X91.867 Y93.424 E4.72147
G1 X91.284 Y93.262 E4.90264
G1 X90.873 Y93.187 E5.02801
G1 X89.742 Y93.097 E5.36784
G1 X88.657 Y93.182 E5.69391
G1 X88.214 Y93.262 E5.82881
G1 X87.698 Y93.406 E5.98946
G1 X87.180 Y93.597 E6.15493
G1 X86.859 Y93.750 E6.26143
G1 X86.099 Y94.270 E6.53725
G1 X85.885 Y94.476 E6.62624
G1 X85.611 Y94.786 E6.75028
G1 X85.155 Y95.433 E6.98747
G1 X84.849 Y96.193 E7.23305
G1 X84.734 Y96.587 E7.35605
G1 X84.643 Y97.045 E7.49584
G1 X84.556 Y98.101 E7.81328
G1 X84.554 Y107.744 E10.70287
G92 E0
G1 Z1.500 F7800.000
G1 X115.332 Y92.448 F7800.000
G1 X110.343 Y99.629 E2.62027 F600.000
G1 X110.068 Y99.940 E2.74445
G1 X109.645 Y100.320 E2.91494
G1 X109.637 Y100.555 E2.98522
G1 X110.100 Y100.988 E3.17516
G1 X110.335 Y101.258 E3.28236
G1 X114.885 Y107.744 E5.65652
G1 X112.262 Y102.726 F7800.000
G1 X109.167 Y99.881 E6.91634 F600.000
G1 X108.932 Y99.616 E7.02241
G1 X103.813 Y92.448 E9.66156
G92 E0
G1 X104.255 Y107.744 F7800.000
G1 X108.921 Y101.240 E2.39857 F600.000
G1 X109.201 Y100.934 E2.52286
G1 X112.321 Y98.224 E3.76123
G92 E0
G1 X103.105 Y107.744 F7800.000
G1 X99.831 Y106.064 F7800.000
G1 X98.150 Y107.744 F7800.000
G1 X96.150 Y107.744 F7800.000
G1 X95.120 Y107.744 F7800.000
G1 X95.118 Y98.255 E2.84325 F600.000
G1 X95.028 Y97.203 E3.15975
G1 X94.924 Y96.677 E3.32028
G1 X94.816 Y96.316 E3.43319
G1 X94.496 Y95.526 E3.68879
G1 X94.021 Y94.854 E3.93514
G1 X93.701 Y94.497 E4.07880
G1 X93.490 Y94.296 E4.16631
G1 X92.730 Y93.785 E4.44066
G1 X92.365 Y93.607 E4.56243
G1 X91.867 Y93.424 E4.72147
G1 X91.284 Y93.262 E4.90264
G1 X90.873 Y93.187 E5.02801
G1 X89.742 Y93.097 E5.36783
G1 X88.657 Y93.182 E5.69391
G1 X88.214 Y93.262 E5.82881
G1 X87.698 Y93.406 E5.98946
G1 X87.180 Y93.597 E6.15493
G1 X86.859 Y93.750 E6.26143
G1 X86.099 Y94.270 E6.53725
G1 X85.885 Y94.476 E6.62624
G1 X85.611 Y94.786 E6.75028
G1 X85.155 Y95.433 E6.98747
G1 X84.849 Y96.193 E7.23305
G1 X84.734 Y96.587 E7.35605
G1 X84.643 Y97.045 E7.49584
G1 X84.556 Y98.101 E7.81328
G1 X84.554 Y107.744 E10.70287
G92 E0
G1 Z1.800 F7800.000
G1 X115.332 Y92.448 F7800.000
G1 X110.343 Y99.629 E2.62027 F600.000
G1 X110.068 Y99.940 E2.74445
G1 X109.645 Y100.320 E2.91494
G1 X109.637 Y100.555 E2.98522
G1 X110.100 Y100.988 E3.17516
G1 X110.335 Y101.258 E3.28236
G1 X114.885 Y107.744 E5.65652
G1 X112.262 Y102.726 F7800.000
G1 X109.167 Y99.881 E6.91634 F600.000
G1 X108.932 Y99.616 E7.02241
G1 X103.813 Y92.448 E9.66156
G92 E0
G1 X104.255 Y107.744 F7800.000
G1 X108.921 Y101.240 E2.39857 F600.000
G1 X109.201 Y100.934 E2.52286
G1 X112.321 Y98.224 E3.76123
G92 E0
G1 X103.105 Y107.744 F7800.000
G1 X99.831 Y106.064 F7800.000
G1 X98.150 Y107.744 F7800.000
G1 X96.150 Y107.744 F7800.000
G1 X95.120 Y107.744 F7800.000
G1 X95.118 Y98.255 E2.84325 F600.000
G1 X95.028 Y97.203 E3.15975
G1 X94.924 Y96.677 E3.32028
G1 X94.816 Y96.316 E3.43319
G1 X94.496 Y95.526 E3.68879
G1 X94.021 Y94.854 E3.93514
