; generated by Slic3r 1.2.9 on 2016-03-11 at 01:31:12

; external perimeters extrusion width = 1.54mm
; perimeters extrusion width = 2.62mm
; infill extrusion width = 6.27mm
; solid infill extrusion width = 2.62mm
; top infill extrusion width = 2.62mm

M107
M104 S30 ; set temperature
G28 ; home all axes
G1 Z5 F5000 ; lift nozzle
M302
M92 E10000
M500
M501
G1 E100
M109 S30 ; wait for temperature to be reached
G21 ; set units to millimeters
G90 ; use absolute coordinates
M82 ; use absolute distances for extrusion
G92 E0
G1 Z0.300 F7800.000
G1 X107.579 Y98.797 F7800.000
G1 X103.815 Y93.922 E0.27866 F378.000
G1 X103.815 Y92.673 E0.33518
G1 X115.534 Y92.673 E0.86546
G1 X115.534 Y93.915 E0.92166
G1 X105.486 Y93.915 E1.37632 F378.000
G1 X115.024 Y106.314 E2.08414
G1 X115.024 Y107.519 E2.13869
G1 X104.607 Y107.519 E2.61005
G1 X104.607 Y106.277 E2.66625
G1 X113.354 Y106.277 E3.06205
G1 X107.720 Y98.979 E3.47922
G1 X109.209 Y99.234 F7800.000
G1 X105.163 Y95.188 E3.74317 F540.000
G1 X105.501 Y94.414 F7800.000
G1 X104.041 Y92.955 E3.83841 F540.000
G1 X104.041 Y93.511 E3.86405
G1 X107.355 Y96.824 E4.08022
G1 X107.046 Y97.627 F7800.000
G1 X111.062 Y101.643 E4.34223 F540.000
G1 X110.813 Y102.506 F7800.000
G1 X114.770 Y106.463 E4.60036 F540.000
G1 X114.798 Y107.047 E4.62736
G1 X112.696 Y104.945 E4.76450
G1 X112.916 Y104.053 F7800.000
G1 X108.929 Y100.067 E5.02457 F540.000
G92 E0
G1 X105.915 Y106.503 F7800.000
G1 X106.705 Y107.293 E0.05154 F540.000
G1 X107.261 Y107.293 E0.07719
G1 X106.471 Y106.503 E0.12873
G1 X107.027 Y106.503 E0.15438
G1 X107.817 Y107.293 E0.20592
G1 X108.373 Y107.293 E0.23157
G1 X107.583 Y106.503 E0.28311
G1 X108.138 Y106.503 E0.30875
G1 X108.929 Y107.293 E0.36030
G1 X109.485 Y107.293 E0.38594
G1 X108.694 Y106.503 E0.43749
G1 X109.250 Y106.503 E0.46313
G1 X110.040 Y107.293 E0.51467
G1 X110.596 Y107.293 E0.54032
G1 X109.806 Y106.503 E0.59186
G1 X110.362 Y106.503 E0.61751
G1 X111.152 Y107.293 E0.66905
G1 X111.708 Y107.293 E0.69470
G1 X110.918 Y106.503 E0.74624
G1 X111.474 Y106.503 E0.77189
G1 X112.264 Y107.293 E0.82343
G1 X112.820 Y107.293 E0.84907
G1 X112.030 Y106.503 E0.90062
G1 X112.586 Y106.503 E0.92626
G1 X113.376 Y107.293 E0.97781
G1 X113.932 Y107.293 E1.00345
G1 X113.142 Y106.503 E1.05499
G1 X113.698 Y106.503 E1.08064
G1 X114.488 Y107.293 E1.13218
G1 X105.359 Y106.503 F7800.000
G1 X106.149 Y107.293 E1.18373 F540.000
G1 X105.593 Y107.293 E1.20937
G1 X104.833 Y106.534 E1.25892
G1 X104.833 Y107.089 E1.28457
G1 X105.037 Y107.293 E1.29785
G92 E0
G1 X105.332 Y93.689 F7800.000
G1 X104.542 Y92.899 E0.05154 F540.000
G1 X105.098 Y92.899 E0.07719
G1 X105.888 Y93.689 E0.12873
G1 X106.444 Y93.689 E0.15438
G1 X105.654 Y92.899 E0.20592
G1 X106.210 Y92.899 E0.23156
G1 X107.000 Y93.689 E0.28311
G1 X107.556 Y93.689 E0.30875
G1 X106.765 Y92.899 E0.36029
G1 X107.321 Y92.899 E0.38594
G1 X108.112 Y93.689 E0.43748
G1 X108.667 Y93.689 E0.46313
G1 X107.877 Y92.899 E0.51467
G1 X108.433 Y92.899 E0.54032
G1 X109.223 Y93.689 E0.59186
G1 X109.779 Y93.689 E0.61750
G1 X108.989 Y92.899 E0.66905
G1 X109.545 Y92.899 E0.69469
G1 X110.335 Y93.689 E0.74624
G1 X110.891 Y93.689 E0.77188
G1 X110.101 Y92.899 E0.82342
G1 X110.657 Y92.899 E0.84907
G1 X111.447 Y93.689 E0.90061
G1 X112.003 Y93.689 E0.92626
G1 X111.213 Y92.899 E0.97780
G1 X111.769 Y92.899 E1.00345
G1 X112.559 Y93.689 E1.05499
G1 X113.115 Y93.689 E1.08063
G1 X112.325 Y92.899 E1.13218
G1 X112.881 Y92.899 E1.15782
G1 X113.671 Y93.689 E1.20936
G1 X114.227 Y93.689 E1.23501
G1 X113.437 Y92.899 E1.28655
G1 X113.993 Y92.899 E1.31220
G1 X114.783 Y93.689 E1.36374
G1 X115.308 Y93.659 E1.38802
G1 X114.549 Y92.899 E1.43757
G1 X115.105 Y92.899 E1.46322
G1 X115.308 Y93.103 E1.47650
G92 E0
G1 X103.590 Y93.999 F7800.000
G1 X99.847 Y93.999 F7800.000
G1 X99.899 Y94.421 F7800.000
G1 X96.522 Y95.973 F7800.000
G1 X93.847 Y94.926 F7800.000
G1 X92.903 Y94.234 E0.05297 F378.000
G1 X91.776 Y93.840 E0.10698
G1 X90.453 Y93.711 E0.16716
G1 X89.168 Y93.836 E0.22557
G1 X88.085 Y94.218 E0.27752
G1 X87.214 Y94.861 E0.32653
G1 X86.582 Y95.753 E0.37596
G1 X86.208 Y96.867 E0.42916
G1 X86.087 Y98.186 E0.48907
G1 X86.087 Y107.519 E0.91140
G1 X84.466 Y107.519 E0.98475
G1 X84.466 Y98.030 E1.41410
G1 X84.549 Y96.914 E1.46477
G1 X84.797 Y95.920 E1.51111
G1 X85.206 Y95.037 E1.55516
G1 X85.764 Y94.275 E1.59789
G1 X86.455 Y93.644 E1.64023
G1 X87.283 Y93.142 E1.68405
G1 X88.235 Y92.776 E1.73019
G1 X89.295 Y92.555 E1.77919
G1 X90.465 Y92.481 E1.83222
G1 X91.556 Y92.551 E1.88171
G1 X91.680 Y92.558 E1.88734 F378.000
G1 X92.778 Y92.788 E1.93807
G1 X93.758 Y93.168 E1.98566
G1 X94.609 Y93.690 E2.03082
G1 X95.318 Y94.345 E2.07449
G1 X95.889 Y95.134 E2.11858
G1 X96.309 Y96.047 E2.16405
G1 X96.562 Y97.074 E2.21189
G1 X96.648 Y98.225 E2.26415
G1 X96.648 Y107.519 E2.68468
G1 X95.037 Y107.519 E2.75757
G1 X95.037 Y98.326 E3.17354
G1 X94.906 Y96.965 E3.23540
G1 X94.503 Y95.815 E3.29056
G1 X93.984 Y95.112 E3.33008
G1 X94.638 Y94.129 F7800.000
G1 X95.243 Y94.734 E3.36880 F540.000
G1 X94.823 Y95.951 F7800.000
G1 X96.360 Y97.487 E3.46713 F540.000
G1 X96.404 Y98.076 E3.49387
G1 X95.117 Y96.790 E3.57622
G1 X95.183 Y97.401 E3.60404
G1 X96.422 Y98.640 E3.68333
G1 X96.422 Y99.185 E3.70802
G1 X95.241 Y98.004 E3.78358
G1 X95.263 Y98.572 E3.80927
G1 X96.422 Y99.731 E3.88345
G1 X96.422 Y100.276 E3.90813
G1 X95.263 Y99.117 E3.98231
G1 X95.263 Y99.662 E4.00699
G1 X96.422 Y100.821 E4.08117
G1 X96.422 Y101.367 E4.10585
G1 X95.263 Y100.208 E4.18003
G1 X95.263 Y100.753 E4.20471
G1 X96.422 Y101.912 E4.27889
G1 X96.422 Y102.458 E4.30357
G1 X95.263 Y101.298 E4.37775
G1 X95.263 Y101.844 E4.40243
G1 X96.422 Y103.003 E4.47661
G1 X96.422 Y103.548 E4.50129
G1 X95.263 Y102.389 E4.57547
G1 X95.263 Y102.935 E4.60015
G1 X96.422 Y104.094 E4.67433
G1 X96.422 Y104.639 E4.69901
G1 X95.263 Y103.480 E4.77319
G1 X95.263 Y104.025 E4.79787
G1 X96.422 Y105.185 E4.87205
G1 X96.422 Y105.730 E4.89674
G1 X95.263 Y104.571 E4.97091
G1 X95.263 Y105.116 E4.99560
G1 X96.422 Y106.275 E5.06978
G1 X96.422 Y106.821 E5.09446
G1 X95.263 Y105.662 E5.16864
G1 X95.263 Y106.207 E5.19332
G1 X96.349 Y107.293 E5.26282
G1 X95.803 Y107.293 E5.28750
G1 X95.263 Y106.752 E5.32209
G92 E0
G1 X85.312 Y106.744 F7800.000
G1 X85.312 Y106.744 F7800.000
G1 X85.276 Y106.708 F7800.000
G1 X85.241 Y106.744 F7800.000
G1 X84.692 Y107.089 F7800.000
G1 X84.895 Y107.293 E0.01303 F540.000
G1 X85.441 Y107.293 E0.03771
G1 X84.692 Y106.544 E0.08564
G1 X84.692 Y105.999 E0.11032
G1 X85.861 Y107.168 E0.18514
G1 X85.861 Y106.622 E0.20983
G1 X84.692 Y105.453 E0.28465
G1 X84.692 Y104.908 E0.30933
G1 X85.861 Y106.077 E0.38415
G1 X85.861 Y105.532 E0.40883
G1 X84.692 Y104.362 E0.48365
G1 X84.692 Y103.817 E0.50833
G1 X85.861 Y104.986 E0.58315
G1 X85.861 Y104.441 E0.60783
G1 X84.692 Y103.272 E0.68265
G1 X84.692 Y102.726 E0.70733
G1 X85.861 Y103.895 E0.78215
G1 X85.861 Y103.350 E0.80683
G1 X84.692 Y102.181 E0.88165
G1 X84.692 Y101.635 E0.90634
G1 X85.861 Y102.805 E0.98116
G1 X85.861 Y102.259 E1.00584
G1 X84.692 Y101.090 E1.08066
G1 X84.692 Y100.545 E1.10534
G1 X85.861 Y101.714 E1.18016
G1 X85.861 Y101.168 E1.20484
G1 X84.692 Y99.999 E1.27966
G1 X84.692 Y99.454 E1.30434
G1 X85.861 Y100.623 E1.37916
G1 X85.861 Y100.078 E1.40384
G1 X84.692 Y98.908 E1.47866
G1 X84.692 Y98.363 E1.50334
G1 X85.861 Y99.532 E1.57816
G1 X85.861 Y98.987 E1.60285
G1 X84.702 Y97.828 E1.67703
G1 X84.740 Y97.320 E1.70006
G1 X85.861 Y98.441 E1.77181
G1 X85.891 Y97.926 E1.79517
G1 X84.787 Y96.822 E1.86581
G1 X84.896 Y96.386 E1.88618
G1 X85.937 Y97.427 E1.95282
G1 X85.983 Y96.928 E1.97551
G1 X85.004 Y95.949 E2.03815
G1 X85.176 Y95.575 E2.05676
G1 X86.112 Y96.511 E2.11668
G1 X86.249 Y96.103 E2.13617
G1 X85.349 Y95.203 E2.19379
G1 X85.565 Y94.874 E2.21161
G1 X86.386 Y95.695 E2.26414
G1 X86.612 Y95.375 E2.28184
G1 X85.796 Y94.559 E2.33409
G1 X86.061 Y94.279 E2.35155
G1 X86.839 Y95.056 E2.40128
G1 X87.065 Y94.737 E2.41898
G1 X86.338 Y94.011 E2.46547
G1 X86.636 Y93.763 E2.48299
G1 X87.375 Y94.502 E2.53030
G1 X87.689 Y94.270 E2.54795
G1 X86.976 Y93.557 E2.59360
G1 X87.315 Y93.351 E2.61157
G1 X88.003 Y94.038 E2.65556
G1 X88.400 Y93.891 E2.67477
G1 X87.706 Y93.196 E2.71924
G1 X88.100 Y93.045 E2.73834
G1 X88.804 Y93.749 E2.78341
G1 X89.213 Y93.612 E2.80292
G1 X88.530 Y92.930 E2.84658
G1 X88.982 Y92.836 E2.86745
G1 X89.710 Y93.564 E2.91402
G1 X90.207 Y93.515 E2.93662
G1 X89.458 Y92.767 E2.98455
G1 X89.971 Y92.734 E3.00781
G1 X90.740 Y93.504 E3.05705
G1 X91.345 Y93.563 E3.08454
G1 X90.497 Y92.715 E3.13877
G1 X91.079 Y92.752 E3.16517
G1 X91.958 Y93.631 E3.22141
G1 X92.796 Y93.923 F7800.000
G1 X91.681 Y92.808 E3.29278 F540.000
G1 X92.371 Y92.953 E3.32466
G1 X96.246 Y96.828 E3.57269
G1 X96.018 Y96.054 E3.60919
G1 X93.192 Y93.229 E3.79003
M106 S255
G92 E0
G1 Z0.600 F7800.000
G1 X115.759 Y93.294 F7800.000
G1 X105.943 Y93.294 E2.94133 F600.000
G1 X104.843 Y93.652 E3.28802
G1 X105.239 Y94.682 E3.61865
G1 X113.590 Y105.517 E7.71765
G1 X113.982 Y106.549 E8.04874
G1 X112.896 Y106.898 E8.39055
G1 X104.382 Y106.898 E10.94174
G92 E0
G1 X100.690 Y106.052 F7800.000
G1 X98.873 Y107.744 F7800.000
G1 X96.873 Y107.744 F7800.000
G1 X95.842 Y107.744 F7800.000
G1 X95.841 Y98.255 E2.84325 F600.000
G1 X95.751 Y97.203 E3.15975
G1 X95.646 Y96.677 E3.32028
G1 X95.539 Y96.316 E3.43319
G1 X95.218 Y95.526 E3.68879
G1 X94.744 Y94.854 E3.93514
G1 X94.424 Y94.497 E4.07880
G1 X94.213 Y94.296 E4.16631
G1 X93.453 Y93.785 E4.44066
G1 X93.087 Y93.607 E4.56243
G1 X92.589 Y93.424 E4.72147
G1 X92.007 Y93.262 E4.90264
G1 X91.595 Y93.187 E5.02801
G1 X90.465 Y93.097 E5.36784
G1 X89.380 Y93.182 E5.69391
G1 X88.937 Y93.262 E5.82880
G1 X88.420 Y93.406 E5.98946
G1 X87.902 Y93.597 E6.15493
G1 X87.582 Y93.750 E6.26143
G1 X86.822 Y94.270 E6.53725
G1 X86.608 Y94.476 E6.62624
G1 X86.334 Y94.786 E6.75028
G1 X85.878 Y95.433 E6.98747
G1 X85.571 Y96.193 E7.23304
G1 X85.457 Y96.587 E7.35605
G1 X85.365 Y97.045 E7.49584
G1 X85.278 Y98.101 E7.81328
G1 X85.276 Y107.744 E10.70287
G92 E0
G1 Z0.900 F7800.000
G1 X115.759 Y93.294 F7800.000
G1 X105.943 Y93.294 E2.94133 F600.000
G1 X104.843 Y93.652 E3.28802
G1 X105.239 Y94.682 E3.61865
G1 X113.590 Y105.517 E7.71765
G1 X113.982 Y106.549 E8.04874
G1 X112.896 Y106.898 E8.39055
G1 X104.382 Y106.898 E10.94174
G92 E0
G1 X100.690 Y106.052 F7800.000
G1 X98.873 Y107.744 F7800.000
G1 X96.873 Y107.744 F7800.000
G1 X95.842 Y107.744 F7800.000
G1 X95.841 Y98.255 E2.84325 F600.000
G1 X95.751 Y97.203 E3.15975
G1 X95.646 Y96.677 E3.32028
G1 X95.539 Y96.316 E3.43319
G1 X95.218 Y95.526 E3.68879
G1 X94.744 Y94.854 E3.93514
G1 X94.424 Y94.497 E4.07880
G1 X94.213 Y94.296 E4.16631
G1 X93.453 Y93.785 E4.44066
G1 X93.087 Y93.607 E4.56243
G1 X92.589 Y93.424 E4.72147
G1 X92.007 Y93.262 E4.90264
G1 X91.595 Y93.187 E5.02801
G1 X90.465 Y93.097 E5.36783
G1 X89.380 Y93.182 E5.69391
G1 X88.937 Y93.262 E5.82881
G1 X88.420 Y93.406 E5.98946
G1 X87.902 Y93.597 E6.15493
G1 X87.582 Y93.750 E6.26143
G1 X86.822 Y94.270 E6.53725
G1 X86.608 Y94.476 E6.62624
G1 X86.334 Y94.786 E6.75028
G1 X85.878 Y95.433 E6.98747
G1 X85.571 Y96.193 E7.23305
G1 X85.457 Y96.587 E7.35605
G1 X85.365 Y97.045 E7.49584
G1 X85.278 Y98.101 E7.81328
G1 X85.276 Y107.744 E10.70287
G92 E0
G1 Z1.200 F7800.000
G1 X115.759 Y93.294 F7800.000
G1 X105.943 Y93.294 E2.94133 F600.000
G1 X104.843 Y93.652 E3.28802
G1 X105.239 Y94.682 E3.61865
G1 X113.590 Y105.517 E7.71765
G1 X113.982 Y106.549 E8.04874
G1 X112.896 Y106.898 E8.39055
G1 X104.382 Y106.898 E10.94174
G92 E0
G1 X100.690 Y106.052 F7800.000
G1 X98.873 Y107.744 F7800.000
G1 X96.873 Y107.744 F7800.000
G1 X95.842 Y107.744 F7800.000
G1 X95.841 Y98.255 E2.84325 F600.000
G1 X95.751 Y97.203 E3.15975
G1 X95.646 Y96.677 E3.32028
G1 X95.539 Y96.316 E3.43319
G1 X95.218 Y95.526 E3.68879
G1 X94.744 Y94.854 E3.93514
G1 X94.424 Y94.497 E4.07880
G1 X94.213 Y94.296 E4.16631
G1 X93.453 Y93.785 E4.44066
G1 X93.087 Y93.607 E4.56243
G1 X92.589 Y93.424 E4.72147
G1 X92.007 Y93.262 E4.90264
G1 X91.595 Y93.187 E5.02801
G1 X90.465 Y93.097 E5.36784
G1 X89.380 Y93.182 E5.69391
G1 X88.937 Y93.262 E5.82881
G1 X88.420 Y93.406 E5.98946
G1 X87.902 Y93.597 E6.15493
G1 X87.582 Y93.750 E6.26143
G1 X86.822 Y94.270 E6.53725
G1 X86.608 Y94.476 E6.62624
G1 X86.334 Y94.786 E6.75028
G1 X85.878 Y95.433 E6.98747
G1 X85.571 Y96.193 E7.23305
G1 X85.457 Y96.587 E7.35605
G1 X85.365 Y97.045 E7.49584
G1 X85.278 Y98.101 E7.81328
G1 X85.276 Y107.744 E10.70287
G92 E0
G1 Z1.500 F7800.000
G1 X115.759 Y93.294 F7800.000
G1 X105.943 Y93.294 E2.94133 F600.000
G1 X104.843 Y93.652 E3.28802
G1 X105.239 Y94.682 E3.61865
G1 X113.590 Y105.517 E7.71765
G1 X113.982 Y106.549 E8.04874
G1 X112.896 Y106.898 E8.39055
G1 X104.382 Y106.898 E10.94174
G92 E0
G1 X100.690 Y106.052 F7800.000
G1 X98.873 Y107.744 F7800.000
G1 X96.873 Y107.744 F7800.000
G1 X95.842 Y107.744 F7800.000
G1 X95.841 Y98.255 E2.84325 F600.000
G1 X95.751 Y97.203 E3.15975
G1 X95.646 Y96.677 E3.32028
G1 X95.539 Y96.316 E3.43319
G1 X95.218 Y95.526 E3.68879
G1 X94.744 Y94.854 E3.93514
G1 X94.424 Y94.497 E4.07880
G1 X94.213 Y94.296 E4.16631
G1 X93.453 Y93.785 E4.44066
G1 X93.087 Y93.607 E4.56243
G1 X92.589 Y93.424 E4.72147
G1 X92.007 Y93.262 E4.90264
G1 X91.595 Y93.187 E5.02801
G1 X90.465 Y93.097 E5.36783
G1 X89.380 Y93.182 E5.69391
G1 X88.937 Y93.262 E5.82881
G1 X88.420 Y93.406 E5.98946
G1 X87.902 Y93.597 E6.15493
G1 X87.582 Y93.750 E6.26143
G1 X86.822 Y94.270 E6.53725
G1 X86.608 Y94.476 E6.62624
G1 X86.334 Y94.786 E6.75028
G1 X85.878 Y95.433 E6.98747
G1 X85.571 Y96.193 E7.23305
G1 X85.457 Y96.587 E7.35605
G1 X85.365 Y97.045 E7.49584
G1 X85.278 Y98.101 E7.81328
G1 X85.276 Y107.744 E10.70287
G92 E0
G1 Z1.800 F7800.000
G1 X115.759 Y93.294 F7800.000
G1 X105.943 Y93.294 E2.94133 F600.000
G1 X104.843 Y93.652 E3.28802
G1 X105.239 Y94.682 E3.61865
G1 X113.590 Y105.517 E7.71765
G1 X113.982 Y106.549 E8.04874
G1 X112.896 Y106.898 E8.39055
G1 X104.382 Y106.898 E10.94174
G92 E0
G1 X100.690 Y106.052 F7800.000
G1 X98.873 Y107.744 F7800.000
G1 X96.873 Y107.744 F7800.000
G1 X95.842 Y107.744 F7800.000
G1 X95.841 Y98.255 E2.84325 F600.000
G1 X95.751 Y97.203 E3.15975
G1 X95.646 Y96.677 E3.32028
G1 X95.539 Y96.316 E3.43319
G1 X95.218 Y95.526 E3.68879
G1 X94.744 Y94.854 E3.93514
G1 X94.424 Y94.497 E4.07880
G1 X94.213 Y94.296 E4.16631
G1 X93.453 Y93.785 E4.44066
G1 X93.087 Y93.607 E4.56242
G1 X92.589 Y93.424 E4.72147
G1 X92.007 Y93.262 E4.90264
G1 X91.595 Y93.187 E5.02801
G1 X90.465 Y93.097 E5.36783
G1 X89.380 Y93.182 E5.69391
G1 X88.937 Y93.262 E5.82881
G1 X88.420 Y93.406 E5.98946
G1 X87.902 Y93.597 E6.15493
G1 X87.582 Y93.750 E6.26143
G1 X86.822 Y94.270 E6.53725
G1 X86.608 Y94.476 E6.62624
G1 X86.334 Y94.786 E6.75028
G1 X85.878 Y95.433 E6.98747
G1 X85.571 Y96.193 E7.23305
G1 X85.457 Y96.587 E7.35605
G1 X85.365 Y97.045 E7.49584
G1 X85.278 Y98.101 E7.81328
G1 X85.276 Y107.744 E10.70287
G92 E0
G1 Z2.100 F7800.000
G1 X115.759 Y93.294 F7800.000
G1 X105.943 Y93.294 E2.94133 F600.000
G1 X104.843 Y93.652 E3.28802
G1 X105.239 Y94.682 E3.61865
G1 X113.590 Y105.517 E7.71765
G1 X113.982 Y106.549 E8.04874
G1 X112.896 Y106.898 E8.39055
G1 X104.382 Y106.898 E10.94174
G92 E0
G1 X100.690 Y106.052 F7800.000
G1 X98.873 Y107.744 F7800.000
G1 X96.873 Y107.744 F7800.000
G1 X95.842 Y107.744 F7800.000
G1 X95.841 Y98.255 E2.84325 F600.000
G1 X95.751 Y97.203 E3.15975
G1 X95.646 Y96.677 E3.32028
G1 X95.539 Y96.316 E3.43319
G1 X95.218 Y95.526 E3.68879
G1 X94.744 Y94.854 E3.93514
G1 X94.424 Y94.497 E4.07880
G1 X94.213 Y94.296 E4.16631
G1 X93.453 Y93.785 E4.44066
G1 X93.087 Y93.607 E4.56243
G1 X92.589 Y93.424 E4.72147
G1 X92.007 Y93.262 E4.90264
G1 X91.595 Y93.187 E5.02801
G1 X90.494 Y93.099 E5.35890
G1 X89.378 Y93.182 E5.69426
G1 X88.937 Y93.262 E5.82874
G1 X88.420 Y93.406 E5.98940
G1 X87.902 Y93.597 E6.15486
G1 X87.582 Y93.750 E6.26137
G1 X86.822 Y94.270 E6.53719
G1 X86.608 Y94.476 E6.62618
G1 X86.334 Y94.786 E6.75022
G1 X85.878 Y95.433 E6.98741
G1 X85.571 Y96.193 E7.23298
G1 X85.457 Y96.587 E7.35598
G1 X85.365 Y97.045 E7.49578
G1 X85.278 Y98.101 E7.81321
G1 X85.276 Y107.744 E10.70280
G92 E0
M107
M104 S0 ; turn off temperature
G28 X0  ; home X axis
M84     ; disable motors

; filament used = 146.8mm (1.1cm3)

; avoid_crossing_perimeters = 1
