; generated by Slic3r 1.2.9 on 2016-03-11 at 01:31:14

; external perimeters extrusion width = 1.54mm
; perimeters extrusion width = 2.62mm
; infill extrusion width = 6.27mm
; solid infill extrusion width = 2.62mm
; top infill extrusion width = 2.62mm

M107
M104 S30 ; set temperature
G28 ; home all axes
G1 Z5 F5000 ; lift nozzle
M302
M92 E10000
M500
M501
G1 E100
M109 S30 ; wait for temperature to be reached
G21 ; set units to millimeters
G90 ; use absolute coordinates
M82 ; use absolute distances for extrusion
G92 E0
G1 Z0.300 F7800.000
G1 X111.483 Y92.649 F7800.000
G1 X112.002 Y92.689 E0.02356 F378.000
G1 X112.149 Y92.700 E0.03023 F378.000
G1 X113.476 Y93.064 E0.09249
G1 X114.540 Y93.663 E0.14773
G1 X115.315 Y94.467 E0.19825
G1 X115.778 Y95.456 E0.24770
G1 X115.935 Y96.650 E0.30218
G1 X115.832 Y97.552 E0.34329
G1 X115.526 Y98.339 E0.38147
G1 X115.015 Y99.016 E0.41983
G1 X114.313 Y99.561 E0.46007
G1 X113.426 Y99.946 E0.50381
G1 X112.307 Y100.177 E0.55551
G1 X112.284 Y100.600 E0.57464
G1 X113.137 Y100.878 E0.61526
G1 X113.807 Y101.267 E0.65031
G1 X114.342 Y101.779 E0.68382
G1 X114.733 Y102.398 E0.71696
G1 X114.969 Y103.110 E0.75091
G1 X115.047 Y103.901 E0.78688
G1 X114.484 Y105.853 E0.87879
G1 X112.805 Y107.019 E0.97129
G1 X109.891 Y107.423 E1.10439
G1 X104.590 Y107.423 E1.34428
G1 X104.590 Y92.577 E2.01605
G1 X110.547 Y92.577 E2.28562
G1 X111.252 Y92.631 E2.31762
G1 X111.170 Y93.835 F7800.000
G1 X111.631 Y93.866 E2.33850 F378.000
G1 X112.599 Y94.113 E2.38370
G1 X113.349 Y94.537 E2.42268
G1 X113.879 Y95.139 E2.45899
G1 X114.194 Y95.902 E2.49635
G1 X114.298 Y96.831 E2.53862
G1 X113.844 Y98.445 E2.61450
G1 X112.473 Y99.420 E2.69063
G1 X110.301 Y99.729 E2.78993
G1 X106.211 Y99.729 E2.97499
G1 X106.211 Y93.786 E3.24391
G1 X110.455 Y93.786 E3.43598 F378.000
G1 X110.940 Y93.819 E3.45795
G92 E0
G1 X114.753 Y98.076 F7800.000
G1 X114.753 Y98.076 F7800.000
G1 X110.449 Y100.932 F7800.000
G1 X110.952 Y100.967 E0.02279 F378.000
G1 X111.822 Y101.188 E0.06344
G1 X112.517 Y101.567 E0.09928
G1 X113.022 Y102.117 E0.13304
G1 X113.322 Y102.825 E0.16784
G1 X113.419 Y103.676 E0.20660
G1 X113.318 Y104.489 E0.24368
G1 X113.002 Y105.154 E0.27697
G1 X112.476 Y105.643 E0.30951
G1 X111.775 Y105.966 E0.34443
G1 X110.919 Y106.153 E0.38404
G1 X109.913 Y106.214 E0.42968
G1 X106.211 Y106.214 E0.59718
G1 X106.211 Y101.485 E0.81116
G1 X106.211 Y100.895 E0.83786 F378.000
G1 X109.914 Y100.895 E1.00541
G1 X110.219 Y100.916 E1.01925
G1 X112.073 Y100.912 F7800.000
G1 X112.802 Y101.227 E1.09705 F540.000
G1 X112.133 Y99.839 F7800.000
G1 X112.569 Y99.763 E1.14050 F540.000
G1 X112.990 Y99.589 E1.18511
G1 X113.195 Y99.394 F7800.000
G1 X113.497 Y99.697 E1.20469 F540.000
G1 X113.881 Y99.530 E1.22383
G1 X113.371 Y99.019 E1.25684
G1 X113.693 Y98.790 E1.27490
G1 X114.260 Y99.357 E1.31156
G1 X114.570 Y99.117 E1.32951
G1 X114.015 Y98.561 E1.36541
G1 X114.145 Y98.140 E1.38555
G1 X114.879 Y98.875 E1.43304
G1 X115.116 Y98.561 E1.45102
G1 X114.266 Y97.710 E1.50600
G1 X114.387 Y97.280 E1.52642
G1 X115.347 Y98.241 E1.58852
G1 X115.502 Y97.844 E1.60797
G1 X114.508 Y96.850 E1.67224
G1 X114.472 Y96.263 E1.69913
G1 X115.629 Y97.420 E1.77393
G1 X115.685 Y96.926 E1.79668
G1 X114.350 Y95.591 E1.88298
G1 X115.141 Y94.729 F7800.000
G1 X114.203 Y93.791 E1.94366 F540.000
G1 X113.075 Y93.214 F7800.000
G1 X115.573 Y95.711 E2.10511 F540.000
G1 X115.656 Y96.346 E2.13435
G1 X112.316 Y93.006 E2.35027
G1 X111.655 Y92.895 E2.38093
G1 X112.621 Y93.862 E2.44341
G1 X111.882 Y93.673 E2.47830
G1 X111.058 Y92.849 E2.53156
G1 X110.461 Y92.804 E2.55893
G1 X111.266 Y93.609 E2.61101
G1 X110.675 Y93.569 E2.63810
G1 X109.909 Y92.803 E2.68761
G1 X109.358 Y92.803 E2.71280
G1 X110.115 Y93.560 E2.76174
G1 X109.564 Y93.560 E2.78693
G1 X108.807 Y92.803 E2.83588
G1 X108.256 Y92.803 E2.86107
G1 X109.013 Y93.560 E2.91001
G1 X108.462 Y93.560 E2.93520
G1 X107.705 Y92.803 E2.98415
G1 X107.154 Y92.803 E3.00934
G1 X107.911 Y93.560 E3.05828
G1 X107.361 Y93.560 E3.08347
G1 X106.603 Y92.803 E3.13242
G1 X106.052 Y92.803 E3.15761
G1 X106.810 Y93.560 E3.20656
G1 X106.259 Y93.560 E3.23174
G1 X105.501 Y92.803 E3.28069
G1 X104.951 Y92.803 E3.30588
G1 X105.985 Y93.837 E3.37275
G1 X105.985 Y94.388 E3.39794
G1 X104.816 Y93.219 E3.47352
G1 X104.816 Y93.770 E3.49871
G1 X105.985 Y94.939 E3.57430
G1 X105.985 Y95.490 E3.59948
G1 X104.816 Y94.321 E3.67507
G1 X104.816 Y94.872 E3.70026
G1 X105.985 Y96.041 E3.77584
G1 X105.985 Y96.592 E3.80103
G1 X104.816 Y95.423 E3.87661
G1 X104.816 Y95.974 E3.90180
G1 X105.985 Y97.143 E3.97739
G1 X105.985 Y97.694 E4.00257
G1 X104.816 Y96.525 E4.07816
G1 X104.816 Y97.076 E4.10335
G1 X105.985 Y98.245 E4.17893
G1 X105.985 Y98.796 E4.20412
G1 X104.816 Y97.627 E4.27970
G1 X104.816 Y98.178 E4.30489
G1 X105.985 Y99.347 E4.38047
G1 X105.985 Y99.898 E4.40566
G1 X104.816 Y98.729 E4.48125
G1 X104.816 Y99.280 E4.50643
G1 X106.205 Y100.669 E4.59625
G1 X105.985 Y101.000 F7800.000
G1 X104.816 Y99.831 E4.67183 F540.000
G1 X104.816 Y100.382 E4.69702
G1 X105.985 Y101.551 E4.77260
G1 X105.985 Y102.102 E4.79779
G1 X104.816 Y100.933 E4.87338
G1 X104.816 Y101.484 E4.89857
G1 X105.985 Y102.653 E4.97415
G1 X105.985 Y103.204 E4.99934
G1 X104.816 Y102.035 E5.07492
G1 X104.816 Y102.586 E5.10011
G1 X105.985 Y103.755 E5.17569
G1 X105.985 Y104.306 E5.20088
G1 X104.816 Y103.137 E5.27647
G1 X104.816 Y103.688 E5.30165
G1 X105.985 Y104.857 E5.37724
G1 X105.985 Y105.408 E5.40243
G1 X104.816 Y104.239 E5.47801
G1 X104.816 Y104.790 E5.50320
G1 X105.985 Y105.959 E5.57878
G1 X105.915 Y106.440 E5.60101
G1 X106.672 Y107.197 E5.64996
G1 X107.223 Y107.197 E5.67515
G1 X106.466 Y106.440 E5.72410
G1 X105.985 Y106.510 E5.74633
G1 X104.816 Y105.341 E5.82191
G1 X104.816 Y105.892 E5.84710
G1 X106.121 Y107.197 E5.93151
G1 X105.570 Y107.197 E5.95669
G1 X104.816 Y106.442 E6.00548
G1 X104.816 Y106.993 E6.03067
G1 X105.019 Y107.197 E6.04383
G1 X107.017 Y106.440 F7800.000
G1 X107.774 Y107.197 E6.09277 F540.000
G1 X108.325 Y107.197 E6.11796
G1 X107.568 Y106.440 E6.16691
G1 X108.119 Y106.440 E6.19210
G1 X108.876 Y107.197 E6.24105
G1 X109.427 Y107.197 E6.26623
G1 X108.670 Y106.440 E6.31518
G1 X109.221 Y106.440 E6.34037
G1 X109.975 Y107.194 E6.38911
G1 X110.459 Y107.127 E6.41144
G1 X109.772 Y106.440 E6.45584
G1 X110.295 Y106.412 E6.47980
G1 X110.942 Y107.060 E6.52164
G1 X111.426 Y106.992 E6.54397
G1 X110.815 Y106.381 E6.58350
G1 X111.275 Y106.290 E6.60495
G1 X111.910 Y106.925 E6.64599
G1 X112.394 Y106.858 E6.66832
G1 X111.727 Y106.191 E6.71142
G1 X112.115 Y106.028 E6.73065
G1 X112.843 Y106.756 E6.77770
G1 X113.168 Y106.530 E6.79580
G1 X112.493 Y105.855 E6.83947
G1 X112.796 Y105.608 E6.85737
G1 X113.493 Y106.305 E6.90243
G1 X113.819 Y106.079 E6.92053
G1 X113.082 Y105.342 E6.96815
G1 X113.294 Y105.003 E6.98643
G1 X114.144 Y105.853 E7.04138
G1 X114.364 Y105.523 E7.05954
G1 X113.471 Y104.630 E7.11728
G1 X113.574 Y104.182 E7.13829
G1 X114.488 Y105.095 E7.19734
G1 X114.611 Y104.667 E7.21769
G1 X113.636 Y103.692 E7.28076
G1 X113.590 Y103.096 E7.30809
G1 X114.734 Y104.240 E7.38205
G1 X114.797 Y103.751 E7.40458
G1 X113.417 Y102.371 E7.49377
G1 X112.960 Y101.364 F7800.000
G1 X114.696 Y103.100 E7.60600 F540.000
G1 X111.886 Y100.840 F7800.000
G1 X110.906 Y99.860 E7.66936 F540.000
G1 X111.388 Y99.792 E7.69164
G1 X111.984 Y100.387 E7.73013
G1 X111.291 Y100.796 F7800.000
G1 X110.424 Y99.929 E7.78620 F540.000
G1 X109.899 Y99.955 E7.81023
G1 X110.658 Y100.714 E7.85931
G1 X110.066 Y100.673 E7.88642
G1 X109.348 Y99.955 E7.93286
G1 X108.797 Y99.955 E7.95805
G1 X109.511 Y100.669 E8.00421
G1 X108.960 Y100.669 E8.02940
G1 X108.246 Y99.955 E8.07557
G1 X107.695 Y99.955 E8.10076
G1 X108.409 Y100.669 E8.14693
G1 X107.858 Y100.669 E8.17211
G1 X107.144 Y99.955 E8.21828
G1 X106.593 Y99.955 E8.24347
G1 X107.307 Y100.669 E8.28964
G1 X106.756 Y100.669 E8.31483
G1 X106.042 Y99.955 E8.36099
G92 E0
G1 X104.365 Y107.648 F7800.000
G1 X98.428 Y108.648 F7800.000
G1 X91.136 Y105.621 F7800.000
G1 X87.382 Y108.182 F7800.000
G1 X86.017 Y107.648 F7800.000
G1 X86.427 Y105.984 F7800.000
G1 X85.864 Y107.423 E0.06991 F378.000
G1 X84.173 Y107.423 E0.14643
G1 X90.212 Y92.577 E0.87165
G1 X92.056 Y92.577 E0.95511
G1 X97.753 Y106.586 E1.63940
G1 X98.094 Y107.423 E1.68031 F378.000
G1 X96.402 Y107.423 E1.75686
G1 X92.264 Y96.800 E2.27272
G1 X91.342 Y94.056 E2.40372
G1 X90.947 Y94.056 E2.42161
G1 X90.024 Y96.800 E2.55262
G1 X86.511 Y105.769 E2.98848
G1 X84.762 Y107.197 F7800.000
G1 X84.563 Y106.998 E3.00127 F540.000
G1 X84.721 Y106.609 E3.02038
G1 X85.309 Y107.197 E3.05820
G1 X85.770 Y107.110 E3.07950
G1 X84.879 Y106.219 E3.13674
G1 X85.038 Y105.830 E3.15585
G1 X85.924 Y106.716 E3.21281
G1 X86.078 Y106.322 E3.23203
G1 X85.196 Y105.440 E3.28872
G1 X85.355 Y105.051 E3.30783
G1 X86.232 Y105.929 E3.36424
G1 X86.386 Y105.535 E3.38346
G1 X85.513 Y104.662 E3.43960
G1 X85.672 Y104.272 E3.45872
G1 X86.541 Y105.141 E3.51459
G1 X86.695 Y104.747 E3.53380
G1 X85.830 Y103.883 E3.58940
G1 X85.988 Y103.493 E3.60851
G1 X86.849 Y104.354 E3.66384
G1 X87.003 Y103.960 E3.68305
G1 X86.147 Y103.104 E3.73810
G1 X86.305 Y102.714 E3.75722
G1 X87.157 Y103.566 E3.81199
G1 X87.311 Y103.173 E3.83121
G1 X86.464 Y102.325 E3.88572
G1 X86.622 Y101.935 E3.90483
G1 X87.466 Y102.779 E3.95906
G1 X87.620 Y102.385 E3.97828
G1 X86.780 Y101.546 E4.03224
G1 X86.939 Y101.157 E4.05135
G1 X87.774 Y101.992 E4.10504
G1 X87.928 Y101.598 E4.12426
G1 X87.097 Y100.767 E4.17767
G1 X87.256 Y100.378 E4.19678
G1 X88.082 Y101.204 E4.24992
G1 X88.236 Y100.811 E4.26914
G1 X87.414 Y99.988 E4.32201
G1 X87.572 Y99.599 E4.34112
G1 X88.391 Y100.417 E4.39371
G1 X88.545 Y100.023 E4.41293
G1 X87.731 Y99.209 E4.46526
G1 X87.889 Y98.820 E4.48437
G1 X88.699 Y99.630 E4.53642
G1 X88.853 Y99.236 E4.55563
G1 X88.048 Y98.431 E4.60741
G1 X88.206 Y98.041 E4.62652
G1 X89.007 Y98.842 E4.67803
G1 X89.161 Y98.449 E4.69724
G1 X88.365 Y97.652 E4.74847
G1 X88.523 Y97.262 E4.76759
G1 X89.316 Y98.055 E4.81854
G1 X89.470 Y97.661 E4.83776
G1 X88.681 Y96.873 E4.88845
G1 X88.840 Y96.483 E4.90756
G1 X89.624 Y97.268 E4.95797
G1 X89.778 Y96.874 E4.97719
G1 X88.998 Y96.094 E5.02733
G1 X89.157 Y95.704 E5.04644
G1 X89.920 Y96.468 E5.09552
G1 X90.058 Y96.058 E5.11518
G1 X89.315 Y95.315 E5.16294
G1 X89.473 Y94.926 E5.18205
G1 X90.196 Y95.648 E5.22848
G1 X90.334 Y95.238 E5.24815
G1 X89.632 Y94.536 E5.29326
G1 X89.790 Y94.147 E5.31237
G1 X90.471 Y94.828 E5.35617
G1 X90.609 Y94.418 E5.37583
G1 X89.949 Y93.757 E5.41831
G1 X90.107 Y93.368 E5.43742
G1 X90.747 Y94.008 E5.47857
G1 X91.117 Y93.830 F7800.000
G1 X90.265 Y92.978 E5.53330 F540.000
G1 X90.638 Y92.803 E5.55201
G1 X92.705 Y94.870 E5.68487
G1 X92.026 Y95.286 F7800.000
G1 X93.456 Y96.717 E5.77681 F540.000
G1 X92.608 Y96.965 F7800.000
G1 X94.207 Y98.563 E5.87958 F540.000
G1 X93.307 Y98.760 F7800.000
G1 X94.958 Y100.410 E5.98568 F540.000
G1 X94.007 Y100.555 F7800.000
G1 X95.709 Y102.257 E6.09511 F540.000
G1 X96.085 Y103.180 F7800.000
G1 X94.356 Y101.452 E6.20621 F540.000
G1 X94.706 Y102.350 F7800.000
G1 X96.460 Y104.104 E6.31898 F540.000
G1 X96.836 Y105.027 F7800.000
G1 X95.056 Y103.247 E6.43342 F540.000
G1 X95.405 Y104.145 F7800.000
G1 X97.211 Y105.951 E6.54952 F540.000
G1 X96.104 Y105.939 F7800.000
G1 X97.362 Y107.197 E6.63036 F540.000
G1 X97.587 Y106.874 E6.64825
G1 X95.755 Y105.042 E6.76602
G1 X96.454 Y106.837 F7800.000
G1 X96.814 Y107.197 E6.78917 F540.000
G1 X95.333 Y101.334 F7800.000
G1 X93.657 Y99.657 E6.89694 F540.000
G1 X94.582 Y99.487 F7800.000
G1 X92.958 Y97.862 E7.00137 F540.000
G1 X93.831 Y97.640 F7800.000
G1 X92.303 Y96.111 E7.09964 F540.000
G1 X93.080 Y95.793 F7800.000
G1 X91.748 Y94.461 E7.18524 F540.000
G1 X92.329 Y93.946 F7800.000
G1 X91.186 Y92.803 E7.25875 F540.000
G1 X91.733 Y92.803 E7.28365
G1 X91.953 Y93.023 E7.29779
M106 S255
G92 E0
G1 Z0.600 F7800.000
G1 X106.239 Y103.801 F7800.000
G1 X105.400 Y99.504 E1.31181 F600.000
G1 X105.400 Y94.011 E2.95776
G1 X105.473 Y93.461 E3.12413
G1 X106.436 Y93.181 E3.42438
G1 X110.504 Y93.182 E4.64347
G1 X111.801 Y93.283 E5.03310
G1 X112.041 Y93.322 E5.10598
G1 X112.937 Y93.575 E5.38510
G1 X113.218 Y93.691 E5.47618
G1 X113.647 Y93.932 E5.62358
G1 X114.083 Y94.254 E5.78596
G1 X114.417 Y94.615 E5.93341
G1 X114.619 Y94.875 E6.03188
G1 X114.983 Y95.689 E6.29911
G1 X115.106 Y96.695 E6.60294
G1 X115.068 Y97.093 E6.72259
G1 X115.017 Y97.351 E6.80140
G1 X114.818 Y97.944 E6.98891
G1 X114.526 Y98.533 E7.18599
G1 X114.119 Y98.969 E7.36455
G1 X114.010 Y99.050 E7.40538
G1 X113.274 Y99.466 E7.65871
G1 X112.739 Y99.699 E7.83359
G1 X112.404 Y99.792 E7.93766
G1 X111.549 Y100.308 E8.23701
G1 X110.751 Y101.178 E8.59081
G92 E0
G1 X105.436 Y102.216 F7800.000
G1 X105.400 Y102.216 F7800.000
G1 X105.400 Y106.612 F7800.000
G1 X105.400 Y105.989 F7800.000
G1 X105.400 Y101.120 E1.45898 F600.000
G1 X105.558 Y100.312 E1.70565
G1 X110.401 Y100.324 E3.15700
G1 X110.977 Y100.303 E3.32960
G1 X111.533 Y100.326 E3.49644
G1 X111.907 Y100.739 E3.66337
G1 X112.041 Y100.848 E3.71500
G1 X112.328 Y101.022 E3.81568
G1 X112.883 Y101.282 E3.99935
G1 X113.456 Y101.734 E4.21806
G1 X113.808 Y102.215 E4.39679
G1 X114.056 Y102.718 E4.56463
G1 X114.180 Y103.277 E4.73631
G1 X114.221 Y103.825 E4.90112
G1 X114.073 Y104.547 E5.12192
G1 X113.986 Y104.847 E5.21530
G1 X113.793 Y105.357 E5.37884
G1 X113.454 Y105.704 E5.52413
G1 X112.954 Y106.106 E5.71635
G1 X112.549 Y106.363 E5.86023
G1 X111.877 Y106.549 E6.06904
G1 X111.056 Y106.696 E6.31901
G1 X109.906 Y106.815 E6.66553
G1 X106.436 Y106.818 E7.70531
G1 X105.473 Y106.539 E8.00556
G1 X105.400 Y105.989 E8.17193
G92 E0
G1 X104.365 Y107.648 F7800.000
G1 X101.301 Y106.584 F7800.000
G1 X101.283 Y106.487 F7800.000
G1 X98.428 Y107.648 F7800.000
G1 X97.335 Y107.648 F7800.000
G1 X92.921 Y96.562 E3.57549 F600.000
G1 X91.976 Y94.013 E4.39000
G1 X91.536 Y93.349 E4.62869
G1 X91.108 Y93.316 E4.75724
G1 X90.734 Y93.353 E4.87012
G1 X90.303 Y94.010 E5.10552
G1 X89.357 Y96.558 E5.91986
G1 X84.931 Y107.648 E9.49798
G92 E0
G1 Z0.900 F7800.000
G1 X106.239 Y103.801 F7800.000
G1 X105.400 Y99.504 E1.31181 F600.000
G1 X105.400 Y94.011 E2.95776
G1 X105.473 Y93.461 E3.12413
G1 X106.436 Y93.181 E3.42438
G1 X110.504 Y93.182 E4.64347
G1 X111.801 Y93.283 E5.03310
G1 X112.041 Y93.322 E5.10598
G1 X112.937 Y93.575 E5.38510
G1 X113.218 Y93.691 E5.47618
G1 X113.647 Y93.932 E5.62358
G1 X114.083 Y94.254 E5.78596
G1 X114.417 Y94.615 E5.93341
G1 X114.619 Y94.875 E6.03188
G1 X114.983 Y95.689 E6.29911
G1 X115.106 Y96.695 E6.60294
G1 X115.068 Y97.093 E6.72259
G1 X115.017 Y97.351 E6.80140
G1 X114.818 Y97.944 E6.98891
G1 X114.526 Y98.533 E7.18599
G1 X114.119 Y98.969 E7.36455
G1 X114.010 Y99.050 E7.40538
G1 X113.274 Y99.466 E7.65871
G1 X112.739 Y99.699 E7.83359
G1 X112.404 Y99.792 E7.93766
G1 X111.549 Y100.308 E8.23701
G1 X110.751 Y101.178 E8.59080
G92 E0
G1 X105.400 Y102.946 F7800.000
G1 X105.400 Y102.946 F7800.000
G1 X105.400 Y106.612 F7800.000
G1 X105.400 Y105.989 F7800.000
G1 X105.400 Y101.120 E1.45898 F600.000
G1 X105.558 Y100.312 E1.70565
G1 X110.401 Y100.324 E3.15700
G1 X110.977 Y100.303 E3.32960
G1 X111.533 Y100.326 E3.49644
G1 X111.907 Y100.739 E3.66337
G1 X112.041 Y100.848 E3.71500
G1 X112.328 Y101.022 E3.81568
G1 X112.883 Y101.282 E3.99935
G1 X113.456 Y101.734 E4.21806
G1 X113.808 Y102.215 E4.39679
G1 X114.056 Y102.718 E4.56463
G1 X114.180 Y103.277 E4.73631
G1 X114.221 Y103.825 E4.90112
G1 X114.073 Y104.547 E5.12192
G1 X113.986 Y104.847 E5.21530
G1 X113.793 Y105.357 E5.37884
G1 X113.454 Y105.704 E5.52413
G1 X112.954 Y106.106 E5.71635
G1 X112.549 Y106.363 E5.86023
G1 X111.877 Y106.549 E6.06904
G1 X111.056 Y106.696 E6.31901
G1 X109.906 Y106.815 E6.66553
G1 X106.436 Y106.818 E7.70531
G1 X105.473 Y106.539 E8.00556
G1 X105.400 Y105.989 E8.17193
G92 E0
G1 X104.365 Y107.648 F7800.000
G1 X101.301 Y106.584 F7800.000
G1 X101.283 Y106.487 F7800.000
G1 X98.428 Y107.648 F7800.000
G1 X97.335 Y107.648 F7800.000
G1 X92.921 Y96.562 E3.57549 F600.000
G1 X91.976 Y94.013 E4.39000
G1 X91.536 Y93.349 E4.62869
G1 X91.108 Y93.316 E4.75724
G1 X90.734 Y93.353 E4.87012
G1 X90.303 Y94.010 E5.10552
G1 X89.357 Y96.558 E5.91986
G1 X84.931 Y107.648 E9.49798
G92 E0
G1 Z1.200 F7800.000
G1 X106.239 Y103.801 F7800.000
G1 X105.400 Y99.504 E1.31181 F600.000
