; generated by Slic3r 1.2.9 on 2016-03-11 at 01:31:19

; external perimeters extrusion width = 1.54mm
; perimeters extrusion width = 2.62mm
; infill extrusion width = 6.27mm
; solid infill extrusion width = 2.62mm
; top infill extrusion width = 2.62mm

M107
M104 S30 ; set temperature
G28 ; home all axes
G1 Z5 F5000 ; lift nozzle
M302
M92 E10000
M500
M501
G1 E100
M109 S30 ; wait for temperature to be reached
G21 ; set units to millimeters
G90 ; use absolute coordinates
M82 ; use absolute distances for extrusion
G92 E0
G1 Z0.300 F7800.000
G1 X103.077 Y98.137 F7800.000
G1 X103.284 Y97.183 E0.04416 F378.000
G1 X103.778 Y95.956 E0.10399
G1 X104.457 Y94.893 E0.16108
G1 X105.309 Y94.012 E0.21656
G1 X106.338 Y93.309 E0.27293
G1 X107.530 Y92.797 E0.33164
G1 X108.871 Y92.489 E0.39390
G1 X110.365 Y92.385 E0.46164
G1 X111.578 Y92.454 E0.51664
G1 X112.926 Y92.681 E0.57848 F378.000
G1 X114.105 Y93.048 E0.63437
G1 X115.192 Y93.550 E0.68855
G1 X116.158 Y94.172 E0.74050
G1 X116.939 Y94.857 E0.78753
G1 X116.939 Y99.807 E1.01152
G1 X110.913 Y99.807 E1.28419
G1 X110.913 Y98.522 E1.34234
G1 X115.481 Y98.522 E1.54903
G1 X115.481 Y95.430 E1.68896
G1 X114.795 Y94.866 E1.72914
G1 X114.067 Y94.436 E1.76739
G1 X113.231 Y94.084 E1.80844
G1 X112.319 Y93.824 E1.85136
G1 X111.363 Y93.668 E1.89520
G1 X110.356 Y93.615 E1.94081
G1 X108.684 Y93.806 E2.01699
G1 X107.252 Y94.387 E2.08689
G1 X106.082 Y95.358 E2.15569
G1 X105.221 Y96.660 E2.22630
G1 X104.709 Y98.231 E2.30108
G1 X104.539 Y100.064 E2.38440
G1 X104.699 Y101.895 E2.46753
G1 X105.181 Y103.443 E2.54093
G1 X105.994 Y104.705 E2.60885
G1 X107.120 Y105.636 E2.67497
G1 X108.531 Y106.191 E2.74355
G1 X110.206 Y106.374 E2.81980
G1 X111.314 Y106.306 E2.87005
G1 X112.298 Y106.102 E2.91552
G1 X113.163 Y105.758 E2.95763
G1 X113.912 Y105.261 E2.99832
G1 X114.544 Y104.600 E3.03968
G1 X114.954 Y103.944 E3.07470
G1 X116.491 Y104.397 E3.14720
G1 X115.993 Y105.266 E3.19251
G1 X115.212 Y106.137 E3.24545
G1 X114.279 Y106.789 E3.29696
G1 X113.160 Y107.245 E3.35164
G1 X111.822 Y107.522 E3.41346
G1 X110.270 Y107.614 E3.48381
G1 X108.087 Y107.393 E3.58309
G1 X106.276 Y106.736 E3.67029
G1 X104.820 Y105.648 E3.75254
G1 X103.750 Y104.161 E3.83543
G1 X103.104 Y102.303 E3.92442
G1 X102.887 Y100.062 E4.02632
G1 X102.986 Y98.552 E4.09477
G1 X103.028 Y98.362 E4.10355
G1 X103.555 Y102.816 F7800.000
G1 X107.726 Y106.987 E4.37233 F540.000
G1 X106.865 Y106.675 F7800.000
G1 X103.848 Y103.657 E4.56675 F540.000
G1 X105.048 Y103.759 F7800.000
G1 X103.313 Y102.024 E4.67856 F540.000
G1 X103.254 Y101.416 E4.70639
G1 X104.750 Y102.912 E4.80279
G1 X104.501 Y102.114 E4.84086
G1 X103.195 Y100.808 E4.92503
G1 X103.136 Y100.200 E4.95287
G1 X104.430 Y101.494 E5.03623
G1 X104.377 Y100.892 E5.06374
G1 X103.135 Y99.650 E5.14376
G1 X103.169 Y99.135 E5.16728
G1 X104.325 Y100.291 E5.24174
G1 X104.347 Y99.764 E5.26576
G1 X103.203 Y98.620 E5.33948
G1 X103.288 Y98.156 E5.36099
G1 X104.394 Y99.261 E5.43224
G1 X104.440 Y98.759 E5.45525
G1 X103.386 Y97.705 E5.52317
G1 X103.484 Y97.254 E5.54420
G1 X104.487 Y98.256 E5.60879
G1 X104.621 Y97.841 E5.62866
G1 X103.634 Y96.854 E5.69226
G1 X103.791 Y96.463 E5.71148
G1 X104.756 Y97.427 E5.77362
G1 X104.891 Y97.013 E5.79346
G1 X103.949 Y96.071 E5.85414
G1 X104.155 Y95.728 E5.87238
G1 X105.027 Y96.600 E5.92858
G1 X105.246 Y96.270 E5.94664
G1 X104.369 Y95.393 E6.00315
G1 X104.583 Y95.058 E6.02126
G1 X105.465 Y95.939 E6.07807
G1 X105.683 Y95.609 E6.09613
G1 X104.848 Y94.774 E6.14994
G1 X105.123 Y94.499 E6.16763
G1 X105.902 Y95.278 E6.21784
G1 X106.191 Y95.018 E6.23555
G1 X105.397 Y94.224 E6.28668
G1 X105.701 Y93.979 E6.30447
G1 X106.491 Y94.769 E6.35535
G1 X106.791 Y94.520 E6.37312
G1 X106.027 Y93.756 E6.42231
G1 X106.354 Y93.534 E6.44032
G1 X107.091 Y94.271 E6.48783
G1 X107.456 Y94.087 E6.50646
G1 X106.729 Y93.359 E6.55336
G1 X107.113 Y93.195 E6.57241
G1 X107.847 Y93.929 E6.61972
G1 X108.238 Y93.770 E6.63892
G1 X107.497 Y93.030 E6.68664
G1 X107.936 Y92.919 E6.70725
G1 X108.628 Y93.612 E6.75187
G1 X109.105 Y93.540 E6.77385
G1 X108.382 Y92.817 E6.82044
G1 X108.829 Y92.714 E6.84131
G1 X109.598 Y93.483 E6.89089
G1 X110.091 Y93.427 E6.91349
G1 X109.341 Y92.677 E6.96179
G1 X109.855 Y92.642 E6.98525
G1 X110.611 Y93.398 E7.03397
G1 X111.190 Y93.428 E7.06039
G1 X110.379 Y92.617 E7.11263
G1 X110.961 Y92.650 E7.13918
G1 X111.808 Y93.497 E7.19375
G1 X112.464 Y93.604 F7800.000
G1 X111.554 Y92.694 E7.25242 F540.000
G1 X113.233 Y93.823 F7800.000
G1 X112.214 Y92.805 E7.31803 F540.000
G1 X112.896 Y92.937 E7.34967
G1 X114.138 Y94.180 E7.42971
G1 X114.653 Y93.597 F7800.000
G1 X116.713 Y95.656 E7.56244 F540.000
G1 X116.713 Y95.107 F7800.000
G1 X116.315 Y94.709 E7.58813 F540.000
G1 X113.694 Y93.186 F7800.000
G1 X116.713 Y96.206 E7.78268 F540.000
G1 X116.713 Y96.755 E7.80770
G1 X115.707 Y95.749 E7.87253
G1 X115.707 Y96.298 E7.89755
G1 X116.713 Y97.304 E7.96237
G1 X116.713 Y97.853 E7.98739
G1 X115.707 Y96.847 E8.05222
G1 X115.707 Y97.396 E8.07724
G1 X116.713 Y98.402 E8.14207
G1 X116.713 Y98.951 E8.16709
G1 X115.707 Y97.945 E8.23191
G1 X115.707 Y98.494 E8.25693
G1 X116.713 Y99.500 E8.32176
G1 X116.245 Y99.581 E8.34342
G1 X115.412 Y98.748 E8.39710
G1 X114.863 Y98.748 E8.42212
G1 X115.696 Y99.581 E8.47580
G1 X115.147 Y99.581 E8.50081
G1 X114.314 Y98.748 E8.55450
G1 X113.764 Y98.748 E8.57951
G1 X114.598 Y99.581 E8.63319
G1 X114.048 Y99.581 E8.65821
G1 X113.215 Y98.748 E8.71189
G1 X112.666 Y98.748 E8.73691
G1 X113.499 Y99.581 E8.79059
G1 X112.950 Y99.581 E8.81561
G1 X112.117 Y98.748 E8.86929
G1 X111.568 Y98.748 E8.89431
G1 X112.401 Y99.581 E8.94799
G1 X111.852 Y99.581 E8.97301
G1 X111.139 Y98.868 E9.01893
G92 E0
G1 X115.299 Y104.854 F7800.000
G1 X115.299 Y104.854 F7800.000
G1 X115.303 Y104.863 F7800.000
G1 X115.317 Y104.859 F7800.000
G1 X116.012 Y104.839 F7800.000
G1 X115.558 Y104.385 E0.02924 F540.000
G1 X114.947 Y104.323 E0.05721
G1 X115.808 Y105.184 E0.11267
G1 X115.548 Y105.474 E0.13039
G1 X114.736 Y104.661 E0.18275
G1 X114.475 Y104.950 E0.20047
G1 X115.286 Y105.761 E0.25274
G1 X115.012 Y106.036 E0.27043
G1 X114.207 Y105.230 E0.32231
G1 X113.917 Y105.490 E0.34003
G1 X114.692 Y106.265 E0.38991
G1 X114.368 Y106.490 E0.40788
G1 X113.588 Y105.710 E0.45818
G1 X113.258 Y105.929 E0.47623
G1 X114.010 Y106.681 E0.52472
G1 X113.620 Y106.840 E0.54391
G1 X112.871 Y106.091 E0.59218
G1 X112.478 Y106.248 E0.61144
G1 X113.230 Y106.999 E0.65989
G1 X112.788 Y107.106 E0.68061
G1 X112.051 Y106.369 E0.72813
G1 X111.596 Y106.463 E0.74929
G1 X112.333 Y107.201 E0.79680
G1 X111.878 Y107.295 E0.81797
G1 X111.122 Y106.539 E0.86664
G1 X110.605 Y106.571 E0.89026
G1 X111.362 Y107.328 E0.93902
G1 X110.843 Y107.358 E0.96267
G1 X110.082 Y106.597 E1.01174
G1 X109.466 Y106.530 E1.03998
G1 X110.319 Y107.383 E1.09499
G1 X109.708 Y107.322 E1.12297
G1 X108.849 Y106.463 E1.17832
G1 X108.167 Y106.329 E1.21001
G1 X109.097 Y107.260 E1.26997
G1 X108.486 Y107.198 E1.29796
G1 X107.261 Y105.972 E1.37691
G1 X105.237 Y105.596 F7800.000
G1 X104.887 Y105.246 E1.39948 F540.000
G92 E0
G1 X102.883 Y102.351 F7800.000
G1 X100.687 Y106.318 F7800.000
G1 X97.426 Y108.744 F7800.000
G1 X90.134 Y105.761 F7800.000
G1 X90.141 Y97.233 F7800.000
G1 X89.233 Y96.877 F7800.000
G1 X85.136 Y102.591 F7800.000
G1 X89.209 Y92.577 E0.48918 F378.000
G1 X91.053 Y92.577 E0.57263
G1 X96.751 Y106.586 E1.25692
G1 X97.091 Y107.423 E1.29783 F378.000
G1 X95.400 Y107.423 E1.37438
G1 X91.261 Y96.800 E1.89024
G1 X90.339 Y94.056 E2.02125
G1 X89.944 Y94.056 E2.03913
G1 X89.021 Y96.800 E2.17015
G1 X84.861 Y107.423 E2.68637
G1 X83.170 Y107.423 E2.76289
G1 X85.049 Y102.805 E2.98848
G1 X83.759 Y107.197 F7800.000
G1 X83.560 Y106.998 E3.00127 F540.000
G1 X83.719 Y106.609 E3.02038
G1 X84.307 Y107.197 E3.05820
G1 X84.767 Y107.110 E3.07950
G1 X83.877 Y106.219 E3.13674
G1 X84.035 Y105.830 E3.15585
G1 X84.921 Y106.716 E3.21281
G1 X85.076 Y106.322 E3.23203
G1 X84.194 Y105.440 E3.28872
G1 X84.352 Y105.051 E3.30783
G1 X85.230 Y105.929 E3.36424
G1 X85.384 Y105.535 E3.38346
G1 X84.511 Y104.661 E3.43960
G1 X84.669 Y104.272 E3.45872
G1 X85.538 Y105.141 E3.51459
G1 X85.692 Y104.747 E3.53380
G1 X84.827 Y103.883 E3.58940
G1 X84.986 Y103.493 E3.60851
G1 X85.846 Y104.354 E3.66384
G1 X86.001 Y103.960 E3.68305
G1 X85.144 Y103.104 E3.73811
G1 X85.303 Y102.714 E3.75722
G1 X86.155 Y103.566 E3.81199
G1 X86.309 Y103.173 E3.83121
G1 X85.461 Y102.325 E3.88572
G1 X85.619 Y101.935 E3.90483
G1 X86.463 Y102.779 E3.95906
G1 X86.617 Y102.385 E3.97828
G1 X85.778 Y101.546 E4.03224
G1 X85.936 Y101.157 E4.05135
G1 X86.771 Y101.992 E4.10504
G1 X86.926 Y101.598 E4.12426
G1 X86.095 Y100.767 E4.17767
G1 X86.253 Y100.378 E4.19678
G1 X87.080 Y101.204 E4.24992
G1 X87.234 Y100.811 E4.26914
G1 X86.412 Y99.988 E4.32201
G1 X86.570 Y99.599 E4.34112
G1 X87.388 Y100.417 E4.39371
G1 X87.542 Y100.023 E4.41293
G1 X86.728 Y99.209 E4.46526
G1 X86.887 Y98.820 E4.48437
G1 X87.696 Y99.630 E4.53642
G1 X87.851 Y99.236 E4.55564
G1 X87.045 Y98.431 E4.60741
G1 X87.204 Y98.041 E4.62652
G1 X88.005 Y98.842 E4.67803
G1 X88.159 Y98.449 E4.69725
G1 X87.362 Y97.652 E4.74848
G1 X87.520 Y97.262 E4.76759
G1 X88.313 Y98.055 E4.81855
G1 X88.467 Y97.661 E4.83776
G1 X87.679 Y96.873 E4.88845
G1 X87.837 Y96.483 E4.90756
G1 X88.621 Y97.268 E4.95797
G1 X88.776 Y96.874 E4.97719
G1 X87.996 Y96.094 E5.02733
G1 X88.154 Y95.704 E5.04644
G1 X88.918 Y96.468 E5.09552
G1 X89.055 Y96.058 E5.11518
G1 X88.312 Y95.315 E5.16294
G1 X88.471 Y94.926 E5.18205
G1 X89.193 Y95.648 E5.22849
G1 X89.331 Y95.238 E5.24815
G1 X88.629 Y94.536 E5.29326
G1 X88.788 Y94.147 E5.31238
G1 X89.469 Y94.828 E5.35617
G1 X89.607 Y94.418 E5.37583
G1 X88.946 Y93.757 E5.41831
G1 X89.105 Y93.368 E5.43742
G1 X89.745 Y94.008 E5.47857
G1 X90.114 Y93.830 F7800.000
G1 X89.263 Y92.978 E5.53330 F540.000
G1 X89.635 Y92.803 E5.55201
G1 X91.702 Y94.870 E5.68488
G1 X91.023 Y95.286 F7800.000
G1 X92.453 Y96.717 E5.77681 F540.000
G1 X91.606 Y96.965 F7800.000
G1 X93.204 Y98.563 E5.87958 F540.000
G1 X92.305 Y98.760 F7800.000
G1 X93.955 Y100.410 E5.98568 F540.000
G1 X93.004 Y100.555 F7800.000
G1 X94.707 Y102.257 E6.09511 F540.000
G1 X94.331 Y101.334 F7800.000
G1 X92.655 Y99.657 E6.20288 F540.000
G1 X93.580 Y99.487 F7800.000
G1 X91.955 Y97.862 E6.30731 F540.000
G1 X92.829 Y97.640 F7800.000
G1 X91.300 Y96.111 E6.40557 F540.000
G1 X92.078 Y95.793 F7800.000
G1 X90.746 Y94.461 E6.49118 F540.000
G1 X91.327 Y93.946 F7800.000
G1 X90.183 Y92.803 E6.56469 F540.000
G1 X90.731 Y92.803 E6.58959
G1 X90.951 Y93.023 E6.60373
G1 X93.354 Y101.452 F7800.000
G1 X95.082 Y103.180 E6.71483 F540.000
G1 X95.458 Y104.104 F7800.000
G1 X93.703 Y102.350 E6.82760 F540.000
G1 X94.053 Y103.247 F7800.000
G1 X95.833 Y105.027 E6.94204 F540.000
G1 X96.209 Y105.951 F7800.000
G1 X94.403 Y104.145 E7.05814 F540.000
G1 X94.752 Y105.042 F7800.000
G1 X96.584 Y106.874 E7.17591 F540.000
G1 X96.360 Y107.197 E7.19380
G1 X95.102 Y105.939 E7.27465
G1 X95.452 Y106.837 F7800.000
G1 X95.812 Y107.197 E7.29780 F540.000
M106 S255
G92 E0
G1 Z0.600 F7800.000
G1 X115.950 Y104.003 F7800.000
G1 X115.208 Y104.989 E0.36957 F600.000
G1 X114.697 Y105.556 E0.59839
G1 X114.297 Y105.884 E0.75356
G1 X113.925 Y106.138 E0.88842
G1 X113.395 Y106.406 E1.06625
G1 X112.958 Y106.582 E1.20747
G1 X112.410 Y106.740 E1.37827
G1 X111.737 Y106.879 E1.58435
G1 X111.457 Y106.916 E1.66889
G1 X110.263 Y106.991 E2.02749
G1 X108.494 Y106.811 E2.56033
G1 X108.231 Y106.763 E2.64033
G1 X106.912 Y106.264 E3.06305
G1 X106.610 Y106.117 E3.16361
G1 X105.557 Y105.289 E3.56494
G1 X105.363 Y105.114 E3.64318
G1 X104.465 Y103.789 E4.12279
G1 X103.923 Y102.162 E4.63677
G1 X103.886 Y101.941 E4.70387
G1 X103.715 Y100.049 E5.27317
G1 X103.823 Y98.670 E5.68762
G1 X103.898 Y98.181 E5.83570
G1 X104.088 Y97.430 E6.06785
G1 X104.449 Y96.440 E6.38376
G1 X104.573 Y96.194 E6.46616
G1 X105.092 Y95.395 E6.75190
G1 X105.434 Y94.969 E6.91533
G1 X105.804 Y94.598 E7.07241
G1 X106.782 Y93.875 E7.43686
G1 X107.030 Y93.748 E7.52046
G1 X107.744 Y93.450 E7.75212
G1 X108.419 Y93.237 E7.96441
G1 X108.966 Y93.127 E8.13159
G1 X110.369 Y93.001 E8.55356
G1 X111.382 Y93.056 E8.85770
G1 X112.405 Y93.214 E9.16790
G1 X112.775 Y93.296 E9.28139
G1 X113.487 Y93.512 E9.50421
G1 X113.873 Y93.653 E9.62731
G1 X114.301 Y93.842 E9.76761
G1 X114.870 Y94.136 E9.95966
G1 X115.230 Y94.364 E10.08735
G1 X115.842 Y94.823 E10.31654
G1 X116.181 Y95.201 E10.46853
G1 X116.210 Y95.536 E10.56936
G1 X116.210 Y98.297 E11.39668
G1 X116.094 Y98.962 E11.59898
G1 X115.256 Y99.164 E11.85733
G1 X110.688 Y99.164 E13.22611
G92 E0
G1 X110.688 Y100.032 F7800.000
G1 X115.381 Y101.894 F7800.000
G1 X117.913 Y104.885 F7800.000
G1 X115.285 Y108.273 F7800.000
G1 X107.646 Y108.693 F7800.000
G1 X102.590 Y107.294 F7800.000
G1 X100.687 Y106.318 F7800.000
G1 X100.684 Y106.323 F7800.000
G1 X97.426 Y107.648 F7800.000
G1 X96.332 Y107.648 F7800.000
G1 X91.919 Y96.562 E3.57549 F600.000
G1 X90.974 Y94.013 E4.39000
G1 X90.534 Y93.349 E4.62869
G1 X90.106 Y93.316 E4.75724
G1 X89.731 Y93.353 E4.87012
G1 X89.301 Y94.010 E5.10552
G1 X88.355 Y96.558 E5.91986
G1 X83.928 Y107.648 E9.49798
G92 E0
G1 Z0.900 F7800.000
G1 X115.950 Y104.003 F7800.000
G1 X115.208 Y104.989 E0.36957 F600.000
G1 X114.697 Y105.556 E0.59839
G1 X114.297 Y105.884 E0.75356
G1 X113.925 Y106.138 E0.88842
G1 X113.395 Y106.406 E1.06625
G1 X112.958 Y106.582 E1.20747
G1 X112.410 Y106.740 E1.37827
G1 X111.737 Y106.879 E1.58435
G1 X111.457 Y106.916 E1.66889
G1 X110.263 Y106.991 E2.02749
G1 X108.494 Y106.811 E2.56033
G1 X108.231 Y106.763 E2.64033
G1 X106.912 Y106.264 E3.06305
G1 X106.610 Y106.117 E3.16361
G1 X105.557 Y105.289 E3.56494
G1 X105.363 Y105.114 E3.64318
G1 X104.465 Y103.789 E4.12279
G1 X103.923 Y102.162 E4.63677
G1 X103.886 Y101.941 E4.70387
G1 X103.715 Y100.049 E5.27317
G1 X103.823 Y98.670 E5.68762
G1 X103.898 Y98.181 E5.83570
G1 X104.088 Y97.430 E6.06785
G1 X104.449 Y96.440 E6.38376
G1 X104.573 Y96.194 E6.46616
G1 X105.092 Y95.395 E6.75190
G1 X105.434 Y94.969 E6.91533
G1 X105.804 Y94.598 E7.07241
G1 X106.782 Y93.875 E7.43686
G1 X107.030 Y93.748 E7.52046
G1 X107.744 Y93.450 E7.75212
G1 X108.419 Y93.237 E7.96441
G1 X108.966 Y93.127 E8.13159
G1 X110.369 Y93.001 E8.55356
G1 X111.382 Y93.056 E8.85770
G1 X112.405 Y93.214 E9.16790
G1 X112.775 Y93.296 E9.28139
G1 X113.487 Y93.512 E9.50421
G1 X113.873 Y93.653 E9.62731
G1 X114.301 Y93.842 E9.76761
G1 X114.870 Y94.136 E9.95966
G1 X115.230 Y94.364 E10.08735
G1 X115.842 Y94.823 E10.31655
G1 X116.181 Y95.201 E10.46853
G1 X116.210 Y95.536 E10.56936
G1 X116.210 Y98.297 E11.39668
G1 X116.094 Y98.962 E11.59898
G1 X115.256 Y99.164 E11.85733
G1 X110.688 Y99.164 E13.22611
G92 E0
G1 X110.688 Y100.032 F7800.000
G1 X115.381 Y101.894 F7800.000
G1 X117.913 Y104.885 F7800.000
G1 X115.285 Y108.273 F7800.000
G1 X107.646 Y108.693 F7800.000
G1 X102.590 Y107.294 F7800.000
G1 X100.687 Y106.318 F7800.000
G1 X100.684 Y106.323 F7800.000
G1 X97.426 Y107.648 F7800.000
G1 X96.333 Y107.648 F7800.000
G1 X91.919 Y96.562 E3.57549 F600.000
G1 X90.974 Y94.013 E4.39000
G1 X90.534 Y93.349 E4.62869
G1 X90.106 Y93.316 E4.75724
G1 X89.731 Y93.353 E4.87012
G1 X89.301 Y94.010 E5.10552
G1 X88.355 Y96.558 E5.91986
G1 X83.928 Y107.648 E9.49798
G92 E0
G1 Z1.200 F7800.000
G1 X115.950 Y104.003 F7800.000
G1 X115.208 Y104.989 E0.36957 F600.000
G1 X114.697 Y105.556 E0.59839
G1 X114.297 Y105.884 E0.75356
G1 X113.925 Y106.138 E0.88842
G1 X113.395 Y106.406 E1.06625
G1 X112.958 Y106.582 E1.20747
G1 X112.410 Y106.740 E1.37827
G1 X111.737 Y106.879 E1.58435
G1 X111.457 Y106.916 E1.66889
G1 X110.263 Y106.991 E2.02749
G1 X108.494 Y106.811 E2.56033
G1 X108.231 Y106.763 E2.64033
G1 X106.912 Y106.264 E3.06305
G1 X106.610 Y106.117 E3.16361
G1 X105.557 Y105.289 E3.56494
G1 X105.363 Y105.114 E3.64318
G1 X104.465 Y103.789 E4.12279
G1 X103.923 Y102.162 E4.63677
G1 X103.886 Y101.941 E4.70387
G1 X103.715 Y100.049 E5.27317
G1 X103.823 Y98.670 E5.68762
G1 X103.898 Y98.181 E5.83570
G1 X104.088 Y97.430 E6.06785
G1 X104.449 Y96.440 E6.38376
G1 X104.573 Y96.194 E6.46616
G1 X105.092 Y95.395 E6.75190
G1 X105.434 Y94.969 E6.91533
G1 X105.804 Y94.598 E7.07241
G1 X106.782 Y93.875 E7.43686
G1 X107.030 Y93.748 E7.52046
G1 X107.744 Y93.450 E7.75212
G1 X108.419 Y93.237 E7.96441
