; generated by Slic3r 1.2.9 on 2016-03-11 at 01:31:24

; external perimeters extrusion width = 1.54mm
; perimeters extrusion width = 2.62mm
; infill extrusion width = 6.27mm
; solid infill extrusion width = 2.62mm
; top infill extrusion width = 2.62mm

M107
M104 S30 ; set temperature
G28 ; home all axes
G1 Z5 F5000 ; lift nozzle
M302
M92 E10000
M500
M501
G1 E100
M109 S30 ; wait for temperature to be reached
G21 ; set units to millimeters
G90 ; use absolute coordinates
M82 ; use absolute distances for extrusion
G92 E0
G1 Z0.300 F7800.000
G1 X103.063 Y102.024 F7800.000
G1 X103.063 Y92.577 E0.42746 F378.000
G1 X104.456 Y92.577 E0.49050
G1 X104.456 Y102.555 E0.94201
G1 X104.384 Y105.674 E1.08316 F378.000
G1 X104.859 Y105.750 E1.10491
G1 X105.177 Y104.688 E1.15507
G1 X105.782 Y102.851 E1.24262
G1 X109.725 Y92.577 E1.74056
G1 X110.868 Y92.577 E1.79227
G1 X114.759 Y102.853 E2.28944
G1 X115.050 Y103.672 E2.32879
G1 X115.366 Y104.678 E2.37652
G1 X115.654 Y105.690 E2.42415
G1 X116.136 Y105.611 E2.44624
G1 X116.062 Y103.667 E2.53423
G1 X116.052 Y102.557 E2.58448
G1 X116.052 Y92.577 E3.03607
G1 X117.467 Y92.577 E3.10009
G1 X117.467 Y107.423 E3.77186
G1 X115.191 Y107.423 E3.87486
G1 X111.173 Y96.741 E4.39125
G1 X110.724 Y95.324 E4.45852
G1 X110.522 Y94.557 E4.49444
G1 X110.096 Y94.559 E4.51371
G1 X109.690 Y96.083 E4.58506
G1 X109.412 Y96.966 E4.62696
G1 X105.405 Y107.423 E5.13369
G1 X103.063 Y107.423 E5.23968
G1 X103.063 Y102.255 E5.47353
G1 X104.173 Y105.138 F7800.000
G1 X103.289 Y104.254 E5.53034 F540.000
G1 X103.289 Y103.707 E5.55524
G1 X104.185 Y104.603 E5.61284
G1 X104.197 Y104.067 E5.63719
G1 X103.289 Y103.159 E5.69558
G1 X103.289 Y102.611 E5.72048
G1 X104.209 Y103.531 E5.77966
G1 X104.222 Y102.996 E5.80401
G1 X103.289 Y102.063 E5.86397
G1 X103.289 Y101.515 E5.88887
G1 X104.230 Y102.456 E5.94937
G1 X104.230 Y101.909 E5.97427
G1 X103.289 Y100.967 E6.03477
G1 X103.289 Y100.420 E6.05967
G1 X104.230 Y101.361 E6.12016
G1 X104.230 Y100.813 E6.14506
G1 X103.289 Y99.872 E6.20556
G1 X103.289 Y99.324 E6.23046
G1 X104.230 Y100.265 E6.29096
G1 X104.230 Y99.717 E6.31586
G1 X103.289 Y98.776 E6.37635
G1 X103.289 Y98.228 E6.40125
G1 X104.230 Y99.169 E6.46175
G1 X104.230 Y98.622 E6.48665
G1 X103.289 Y97.680 E6.54715
G1 X103.289 Y97.133 E6.57205
G1 X104.230 Y98.074 E6.63254
G1 X104.230 Y97.526 E6.65744
G1 X103.289 Y96.585 E6.71794
G1 X103.289 Y96.037 E6.74284
G1 X104.230 Y96.978 E6.80334
G1 X104.230 Y96.430 E6.82824
G1 X103.289 Y95.489 E6.88873
G1 X103.289 Y94.941 E6.91363
G1 X104.230 Y95.882 E6.97413
G1 X104.230 Y95.335 E6.99903
G1 X103.289 Y94.394 E7.05953
G1 X103.289 Y93.846 E7.08443
G1 X104.230 Y94.787 E7.14492
G1 X104.230 Y94.239 E7.16982
G1 X103.289 Y93.298 E7.23032
G1 X103.342 Y92.803 E7.25295
G1 X104.230 Y93.691 E7.31004
G1 X104.230 Y93.143 E7.33494
G1 X103.889 Y92.803 E7.35682
G92 E0
G1 X110.092 Y93.784 F7800.000
G1 X110.295 Y93.644 F7800.000
G1 X110.296 Y93.406 F7800.000
G1 X110.258 Y93.352 F7800.000
G1 X110.463 Y92.803 F7800.000
G1 X110.805 Y93.145 E0.02197 F540.000
G1 X111.139 Y94.026 F7800.000
G1 X109.916 Y92.803 E0.10060 F540.000
G1 X109.720 Y93.155 E0.11892
G1 X111.473 Y94.908 E0.23158
G1 X110.853 Y94.836 E0.25991
G1 X111.806 Y95.789 E0.32117
G1 X111.083 Y95.613 F7800.000
G1 X112.140 Y96.671 E0.38915 F540.000
G1 X111.654 Y97.280 F7800.000
G1 X112.808 Y98.434 E0.46333 F540.000
G1 X112.314 Y99.036 F7800.000
G1 X113.475 Y100.197 E0.53796 F540.000
G1 X112.975 Y100.792 F7800.000
G1 X114.143 Y101.960 E0.61305 F540.000
G1 X113.635 Y102.549 F7800.000
G1 X114.786 Y103.700 E0.68706 F540.000
G1 X113.965 Y103.427 F7800.000
G1 X115.046 Y104.508 E0.75655 F540.000
G1 X114.296 Y104.305 E0.79190
G1 X115.278 Y105.287 E0.85506
G1 X114.626 Y105.183 E0.88509
G1 X115.496 Y106.053 E0.94105
G1 X115.863 Y105.872 E0.95965
G1 X117.188 Y107.197 E1.04480
G1 X117.241 Y106.702 E1.06742
G1 X116.333 Y105.795 E1.12576
G1 X116.352 Y105.266 E1.14981
G1 X117.241 Y106.154 E1.20693
G1 X117.241 Y105.606 E1.23184
G1 X116.331 Y104.696 E1.29034
G1 X116.309 Y104.127 E1.31624
G1 X117.241 Y105.059 E1.37613
G1 X117.241 Y104.511 E1.40104
G1 X116.288 Y103.558 E1.46228
G1 X116.283 Y103.005 E1.48742
G1 X117.241 Y103.963 E1.54900
G1 X117.241 Y103.415 E1.57390
G1 X116.278 Y102.452 E1.63581
G1 X116.278 Y101.904 E1.66071
G1 X117.241 Y102.867 E1.72262
G1 X117.241 Y102.320 E1.74752
G1 X116.278 Y101.356 E1.80943
G1 X116.278 Y100.809 E1.83433
G1 X117.241 Y101.772 E1.89624
G1 X117.241 Y101.224 E1.92115
G1 X116.278 Y100.261 E1.98306
G1 X116.278 Y99.713 E2.00796
G1 X117.241 Y100.676 E2.06987
G1 X117.241 Y100.128 E2.09477
G1 X116.278 Y99.165 E2.15668
G1 X116.278 Y98.617 E2.18158
G1 X117.241 Y99.580 E2.24349
G1 X117.241 Y99.033 E2.26839
G1 X116.278 Y98.070 E2.33030
G1 X116.278 Y97.522 E2.35520
G1 X117.241 Y98.485 E2.41711
G1 X117.241 Y97.937 E2.44201
G1 X116.278 Y96.974 E2.50392
G1 X116.278 Y96.426 E2.52882
G1 X117.241 Y97.389 E2.59073
G1 X117.241 Y96.841 E2.61563
G1 X116.278 Y95.878 E2.67754
G1 X116.278 Y95.330 E2.70244
G1 X117.241 Y96.293 E2.76435
G1 X117.241 Y95.746 E2.78925
G1 X116.278 Y94.783 E2.85116
G1 X116.278 Y94.235 E2.87607
G1 X117.241 Y95.198 E2.93798
G1 X117.241 Y94.650 E2.96288
G1 X116.278 Y93.687 E3.02479
G1 X116.278 Y93.139 E3.04969
G1 X117.241 Y94.102 E3.11160
G1 X117.241 Y93.554 E3.13650
G1 X116.489 Y92.803 E3.18480
G1 X117.037 Y92.803 E3.20970
G1 X117.241 Y93.007 E3.22279
G92 E0
G1 X110.496 Y93.782 F7800.000
G1 X110.496 Y93.782 F7800.000
G1 X112.474 Y97.553 F7800.000
G1 X111.337 Y96.416 E0.07308 F540.000
G1 X111.984 Y98.158 F7800.000
G1 X113.141 Y99.316 E0.14749 F540.000
G1 X112.644 Y99.914 F7800.000
G1 X113.809 Y101.079 E0.22235 F540.000
G1 X113.305 Y101.670 F7800.000
G1 X114.476 Y102.842 E0.29766 F540.000
G1 X115.393 Y105.950 F7800.000
G1 X116.640 Y107.197 E0.37780 F540.000
G1 X116.092 Y107.197 E0.40270
G1 X114.956 Y106.061 E0.47575
G1 X115.286 Y106.939 F7800.000
G1 X115.544 Y107.197 E0.49235 F540.000
G92 E0
G1 X104.912 Y106.544 F7800.000
G1 X104.912 Y106.544 F7800.000
G1 X104.407 Y105.921 F7800.000
G1 X105.388 Y106.902 E0.06307 F540.000
G1 X105.540 Y106.506 E0.08235
G1 X105.007 Y105.973 E0.11660
G1 X105.134 Y105.551 E0.13660
G1 X105.692 Y106.110 E0.17249
G1 X105.844 Y105.714 E0.19177
G1 X105.260 Y105.130 E0.22928
G1 X105.386 Y104.709 E0.24928
G1 X105.995 Y105.318 E0.28843
G1 X106.147 Y104.922 E0.30771
G1 X105.522 Y104.296 E0.34792
G1 X105.657 Y103.884 E0.36764
G1 X106.299 Y104.525 E0.40889
G1 X106.451 Y104.129 E0.42817
G1 X105.793 Y103.472 E0.47046
G1 X105.928 Y103.059 E0.49019
G1 X106.603 Y103.733 E0.53352
G1 X106.754 Y103.337 E0.55280
G1 X106.073 Y102.656 E0.59659
G1 X106.225 Y102.260 E0.61587
G1 X106.906 Y102.941 E0.65965
G1 X107.058 Y102.545 E0.67893
G1 X106.377 Y101.864 E0.72271
G1 X106.529 Y101.468 E0.74198
G1 X107.210 Y102.149 E0.78574
G1 X107.361 Y101.753 E0.80502
G1 X106.681 Y101.072 E0.84877
G1 X106.833 Y100.677 E0.86804
G1 X107.513 Y101.357 E0.91178
G1 X107.665 Y100.961 E0.93106
G1 X106.985 Y100.281 E0.97479
G1 X107.137 Y99.885 E0.99406
G1 X107.817 Y100.565 E1.03777
G1 X107.968 Y100.169 E1.05705
G1 X107.289 Y99.489 E1.10075
G1 X107.441 Y99.093 E1.12003
G1 X108.120 Y99.773 E1.16371
G1 X108.272 Y99.377 E1.18299
G1 X107.593 Y98.697 E1.22667
G1 X107.744 Y98.301 E1.24594
G1 X108.424 Y98.981 E1.28961
G1 X108.576 Y98.585 E1.30889
G1 X107.896 Y97.906 E1.35254
G1 X108.048 Y97.510 E1.37181
G1 X108.727 Y98.189 E1.41545
G1 X108.879 Y97.793 E1.43473
G1 X108.200 Y97.114 E1.47836
G1 X108.352 Y96.718 E1.49763
G1 X109.031 Y97.396 E1.54125
G1 X109.183 Y97.000 E1.56053
G1 X108.504 Y96.322 E1.60413
G1 X108.656 Y95.926 E1.62340
G1 X109.317 Y96.587 E1.66585
G1 X109.448 Y96.170 E1.68571
G1 X108.808 Y95.530 E1.72682
G1 X108.960 Y95.135 E1.74609
G1 X109.566 Y95.741 E1.78506
G1 X109.681 Y95.308 E1.80542
G1 X109.112 Y94.739 E1.84202
G1 X109.264 Y94.343 E1.86129
G1 X109.797 Y94.875 E1.89552
G1 X109.912 Y94.443 E1.91587
G1 X109.416 Y93.947 E1.94773
G1 X109.568 Y93.551 E1.96701
G1 X110.349 Y94.332 E2.01721
G92 E0
G1 X110.092 Y93.784 F7800.000
G1 X110.092 Y93.784 F7800.000
G1 X104.160 Y105.674 F7800.000
G1 X103.289 Y104.802 E0.05603 F540.000
G1 X103.289 Y105.350 E0.08093
G1 X105.136 Y107.197 E0.19966
G1 X104.588 Y107.197 E0.22456
G1 X103.289 Y105.898 E0.30808
G1 X103.289 Y106.446 E0.33298
G1 X104.040 Y107.197 E0.38128
G1 X103.492 Y107.197 E0.40618
G1 X103.289 Y106.993 E0.41927
G92 E0
G1 X102.838 Y107.648 F7800.000
G1 X96.898 Y108.648 F7800.000
G1 X89.606 Y105.621 F7800.000
G1 X85.852 Y108.182 F7800.000
G1 X84.487 Y107.648 F7800.000
G1 X84.469 Y102.934 F7800.000
G1 X88.682 Y92.577 E0.50592 F378.000
G1 X90.526 Y92.577 E0.58937
G1 X96.223 Y106.586 E1.27367
G1 X96.564 Y107.423 E1.31458 F378.000
G1 X94.872 Y107.423 E1.39113
G1 X90.734 Y96.800 E1.90699
G1 X89.812 Y94.056 E2.03799
G1 X89.417 Y94.056 E2.05588
G1 X88.494 Y96.800 E2.18689
G1 X84.334 Y107.423 E2.70312
G1 X82.643 Y107.423 E2.77964
G1 X84.382 Y103.148 E2.98848
G1 X83.232 Y107.197 F7800.000
G1 X83.033 Y106.998 E3.00127 F540.000
G1 X83.191 Y106.609 E3.02038
G1 X83.779 Y107.197 E3.05820
G1 X84.240 Y107.110 E3.07950
G1 X83.349 Y106.219 E3.13674
G1 X83.508 Y105.830 E3.15585
G1 X84.394 Y106.716 E3.21281
G1 X84.548 Y106.322 E3.23203
G1 X83.666 Y105.440 E3.28872
G1 X83.825 Y105.051 E3.30783
G1 X84.702 Y105.929 E3.36424
G1 X84.856 Y105.535 E3.38346
G1 X83.983 Y104.662 E3.43960
G1 X84.142 Y104.272 E3.45872
G1 X85.011 Y105.141 E3.51459
G1 X85.165 Y104.747 E3.53380
G1 X84.300 Y103.883 E3.58940
G1 X84.458 Y103.493 E3.60851
G1 X85.319 Y104.354 E3.66384
G1 X85.473 Y103.960 E3.68305
G1 X84.617 Y103.104 E3.73811
G1 X84.775 Y102.714 E3.75722
G1 X85.627 Y103.566 E3.81199
G1 X85.781 Y103.173 E3.83121
G1 X84.934 Y102.325 E3.88572
G1 X85.092 Y101.935 E3.90483
G1 X85.936 Y102.779 E3.95906
G1 X86.090 Y102.385 E3.97828
G1 X85.250 Y101.546 E4.03224
G1 X85.409 Y101.157 E4.05135
G1 X86.244 Y101.992 E4.10504
G1 X86.398 Y101.598 E4.12426
G1 X85.567 Y100.767 E4.17767
G1 X85.726 Y100.378 E4.19678
G1 X86.552 Y101.204 E4.24992
G1 X86.706 Y100.811 E4.26914
G1 X85.884 Y99.988 E4.32201
G1 X86.042 Y99.599 E4.34112
G1 X86.861 Y100.417 E4.39371
G1 X87.015 Y100.023 E4.41293
G1 X86.201 Y99.209 E4.46526
G1 X86.359 Y98.820 E4.48437
G1 X87.169 Y99.630 E4.53642
G1 X87.323 Y99.236 E4.55563
G1 X86.518 Y98.431 E4.60741
G1 X86.676 Y98.041 E4.62652
G1 X87.477 Y98.842 E4.67803
G1 X87.631 Y98.449 E4.69724
G1 X86.835 Y97.652 E4.74848
G1 X86.993 Y97.262 E4.76759
G1 X87.786 Y98.055 E4.81854
G1 X87.940 Y97.661 E4.83776
G1 X87.151 Y96.873 E4.88845
G1 X87.310 Y96.483 E4.90756
G1 X88.094 Y97.268 E4.95797
G1 X88.248 Y96.874 E4.97719
G1 X87.468 Y96.094 E5.02733
G1 X87.627 Y95.705 E5.04644
G1 X88.390 Y96.468 E5.09552
G1 X88.528 Y96.058 E5.11518
G1 X87.785 Y95.315 E5.16294
G1 X87.943 Y94.926 E5.18205
G1 X88.666 Y95.648 E5.22849
G1 X88.804 Y95.238 E5.24815
G1 X88.102 Y94.536 E5.29326
G1 X88.260 Y94.147 E5.31237
G1 X88.941 Y94.828 E5.35617
G1 X89.079 Y94.418 E5.37583
G1 X88.419 Y93.757 E5.41831
G1 X88.577 Y93.368 E5.43742
G1 X89.217 Y94.008 E5.47857
G1 X89.587 Y93.830 F7800.000
G1 X88.735 Y92.978 E5.53330 F540.000
G1 X89.108 Y92.803 E5.55201
G1 X91.175 Y94.870 E5.68487
G1 X90.496 Y95.286 F7800.000
G1 X91.926 Y96.717 E5.77681 F540.000
G1 X91.078 Y96.965 F7800.000
G1 X92.677 Y98.563 E5.87958 F540.000
G1 X91.777 Y98.760 F7800.000
G1 X93.428 Y100.410 E5.98568 F540.000
G1 X92.477 Y100.555 F7800.000
G1 X94.179 Y102.257 E6.09511 F540.000
G1 X93.803 Y101.334 F7800.000
G1 X92.127 Y99.657 E6.20288 F540.000
G1 X93.052 Y99.487 F7800.000
G1 X91.428 Y97.862 E6.30731 F540.000
G1 X92.301 Y97.640 F7800.000
G1 X90.773 Y96.111 E6.40557 F540.000
G1 X91.550 Y95.793 F7800.000
G1 X90.218 Y94.461 E6.49118 F540.000
G1 X90.799 Y93.946 F7800.000
G1 X89.656 Y92.803 E6.56468 F540.000
G1 X90.203 Y92.803 E6.58959
G1 X90.423 Y93.023 E6.60373
G1 X92.826 Y101.452 F7800.000
G1 X94.555 Y103.180 E6.71483 F540.000
G1 X94.930 Y104.104 F7800.000
G1 X93.176 Y102.350 E6.82760 F540.000
G1 X93.526 Y103.247 F7800.000
G1 X95.306 Y105.027 E6.94204 F540.000
G1 X95.681 Y105.951 F7800.000
G1 X93.875 Y104.145 E7.05814 F540.000
G1 X94.225 Y105.042 F7800.000
G1 X96.057 Y106.874 E7.17591 F540.000
G1 X95.832 Y107.197 E7.19380
G1 X94.574 Y105.939 E7.27464
G1 X94.924 Y106.837 F7800.000
G1 X95.284 Y107.197 E7.29779 F540.000
M106 S255
G92 E0
G1 Z0.600 F7800.000
G1 X116.759 Y92.352 F7800.000
G1 X116.759 Y102.554 E3.05685 F600.000
G1 X116.797 Y105.387 E3.90604
G1 X116.499 Y106.455 E4.23827
G1 X116.087 Y106.527 E4.36357
G1 X115.801 Y106.542 E4.44947
G1 X115.089 Y105.643 E4.79314
G1 X114.486 Y103.861 E5.35679
G1 X114.193 Y103.060 E5.61219
G1 X111.735 Y96.547 E7.69830
G1 X111.072 Y94.592 E8.31687
G1 X110.343 Y93.677 E8.66734
G1 X110.295 Y93.644 E8.68487
G1 X109.531 Y94.587 E9.04853
G1 X108.807 Y96.755 E9.73346
G1 X106.387 Y103.066 E11.75884
G1 X105.454 Y105.723 E12.60258
G1 X104.818 Y106.569 E12.91988
G1 X104.441 Y106.559 E13.03285
G1 X104.006 Y106.480 E13.16538
G1 X103.726 Y105.463 E13.48158
G1 X103.759 Y102.547 E14.35514
G1 X103.759 Y92.352 E17.41017
G92 E0
G1 X102.838 Y91.352 F7800.000
G1 X99.028 Y102.771 F7800.000
G1 X99.754 Y106.486 F7800.000
G1 X96.898 Y107.648 F7800.000
G1 X95.805 Y107.648 F7800.000
G1 X91.391 Y96.562 E3.57549 F600.000
G1 X90.446 Y94.013 E4.39000
G1 X90.006 Y93.349 E4.62869
G1 X89.578 Y93.316 E4.75724
G1 X89.204 Y93.353 E4.87012
G1 X88.773 Y94.010 E5.10552
G1 X87.827 Y96.558 E5.91986
G1 X83.401 Y107.648 E9.49798
G92 E0
G1 Z0.900 F7800.000
G1 X116.759 Y92.352 F7800.000
G1 X116.759 Y102.554 E3.05685 F600.000
G1 X116.797 Y105.387 E3.90604
G1 X116.499 Y106.455 E4.23827
G1 X116.087 Y106.527 E4.36357
G1 X115.801 Y106.542 E4.44947
G1 X115.089 Y105.643 E4.79314
G1 X114.486 Y103.861 E5.35678
G1 X114.193 Y103.060 E5.61219
G1 X111.735 Y96.547 E7.69830
G1 X111.072 Y94.592 E8.31687
G1 X110.343 Y93.677 E8.66733
G1 X110.295 Y93.644 E8.68487
G1 X109.531 Y94.587 E9.04853
G1 X108.807 Y96.755 E9.73346
G1 X106.387 Y103.066 E11.75884
G1 X105.454 Y105.723 E12.60258
G1 X104.818 Y106.569 E12.91988
G1 X104.441 Y106.559 E13.03285
G1 X104.006 Y106.480 E13.16538
G1 X103.726 Y105.463 E13.48158
G1 X103.759 Y102.547 E14.35514
G1 X103.759 Y92.352 E17.41017
G92 E0
G1 X102.838 Y91.352 F7800.000
G1 X98.543 Y100.294 F7800.000
G1 X99.754 Y106.486 F7800.000
G1 X96.898 Y107.648 F7800.000
G1 X95.805 Y107.648 F7800.000
G1 X91.391 Y96.562 E3.57549 F600.000
G1 X90.446 Y94.013 E4.39000
G1 X90.006 Y93.349 E4.62869
G1 X89.578 Y93.316 E4.75724
G1 X89.204 Y93.353 E4.87012
G1 X88.773 Y94.010 E5.10552
G1 X87.827 Y96.558 E5.91986
G1 X83.401 Y107.648 E9.49798
G92 E0
G1 Z1.200 F7800.000
G1 X116.759 Y92.352 F7800.000
G1 X116.759 Y102.554 E3.05685 F600.000
G1 X116.797 Y105.387 E3.90604
G1 X116.499 Y106.455 E4.23827
G1 X116.087 Y106.527 E4.36357
G1 X115.801 Y106.542 E4.44947
G1 X115.089 Y105.643 E4.79314
G1 X114.486 Y103.861 E5.35679
G1 X114.193 Y103.060 E5.61219
G1 X111.735 Y96.547 E7.69831
G1 X111.072 Y94.592 E8.31687
G1 X110.343 Y93.677 E8.66733
G1 X110.295 Y93.644 E8.68488
G1 X109.531 Y94.587 E9.04853
G1 X108.807 Y96.755 E9.73346
G1 X106.387 Y103.066 E11.75884
G1 X105.454 Y105.723 E12.60259
G1 X104.818 Y106.569 E12.91988
G1 X104.441 Y106.559 E13.03285
G1 X104.006 Y106.480 E13.16538
G1 X103.726 Y105.463 E13.48158
G1 X103.759 Y102.547 E14.35514
G1 X103.759 Y92.352 E17.41017
G92 E0
G1 X102.838 Y91.352 F7800.000
G1 X98.059 Y97.817 F7800.000
G1 X99.754 Y106.486 F7800.000
G1 X96.898 Y107.648 F7800.000
G1 X95.805 Y107.648 F7800.000
G1 X91.391 Y96.562 E3.57549 F600.000
G1 X90.446 Y94.013 E4.39000
G1 X90.006 Y93.349 E4.62869
G1 X89.578 Y93.316 E4.75724
G1 X89.204 Y93.353 E4.87012
G1 X88.773 Y94.010 E5.10552
G1 X87.827 Y96.558 E5.91986
G1 X83.401 Y107.648 E9.49798
G92 E0
G1 Z1.500 F7800.000
G1 X116.759 Y92.352 F7800.000
G1 X116.759 Y102.554 E3.05685 F600.000
G1 X116.797 Y105.387 E3.90604
G1 X116.499 Y106.455 E4.23827
G1 X116.087 Y106.527 E4.36357
G1 X115.801 Y106.542 E4.44947
G1 X115.089 Y105.643 E4.79314
G1 X114.486 Y103.861 E5.35678
G1 X114.193 Y103.060 E5.61219
G1 X111.735 Y96.547 E7.69830
G1 X111.072 Y94.592 E8.31687
G1 X110.343 Y93.677 E8.66733
G1 X110.295 Y93.644 E8.68487
G1 X109.531 Y94.587 E9.04853
G1 X108.807 Y96.755 E9.73346
G1 X106.387 Y103.066 E11.75884
