; generated by Slic3r 1.2.9 on 2016-03-11 at 01:31:27

; external perimeters extrusion width = 1.54mm
; perimeters extrusion width = 2.62mm
; infill extrusion width = 6.27mm
; solid infill extrusion width = 2.62mm
; top infill extrusion width = 2.62mm

M107
M104 S30 ; set temperature
G28 ; home all axes
G1 Z5 F5000 ; lift nozzle
M302
M92 E10000
M500
M501
G1 E100
M109 S30 ; wait for temperature to be reached
G21 ; set units to millimeters
G90 ; use absolute coordinates
M82 ; use absolute distances for extrusion
G92 E0
G1 Z0.300 F7800.000
G1 X104.590 Y97.328 F7800.000
G1 X104.590 Y92.577 E0.21500 F378.000
G1 X106.211 Y92.577 E0.28835
G1 X106.211 Y98.556 E0.55889
G1 X110.904 Y98.556 E0.77127 F378.000
G1 X112.371 Y98.695 E0.83794
G1 X113.596 Y99.103 E0.89635
G1 X114.597 Y99.777 E0.95098
G1 X115.339 Y100.677 E1.00375
G1 X115.785 Y101.766 E1.05698
G1 X115.935 Y103.055 E1.11572
G1 X115.786 Y104.347 E1.17457
G1 X115.342 Y105.415 E1.22688
G1 X114.606 Y106.273 E1.27802
G1 X113.594 Y106.907 E1.33207
G1 X112.322 Y107.292 E1.39224
G1 X110.773 Y107.423 E1.46255
G1 X104.590 Y107.423 E1.74234
G1 X104.590 Y97.559 E2.18866
G1 X106.211 Y99.743 F7800.000
G1 X110.640 Y99.743 E2.38906 F378.000
G1 X112.644 Y100.098 E2.48116
G1 X113.899 Y101.210 E2.55703
G1 X114.311 Y103.035 E2.64167
G1 X113.887 Y104.800 E2.72384
G1 X112.601 Y105.872 E2.79961
G1 X110.552 Y106.214 E2.89358
G1 X106.211 Y106.214 E3.09004
G1 X106.211 Y99.974 E3.37239
G1 X105.985 Y99.898 F7800.000
G1 X104.816 Y98.729 E3.44798 F540.000
G1 X104.816 Y99.280 E3.47317
G1 X105.985 Y100.449 E3.54875
G1 X105.985 Y101.000 E3.57394
G1 X104.816 Y99.831 E3.64953
G1 X104.816 Y100.382 E3.67472
G1 X105.985 Y101.551 E3.75030
G1 X105.985 Y102.102 E3.77549
G1 X104.816 Y100.933 E3.85108
G1 X104.816 Y101.484 E3.87627
G1 X105.985 Y102.653 E3.95185
G1 X105.985 Y103.204 E3.97704
G1 X104.816 Y102.035 E4.05263
G1 X104.816 Y102.586 E4.07782
G1 X105.985 Y103.755 E4.15340
G1 X105.985 Y104.306 E4.17859
G1 X104.816 Y103.137 E4.25418
G1 X104.816 Y103.688 E4.27937
G1 X105.985 Y104.857 E4.35495
G1 X105.985 Y105.408 E4.38014
G1 X104.816 Y104.239 E4.45573
G1 X104.816 Y104.790 E4.48092
G1 X105.985 Y105.959 E4.55650
G1 X105.915 Y106.440 E4.57874
G1 X106.672 Y107.197 E4.62769
G1 X106.121 Y107.197 E4.65288
G1 X104.816 Y105.891 E4.73728
G1 X104.816 Y106.442 E4.76247
G1 X105.570 Y107.197 E4.81126
G1 X105.019 Y107.197 E4.83645
G1 X104.816 Y106.993 E4.84961
G1 X105.985 Y106.510 F7800.000
G1 X104.816 Y105.341 E4.92520 F540.000
G1 X106.466 Y106.440 F7800.000
G1 X107.223 Y107.197 E4.97414 F540.000
G1 X107.774 Y107.197 E4.99933
G1 X107.017 Y106.440 E5.04828
G1 X107.568 Y106.440 E5.07347
G1 X108.325 Y107.197 E5.12242
G1 X108.876 Y107.197 E5.14761
G1 X108.119 Y106.440 E5.19656
G1 X108.670 Y106.440 E5.22175
G1 X109.427 Y107.197 E5.27070
G1 X109.978 Y107.197 E5.29589
G1 X109.221 Y106.440 E5.34483
G1 X109.772 Y106.440 E5.37002
G1 X110.529 Y107.197 E5.41897
G1 X111.062 Y107.178 E5.44333
G1 X110.323 Y106.440 E5.49108
G1 X110.820 Y106.386 E5.51393
G1 X111.570 Y107.136 E5.56239
G1 X112.078 Y107.093 E5.58570
G1 X111.292 Y106.307 E5.63648
G1 X111.765 Y106.228 E5.65837
G1 X112.545 Y107.009 E5.70885
G1 X112.968 Y106.881 E5.72905
G1 X112.237 Y106.150 E5.77635
G1 X112.688 Y106.050 E5.79749
G1 X113.391 Y106.753 E5.84293
G1 X113.761 Y106.572 E5.86176
G1 X112.989 Y105.800 E5.91168
G1 X113.289 Y105.549 E5.92957
G1 X114.100 Y106.360 E5.98197
G1 X114.433 Y106.142 E6.00016
G1 X113.590 Y105.299 E6.05468
G1 X113.890 Y105.048 E6.07256
G1 X114.705 Y105.863 E6.12521
G1 X114.959 Y105.566 E6.14307
G1 X114.120 Y104.727 E6.19732
G1 X114.226 Y104.283 E6.21821
G1 X115.193 Y105.250 E6.28073
G1 X115.355 Y104.860 E6.30001
G1 X114.333 Y103.838 E6.36608
G1 X114.440 Y103.394 E6.38697
G1 X115.517 Y104.471 E6.45660
G1 X115.606 Y104.009 E6.47810
G1 X114.543 Y102.946 E6.54683
G1 X114.382 Y102.234 E6.58018
G1 X115.663 Y103.516 E6.66301
G1 X115.690 Y102.991 E6.68700
G1 X114.222 Y101.523 E6.78195
G1 X114.604 Y100.252 F7800.000
G1 X114.219 Y99.867 E6.80686 F540.000
G1 X112.962 Y99.161 F7800.000
G1 X115.455 Y101.654 E6.96802 F540.000
G1 X115.618 Y102.368 E7.00148
G1 X112.159 Y98.910 E7.22506
G1 X111.551 Y98.852 E7.25300
G1 X112.532 Y99.833 E7.31641
G1 X111.862 Y99.714 E7.34750
G1 X110.943 Y98.795 E7.40696
G1 X110.379 Y98.782 E7.43274
G1 X111.193 Y99.596 E7.48535
G1 X110.563 Y99.517 E7.51436
G1 X109.828 Y98.782 E7.56189
G1 X109.277 Y98.782 E7.58708
G1 X110.012 Y99.517 E7.63460
G1 X109.461 Y99.517 E7.65979
G1 X108.726 Y98.782 E7.70732
G1 X108.175 Y98.782 E7.73251
G1 X108.910 Y99.517 E7.78004
G1 X108.359 Y99.517 E7.80523
G1 X107.624 Y98.782 E7.85275
G1 X107.073 Y98.782 E7.87794
G1 X107.808 Y99.517 E7.92547
G1 X107.257 Y99.517 E7.95066
G1 X106.522 Y98.782 E7.99818
G1 X105.985 Y98.796 E8.02275
G1 X104.816 Y97.627 E8.09833
G1 X104.816 Y98.178 E8.12352
G1 X106.155 Y99.517 E8.21011
G1 X106.706 Y99.517 F7800.000
G1 X105.971 Y98.782 E8.25764 F540.000
G1 X105.985 Y98.245 E8.28220
G1 X104.816 Y97.076 E8.35779
G1 X104.816 Y96.525 E8.38298
G1 X105.985 Y97.694 E8.45856
G1 X105.985 Y97.143 E8.48375
G1 X104.816 Y95.974 E8.55934
G1 X104.816 Y95.423 E8.58453
G1 X105.985 Y96.592 E8.66011
G1 X105.985 Y96.041 E8.68530
G1 X104.816 Y94.872 E8.76089
G1 X104.816 Y94.321 E8.78608
G1 X105.985 Y95.490 E8.86166
G1 X105.985 Y94.939 E8.88685
G1 X104.816 Y93.770 E8.96244
G1 X104.816 Y93.219 E8.98763
G1 X105.985 Y94.388 E9.06321
G1 X105.985 Y93.837 E9.08840
G1 X104.951 Y92.803 E9.15525
G1 X105.502 Y92.803 E9.18044
G1 X105.985 Y93.286 E9.21167
G92 E0
G1 X104.365 Y92.352 F7800.000
G1 X101.301 Y106.584 F7800.000
G1 X96.248 Y108.648 F7800.000
G1 X91.144 Y97.233 F7800.000
G1 X91.144 Y97.231 F7800.000
G1 X92.052 Y96.877 F7800.000
G1 X94.499 Y98.584 F7800.000
G1 X97.753 Y106.586 E0.39088 F378.000
G1 X98.094 Y107.423 E0.43179 F378.000
G1 X96.402 Y107.423 E0.50834
G1 X92.264 Y96.800 E1.02420
G1 X91.342 Y94.056 E1.15521
G1 X90.947 Y94.056 E1.17309
G1 X90.024 Y96.800 E1.30411
G1 X85.864 Y107.423 E1.82033
G1 X84.173 Y107.423 E1.89685
G1 X90.212 Y92.577 E2.62207
G1 X92.056 Y92.577 E2.70552
G1 X94.412 Y98.370 E2.98848
G1 X94.207 Y98.563 F7800.000
G1 X92.608 Y96.965 E3.09125 F540.000
G1 X93.456 Y96.717 F7800.000
G1 X92.026 Y95.286 E3.18318 F540.000
G1 X92.705 Y94.870 F7800.000
G1 X90.638 Y92.803 E3.31605 F540.000
G1 X90.265 Y92.978 E3.33476
G1 X91.117 Y93.830 E3.38948
G1 X90.747 Y94.008 F7800.000
G1 X90.107 Y93.368 E3.43064 F540.000
G1 X89.949 Y93.757 E3.44975
G1 X90.609 Y94.418 E3.49223
G1 X90.471 Y94.828 E3.51189
G1 X89.790 Y94.147 E3.55568
G1 X89.632 Y94.536 E3.57479
G1 X90.334 Y95.238 E3.61991
G1 X90.196 Y95.648 E3.63957
G1 X89.473 Y94.926 E3.68601
G1 X89.315 Y95.315 E3.70512
G1 X90.058 Y96.058 E3.75288
G1 X89.920 Y96.468 E3.77254
G1 X89.157 Y95.704 E3.82162
G1 X88.998 Y96.094 E3.84073
G1 X89.778 Y96.874 E3.89087
G1 X89.624 Y97.268 E3.91009
G1 X88.840 Y96.483 E3.96050
G1 X88.681 Y96.873 E3.97961
G1 X89.470 Y97.661 E4.03029
G1 X89.316 Y98.055 E4.04951
G1 X88.523 Y97.262 E4.10047
G1 X88.365 Y97.652 E4.11958
G1 X89.161 Y98.449 E4.17081
G1 X89.007 Y98.842 E4.19003
G1 X88.206 Y98.041 E4.24153
G1 X88.048 Y98.431 E4.26065
G1 X88.853 Y99.236 E4.31242
G1 X88.699 Y99.630 E4.33164
G1 X87.889 Y98.820 E4.38369
G1 X87.731 Y99.209 E4.40280
G1 X88.545 Y100.023 E4.45512
G1 X88.391 Y100.417 E4.47434
G1 X87.572 Y99.599 E4.52694
G1 X87.414 Y99.988 E4.54605
G1 X88.236 Y100.811 E4.59892
G1 X88.082 Y101.204 E4.61814
G1 X87.256 Y100.378 E4.67128
G1 X87.097 Y100.767 E4.69039
G1 X87.928 Y101.598 E4.74380
G1 X87.774 Y101.992 E4.76302
G1 X86.939 Y101.157 E4.81671
G1 X86.780 Y101.546 E4.83582
G1 X87.620 Y102.385 E4.88978
G1 X87.466 Y102.779 E4.90900
G1 X86.622 Y101.935 E4.96323
G1 X86.464 Y102.325 E4.98234
G1 X87.311 Y103.173 E5.03684
G1 X87.157 Y103.566 E5.05606
G1 X86.305 Y102.714 E5.11084
G1 X86.147 Y103.104 E5.12995
G1 X87.003 Y103.960 E5.18500
G1 X86.849 Y104.354 E5.20422
G1 X85.988 Y103.493 E5.25955
G1 X85.830 Y103.883 E5.27866
G1 X86.695 Y104.747 E5.33425
G1 X86.541 Y105.141 E5.35347
G1 X85.672 Y104.272 E5.40934
G1 X85.513 Y104.662 E5.42845
G1 X86.386 Y105.535 E5.48459
G1 X86.232 Y105.929 E5.50381
G1 X85.355 Y105.051 E5.56023
G1 X85.196 Y105.440 E5.57934
G1 X86.078 Y106.322 E5.63603
G1 X85.924 Y106.716 E5.65525
G1 X85.038 Y105.830 E5.71221
G1 X84.879 Y106.219 E5.73132
G1 X85.770 Y107.110 E5.78855
G1 X85.309 Y107.197 E5.80985
G1 X84.721 Y106.609 E5.84768
G1 X84.563 Y106.998 E5.86679
G1 X84.762 Y107.197 E5.87958
G92 E0
G1 X85.602 Y105.965 F7800.000
G1 X85.602 Y105.965 F7800.000
G1 X95.056 Y103.247 F7800.000
G1 X96.836 Y105.027 E0.11444 F540.000
G1 X97.211 Y105.951 F7800.000
G1 X95.405 Y104.145 E0.23054 F540.000
G1 X95.755 Y105.042 F7800.000
G1 X97.587 Y106.874 E0.34831 F540.000
G1 X97.362 Y107.197 E0.36620
G1 X96.104 Y105.939 E0.44704
G1 X96.454 Y106.837 F7800.000
G1 X96.814 Y107.197 E0.47019 F540.000
G1 X96.460 Y104.104 F7800.000
G1 X94.706 Y102.350 E0.58296 F540.000
G1 X94.356 Y101.452 F7800.000
G1 X96.085 Y103.180 E0.69406 F540.000
G1 X95.709 Y102.257 F7800.000
G1 X94.007 Y100.555 E0.80350 F540.000
G1 X94.958 Y100.410 F7800.000
G1 X93.307 Y98.760 E0.90960 F540.000
G1 X92.958 Y97.862 F7800.000
G1 X94.582 Y99.487 E1.01403 F540.000
G1 X93.657 Y99.657 F7800.000
G1 X95.333 Y101.334 E1.12180 F540.000
G1 X93.831 Y97.640 F7800.000
G1 X92.303 Y96.111 E1.22006 F540.000
G1 X93.080 Y95.793 F7800.000
G1 X91.748 Y94.461 E1.30567 F540.000
G1 X92.329 Y93.946 F7800.000
G1 X91.186 Y92.803 E1.37917 F540.000
G1 X91.733 Y92.803 E1.40407
G1 X91.953 Y93.023 E1.41822
M106 S255
G92 E0
G1 Z0.600 F7800.000
G1 X106.251 Y102.637 F7800.000
G1 X105.400 Y98.331 E1.31513 F600.000
G1 X105.400 Y92.352 E3.10672
G1 X105.562 Y99.149 F7800.000
G1 X110.764 Y99.156 E4.66536 F600.000
G1 X112.233 Y99.350 E5.10941
G1 X112.691 Y99.466 E5.25112
G1 X113.130 Y99.645 E5.39308
G1 X113.285 Y99.734 E5.44673
G1 X114.078 Y100.349 E5.74739
G1 X114.332 Y100.612 E5.85684
G1 X114.665 Y101.080 E6.02917
G1 X114.949 Y101.981 E6.31226
G1 X115.117 Y103.055 E6.63799
G1 X114.939 Y104.127 E6.96347
G1 X114.656 Y104.993 E7.23646
G1 X114.319 Y105.435 E7.40300
G1 X114.084 Y105.666 E7.50172
G1 X113.291 Y106.241 E7.79522
G1 X113.082 Y106.354 E7.86654
G1 X112.647 Y106.519 E8.00592
G1 X112.194 Y106.625 E8.14537
G1 X110.747 Y106.807 E8.58221
G1 X110.534 Y106.818 E8.64628
G1 X106.436 Y106.818 E9.87423
G1 X105.473 Y106.539 E10.17449
G1 X105.400 Y105.989 E10.34085
G1 X105.400 Y99.968 E12.14502
G1 X105.562 Y99.149 E12.39502
G92 E0
G1 X104.365 Y107.648 F7800.000
G1 X101.301 Y106.584 F7800.000
G1 X101.283 Y106.487 F7800.000
G1 X98.428 Y107.648 F7800.000
G1 X97.335 Y107.648 F7800.000
G1 X92.921 Y96.562 E3.57549 F600.000
G1 X91.976 Y94.013 E4.39000
G1 X91.536 Y93.349 E4.62869
G1 X91.108 Y93.316 E4.75724
G1 X90.734 Y93.353 E4.87012
G1 X90.303 Y94.010 E5.10552
G1 X89.357 Y96.558 E5.91986
G1 X84.931 Y107.648 E9.49798
G92 E0
G1 Z0.900 F7800.000
G1 X106.251 Y102.637 F7800.000
G1 X105.400 Y98.331 E1.31513 F600.000
G1 X105.400 Y92.352 E3.10672
G1 X105.562 Y99.149 F7800.000
G1 X110.764 Y99.156 E4.66536 F600.000
G1 X112.233 Y99.350 E5.10941
G1 X112.691 Y99.466 E5.25112
G1 X113.130 Y99.645 E5.39308
G1 X113.285 Y99.734 E5.44673
G1 X114.078 Y100.349 E5.74739
G1 X114.332 Y100.612 E5.85684
G1 X114.665 Y101.080 E6.02917
G1 X114.949 Y101.981 E6.31226
G1 X115.117 Y103.055 E6.63799
G1 X114.939 Y104.127 E6.96347
G1 X114.656 Y104.993 E7.23646
G1 X114.319 Y105.435 E7.40300
G1 X114.084 Y105.666 E7.50172
G1 X113.291 Y106.241 E7.79522
G1 X113.082 Y106.354 E7.86654
G1 X112.647 Y106.519 E8.00592
G1 X112.194 Y106.625 E8.14537
G1 X110.747 Y106.807 E8.58221
G1 X110.534 Y106.818 E8.64628
G1 X106.436 Y106.818 E9.87423
G1 X105.473 Y106.539 E10.17449
G1 X105.400 Y105.989 E10.34085
G1 X105.400 Y99.968 E12.14502
G1 X105.562 Y99.149 E12.39502
G92 E0
G1 X104.365 Y107.648 F7800.000
G1 X101.301 Y106.584 F7800.000
G1 X101.283 Y106.487 F7800.000
G1 X98.428 Y107.648 F7800.000
G1 X97.335 Y107.648 F7800.000
G1 X92.921 Y96.562 E3.57549 F600.000
G1 X91.976 Y94.013 E4.39000
G1 X91.536 Y93.349 E4.62869
G1 X91.108 Y93.316 E4.75724
G1 X90.734 Y93.353 E4.87012
G1 X90.303 Y94.010 E5.10552
G1 X89.357 Y96.558 E5.91986
G1 X84.931 Y107.648 E9.49798
G92 E0
G1 Z1.200 F7800.000
G1 X106.251 Y102.637 F7800.000
G1 X105.400 Y98.331 E1.31513 F600.000
G1 X105.400 Y92.352 E3.10672
G1 X105.562 Y99.149 F7800.000
G1 X110.764 Y99.156 E4.66536 F600.000
G1 X112.233 Y99.350 E5.10941
G1 X112.691 Y99.466 E5.25112
G1 X113.130 Y99.645 E5.39308
G1 X113.285 Y99.734 E5.44673
G1 X114.078 Y100.349 E5.74739
G1 X114.332 Y100.612 E5.85684
G1 X114.665 Y101.080 E6.02917
G1 X114.949 Y101.981 E6.31226
G1 X115.117 Y103.055 E6.63799
G1 X114.939 Y104.127 E6.96347
G1 X114.656 Y104.993 E7.23646
G1 X114.319 Y105.435 E7.40300
G1 X114.084 Y105.666 E7.50172
G1 X113.291 Y106.241 E7.79522
G1 X113.082 Y106.354 E7.86654
G1 X112.647 Y106.519 E8.00592
G1 X112.194 Y106.625 E8.14537
G1 X110.747 Y106.807 E8.58221
G1 X110.534 Y106.818 E8.64628
G1 X106.436 Y106.818 E9.87423
G1 X105.473 Y106.539 E10.17449
G1 X105.400 Y105.989 E10.34085
G1 X105.400 Y99.968 E12.14502
G1 X105.562 Y99.149 E12.39502
G92 E0
G1 X104.365 Y107.648 F7800.000
G1 X101.301 Y106.584 F7800.000
G1 X101.283 Y106.487 F7800.000
G1 X98.428 Y107.648 F7800.000
G1 X97.335 Y107.648 F7800.000
G1 X92.921 Y96.562 E3.57549 F600.000
G1 X91.976 Y94.013 E4.39000
G1 X91.536 Y93.349 E4.62869
G1 X91.108 Y93.316 E4.75724
G1 X90.734 Y93.353 E4.87012
G1 X90.303 Y94.010 E5.10552
G1 X89.357 Y96.558 E5.91986
G1 X84.931 Y107.648 E9.49798
G92 E0
G1 Z1.500 F7800.000
G1 X106.251 Y102.637 F7800.000
G1 X105.400 Y98.331 E1.31513 F600.000
G1 X105.400 Y92.352 E3.10672
G1 X105.562 Y99.149 F7800.000
G1 X110.764 Y99.156 E4.66536 F600.000
G1 X112.233 Y99.350 E5.10941
G1 X112.691 Y99.466 E5.25112
G1 X113.130 Y99.645 E5.39308
G1 X113.285 Y99.734 E5.44673
G1 X114.078 Y100.349 E5.74739
G1 X114.332 Y100.612 E5.85684
G1 X114.665 Y101.080 E6.02917
G1 X114.949 Y101.981 E6.31226
G1 X115.117 Y103.055 E6.63799
G1 X114.939 Y104.127 E6.96347
G1 X114.656 Y104.993 E7.23646
G1 X114.319 Y105.435 E7.40300
G1 X114.084 Y105.666 E7.50172
G1 X113.291 Y106.241 E7.79522
G1 X113.082 Y106.354 E7.86654
G1 X112.647 Y106.519 E8.00592
G1 X112.194 Y106.625 E8.14537
G1 X110.747 Y106.807 E8.58221
G1 X110.534 Y106.818 E8.64628
G1 X106.436 Y106.818 E9.87423
G1 X105.473 Y106.539 E10.17449
G1 X105.400 Y105.989 E10.34085
G1 X105.400 Y99.968 E12.14502
G1 X105.562 Y99.149 E12.39502
G92 E0
G1 X104.365 Y107.648 F7800.000
G1 X101.301 Y106.584 F7800.000
G1 X101.283 Y106.487 F7800.000
G1 X98.428 Y107.648 F7800.000
G1 X97.335 Y107.648 F7800.000
G1 X92.921 Y96.562 E3.57549 F600.000
G1 X91.976 Y94.013 E4.39000
G1 X91.536 Y93.349 E4.62869
G1 X91.108 Y93.316 E4.75724
G1 X90.734 Y93.353 E4.87012
G1 X90.303 Y94.010 E5.10552
G1 X89.357 Y96.558 E5.91986
G1 X84.931 Y107.648 E9.49798
G92 E0
G1 Z1.800 F7800.000
G1 X106.251 Y102.637 F7800.000
G1 X105.400 Y98.331 E1.31513 F600.000
G1 X105.400 Y92.352 E3.10672
G1 X105.562 Y99.149 F7800.000
G1 X110.764 Y99.156 E4.66536 F600.000
G1 X112.233 Y99.350 E5.10941
G1 X112.691 Y99.466 E5.25112
G1 X113.130 Y99.645 E5.39308
G1 X113.285 Y99.734 E5.44673
G1 X114.078 Y100.349 E5.74739
G1 X114.332 Y100.612 E5.85684
G1 X114.665 Y101.080 E6.02917
G1 X114.949 Y101.981 E6.31226
G1 X115.117 Y103.055 E6.63799
G1 X114.939 Y104.127 E6.96347
G1 X114.656 Y104.993 E7.23646
G1 X114.319 Y105.435 E7.40300
G1 X114.084 Y105.666 E7.50172
G1 X113.291 Y106.241 E7.79522
G1 X113.082 Y106.354 E7.86654
G1 X112.647 Y106.519 E8.00592
G1 X112.194 Y106.625 E8.14537
G1 X110.747 Y106.807 E8.58221
G1 X110.534 Y106.818 E8.64628
G1 X106.436 Y106.818 E9.87423
G1 X105.473 Y106.539 E10.17449
G1 X105.400 Y105.989 E10.34085
G1 X105.400 Y99.968 E12.14502
G1 X105.562 Y99.149 E12.39502
G92 E0
G1 X104.365 Y107.648 F7800.000
G1 X101.301 Y106.584 F7800.000
G1 X101.283 Y106.487 F7800.000
G1 X98.428 Y107.648 F7800.000
G1 X97.335 Y107.648 F7800.000
G1 X92.921 Y96.562 E3.57549 F600.000
G1 X91.976 Y94.013 E4.39000
G1 X91.536 Y93.349 E4.62869
G1 X91.108 Y93.316 E4.75724
G1 X90.734 Y93.353 E4.87012
G1 X90.303 Y94.010 E5.10552
G1 X89.357 Y96.558 E5.91986
G1 X84.931 Y107.648 E9.49798
G92 E0
G1 Z2.100 F7800.000
G1 X106.251 Y102.637 F7800.000
