; generated by Slic3r 1.2.9 on 2016-03-11 at 01:31:30

; external perimeters extrusion width = 1.54mm
; perimeters extrusion width = 2.62mm
; infill extrusion width = 6.27mm
; solid infill extrusion width = 2.62mm
; top infill extrusion width = 2.62mm

M107
M104 S30 ; set temperature
G28 ; home all axes
G1 Z5 F5000 ; lift nozzle
M302
M92 E10000
M500
M501
G1 E100
M109 S30 ; wait for temperature to be reached
G21 ; set units to millimeters
G90 ; use absolute coordinates
M82 ; use absolute distances for extrusion
G92 E0
G1 Z0.300 F7800.000
G1 X115.143 Y104.425 F7800.000
G1 X115.569 Y104.500 E0.01955 F378.000
G1 X115.221 Y105.373 E0.06208
G1 X114.613 Y106.231 E0.10965
G1 X113.837 Y106.848 E0.15451
G1 X112.834 Y107.270 E0.20373
G1 X111.549 Y107.528 E0.26307
G1 X109.983 Y107.615 E0.33401
G1 X108.299 Y107.499 E0.41040
G1 X106.913 Y107.157 E0.47499
G1 X105.823 Y106.595 E0.53047
G1 X105.042 Y105.839 E0.57965
G1 X104.576 Y104.901 E0.62705
G1 X104.418 Y103.754 E0.67945
G1 X104.447 Y103.243 E0.70263
G1 X104.537 Y102.768 E0.72447
G1 X104.685 Y102.338 E0.74506
G1 X104.889 Y101.947 E0.76505
G1 X105.147 Y101.589 E0.78499
G1 X105.457 Y101.265 E0.80528
G1 X105.838 Y100.966 E0.82722
G1 X106.309 Y100.681 E0.85212
G1 X106.870 Y100.413 E0.88025
G1 X107.574 Y100.153 E0.91420
G1 X108.475 Y99.890 E0.95668
G1 X111.474 Y99.180 E1.09613
G1 X112.028 Y99.030 E1.12212
G1 X112.534 Y98.855 E1.14633
G1 X112.991 Y98.655 E1.16890
G1 X113.398 Y98.420 E1.19014
G1 X113.746 Y98.141 E1.21031
G1 X114.033 Y97.817 E1.22993
G1 X114.247 Y97.431 E1.24988
G1 X114.373 Y96.981 E1.27103
G1 X114.415 Y96.467 E1.29435
G1 X114.285 Y95.589 E1.33454
G1 X113.884 Y94.847 E1.37268
G1 X113.226 Y94.270 E1.41231
G1 X112.348 Y93.866 E1.45601
G1 X111.357 Y93.646 E1.50197
G1 X110.016 Y93.551 E1.56279
G1 X108.785 Y93.624 E1.61861
G1 X107.727 Y93.847 E1.66753
G1 X106.840 Y94.225 E1.71115
G1 X106.129 Y94.774 E1.75179
G1 X105.602 Y95.498 E1.79232
G1 X105.342 Y96.185 E1.82555
G1 X103.815 Y95.880 E1.89603 F378.000
G1 X104.761 Y94.045 E1.98943
G1 X106.820 Y92.808 E2.09812
G1 X109.946 Y92.386 E2.24088
G1 X111.752 Y92.512 E2.32281
G1 X113.257 Y92.886 E2.39298
G1 X114.455 Y93.502 E2.45392
G1 X115.321 Y94.330 E2.50812
G1 X115.837 Y95.351 E2.55989
G1 X116.012 Y96.593 E2.61666
G1 X115.988 Y97.090 E2.63917
G1 X115.914 Y97.546 E2.66006
G1 X115.793 Y97.953 E2.67927
G1 X115.630 Y98.320 E2.69745
G1 X115.430 Y98.653 E2.71501
G1 X115.194 Y98.952 E2.73225
G1 X114.922 Y99.220 E2.74955
G1 X114.618 Y99.461 E2.76710
G1 X114.280 Y99.675 E2.78520
G1 X113.916 Y99.867 E2.80382
G1 X113.119 Y100.205 E2.84298
G1 X112.260 Y100.480 E2.88382
G1 X109.160 Y101.222 E3.02804
G1 X108.213 Y101.487 E3.07254
G1 X107.566 Y101.724 E3.10371
G1 X107.107 Y101.967 E3.12722
G1 X106.720 Y102.246 E3.14882
G1 X106.404 Y102.568 E3.16923
G1 X106.169 Y102.947 E3.18939
G1 X106.028 Y103.384 E3.21017
G1 X105.982 Y103.877 E3.23257
G1 X106.099 Y104.675 E3.26907
G1 X106.457 Y105.346 E3.30351
G1 X107.047 Y105.864 E3.33903
G1 X107.837 Y106.224 E3.37830
G1 X108.808 Y106.434 E3.42324
G1 X109.961 Y106.503 E3.47551
G1 X111.020 Y106.441 E3.52354
G1 X111.927 Y106.250 E3.56546
G1 X112.682 Y105.925 E3.60264
G1 X113.289 Y105.449 E3.63759
G1 X113.750 Y104.813 E3.67311
G1 X113.984 Y104.221 E3.70189
G1 X114.915 Y104.385 E3.74470
G1 X115.137 Y105.040 F7800.000
G1 X114.686 Y104.590 E3.77371 F540.000
G1 X114.078 Y104.531 E3.80153
G1 X114.958 Y105.410 E3.85817
G1 X114.730 Y105.731 E3.87610
G1 X113.914 Y104.916 E3.92861
G1 X113.684 Y105.234 E3.94651
G1 X114.495 Y106.045 E3.99873
G1 X114.208 Y106.307 E4.01642
G1 X113.453 Y105.552 E4.06500
G1 X113.153 Y105.801 E4.08276
G1 X113.902 Y106.550 E4.13099
G1 X113.553 Y106.750 E4.14931
G1 X112.845 Y106.042 E4.19489
G1 X112.483 Y106.229 E4.21344
G1 X113.167 Y106.912 E4.25747
G1 X112.772 Y107.067 E4.27676
G1 X112.099 Y106.394 E4.32009
G1 X111.675 Y106.518 E4.34023
G1 X112.315 Y107.158 E4.38144
G1 X111.858 Y107.250 E4.40268
G1 X111.222 Y106.614 E4.44365
G1 X110.738 Y106.679 E4.46587
G1 X111.374 Y107.315 E4.50686
G1 X110.854 Y107.344 E4.53058
G1 X110.220 Y106.710 E4.57145
G1 X109.679 Y106.718 E4.59608
G1 X110.334 Y107.373 E4.63828
G1 X109.781 Y107.368 E4.66350
G1 X109.095 Y106.683 E4.70765
G1 X108.477 Y106.613 E4.73599
G1 X109.191 Y107.328 E4.78201
G1 X108.602 Y107.288 E4.80891
G1 X107.776 Y106.461 E4.86211
G1 X107.914 Y107.149 E4.89403
G1 X106.819 Y106.054 E4.96455
G1 X106.098 Y106.430 F7800.000
G1 X105.185 Y105.517 E5.02336 F540.000
G1 X106.186 Y105.420 F7800.000
G1 X104.680 Y103.915 E5.12035 F540.000
G1 X104.663 Y103.349 E5.14614
G1 X105.835 Y104.521 E5.22164
G1 X105.761 Y103.897 E5.25022
G1 X104.734 Y102.870 E5.31637
G1 X104.862 Y102.450 E5.33639
G1 X105.809 Y103.397 E5.39739
G1 X105.942 Y102.981 E5.41727
G1 X105.042 Y102.081 E5.47527
G1 X105.265 Y101.755 E5.49324
G1 X106.137 Y102.627 E5.54941
G1 X106.379 Y102.320 E5.56721
G1 X105.528 Y101.469 E5.62201
G1 X105.827 Y101.220 E5.63976
G1 X106.659 Y102.051 E5.69333
G1 X106.978 Y101.821 E5.71123
G1 X106.158 Y101.001 E5.76404
G1 X106.511 Y100.805 E5.78243
G1 X107.331 Y101.625 E5.83524
G1 X107.710 Y101.455 E5.85416
G1 X106.882 Y100.628 E5.90744
G1 X107.281 Y100.478 F7800.000
G1 X108.111 Y101.308 E5.96093 F540.000
G1 X108.534 Y101.182 E5.98103
G1 X107.687 Y100.335 E6.03559
G1 X108.112 Y100.211 E6.05575
G1 X108.963 Y101.062 E6.11057
G1 X109.399 Y100.950 E6.13110
G1 X108.540 Y100.090 E6.18648
G1 X108.983 Y99.985 E6.20725
G1 X109.842 Y100.844 E6.26257
G1 X110.285 Y100.738 E6.28332
G1 X109.427 Y99.880 E6.33858
G1 X109.871 Y99.775 E6.35935
G1 X110.728 Y100.632 E6.41456
G1 X111.171 Y100.526 E6.43530
G1 X110.315 Y99.670 E6.49045
G1 X110.759 Y99.564 E6.51122
G1 X111.614 Y100.420 E6.56631
G1 X112.057 Y100.314 E6.58705
G1 X111.203 Y99.459 E6.64208
G1 X111.642 Y99.350 E6.66269
G1 X112.485 Y100.193 E6.71702
G1 X112.901 Y100.060 E6.73690
G1 X112.071 Y99.230 E6.79032
G1 X113.300 Y99.910 F7800.000
G1 X112.479 Y99.089 E6.84319 F540.000
G1 X112.867 Y98.928 E6.86231
G1 X113.685 Y99.747 E6.91504
G1 X114.057 Y99.569 E6.93380
G1 X113.231 Y98.743 E6.98702
G1 X113.568 Y98.531 E7.00514
G1 X114.403 Y99.367 E7.05896
G1 X114.720 Y99.135 E7.07684
G1 X113.872 Y98.287 E7.13143
G1 X114.131 Y97.996 E7.14914
G1 X115.004 Y98.869 E7.20538
G1 X115.251 Y98.568 E7.22314
G1 X114.344 Y97.661 E7.28159
G1 X114.506 Y97.274 E7.30070
G1 X115.455 Y98.223 E7.36182
G1 X115.614 Y97.833 E7.38099
G1 X114.606 Y96.825 E7.44589
G1 X114.632 Y96.302 E7.46975
G1 X115.722 Y97.393 E7.53997
G1 X115.775 Y96.896 E7.56270
G1 X114.536 Y95.658 E7.64247
G1 X114.105 Y94.677 F7800.000
G1 X115.730 Y96.303 E7.74717 F540.000
G1 X115.640 Y95.664 E7.77657
G1 X113.076 Y93.099 E7.94175
G1 X114.339 Y93.813 F7800.000
G1 X115.181 Y94.655 E7.99597 F540.000
G1 X113.816 Y94.388 F7800.000
G1 X112.342 Y92.914 E8.09091 F540.000
G1 X111.613 Y92.734 E8.12509
G1 X112.537 Y93.658 E8.18458
G1 X111.829 Y93.499 E8.21762
G1 X111.023 Y92.693 E8.26952
G1 X110.433 Y92.652 E8.29645
G1 X111.182 Y93.401 E8.34467
G1 X110.591 Y93.359 E8.37165
G1 X109.849 Y92.617 E8.41944
G1 X109.365 Y92.682 E8.44167
G1 X110.012 Y93.329 E8.48334
G1 X109.494 Y93.360 E8.50697
G1 X108.882 Y92.747 E8.54643
G1 X108.398 Y92.813 E8.56865
G1 X108.976 Y93.391 E8.60590
G1 X108.504 Y93.468 E8.62768
G1 X107.915 Y92.878 E8.66566
G1 X107.431 Y92.943 E8.68789
G1 X108.051 Y93.563 E8.72782
G1 X107.615 Y93.677 E8.74831
G1 X106.947 Y93.009 E8.79135
G1 X106.574 Y93.184 E8.81014
G1 X107.231 Y93.841 E8.85245
G1 X106.846 Y94.005 E8.87150
G1 X106.231 Y93.390 E8.91111
G1 X105.888 Y93.596 E8.92933
G1 X106.520 Y94.228 E8.97005
G1 X106.210 Y94.467 E8.98788
G1 X105.545 Y93.802 E9.03072
G1 X105.202 Y94.008 E9.04894
G1 X105.923 Y94.728 E9.09535
G1 X105.692 Y95.046 E9.11324
G1 X104.885 Y94.239 E9.16522
G1 X104.697 Y94.600 E9.18375
G1 X105.461 Y95.364 E9.23295
G1 X105.292 Y95.745 E9.25191
G1 X104.510 Y94.962 E9.30231
G1 X104.323 Y95.324 E9.32087
G1 X104.834 Y95.835 E9.35375
G92 E0
G1 X105.979 Y101.841 F7800.000
G1 X105.779 Y102.074 F7800.000
G1 X105.422 Y102.655 F7800.000
G1 X105.252 Y103.226 F7800.000
G1 X105.236 Y103.340 F7800.000
G1 X105.218 Y103.337 F7800.000
G1 X104.768 Y104.551 F7800.000
G1 X107.185 Y106.968 E0.15568 F540.000
G92 E0
G1 X104.358 Y104.968 F7800.000
G1 X98.352 Y108.744 F7800.000
G1 X91.060 Y105.761 F7800.000
G1 X87.437 Y108.234 F7800.000
G1 X85.941 Y107.648 F7800.000
G1 X86.366 Y105.945 F7800.000
G1 X85.788 Y107.423 E0.07180 F378.000
G1 X84.097 Y107.423 E0.14832
G1 X90.136 Y92.577 E0.87354
G1 X91.980 Y92.577 E0.95699
G1 X97.677 Y106.586 E1.64129
G1 X98.018 Y107.423 E1.68220 F378.000
G1 X96.326 Y107.423 E1.75875
G1 X92.188 Y96.800 E2.27460
G1 X91.266 Y94.056 E2.40561
G1 X90.871 Y94.056 E2.42349
G1 X89.948 Y96.800 E2.55451
G1 X86.451 Y105.730 E2.98848
G1 X84.686 Y107.197 F7800.000
G1 X84.487 Y106.998 E3.00127 F540.000
G1 X84.645 Y106.609 E3.02038
G1 X85.233 Y107.197 E3.05820
G1 X85.694 Y107.110 E3.07950
G1 X84.803 Y106.219 E3.13674
G1 X84.962 Y105.830 E3.15585
G1 X85.848 Y106.716 E3.21281
G1 X86.002 Y106.322 E3.23203
G1 X85.120 Y105.440 E3.28872
G1 X85.279 Y105.051 E3.30783
G1 X86.156 Y105.929 E3.36424
G1 X86.310 Y105.535 E3.38346
G1 X85.437 Y104.661 E3.43960
G1 X85.596 Y104.272 E3.45872
G1 X86.465 Y105.141 E3.51459
G1 X86.619 Y104.747 E3.53380
G1 X85.754 Y103.883 E3.58940
G1 X85.912 Y103.493 E3.60851
G1 X86.773 Y104.354 E3.66384
G1 X86.927 Y103.960 E3.68305
G1 X86.071 Y103.104 E3.73810
G1 X86.229 Y102.714 E3.75722
G1 X87.081 Y103.566 E3.81199
G1 X87.235 Y103.173 E3.83121
G1 X86.388 Y102.325 E3.88572
G1 X86.546 Y101.935 E3.90483
G1 X87.390 Y102.779 E3.95906
G1 X87.544 Y102.385 E3.97828
G1 X86.704 Y101.546 E4.03224
G1 X86.863 Y101.157 E4.05135
G1 X87.698 Y101.992 E4.10504
G1 X87.852 Y101.598 E4.12426
G1 X87.021 Y100.767 E4.17767
G1 X87.180 Y100.378 E4.19678
G1 X88.006 Y101.204 E4.24992
G1 X88.160 Y100.811 E4.26914
G1 X87.338 Y99.988 E4.32201
G1 X87.496 Y99.599 E4.34112
G1 X88.315 Y100.417 E4.39371
G1 X88.469 Y100.023 E4.41293
G1 X87.655 Y99.209 E4.46526
G1 X87.813 Y98.820 E4.48437
G1 X88.623 Y99.630 E4.53642
G1 X88.777 Y99.236 E4.55563
G1 X87.972 Y98.431 E4.60741
G1 X88.130 Y98.041 E4.62652
G1 X88.931 Y98.842 E4.67803
G1 X89.085 Y98.449 E4.69724
G1 X88.289 Y97.652 E4.74848
G1 X88.447 Y97.262 E4.76759
G1 X89.240 Y98.055 E4.81854
G1 X89.394 Y97.661 E4.83776
G1 X88.605 Y96.873 E4.88845
G1 X88.764 Y96.483 E4.90756
G1 X89.548 Y97.268 E4.95797
G1 X89.702 Y96.874 E4.97719
G1 X88.922 Y96.094 E5.02733
G1 X89.081 Y95.704 E5.04644
G1 X89.844 Y96.468 E5.09552
G1 X89.982 Y96.058 E5.11518
G1 X89.239 Y95.315 E5.16294
G1 X89.397 Y94.926 E5.18205
G1 X90.120 Y95.648 E5.22849
G1 X90.258 Y95.238 E5.24815
G1 X89.556 Y94.536 E5.29326
G1 X89.714 Y94.147 E5.31237
G1 X90.395 Y94.828 E5.35617
G1 X90.533 Y94.418 E5.37583
G1 X89.873 Y93.757 E5.41831
G1 X90.031 Y93.368 E5.43742
G1 X90.671 Y94.008 E5.47857
G1 X91.041 Y93.830 F7800.000
G1 X90.189 Y92.978 E5.53330 F540.000
G1 X90.562 Y92.803 E5.55201
G1 X92.629 Y94.870 E5.68488
G1 X91.950 Y95.286 F7800.000
G1 X93.380 Y96.717 E5.77681 F540.000
G1 X92.532 Y96.965 F7800.000
G1 X94.131 Y98.563 E5.87958 F540.000
G1 X93.231 Y98.760 F7800.000
G1 X94.882 Y100.410 E5.98568 F540.000
G1 X93.931 Y100.555 F7800.000
G1 X95.633 Y102.257 E6.09511 F540.000
G1 X96.009 Y103.180 F7800.000
G1 X94.280 Y101.452 E6.20621 F540.000
G1 X94.630 Y102.350 F7800.000
G1 X96.384 Y104.104 E6.31898 F540.000
G1 X96.760 Y105.027 F7800.000
G1 X94.980 Y103.247 E6.43342 F540.000
G1 X95.329 Y104.145 F7800.000
G1 X97.135 Y105.951 E6.54952 F540.000
G1 X96.028 Y105.939 F7800.000
G1 X97.286 Y107.197 E6.63036 F540.000
G1 X97.511 Y106.874 E6.64825
G1 X95.679 Y105.042 E6.76602
G1 X96.378 Y106.837 F7800.000
G1 X96.738 Y107.197 E6.78917 F540.000
G1 X95.257 Y101.334 F7800.000
G1 X93.581 Y99.657 E6.89694 F540.000
G1 X94.506 Y99.487 F7800.000
G1 X92.882 Y97.862 E7.00137 F540.000
G1 X93.755 Y97.640 F7800.000
G1 X92.227 Y96.111 E7.09964 F540.000
G1 X93.004 Y95.793 F7800.000
G1 X91.672 Y94.461 E7.18524 F540.000
G1 X92.253 Y93.946 F7800.000
G1 X91.110 Y92.803 E7.25875 F540.000
G1 X91.657 Y92.803 E7.28365
G1 X91.877 Y93.023 E7.29779
M106 S255
G92 E0
G1 Z0.600 F7800.000
G1 X115.131 Y104.194 F7800.000
G1 X114.052 Y105.700 E0.55491 F600.000
G1 X113.708 Y106.033 E0.69860
G1 X113.467 Y106.223 E0.79046
G1 X113.115 Y106.430 E0.91289
G1 X112.643 Y106.647 E1.06842
G1 X112.026 Y106.831 E1.26133
G1 X111.474 Y106.944 E1.43012
G1 X111.036 Y106.998 E1.56233
G1 X109.987 Y107.058 E1.87733
G1 X108.792 Y106.983 E2.23605
G1 X108.388 Y106.930 E2.35813
G1 X107.741 Y106.780 E2.55716
G1 X107.131 Y106.577 E2.74986
G1 X106.615 Y106.307 E2.92442
G1 X106.222 Y106.040 E3.06680
G1 X106.046 Y105.878 E3.13852
G1 X105.827 Y105.636 E3.23611
G1 X105.647 Y105.397 E3.32584
G1 X105.471 Y105.055 E3.44121
G1 X105.321 Y104.671 E3.56451
G1 X105.228 Y104.014 E3.76345
G1 X105.207 Y103.723 E3.85102
G1 X105.237 Y103.334 E3.96772
G1 X105.316 Y102.975 E4.07798
G1 X105.423 Y102.656 E4.17893
G1 X105.503 Y102.501 E4.23123
G1 X105.761 Y102.100 E4.37391
G1 X105.991 Y101.855 E4.47474
G1 X106.281 Y101.606 E4.58916
G1 X106.669 Y101.349 E4.72874
G1 X107.207 Y101.077 E4.90935
G1 X108.025 Y100.782 E5.16987
G1 X108.960 Y100.523 E5.46057
G1 X112.063 Y99.777 E6.41693
G1 X112.837 Y99.524 E6.66076
G1 X113.374 Y99.291 E6.83617
G1 X113.892 Y99.010 E7.01294
G1 X114.223 Y98.768 E7.13573
G1 X114.589 Y98.410 E7.28923
G1 X114.759 Y98.188 E7.37288
G1 X114.901 Y97.941 E7.45824
G1 X115.026 Y97.670 E7.54785
G1 X115.115 Y97.364 E7.64338
G1 X115.182 Y97.006 E7.75242
G1 X115.207 Y96.630 E7.86529
G1 X115.185 Y96.327 E7.95631
G1 X115.078 Y95.589 E8.17975
G1 X114.923 Y95.199 E8.30541
G1 X114.707 Y94.785 E8.44550
G1 X114.525 Y94.547 E8.53510
G1 X114.305 Y94.305 E8.63322
G1 X114.049 Y94.072 E8.73700
G1 X113.457 Y93.690 E8.94805
G1 X113.033 Y93.484 E9.08944
G1 X112.452 Y93.289 E9.27307
G1 X111.659 Y93.103 E9.51705
G1 X111.421 Y93.068 E9.58912
G1 X109.965 Y92.971 E10.02639
G1 X108.658 Y93.102 E10.42012
G1 X107.475 Y93.314 E10.78002
G1 X107.039 Y93.434 E10.91555
G1 X106.624 Y93.646 E11.05522
G1 X105.748 Y94.228 E11.37028
G1 X105.334 Y94.582 E11.53377
G1 X104.927 Y95.275 E11.77440
G1 X104.494 Y96.245 E12.09276
G92 E0
G1 X100.346 Y99.722 F7800.000
G1 X100.374 Y101.965 F7800.000
G1 X100.461 Y102.779 F7800.000
G1 X96.952 Y104.206 F7800.000
G1 X97.259 Y107.648 F7800.000
G1 X92.845 Y96.562 E3.57549 F600.000
G1 X91.900 Y94.013 E4.39000
G1 X91.460 Y93.349 E4.62869
G1 X91.032 Y93.316 E4.75724
G1 X90.658 Y93.353 E4.87012
G1 X90.227 Y94.010 E5.10552
G1 X89.281 Y96.558 E5.91986
G1 X84.855 Y107.648 E9.49798
G92 E0
G1 Z0.900 F7800.000
G1 X115.131 Y104.194 F7800.000
G1 X114.052 Y105.700 E0.55491 F600.000
G1 X113.708 Y106.033 E0.69860
G1 X113.467 Y106.223 E0.79046
G1 X113.115 Y106.430 E0.91289
G1 X112.643 Y106.647 E1.06842
G1 X112.026 Y106.831 E1.26133
G1 X111.474 Y106.944 E1.43012
G1 X111.036 Y106.998 E1.56233
G1 X109.987 Y107.058 E1.87733
G1 X108.792 Y106.983 E2.23605
G1 X108.388 Y106.930 E2.35813
G1 X107.741 Y106.780 E2.55716
G1 X107.131 Y106.577 E2.74986
G1 X106.615 Y106.307 E2.92442
G1 X106.222 Y106.040 E3.06680
G1 X106.046 Y105.878 E3.13852
G1 X105.827 Y105.636 E3.23611
G1 X105.647 Y105.397 E3.32584
G1 X105.471 Y105.055 E3.44121
G1 X105.321 Y104.671 E3.56451
G1 X105.228 Y104.014 E3.76345
G1 X105.207 Y103.723 E3.85102
G1 X105.237 Y103.334 E3.96772
G1 X105.316 Y102.975 E4.07798
G1 X105.423 Y102.656 E4.17893
G1 X105.503 Y102.501 E4.23123
G1 X105.761 Y102.100 E4.37391
G1 X105.991 Y101.855 E4.47474
G1 X106.281 Y101.606 E4.58916
G1 X106.669 Y101.349 E4.72874
G1 X107.207 Y101.077 E4.90935
G1 X108.025 Y100.782 E5.16987
G1 X108.960 Y100.523 E5.46057
G1 X112.063 Y99.777 E6.41693
G1 X112.837 Y99.524 E6.66076
G1 X113.374 Y99.291 E6.83617
G1 X113.892 Y99.010 E7.01294
G1 X114.223 Y98.768 E7.13573
G1 X114.589 Y98.410 E7.28923
G1 X114.759 Y98.188 E7.37288
G1 X114.901 Y97.941 E7.45824
G1 X115.026 Y97.670 E7.54785
G1 X115.115 Y97.364 E7.64338
G1 X115.182 Y97.006 E7.75242
G1 X115.207 Y96.630 E7.86529
G1 X115.185 Y96.327 E7.95631
G1 X115.078 Y95.589 E8.17975
G1 X114.923 Y95.199 E8.30541
G1 X114.707 Y94.785 E8.44550
G1 X114.525 Y94.547 E8.53510
G1 X114.305 Y94.305 E8.63322
G1 X114.049 Y94.072 E8.73700
G1 X113.457 Y93.690 E8.94805
