; generated by Slic3r 1.2.9 on 2016-03-11 at 01:31:31

; external perimeters extrusion width = 1.54mm
; perimeters extrusion width = 2.62mm
; infill extrusion width = 6.27mm
; solid infill extrusion width = 2.62mm
; top infill extrusion width = 2.62mm

M107
M104 S30 ; set temperature
G28 ; home all axes
G1 Z5 F5000 ; lift nozzle
M302
M92 E10000
M500
M501
G1 E100
M109 S30 ; wait for temperature to be reached
G21 ; set units to millimeters
G90 ; use absolute coordinates
M82 ; use absolute distances for extrusion
G92 E0
G1 Z0.300 F7800.000
G1 X108.798 Y98.492 F7800.000
G1 X108.798 Y92.577 E0.26766 F378.000
G1 X110.409 Y92.577 E0.34056
G1 X110.409 Y106.181 E0.95613
G1 X115.658 Y106.181 E1.19365 F378.000
G1 X115.658 Y107.423 E1.24984
G1 X103.549 Y107.423 E1.79777
G1 X103.549 Y106.181 E1.85397
G1 X108.798 Y106.181 E2.09148
G1 X108.798 Y98.723 E2.42894
G1 X110.183 Y93.007 F7800.000
G1 X109.980 Y92.803 E2.44210 F540.000
G1 X109.429 Y92.803 E2.46732
G1 X110.183 Y93.558 E2.51614
G1 X110.183 Y94.109 E2.54135
G1 X109.024 Y92.950 E2.61632
G1 X109.024 Y93.501 E2.64153
G1 X110.183 Y94.660 E2.71650
G1 X110.183 Y95.211 E2.74171
G1 X109.024 Y94.052 E2.81668
G1 X109.024 Y94.604 E2.84189
G1 X110.183 Y95.763 E2.91686
G1 X110.183 Y96.314 E2.94207
G1 X109.024 Y95.155 E3.01704
G1 X109.024 Y95.706 E3.04225
G1 X110.183 Y96.865 E3.11723
G1 X110.183 Y97.416 E3.14244
G1 X109.024 Y96.257 E3.21741
G1 X109.024 Y96.808 E3.24262
G1 X110.183 Y97.968 E3.31759
G1 X110.183 Y98.519 E3.34280
G1 X109.024 Y97.360 E3.41777
G1 X109.024 Y97.911 E3.44298
G1 X110.183 Y99.070 E3.51795
G1 X110.183 Y99.621 E3.54316
G1 X109.024 Y98.462 E3.61813
G1 X109.024 Y99.013 E3.64334
G1 X110.183 Y100.172 E3.71831
G1 X110.183 Y100.724 E3.74352
G1 X109.024 Y99.564 E3.81850
G1 X109.024 Y100.116 E3.84371
G1 X110.183 Y101.275 E3.91868
G1 X110.183 Y101.826 E3.94389
G1 X109.024 Y100.667 E4.01886
G1 X109.024 Y101.218 E4.04407
G1 X110.183 Y102.377 E4.11904
G1 X110.183 Y102.928 E4.14425
G1 X109.024 Y101.769 E4.21922
G1 X109.024 Y102.321 E4.24443
G1 X110.183 Y103.480 E4.31940
G1 X110.183 Y104.031 E4.34461
G1 X109.024 Y102.872 E4.41958
G1 X109.024 Y103.423 E4.44479
G1 X110.183 Y104.582 E4.51976
G1 X110.183 Y105.133 E4.54497
G1 X109.024 Y103.974 E4.61995
G1 X109.024 Y104.525 E4.64516
G1 X110.183 Y105.685 E4.72013
G1 X110.183 Y106.236 E4.74534
G1 X109.024 Y105.077 E4.82031
G1 X109.024 Y105.628 E4.84552
G1 X110.593 Y107.197 E4.94701
G1 X111.145 Y107.197 E4.97222
G1 X110.355 Y106.407 E5.02333
G1 X110.906 Y106.407 E5.04854
G1 X111.696 Y107.197 E5.09964
G1 X112.247 Y107.197 E5.12485
G1 X111.457 Y106.407 E5.17596
G1 X112.008 Y106.407 E5.20117
G1 X112.798 Y107.197 E5.25227
G1 X113.350 Y107.197 E5.27748
G1 X112.559 Y106.407 E5.32858
G1 X113.111 Y106.407 E5.35379
G1 X113.901 Y107.197 E5.40490
G1 X114.452 Y107.197 E5.43011
G1 X113.662 Y106.407 E5.48121
G1 X114.213 Y106.407 E5.50642
G1 X115.003 Y107.197 E5.55753
G1 X115.432 Y107.075 E5.57793
G1 X114.764 Y106.407 E5.62115
G1 X110.042 Y107.197 F7800.000
G1 X109.024 Y106.179 E5.68699 F540.000
G1 X108.701 Y106.407 F7800.000
G1 X109.491 Y107.197 E5.73809 F540.000
G1 X108.940 Y107.197 E5.76330
G1 X108.150 Y106.407 E5.81440
G1 X107.598 Y106.407 E5.83962
G1 X108.389 Y107.197 E5.89072
G1 X107.837 Y107.197 E5.91593
G1 X107.047 Y106.407 E5.96703
G1 X106.496 Y106.407 E5.99224
G1 X107.286 Y107.197 E6.04335
G1 X106.735 Y107.197 E6.06856
G1 X105.945 Y106.407 E6.11966
G1 X105.394 Y106.407 E6.14487
G1 X106.184 Y107.197 E6.19598
G1 X105.632 Y107.197 E6.22119
G1 X104.842 Y106.407 E6.27229
G1 X104.291 Y106.407 E6.29750
G1 X105.081 Y107.197 E6.34860
G1 X104.530 Y107.197 E6.37381
G1 X103.775 Y106.442 E6.42263
G1 X103.775 Y106.993 E6.44785
G1 X103.979 Y107.197 E6.46101
G92 E0
G1 X103.324 Y105.956 F7800.000
G1 X98.707 Y108.648 F7800.000
G1 X91.415 Y105.621 F7800.000
G1 X91.422 Y97.233 F7800.000
G1 X90.514 Y96.877 F7800.000
G1 X87.165 Y100.752 F7800.000
G1 X90.490 Y92.577 E0.39935 F378.000
G1 X92.334 Y92.577 E0.48280
G1 X98.032 Y106.586 E1.16710
G1 X98.372 Y107.423 E1.20800 F378.000
G1 X96.681 Y107.423 E1.28456
G1 X92.542 Y96.800 E1.80041
G1 X91.620 Y94.056 E1.93142
G1 X91.225 Y94.056 E1.94930
G1 X90.302 Y96.800 E2.08032
G1 X86.142 Y107.423 E2.59654
G1 X84.451 Y107.423 E2.67306
G1 X87.078 Y100.966 E2.98848
G1 X85.040 Y107.197 F7800.000
G1 X84.841 Y106.998 E3.00127 F540.000
G1 X85.000 Y106.609 E3.02038
G1 X85.588 Y107.197 E3.05820
G1 X86.048 Y107.110 E3.07950
G1 X85.158 Y106.219 E3.13674
G1 X85.316 Y105.830 E3.15585
G1 X86.202 Y106.716 E3.21281
G1 X86.357 Y106.322 E3.23203
G1 X85.475 Y105.440 E3.28872
G1 X85.633 Y105.051 E3.30783
G1 X86.511 Y105.929 E3.36424
G1 X86.665 Y105.535 E3.38346
G1 X85.792 Y104.662 E3.43960
G1 X85.950 Y104.272 E3.45872
G1 X86.819 Y105.141 E3.51459
G1 X86.973 Y104.747 E3.53380
G1 X86.108 Y103.883 E3.58940
G1 X86.267 Y103.493 E3.60851
G1 X87.127 Y104.354 E3.66384
G1 X87.282 Y103.960 E3.68305
G1 X86.425 Y103.104 E3.73811
G1 X86.584 Y102.714 E3.75722
G1 X87.436 Y103.566 E3.81199
G1 X87.590 Y103.173 E3.83121
G1 X86.742 Y102.325 E3.88572
G1 X86.900 Y101.935 E3.90483
G1 X87.744 Y102.779 E3.95906
G1 X87.898 Y102.385 E3.97828
G1 X87.059 Y101.546 E4.03224
G1 X87.217 Y101.157 E4.05135
G1 X88.052 Y101.992 E4.10504
G1 X88.207 Y101.598 E4.12426
G1 X87.376 Y100.767 E4.17767
G1 X87.534 Y100.378 E4.19678
G1 X88.361 Y101.204 E4.24992
G1 X88.515 Y100.811 E4.26914
G1 X87.693 Y99.988 E4.32201
G1 X87.851 Y99.599 E4.34112
G1 X88.669 Y100.417 E4.39371
G1 X88.823 Y100.023 E4.41293
G1 X88.009 Y99.209 E4.46526
G1 X88.168 Y98.820 E4.48437
G1 X88.977 Y99.630 E4.53642
G1 X89.132 Y99.236 E4.55563
G1 X88.326 Y98.431 E4.60741
G1 X88.485 Y98.041 E4.62652
G1 X89.286 Y98.842 E4.67803
G1 X89.440 Y98.449 E4.69724
G1 X88.643 Y97.652 E4.74848
G1 X88.801 Y97.262 E4.76759
G1 X89.594 Y98.055 E4.81854
G1 X89.748 Y97.661 E4.83776
G1 X88.960 Y96.873 E4.88845
G1 X89.118 Y96.483 E4.90756
G1 X89.902 Y97.268 E4.95797
G1 X90.057 Y96.874 E4.97719
G1 X89.277 Y96.094 E5.02733
G1 X89.435 Y95.704 E5.04644
G1 X90.199 Y96.468 E5.09552
G1 X90.336 Y96.058 E5.11518
G1 X89.593 Y95.315 E5.16294
G1 X89.752 Y94.926 E5.18205
G1 X90.474 Y95.648 E5.22849
G1 X90.612 Y95.238 E5.24815
G1 X89.910 Y94.536 E5.29326
G1 X90.069 Y94.147 E5.31237
G1 X90.750 Y94.828 E5.35617
G1 X90.888 Y94.418 E5.37583
G1 X90.227 Y93.757 E5.41831
G1 X90.386 Y93.368 E5.43742
G1 X91.026 Y94.008 E5.47857
G1 X91.395 Y93.830 F7800.000
G1 X90.544 Y92.978 E5.53330 F540.000
G1 X90.916 Y92.803 E5.55201
G1 X92.983 Y94.870 E5.68488
G1 X92.304 Y95.286 F7800.000
G1 X93.734 Y96.717 E5.77681 F540.000
G1 X92.887 Y96.965 F7800.000
G1 X94.485 Y98.563 E5.87958 F540.000
G1 X93.586 Y98.760 F7800.000
G1 X95.236 Y100.410 E5.98568 F540.000
G1 X94.285 Y100.555 F7800.000
G1 X95.988 Y102.257 E6.09511 F540.000
G1 X95.612 Y101.334 F7800.000
G1 X93.936 Y99.657 E6.20288 F540.000
G1 X94.861 Y99.487 F7800.000
G1 X93.236 Y97.862 E6.30731 F540.000
G1 X94.110 Y97.640 F7800.000
G1 X92.581 Y96.111 E6.40557 F540.000
G1 X93.359 Y95.793 F7800.000
G1 X92.027 Y94.461 E6.49118 F540.000
G1 X92.608 Y93.946 F7800.000
G1 X91.464 Y92.803 E6.56468 F540.000
G1 X92.012 Y92.803 E6.58959
G1 X92.232 Y93.023 E6.60373
G1 X94.635 Y101.452 F7800.000
G1 X96.363 Y103.180 E6.71483 F540.000
G1 X96.739 Y104.104 F7800.000
G1 X94.984 Y102.350 E6.82760 F540.000
G1 X95.334 Y103.247 F7800.000
G1 X97.114 Y105.027 E6.94204 F540.000
G1 X97.490 Y105.951 F7800.000
G1 X95.684 Y104.145 E7.05814 F540.000
G1 X96.033 Y105.042 F7800.000
G1 X97.865 Y106.874 E7.17591 F540.000
G1 X97.641 Y107.197 E7.19380
G1 X96.383 Y105.939 E7.27464
G1 X96.733 Y106.837 F7800.000
G1 X97.093 Y107.197 E7.29779 F540.000
M106 S255
G92 E0
G1 Z0.600 F7800.000
G1 X111.351 Y105.956 F7800.000
G1 X108.573 Y106.802 E0.87020 F600.000
G1 X103.324 Y106.802 E2.44304
G1 X115.883 Y106.802 F7800.000
G1 X110.634 Y106.802 E4.01589 F600.000
G1 X109.604 Y106.488 E4.33867
G1 X109.604 Y92.352 E8.57453
G92 E0
G1 X108.573 Y105.956 F7800.000
G1 X108.573 Y105.956 F7800.000
G1 X103.324 Y100.707 F7800.000
G1 X103.324 Y105.956 F7800.000
G1 X100.773 Y105.956 F7800.000
G1 X100.927 Y106.745 F7800.000
G1 X98.707 Y107.648 F7800.000
G1 X97.613 Y107.648 F7800.000
G1 X93.200 Y96.562 E3.57549 F600.000
G1 X92.255 Y94.013 E4.39000
G1 X91.815 Y93.349 E4.62869
G1 X91.387 Y93.316 E4.75724
G1 X91.012 Y93.353 E4.87012
G1 X90.582 Y94.010 E5.10552
G1 X89.636 Y96.558 E5.91986
G1 X85.209 Y107.648 E9.49798
G92 E0
G1 Z0.900 F7800.000
G1 X111.351 Y105.956 F7800.000
G1 X108.573 Y106.802 E0.87020 F600.000
G1 X103.324 Y106.802 E2.44304
G1 X115.883 Y106.802 F7800.000
G1 X110.634 Y106.802 E4.01589 F600.000
G1 X109.604 Y106.488 E4.33867
G1 X109.604 Y92.352 E8.57453
G92 E0
G1 X108.573 Y105.956 F7800.000
G1 X108.573 Y105.956 F7800.000
G1 X103.324 Y100.707 F7800.000
G1 X102.285 Y99.754 F7800.000
G1 X100.773 Y105.956 F7800.000
G1 X100.927 Y106.745 F7800.000
G1 X98.707 Y107.648 F7800.000
G1 X97.613 Y107.648 F7800.000
G1 X93.200 Y96.562 E3.57549 F600.000
G1 X92.255 Y94.013 E4.39000
G1 X91.815 Y93.349 E4.62869
G1 X91.387 Y93.316 E4.75724
G1 X91.012 Y93.353 E4.87012
G1 X90.582 Y94.010 E5.10552
G1 X89.636 Y96.558 E5.91986
G1 X85.209 Y107.648 E9.49798
G92 E0
G1 Z1.200 F7800.000
G1 X111.351 Y105.956 F7800.000
G1 X108.573 Y106.802 E0.87020 F600.000
G1 X103.324 Y106.802 E2.44304
G1 X115.883 Y106.802 F7800.000
G1 X110.634 Y106.802 E4.01589 F600.000
G1 X109.604 Y106.488 E4.33867
G1 X109.604 Y92.352 E8.57453
G92 E0
G1 X108.573 Y105.956 F7800.000
G1 X108.573 Y105.956 F7800.000
G1 X103.324 Y100.707 F7800.000
G1 X102.285 Y99.754 F7800.000
G1 X100.773 Y105.956 F7800.000
G1 X100.927 Y106.745 F7800.000
G1 X98.707 Y107.648 F7800.000
G1 X97.613 Y107.648 F7800.000
G1 X93.200 Y96.562 E3.57549 F600.000
G1 X92.255 Y94.013 E4.39000
G1 X91.815 Y93.349 E4.62869
G1 X91.387 Y93.316 E4.75724
G1 X91.012 Y93.353 E4.87012
G1 X90.582 Y94.010 E5.10552
G1 X89.636 Y96.558 E5.91986
G1 X85.209 Y107.648 E9.49798
G92 E0
G1 Z1.500 F7800.000
G1 X111.351 Y105.956 F7800.000
G1 X108.573 Y106.802 E0.87020 F600.000
G1 X103.324 Y106.802 E2.44304
G1 X115.883 Y106.802 F7800.000
G1 X110.634 Y106.802 E4.01589 F600.000
G1 X109.604 Y106.488 E4.33867
G1 X109.604 Y92.352 E8.57453
G92 E0
G1 X108.573 Y105.956 F7800.000
G1 X108.573 Y105.956 F7800.000
G1 X103.324 Y100.707 F7800.000
G1 X102.285 Y99.754 F7800.000
G1 X100.773 Y105.956 F7800.000
G1 X100.927 Y106.745 F7800.000
G1 X98.707 Y107.648 F7800.000
G1 X97.613 Y107.648 F7800.000
G1 X93.200 Y96.562 E3.57549 F600.000
G1 X92.255 Y94.013 E4.39000
G1 X91.815 Y93.349 E4.62869
G1 X91.387 Y93.316 E4.75724
G1 X91.012 Y93.353 E4.87012
G1 X90.582 Y94.010 E5.10552
G1 X89.636 Y96.558 E5.91986
G1 X85.209 Y107.648 E9.49798
G92 E0
G1 Z1.800 F7800.000
G1 X111.351 Y105.956 F7800.000
G1 X108.573 Y106.802 E0.87020 F600.000
G1 X103.324 Y106.802 E2.44304
G1 X115.883 Y106.802 F7800.000
G1 X110.634 Y106.802 E4.01589 F600.000
G1 X109.604 Y106.488 E4.33867
G1 X109.604 Y92.352 E8.57453
G92 E0
G1 X108.573 Y105.956 F7800.000
G1 X108.573 Y105.956 F7800.000
G1 X103.324 Y100.707 F7800.000
G1 X102.285 Y99.754 F7800.000
G1 X100.773 Y105.956 F7800.000
G1 X100.927 Y106.745 F7800.000
G1 X98.707 Y107.648 F7800.000
G1 X97.613 Y107.648 F7800.000
G1 X93.200 Y96.562 E3.57549 F600.000
G1 X92.255 Y94.013 E4.39000
G1 X91.815 Y93.349 E4.62869
G1 X91.387 Y93.316 E4.75724
G1 X91.012 Y93.353 E4.87012
G1 X90.582 Y94.010 E5.10552
G1 X89.636 Y96.558 E5.91986
G1 X85.209 Y107.648 E9.49798
G92 E0
G1 Z2.100 F7800.000
G1 X111.351 Y105.956 F7800.000
G1 X108.573 Y106.802 E0.87020 F600.000
G1 X103.324 Y106.802 E2.44304
G92 E0
G1 X115.883 Y106.802 F7800.000
G1 X110.634 Y106.802 E1.57284 F600.000
G1 X109.604 Y106.488 E1.89563
G1 X109.604 Y92.352 E6.13148
G92 E0
G1 X108.573 Y105.956 F7800.000
G1 X108.573 Y105.956 F7800.000
G1 X103.324 Y100.707 F7800.000
G1 X102.285 Y99.754 F7800.000
G1 X100.773 Y105.956 F7800.000
G1 X100.927 Y106.745 F7800.000
G1 X98.707 Y107.648 F7800.000
G1 X97.613 Y107.648 F7800.000
G1 X93.200 Y96.562 E3.57549 F600.000
G1 X92.255 Y94.013 E4.39000
G1 X91.815 Y93.349 E4.62869
G1 X91.387 Y93.316 E4.75724
G1 X91.012 Y93.353 E4.87012
G1 X90.582 Y94.010 E5.10552
G1 X89.636 Y96.558 E5.91986
G1 X85.209 Y107.648 E9.49798
G92 E0
M107
M104 S0 ; turn off temperature
G28 X0  ; home X axis
M84     ; disable motors

; filament used = 122.2mm (0.9cm3)

; avoid_crossing_perimeters = 1
; bed_shape = 0x0,250x0,250x250,0x250
; bed_temperature = 0
; before_layer_gcode = 
; bridge_acceleration = 0
; bridge_fan_speed = 100
; brim_width = 0
; complete_objects = 0
; cooling = 1
; default_acceleration = 0
; disable_fan_first_layers = 1
; duplicate_distance = 6
; end_gcode = M104 S0 ; turn off temperature\nG28 X0  ; home X axis\nM84     ; disable motors\n
; extruder_clearance_height = 20
; extruder_clearance_radius = 20
; extruder_offset = 0x0
; extrusion_axis = E
; extrusion_multiplier = 3
; fan_always_on = 0
; fan_below_layer_time = 60
; filament_colour = #FFFFFF
; filament_diameter = 3.125
; first_layer_acceleration = 0
; first_layer_bed_temperature = 0
; first_layer_extrusion_width = 150%
; first_layer_speed = 90%
; first_layer_temperature = 30
; gcode_arcs = 0
; gcode_comments = 0
; gcode_flavor = reprap
; infill_acceleration = 0
; infill_first = 0
; layer_gcode = 
; max_fan_speed = 100
; max_print_speed = 80
; max_volumetric_speed = 0
; min_fan_speed = 35
; min_print_speed = 10
; min_skirt_length = 0
; notes = 
; nozzle_diameter = 1.54
; only_retract_when_crossing_perimeters = 1
; ooze_prevention = 0
; output_filename_format = [input_filename_base].gcode
; perimeter_acceleration = 0
; post_process = 
; pressure_advance = 0
; resolution = 0
; retract_before_travel = 2
; retract_layer_change = 1
; retract_length = 0
; retract_length_toolchange = 10
; retract_lift = 0
; retract_restart_extra = 0
; retract_restart_extra_toolchange = 0
; retract_speed = 0
; skirt_distance = 6
; skirt_height = 1
; skirts = 0
; slowdown_below_layer_time = 30
; spiral_vase = 0
; standby_temperature_delta = -5
; start_gcode = G28 ; home all axes\nG1 Z5 F5000 ; lift nozzle\nM302\nM92 E10000\nM500\nM501\nG1 E100
; temperature = 30
; threads = 2
; toolchange_gcode = 
; travel_speed = 130
; use_firmware_retraction = 0
; use_relative_e_distances = 0
; use_volumetric_e = 0
; vibration_limit = 0
; wipe = 0
; z_offset = 0
; dont_support_bridges = 1
; extrusion_width = 0
; first_layer_height = 100%
; infill_only_where_needed = 0
; interface_shells = 0
; layer_height = 0.3
; raft_layers = 0
; seam_position = random
; support_material = 0
; support_material_angle = 0
; support_material_contact_distance = 0.2
; support_material_enforce_layers = 0
; support_material_extruder = 1
; support_material_extrusion_width = 0
; support_material_interface_extruder = 1
; support_material_interface_layers = 3
; support_material_interface_spacing = 0
; support_material_interface_speed = 100%
; support_material_pattern = pillars
; support_material_spacing = 2.5
; support_material_speed = 7
; support_material_threshold = 0
; xy_size_compensation = 0
; bottom_solid_layers = 3
; bridge_flow_ratio = 1
; bridge_speed = 10
; external_fill_pattern = rectilinear
; external_perimeter_extrusion_width = 0
; external_perimeter_speed = 70%
; external_perimeters_first = 1
; extra_perimeters = 1
; fill_angle = 45
; fill_density = 60%
; fill_pattern = rectilinear
; gap_fill_speed = 10
; infill_every_layers = 1
; infill_extruder = 1
; infill_extrusion_width = 0
; infill_overlap = 15%
; infill_speed = 10
; overhangs = 1
; perimeter_extruder = 1
; perimeter_extrusion_width = 0
; perimeter_speed = 10
; perimeters = 1
; small_perimeter_speed = 70%
; solid_infill_below_area = 70
; solid_infill_every_layers = 0
; solid_infill_extruder = 1
; solid_infill_extrusion_width = 0
; solid_infill_speed = 10
; thin_walls = 1
; top_infill_extrusion_width = 0
; top_solid_infill_speed = 10
; top_solid_layers = 3
