; generated by Slic3r 1.2.9 on 2016-03-11 at 01:31:36

; external perimeters extrusion width = 1.54mm
; perimeters extrusion width = 2.62mm
; infill extrusion width = 6.27mm
; solid infill extrusion width = 2.62mm
; top infill extrusion width = 2.62mm

M107
M104 S30 ; set temperature
G28 ; home all axes
G1 Z5 F5000 ; lift nozzle
M302
M92 E10000
M500
M501
G1 E100
M109 S30 ; wait for temperature to be reached
G21 ; set units to millimeters
G90 ; use absolute coordinates
M82 ; use absolute distances for extrusion
G92 E0
G1 Z0.300 F7800.000
G1 X105.593 Y106.251 F7800.000
G1 X104.846 Y107.423 E0.06285 F378.000
G1 X103.109 Y107.423 E0.14146
G1 X108.784 Y98.759 E0.61010
G1 X108.784 Y92.577 E0.88984
G1 X110.395 Y92.577 E0.96274
G1 X110.395 Y98.759 E1.24248
G1 X116.086 Y107.423 E1.71152 F378.000
G1 X114.349 Y107.423 E1.79012
G1 X109.611 Y99.942 E2.19078
G1 X105.717 Y106.057 E2.51881
G1 X103.817 Y107.197 F7800.000
G1 X103.619 Y106.999 E2.53171 F540.000
G1 X103.839 Y106.664 E2.55018
G1 X104.373 Y107.197 E2.58494
G1 X104.825 Y107.094 E2.60631
G1 X104.059 Y106.328 E2.65621
G1 X104.279 Y105.993 E2.67469
G1 X105.041 Y106.755 E2.72435
G1 X105.257 Y106.416 E2.74287
G1 X104.498 Y105.657 E2.79230
G1 X104.718 Y105.322 E2.81077
G1 X105.473 Y106.077 E2.85996
G1 X105.689 Y105.738 E2.87848
G1 X104.938 Y104.986 E2.92742
G1 X105.157 Y104.651 E2.94590
G1 X105.905 Y105.398 E2.99460
G1 X106.121 Y105.059 E3.01313
G1 X105.377 Y104.315 E3.06159
G1 X105.597 Y103.980 E3.08006
G1 X106.337 Y104.720 E3.12828
G1 X106.553 Y104.381 E3.14681
G1 X105.817 Y103.644 E3.19479
G1 X106.036 Y103.309 E3.21326
G1 X106.769 Y104.042 E3.26101
G1 X106.985 Y103.703 E3.27953
G1 X106.256 Y102.973 E3.32703
G1 X106.476 Y102.638 E3.34551
G1 X107.201 Y103.363 E3.39277
G1 X107.417 Y103.024 E3.41129
G1 X106.695 Y102.303 E3.45831
G1 X106.915 Y101.967 E3.47678
G1 X107.633 Y102.685 E3.52357
G1 X107.849 Y102.346 E3.54209
G1 X107.135 Y101.632 E3.58863
G1 X107.355 Y101.296 E3.60710
G1 X108.065 Y102.007 E3.65340
G1 X108.281 Y101.668 E3.67193
G1 X107.574 Y100.961 E3.71799
G1 X107.794 Y100.625 E3.73646
G1 X108.497 Y101.329 E3.78228
G1 X108.713 Y100.989 E3.80080
G1 X108.014 Y100.290 E3.84638
G1 X108.234 Y99.954 E3.86485
G1 X108.929 Y100.650 E3.91019
G1 X109.146 Y100.311 E3.92872
G1 X108.453 Y99.619 E3.97381
G1 X108.673 Y99.283 E3.99229
G1 X109.362 Y99.972 E4.03715
G1 X109.578 Y99.633 E4.05567
G1 X108.893 Y98.948 E4.10029
G1 X109.010 Y98.510 E4.12118
G1 X111.577 Y101.077 E4.28844
G1 X111.005 Y101.616 F7800.000
G1 X113.703 Y104.313 E4.46419 F540.000
G1 X112.923 Y104.643 F7800.000
G1 X115.476 Y107.197 E4.63055 F540.000
G1 X114.921 Y107.197 E4.65612
G1 X113.881 Y106.157 E4.72386
G1 X114.766 Y105.931 F7800.000
G1 X111.964 Y103.129 E4.90639 F540.000
G1 X112.640 Y102.695 F7800.000
G1 X110.047 Y100.102 E5.07535 F540.000
G1 X110.514 Y99.459 F7800.000
G1 X109.010 Y97.955 E5.17338 F540.000
G1 X109.010 Y97.399 E5.19895
G1 X110.169 Y98.558 E5.27446
G1 X110.169 Y98.003 E5.30004
G1 X109.010 Y96.844 E5.37555
G1 X109.010 Y96.289 E5.40112
G1 X110.169 Y97.448 E5.47663
G1 X110.169 Y96.893 E5.50221
G1 X109.010 Y95.734 E5.57772
G1 X109.010 Y95.179 E5.60330
G1 X110.169 Y96.338 E5.67881
G1 X110.169 Y95.782 E5.70438
G1 X109.010 Y94.623 E5.77989
G1 X109.010 Y94.068 E5.80547
G1 X110.169 Y95.227 E5.88098
G1 X110.169 Y94.672 E5.90655
G1 X109.010 Y93.513 E5.98207
G1 X109.010 Y92.958 E6.00764
G1 X110.169 Y94.117 E6.08315
G1 X110.169 Y93.562 E6.10873
G1 X109.410 Y92.803 E6.15816
G1 X109.965 Y92.803 E6.18373
G1 X110.169 Y93.007 E6.19700
G92 E0
G1 X108.559 Y98.692 F7800.000
G1 X102.135 Y96.776 F7800.000
G1 X100.498 Y105.331 F7800.000
G1 X97.621 Y106.501 F7800.000
G1 X95.491 Y105.960 F7800.000
G1 X91.923 Y96.800 E0.44482 F378.000
G1 X91.001 Y94.056 E0.57583
G1 X90.606 Y94.056 E0.59371
G1 X89.683 Y96.800 E0.72472
G1 X85.523 Y107.423 E1.24095
G1 X83.832 Y107.423 E1.31747
G1 X89.871 Y92.577 E2.04269
G1 X91.715 Y92.577 E2.12614
G1 X97.412 Y106.586 E2.81044
G1 X97.753 Y107.423 E2.85134 F378.000
G1 X96.061 Y107.423 E2.92790
G1 X95.575 Y106.175 E2.98848
G1 X95.763 Y105.939 F7800.000
G1 X97.021 Y107.197 E3.06933 F540.000
G1 X97.246 Y106.874 E3.08722
G1 X95.414 Y105.042 E3.20499
G1 X95.064 Y104.145 F7800.000
G1 X96.870 Y105.951 E3.32109 F540.000
G1 X96.495 Y105.027 F7800.000
G1 X94.715 Y103.247 E3.43552 F540.000
G1 X94.365 Y102.350 F7800.000
G1 X96.119 Y104.104 E3.54829 F540.000
G1 X95.744 Y103.180 F7800.000
G1 X94.015 Y101.452 E3.65939 F540.000
G1 X93.666 Y100.555 F7800.000
G1 X95.368 Y102.257 E3.76883 F540.000
G1 X94.992 Y101.334 F7800.000
G1 X93.316 Y99.657 E3.87659 F540.000
G1 X94.241 Y99.487 F7800.000
G1 X92.617 Y97.862 E3.98103 F540.000
G1 X93.490 Y97.640 F7800.000
G1 X91.962 Y96.111 E4.07929 F540.000
G1 X92.739 Y95.793 F7800.000
G1 X91.407 Y94.461 E4.16490 F540.000
G1 X91.988 Y93.946 F7800.000
G1 X90.845 Y92.803 E4.23840 F540.000
G1 X91.392 Y92.803 E4.26330
G1 X91.612 Y93.023 E4.27745
G1 X90.776 Y93.830 F7800.000
G1 X89.924 Y92.978 E4.33217 F540.000
G1 X90.297 Y92.803 E4.35088
G1 X92.364 Y94.870 E4.48375
G1 X91.685 Y95.286 F7800.000
G1 X93.115 Y96.717 E4.57568 F540.000
G1 X92.267 Y96.965 F7800.000
G1 X93.866 Y98.563 E4.67845 F540.000
G1 X92.966 Y98.760 F7800.000
G1 X94.617 Y100.410 E4.78455 F540.000
G1 X96.113 Y106.837 F7800.000
G1 X96.473 Y107.197 E4.80770 F540.000
G92 E0
G1 X85.261 Y105.965 F7800.000
G1 X85.261 Y105.965 F7800.000
G1 X84.991 Y106.643 F7800.000
G1 X84.984 Y106.648 F7800.000
G1 X84.421 Y107.197 F7800.000
G1 X84.222 Y106.998 E0.01279 F540.000
G1 X84.380 Y106.609 E0.03190
G1 X84.968 Y107.197 E0.06972
G1 X85.429 Y107.110 E0.09102
G1 X84.538 Y106.219 E0.14826
G1 X84.697 Y105.830 E0.16737
G1 X85.583 Y106.716 E0.22433
G1 X85.737 Y106.322 E0.24355
G1 X84.855 Y105.440 E0.30024
G1 X85.014 Y105.051 E0.31935
G1 X85.891 Y105.929 E0.37576
G1 X86.045 Y105.535 E0.39498
G1 X85.172 Y104.662 E0.45112
G1 X85.331 Y104.272 E0.47023
G1 X86.200 Y105.141 E0.52610
G1 X86.354 Y104.747 E0.54532
G1 X85.489 Y103.883 E0.60092
G1 X85.647 Y103.493 E0.62003
G1 X86.508 Y104.354 E0.67535
G1 X86.662 Y103.960 E0.69457
G1 X85.806 Y103.104 E0.74962
G1 X85.964 Y102.714 E0.76873
G1 X86.816 Y103.566 E0.82351
G1 X86.970 Y103.173 E0.84273
G1 X86.123 Y102.325 E0.89724
G1 X86.281 Y101.935 E0.91635
G1 X87.125 Y102.779 E0.97058
G1 X87.279 Y102.385 E0.98980
G1 X86.439 Y101.546 E1.04376
G1 X86.598 Y101.157 E1.06287
G1 X87.433 Y101.992 E1.11656
G1 X87.587 Y101.598 E1.13577
G1 X86.756 Y100.767 E1.18919
G1 X86.915 Y100.378 E1.20830
G1 X87.741 Y101.204 E1.26144
G1 X87.895 Y100.811 E1.28066
G1 X87.073 Y99.988 E1.33353
G1 X87.231 Y99.599 E1.35264
G1 X88.050 Y100.417 E1.40523
G1 X88.204 Y100.023 E1.42445
G1 X87.390 Y99.209 E1.47677
G1 X87.548 Y98.820 E1.49589
G1 X88.358 Y99.630 E1.54793
G1 X88.512 Y99.236 E1.56715
G1 X87.707 Y98.431 E1.61893
G1 X87.865 Y98.041 E1.63804
G1 X88.666 Y98.842 E1.68954
G1 X88.820 Y98.449 E1.70876
G1 X88.024 Y97.652 E1.75999
G1 X88.182 Y97.262 E1.77911
G1 X88.975 Y98.055 E1.83006
G1 X89.129 Y97.661 E1.84928
G1 X88.340 Y96.873 E1.89997
G1 X88.499 Y96.483 E1.91908
G1 X89.283 Y97.268 E1.96949
G1 X89.437 Y96.874 E1.98871
G1 X88.657 Y96.094 E2.03885
G1 X88.816 Y95.705 E2.05796
G1 X89.579 Y96.468 E2.10704
G1 X89.717 Y96.058 E2.12670
G1 X88.974 Y95.315 E2.17446
G1 X89.132 Y94.926 E2.19357
G1 X89.855 Y95.648 E2.24000
G1 X89.993 Y95.238 E2.25967
G1 X89.291 Y94.536 E2.30478
G1 X89.449 Y94.147 E2.32389
G1 X90.130 Y94.828 E2.36769
G1 X90.268 Y94.418 E2.38735
G1 X89.608 Y93.757 E2.42983
G1 X89.766 Y93.368 E2.44894
G1 X90.406 Y94.008 E2.49009
M106 S255
G92 E0
G1 Z0.600 F7800.000
G1 X109.589 Y92.352 F7800.000
G1 X109.589 Y99.209 E2.05473 F600.000
G1 X109.716 Y99.286 E2.09907
G1 X110.354 Y99.891 E2.36271
G1 X115.358 Y107.648 E5.12860
G1 X109.559 Y98.582 F7800.000
G1 X109.559 Y98.582 F7800.000
G1 X103.836 Y107.648 F7800.000
G1 X108.854 Y99.880 E7.89969 F600.000
G1 X109.467 Y99.287 E8.15525
G1 X110.620 Y98.560 E8.56368
G92 E0
G1 X102.693 Y107.648 F7800.000
G1 X102.693 Y107.648 F7800.000
G1 X100.417 Y106.158 F7800.000
G1 X100.390 Y106.711 F7800.000
G1 X98.087 Y107.648 F7800.000
G1 X96.994 Y107.648 F7800.000
G1 X92.580 Y96.562 E3.57549 F600.000
G1 X91.635 Y94.013 E4.39000
G1 X91.195 Y93.349 E4.62869
G1 X90.767 Y93.316 E4.75724
G1 X90.393 Y93.353 E4.87012
G1 X89.962 Y94.010 E5.10552
G1 X89.016 Y96.558 E5.91986
G1 X84.590 Y107.648 E9.49798
G92 E0
G1 Z0.900 F7800.000
G1 X109.589 Y92.352 F7800.000
G1 X109.589 Y99.209 E2.05473 F600.000
G1 X109.716 Y99.286 E2.09907
G1 X110.354 Y99.891 E2.36271
G1 X115.358 Y107.648 E5.12860
G1 X109.559 Y98.582 F7800.000
G1 X109.559 Y98.582 F7800.000
G1 X103.836 Y107.648 F7800.000
G1 X108.854 Y99.880 E7.89969 F600.000
G1 X109.467 Y99.287 E8.15525
G1 X110.620 Y98.560 E8.56368
G92 E0
G1 X102.693 Y107.648 F7800.000
G1 X102.693 Y107.648 F7800.000
G1 X100.417 Y106.158 F7800.000
G1 X100.390 Y106.711 F7800.000
G1 X98.087 Y107.648 F7800.000
G1 X96.994 Y107.648 F7800.000
G1 X92.580 Y96.562 E3.57549 F600.000
G1 X91.635 Y94.013 E4.39000
G1 X91.195 Y93.349 E4.62869
G1 X90.767 Y93.316 E4.75724
G1 X90.393 Y93.353 E4.87012
G1 X89.962 Y94.010 E5.10552
G1 X89.016 Y96.558 E5.91986
G1 X84.590 Y107.648 E9.49798
G92 E0
G1 Z1.200 F7800.000
G1 X109.589 Y92.352 F7800.000
G1 X109.589 Y99.209 E2.05473 F600.000
G1 X109.716 Y99.286 E2.09907
G1 X110.354 Y99.891 E2.36271
G1 X115.358 Y107.648 E5.12860
G1 X109.559 Y98.582 F7800.000
G1 X109.559 Y98.582 F7800.000
G1 X103.836 Y107.648 F7800.000
G1 X108.854 Y99.880 E7.89969 F600.000
G1 X109.467 Y99.287 E8.15525
G1 X110.620 Y98.560 E8.56368
G92 E0
G1 X102.693 Y107.648 F7800.000
G1 X102.693 Y107.648 F7800.000
G1 X100.417 Y106.158 F7800.000
G1 X100.390 Y106.711 F7800.000
G1 X98.087 Y107.648 F7800.000
G1 X96.994 Y107.648 F7800.000
G1 X92.580 Y96.562 E3.57549 F600.000
G1 X91.635 Y94.013 E4.39000
G1 X91.195 Y93.349 E4.62869
G1 X90.767 Y93.316 E4.75724
G1 X90.393 Y93.353 E4.87012
G1 X89.962 Y94.010 E5.10552
G1 X89.016 Y96.558 E5.91986
G1 X84.590 Y107.648 E9.49798
G92 E0
G1 Z1.500 F7800.000
G1 X109.589 Y92.352 F7800.000
G1 X109.589 Y99.209 E2.05473 F600.000
G1 X109.716 Y99.286 E2.09907
G1 X110.354 Y99.891 E2.36271
G1 X115.358 Y107.648 E5.12860
G1 X109.559 Y98.582 F7800.000
G1 X109.559 Y98.582 F7800.000
G1 X103.836 Y107.648 F7800.000
G1 X108.854 Y99.880 E7.89969 F600.000
G1 X109.467 Y99.287 E8.15525
G1 X110.620 Y98.560 E8.56368
G92 E0
G1 X102.693 Y107.648 F7800.000
G1 X102.693 Y107.648 F7800.000
G1 X100.417 Y106.158 F7800.000
G1 X100.390 Y106.711 F7800.000
G1 X98.087 Y107.648 F7800.000
G1 X96.994 Y107.648 F7800.000
G1 X92.580 Y96.562 E3.57549 F600.000
G1 X91.635 Y94.013 E4.39000
G1 X91.195 Y93.349 E4.62869
G1 X90.767 Y93.316 E4.75724
G1 X90.393 Y93.353 E4.87012
G1 X89.962 Y94.010 E5.10552
G1 X89.016 Y96.558 E5.91986
G1 X84.590 Y107.648 E9.49798
G92 E0
G1 Z1.800 F7800.000
G1 X109.589 Y92.352 F7800.000
G1 X109.589 Y99.209 E2.05473 F600.000
G1 X109.716 Y99.286 E2.09907
G1 X110.354 Y99.891 E2.36271
G1 X115.358 Y107.648 E5.12860
G1 X109.559 Y98.582 F7800.000
G1 X109.559 Y98.582 F7800.000
G1 X103.836 Y107.648 F7800.000
G1 X108.854 Y99.880 E7.89969 F600.000
G1 X109.467 Y99.287 E8.15525
G1 X110.620 Y98.560 E8.56368
G92 E0
G1 X102.693 Y107.648 F7800.000
G1 X102.693 Y107.648 F7800.000
G1 X100.417 Y106.158 F7800.000
G1 X100.390 Y106.711 F7800.000
G1 X98.087 Y107.648 F7800.000
G1 X96.994 Y107.648 F7800.000
G1 X92.580 Y96.562 E3.57549 F600.000
G1 X91.635 Y94.013 E4.39000
G1 X91.195 Y93.349 E4.62869
G1 X90.767 Y93.316 E4.75724
G1 X90.393 Y93.353 E4.87012
G1 X89.962 Y94.010 E5.10552
G1 X89.016 Y96.558 E5.91986
G1 X84.590 Y107.648 E9.49798
G92 E0
G1 Z2.100 F7800.000
G1 X109.589 Y92.352 F7800.000
G1 X109.589 Y99.209 E2.05473 F600.000
G1 X109.716 Y99.286 E2.09907
G1 X110.354 Y99.891 E2.36271
G1 X115.358 Y107.648 E5.12860
G92 E0
G1 X109.559 Y98.582 F7800.000
G1 X109.559 Y98.582 F7800.000
G1 X103.836 Y107.648 F7800.000
G1 X108.854 Y99.880 E2.77109 F600.000
G1 X109.467 Y99.287 E3.02666
G1 X110.620 Y98.560 E3.43508
G92 E0
G1 X102.693 Y107.648 F7800.000
G1 X102.693 Y107.648 F7800.000
G1 X100.417 Y106.158 F7800.000
G1 X100.390 Y106.711 F7800.000
G1 X98.087 Y107.648 F7800.000
G1 X96.994 Y107.648 F7800.000
G1 X92.580 Y96.562 E3.57549 F600.000
G1 X91.635 Y94.013 E4.39000
G1 X91.195 Y93.349 E4.62869
G1 X90.767 Y93.316 E4.75724
G1 X90.393 Y93.353 E4.87012
G1 X89.962 Y94.010 E5.10552
G1 X89.016 Y96.558 E5.91986
G1 X84.590 Y107.648 E9.49798
G92 E0
M107
M104 S0 ; turn off temperature
G28 X0  ; home X axis
M84     ; disable motors

; filament used = 121.9mm (0.9cm3)

; avoid_crossing_perimeters = 1
; bed_shape = 0x0,250x0,250x250,0x250
; bed_temperature = 0
; before_layer_gcode = 
; bridge_acceleration = 0
; bridge_fan_speed = 100
; brim_width = 0
; complete_objects = 0
; cooling = 1
; default_acceleration = 0
; disable_fan_first_layers = 1
; duplicate_distance = 6
; end_gcode = M104 S0 ; turn off temperature\nG28 X0  ; home X axis\nM84     ; disable motors\n
; extruder_clearance_height = 20
; extruder_clearance_radius = 20
; extruder_offset = 0x0
; extrusion_axis = E
; extrusion_multiplier = 3
; fan_always_on = 0
; fan_below_layer_time = 60
; filament_colour = #FFFFFF
; filament_diameter = 3.125
; first_layer_acceleration = 0
; first_layer_bed_temperature = 0
; first_layer_extrusion_width = 150%
; first_layer_speed = 90%
; first_layer_temperature = 30
; gcode_arcs = 0
; gcode_comments = 0
; gcode_flavor = reprap
; infill_acceleration = 0
; infill_first = 0
; layer_gcode = 
; max_fan_speed = 100
; max_print_speed = 80
; max_volumetric_speed = 0
; min_fan_speed = 35
; min_print_speed = 10
; min_skirt_length = 0
; notes = 
; nozzle_diameter = 1.54
; only_retract_when_crossing_perimeters = 1
; ooze_prevention = 0
; output_filename_format = [input_filename_base].gcode
; perimeter_acceleration = 0
; post_process = 
; pressure_advance = 0
; resolution = 0
; retract_before_travel = 2
; retract_layer_change = 1
; retract_length = 0
; retract_length_toolchange = 10
; retract_lift = 0
; retract_restart_extra = 0
; retract_restart_extra_toolchange = 0
; retract_speed = 0
; skirt_distance = 6
; skirt_height = 1
; skirts = 0
; slowdown_below_layer_time = 30
; spiral_vase = 0
; standby_temperature_delta = -5
; start_gcode = G28 ; home all axes\nG1 Z5 F5000 ; lift nozzle\nM302\nM92 E10000\nM500\nM501\nG1 E100
; temperature = 30
; threads = 2
; toolchange_gcode = 
; travel_speed = 130
; use_firmware_retraction = 0
; use_relative_e_distances = 0
; use_volumetric_e = 0
; vibration_limit = 0
; wipe = 0
; z_offset = 0
; dont_support_bridges = 1
; extrusion_width = 0
; first_layer_height = 100%
; infill_only_where_needed = 0
; interface_shells = 0
; layer_height = 0.3
; raft_layers = 0
; seam_position = random
; support_material = 0
; support_material_angle = 0
; support_material_contact_distance = 0.2
; support_material_enforce_layers = 0
; support_material_extruder = 1
; support_material_extrusion_width = 0
; support_material_interface_extruder = 1
; support_material_interface_layers = 3
; support_material_interface_spacing = 0
; support_material_interface_speed = 100%
; support_material_pattern = pillars
; support_material_spacing = 2.5
; support_material_speed = 7
; support_material_threshold = 0
; xy_size_compensation = 0
; bottom_solid_layers = 3
; bridge_flow_ratio = 1
; bridge_speed = 10
; external_fill_pattern = rectilinear
; external_perimeter_extrusion_width = 0
; external_perimeter_speed = 70%
; external_perimeters_first = 1
; extra_perimeters = 1
; fill_angle = 45
; fill_density = 60%
; fill_pattern = rectilinear
; gap_fill_speed = 10
; infill_every_layers = 1
; infill_extruder = 1
; infill_extrusion_width = 0
; infill_overlap = 15%
; infill_speed = 10
; overhangs = 1
; perimeter_extruder = 1
; perimeter_extrusion_width = 0
; perimeter_speed = 10
; perimeters = 1
; small_perimeter_speed = 70%
; solid_infill_below_area = 70
; solid_infill_every_layers = 0
; solid_infill_extruder = 1
; solid_infill_extrusion_width = 0
; solid_infill_speed = 10
; thin_walls = 1
; top_infill_extrusion_width = 0
; top_solid_infill_speed = 10
; top_solid_layers = 3
