; generated by Slic3r 1.2.9 on 2016-03-10 at 20:37:19

; external perimeters extrusion width = 1.54mm
; perimeters extrusion width = 2.62mm
; infill extrusion width = 6.27mm
; solid infill extrusion width = 2.62mm
; top infill extrusion width = 2.62mm

M107
M104 S30 ; set temperature
G28 ; home all axes
G1 Z5 F5000 ; lift nozzle
M302
M92 E10000
M500
M501
G1 E100
M109 S30 ; wait for temperature to be reached
G21 ; set units to millimeters
G90 ; use absolute coordinates
M82 ; use absolute distances for extrusion
G92 E0
G1 Z0.300 F7800.000
G1 X117.506 Y123.556 F7800.000
G1 X119.268 Y117.577 E0.28208 F378.000
G1 X121.401 Y117.577 E0.37856
G1 X122.799 Y122.654 E0.61684
G1 X124.320 Y128.285 E0.88079 F378.000
G1 X124.796 Y130.383 E0.97810
G1 X125.236 Y130.381 E0.99801
G1 X125.795 Y127.892 E1.11347
G1 X125.994 Y127.128 E1.14917
G1 X128.601 Y117.577 E1.59715
G1 X130.733 Y117.577 E1.69362
G1 X135.108 Y132.423 E2.39396
G1 X133.422 Y132.423 E2.47025
G1 X130.836 Y123.109 E2.90764
G1 X130.415 Y121.535 E2.98137
G1 X129.840 Y119.108 E3.09422
G1 X129.405 Y119.115 E3.11389
G1 X128.823 Y121.596 E3.22921
G1 X128.448 Y123.068 E3.29794
G1 X125.831 Y132.423 E3.73750
G1 X124.189 Y132.423 E3.81182
G1 X121.708 Y123.555 E4.22850
G1 X121.222 Y121.725 E4.31418
G1 X120.620 Y119.129 E4.43478
G1 X120.182 Y119.129 E4.45458
G1 X119.598 Y121.649 E4.57166
G1 X119.282 Y122.872 E4.62882
G1 X116.579 Y132.423 E5.07796
G1 X114.892 Y132.423 E5.15429
G1 X117.440 Y123.778 E5.56211
G92 E0
G1 X117.542 Y126.176 F7800.000
G1 X117.542 Y126.176 F7800.000
G1 X121.448 Y121.601 F7800.000
G1 X122.553 Y122.706 E0.07181 F540.000
G1 X122.759 Y123.465 E0.10796
G1 X121.648 Y122.355 E0.18014
G1 X121.848 Y123.108 E0.21596
G1 X122.964 Y124.224 E0.28847
G1 X123.168 Y124.983 E0.32457
G1 X122.057 Y123.871 E0.39678
G1 X122.272 Y124.640 E0.43346
G1 X123.373 Y125.741 E0.50501
G1 X123.578 Y126.500 E0.54112
G1 X122.487 Y125.409 E0.61201
G1 X123.783 Y127.259 F7800.000
G1 X122.702 Y126.178 E0.68225 F540.000
G1 X122.917 Y126.947 E0.71892
G1 X123.988 Y128.017 E0.78850
G1 X124.174 Y128.757 F7800.000
G1 X123.132 Y127.715 E0.85620 F540.000
G1 X123.348 Y128.484 F7800.000
G1 X124.337 Y129.474 E0.92050 F540.000
G1 X124.500 Y130.190 F7800.000
G1 X123.563 Y129.253 E0.98140 F540.000
G1 X123.778 Y130.022 F7800.000
G1 X125.739 Y131.983 E1.10886 F540.000
G1 X125.399 Y132.197 E1.12732
G1 X123.993 Y130.791 E1.21871
G1 X124.208 Y131.559 E1.25538
G1 X124.845 Y132.197 E1.29682
G1 X124.917 Y130.608 F7800.000
G1 X125.860 Y131.551 E1.35809 F540.000
G1 X125.981 Y131.118 E1.37873
G1 X125.413 Y130.550 E1.41566
G1 X125.515 Y130.098 E1.43695
G1 X126.102 Y130.685 E1.47514
G1 X126.223 Y130.253 E1.49579
G1 X125.616 Y129.645 E1.53524
G1 X125.718 Y129.193 E1.55653
G1 X126.344 Y129.820 E1.59725
G1 X126.465 Y129.387 F7800.000
G1 X125.819 Y128.741 E1.63923 F540.000
G1 X125.921 Y128.289 E1.66052
G1 X126.586 Y128.954 E1.70376
G1 X126.707 Y128.522 E1.72440
G1 X126.024 Y127.838 E1.76881
G1 X126.139 Y127.399 E1.78966
G1 X126.828 Y128.089 E1.83449
G1 X126.950 Y127.656 E1.85514
G1 X126.255 Y126.961 E1.90028
G1 X126.373 Y126.526 E1.92100
G1 X127.071 Y127.224 E1.96629
G1 X127.192 Y126.791 E1.98694
G1 X126.492 Y126.091 E2.03238
G1 X126.611 Y125.656 E2.05310
G1 X127.313 Y126.358 E2.09869
G1 X127.434 Y125.925 E2.11934
G1 X126.730 Y125.221 E2.16508
G1 X126.848 Y124.786 E2.18580
G1 X127.555 Y125.493 E2.23169
G1 X127.676 Y125.060 E2.25234
G1 X126.967 Y124.351 E2.29838
G1 X127.086 Y123.916 E2.31909
G1 X127.797 Y124.627 E2.36529
G1 X127.918 Y124.195 E2.38593
G1 X127.204 Y123.481 E2.43227
G1 X127.323 Y123.046 E2.45299
G1 X128.039 Y123.762 E2.49948
G1 X128.160 Y123.329 E2.52012
G1 X127.442 Y122.611 E2.56677
G1 X127.561 Y122.176 E2.58748
G1 X128.277 Y122.893 E2.63405
G1 X128.390 Y122.452 E2.65497
G1 X127.679 Y121.741 E2.70113
G1 X127.798 Y121.306 E2.72185
G1 X128.502 Y122.010 E2.76761
G1 X128.614 Y121.569 E2.78855
G1 X127.917 Y120.871 E2.83387
G1 X128.035 Y120.436 E2.85459
G1 X128.719 Y121.120 E2.89903
G1 X128.825 Y120.672 E2.92019
G1 X128.154 Y120.001 E2.96376
G1 X128.273 Y119.566 E2.98448
G1 X128.930 Y120.223 E3.02718
G1 X129.035 Y119.775 E3.04834
G1 X128.392 Y119.131 E3.09017
G1 X128.510 Y118.696 E3.11088
G1 X129.141 Y119.326 E3.15183
G1 X129.260 Y118.892 E3.17251
G1 X128.629 Y118.261 E3.21354
G1 X128.748 Y117.826 E3.23426
G1 X129.806 Y118.884 E3.30300
G1 X130.114 Y119.192 F7800.000
G1 X131.293 Y120.372 E3.37964 F540.000
G1 X131.525 Y121.157 E3.41724
G1 X130.286 Y119.918 E3.49773
G1 X130.458 Y120.644 E3.53200
G1 X131.756 Y121.942 E3.61635
G1 X131.987 Y122.727 E3.65396
G1 X130.630 Y121.369 E3.74217
G1 X130.831 Y122.124 E3.77807
G1 X132.219 Y123.512 E3.86823
G1 X132.450 Y124.297 E3.90584
G1 X131.033 Y122.880 E3.99792
G1 X131.245 Y123.646 E4.03442
G1 X132.682 Y125.082 E4.12777
G1 X132.913 Y125.867 E4.16538
G1 X131.458 Y124.412 E4.25993
G1 X131.671 Y125.179 E4.29649
G1 X133.144 Y126.653 E4.39224
G1 X133.376 Y127.438 E4.42985
G1 X131.884 Y125.945 E4.52680
G1 X132.096 Y126.712 E4.56336
G1 X133.607 Y128.223 E4.66152
G1 X133.838 Y129.008 E4.69912
G1 X132.309 Y127.479 E4.79848
G1 X132.522 Y128.245 E4.83504
G1 X134.070 Y129.793 E4.93560
G1 X134.301 Y130.578 E4.97321
G1 X132.735 Y129.012 E5.07497
G1 X132.948 Y129.779 E5.11152
G1 X134.533 Y131.363 E5.21449
G1 X134.764 Y132.148 E5.25209
G1 X133.161 Y130.545 E5.35626
G1 X133.374 Y131.312 E5.39282
G1 X134.259 Y132.197 E5.45033
G1 X131.062 Y119.586 F7800.000
G1 X129.278 Y117.803 E5.56621 F540.000
G1 X130.599 Y118.016 F7800.000
G1 X130.386 Y117.803 E5.58006 F540.000
G1 X129.832 Y117.803 E5.60551
G1 X130.830 Y118.801 E5.67037
G92 E0
G1 X120.811 Y118.353 F7800.000
G1 X120.811 Y118.353 F7800.000
G1 X122.343 Y121.942 F7800.000
G1 X121.279 Y120.878 E0.06910 F540.000
G1 X121.112 Y120.157 E0.10311
G1 X122.132 Y121.178 E0.16941
G1 X121.922 Y120.414 E0.20583
G1 X120.944 Y119.436 E0.26934
G1 X120.411 Y118.903 F7800.000
G1 X119.393 Y117.884 E0.33550 F540.000
G1 X119.267 Y118.312 E0.35599
G1 X119.989 Y119.034 E0.40293
G1 X119.885 Y119.484 E0.42413
G1 X119.140 Y118.740 E0.47249
G1 X119.014 Y119.167 E0.49298
G1 X119.781 Y119.934 E0.54276
G1 X119.676 Y120.383 E0.56396
G1 X118.888 Y119.595 E0.61516
G1 X118.762 Y120.023 E0.63565
G1 X119.572 Y120.833 E0.68827
G1 X119.468 Y121.282 E0.70947
G1 X118.636 Y120.450 E0.76352
G1 X118.510 Y120.878 E0.78400
G1 X119.362 Y121.730 E0.83936
G1 X119.248 Y122.170 E0.86024
G1 X118.384 Y121.306 E0.91641
G1 X118.258 Y121.733 E0.93689
G1 X119.135 Y122.610 E0.99386
G1 X119.018 Y123.047 E1.01463
G1 X118.132 Y122.161 E1.07217
G1 X118.006 Y122.589 E1.09266
G1 X118.895 Y123.478 E1.15046
G1 X118.773 Y123.910 E1.17107
G1 X117.880 Y123.016 E1.22912
G1 X117.754 Y123.444 E1.24961
G1 X118.651 Y124.341 E1.30792
G1 X118.529 Y124.773 E1.32853
G1 X117.628 Y123.872 E1.38709
G1 X117.502 Y124.299 E1.40758
G1 X118.407 Y125.205 E1.46640
G1 X118.285 Y125.636 E1.48701
G1 X117.375 Y124.727 E1.54609
G1 X117.249 Y125.155 E1.56657
G1 X118.163 Y126.068 E1.62590
G1 X118.040 Y126.499 E1.64651
G1 X117.123 Y125.582 E1.70610
G1 X116.997 Y126.010 E1.72658
G1 X117.918 Y126.931 E1.78642
G1 X117.796 Y127.363 E1.80703
G1 X116.871 Y126.438 E1.86713
G1 X116.745 Y126.865 E1.88761
G1 X117.674 Y127.794 E1.94796
G1 X117.552 Y128.226 E1.96857
G1 X116.619 Y127.293 E2.02918
G1 X116.493 Y127.721 E2.04966
G1 X117.430 Y128.657 E2.11053
G1 X117.308 Y129.089 E2.13113
G1 X116.367 Y128.148 E2.19225
G1 X116.241 Y128.576 E2.21274
G1 X117.185 Y129.521 E2.27411
G1 X117.063 Y129.952 E2.29472
G1 X116.115 Y129.004 E2.35634
G1 X115.989 Y129.431 E2.37683
G1 X116.941 Y130.384 E2.43871
G1 X116.819 Y130.815 E2.45932
G1 X115.863 Y129.859 E2.52145
G1 X115.737 Y130.287 E2.54194
G1 X116.697 Y131.247 E2.60433
G1 X116.575 Y131.679 E2.62494
G1 X115.611 Y130.714 E2.68759
G1 X115.484 Y131.142 E2.70807
G1 X116.453 Y132.110 E2.77097
G1 X115.986 Y132.197 E2.79279
G1 X115.358 Y131.570 E2.83355
G1 X115.232 Y131.997 E2.85404
G1 X115.432 Y132.197 E2.86701
G92 E0
G1 X117.542 Y126.176 F7800.000
G1 X117.542 Y126.176 F7800.000
G1 X121.711 Y119.649 F7800.000
G1 X119.865 Y117.803 E0.11997 F540.000
G1 X120.419 Y117.803 E0.14541
G1 X121.501 Y118.885 E0.21574
G1 X121.290 Y118.121 E0.25215
G1 X120.972 Y117.803 E0.27282
M106 S255
G92 E0
G1 Z0.600 F7800.000
G1 X134.328 Y132.648 F7800.000
G1 X131.543 Y122.917 E3.03301 F600.000
G1 X131.106 Y121.361 E3.51720
G1 X130.514 Y119.134 E4.20759
G1 X130.120 Y118.397 E4.45821
G1 X129.648 Y118.344 E4.60061
G1 X129.213 Y118.379 E4.73109
G1 X128.787 Y119.150 E4.99505
G1 X127.821 Y122.900 E6.15551
G1 X126.405 Y128.040 E7.75283
G1 X125.828 Y130.330 E8.46067
G1 X125.057 Y131.402 E8.85636
G1 X124.963 Y131.402 E8.88453
G1 X124.198 Y130.333 E9.27839
G1 X123.717 Y128.435 E9.86515
G1 X121.840 Y121.571 E11.99749
G1 X121.231 Y119.170 E12.73968
G1 X120.787 Y118.383 E13.01065
G1 X120.361 Y118.353 E13.13865
G1 X119.890 Y118.408 E13.28071
G1 X119.495 Y119.153 E13.53321
G1 X118.553 Y122.675 E14.62567
G1 X115.672 Y132.648 E17.73629
G92 E0
G1 Z0.900 F7800.000
G1 X134.328 Y132.648 F7800.000
G1 X131.543 Y122.917 E3.03301 F600.000
G1 X131.106 Y121.361 E3.51720
G1 X130.514 Y119.134 E4.20759
G1 X130.120 Y118.397 E4.45821
G1 X129.648 Y118.344 E4.60061
G1 X129.213 Y118.379 E4.73109
G1 X128.787 Y119.150 E4.99505
G1 X127.821 Y122.900 E6.15551
G1 X126.405 Y128.040 E7.75283
G1 X125.828 Y130.330 E8.46067
G1 X125.057 Y131.402 E8.85636
G1 X124.963 Y131.402 E8.88453
G1 X124.198 Y130.333 E9.27839
G1 X123.717 Y128.432 E9.86608
G1 X121.840 Y121.571 E11.99749
G1 X121.231 Y119.170 E12.73968
G1 X120.787 Y118.383 E13.01066
G1 X120.361 Y118.353 E13.13865
G1 X119.890 Y118.408 E13.28071
G1 X119.495 Y119.153 E13.53322
G1 X118.553 Y122.675 E14.62567
G1 X115.672 Y132.648 E17.73630
G92 E0
G1 Z1.200 F7800.000
G1 X134.328 Y132.648 F7800.000
G1 X131.543 Y122.917 E3.03301 F600.000
G1 X131.106 Y121.361 E3.51720
G1 X130.514 Y119.134 E4.20759
G1 X130.120 Y118.397 E4.45821
G1 X129.648 Y118.344 E4.60061
G1 X129.213 Y118.379 E4.73109
G1 X128.787 Y119.150 E4.99505
G1 X127.821 Y122.900 E6.15551
G1 X126.405 Y128.040 E7.75282
G1 X125.828 Y130.330 E8.46067
G1 X125.057 Y131.402 E8.85636
G1 X124.963 Y131.402 E8.88453
G1 X124.198 Y130.333 E9.27839
G1 X123.717 Y128.432 E9.86608
G1 X121.839 Y121.571 E11.99749
G1 X121.231 Y119.170 E12.73968
G1 X120.787 Y118.383 E13.01066
G1 X120.361 Y118.353 E13.13865
G1 X119.890 Y118.408 E13.28071
G1 X119.495 Y119.153 E13.53322
G1 X118.553 Y122.675 E14.62568
G1 X115.672 Y132.648 E17.73630
G92 E0
G1 Z1.500 F7800.000
G1 X134.328 Y132.648 F7800.000
G1 X131.543 Y122.917 E3.03301 F600.000
G1 X131.106 Y121.361 E3.51720
G1 X130.514 Y119.134 E4.20759
G1 X130.120 Y118.397 E4.45821
G1 X129.648 Y118.344 E4.60061
G1 X129.213 Y118.379 E4.73109
G1 X128.787 Y119.150 E4.99505
G1 X127.821 Y122.900 E6.15551
G1 X126.405 Y128.040 E7.75282
G1 X125.828 Y130.330 E8.46067
G1 X125.057 Y131.402 E8.85636
G1 X124.963 Y131.402 E8.88453
G1 X124.198 Y130.333 E9.27839
G1 X123.717 Y128.432 E9.86608
G1 X121.839 Y121.571 E11.99750
G1 X121.231 Y119.170 E12.73968
G1 X120.787 Y118.383 E13.01066
G1 X120.361 Y118.353 E13.13866
G1 X119.890 Y118.408 E13.28071
G1 X119.495 Y119.153 E13.53322
G1 X118.553 Y122.675 E14.62568
G1 X115.672 Y132.648 E17.73630
G92 E0
G1 Z1.800 F7800.000
G1 X134.328 Y132.648 F7800.000
G1 X131.543 Y122.917 E3.03301 F600.000
G1 X131.106 Y121.361 E3.51720
G1 X130.514 Y119.134 E4.20759
G1 X130.120 Y118.397 E4.45821
G1 X129.648 Y118.344 E4.60061
G1 X129.213 Y118.379 E4.73109
G1 X128.787 Y119.150 E4.99505
G1 X127.821 Y122.900 E6.15551
G1 X126.405 Y128.040 E7.75282
G1 X125.828 Y130.330 E8.46067
G1 X125.057 Y131.402 E8.85636
G1 X124.963 Y131.402 E8.88453
G1 X124.198 Y130.333 E9.27839
G1 X123.717 Y128.432 E9.86608
G1 X121.838 Y121.572 E11.99750
G1 X121.231 Y119.170 E12.73969
G1 X120.956 Y118.588 E12.93260
G1 X120.787 Y118.383 E13.01234
G1 X120.361 Y118.353 E13.14034
G1 X119.890 Y118.408 E13.28240
G1 X119.495 Y119.153 E13.53490
G1 X118.553 Y122.675 E14.62736
G1 X115.672 Y132.648 E17.73798
G92 E0
G1 Z2.100 F7800.000
G1 X134.328 Y132.648 F7800.000
G1 X131.543 Y122.917 E3.03301 F600.000
G1 X131.106 Y121.361 E3.51720
G1 X130.514 Y119.134 E4.20759
G1 X130.120 Y118.397 E4.45821
G1 X129.648 Y118.344 E4.60061
G1 X129.213 Y118.379 E4.73109
G1 X128.787 Y119.150 E4.99505
G1 X127.821 Y122.900 E6.15551
G1 X126.405 Y128.040 E7.75283
G1 X125.828 Y130.330 E8.46067
G1 X125.057 Y131.402 E8.85636
G1 X124.963 Y131.402 E8.88453
G1 X124.198 Y130.333 E9.27839
G1 X123.717 Y128.432 E9.86608
G1 X121.838 Y121.572 E11.99750
G1 X121.231 Y119.170 E12.73969
G1 X120.786 Y118.383 E13.01072
G1 X120.361 Y118.353 E13.13853
G1 X119.890 Y118.408 E13.28059
G1 X119.495 Y119.153 E13.53310
G1 X118.553 Y122.675 E14.62556
G1 X115.672 Y132.648 E17.73618
G92 E0
M107
M104 S0 ; turn off temperature
G28 X0  ; home X axis
M84     ; disable motors

; filament used = 120.8mm (0.9cm3)

; avoid_crossing_perimeters = 1
; bed_shape = 0x0,250x0,250x250,0x250
; bed_temperature = 0
; before_layer_gcode = 
; bridge_acceleration = 0
; bridge_fan_speed = 100
; brim_width = 0
; complete_objects = 0
; cooling = 1
; default_acceleration = 0
; disable_fan_first_layers = 1
; duplicate_distance = 6
; end_gcode = M104 S0 ; turn off temperature\nG28 X0  ; home X axis\nM84     ; disable motors\n
; extruder_clearance_height = 20
; extruder_clearance_radius = 20
; extruder_offset = 0x0
; extrusion_axis = E
; extrusion_multiplier = 3
; fan_always_on = 0
; fan_below_layer_time = 60
; filament_colour = #FFFFFF
; filament_diameter = 3.125
; first_layer_acceleration = 0
; first_layer_bed_temperature = 0
; first_layer_extrusion_width = 150%
; first_layer_speed = 90%
; first_layer_temperature = 30
; gcode_arcs = 0
; gcode_comments = 0
; gcode_flavor = reprap
; infill_acceleration = 0
; infill_first = 0
; layer_gcode = 
; max_fan_speed = 100
; max_print_speed = 80
; max_volumetric_speed = 0
; min_fan_speed = 35
; min_print_speed = 10
; min_skirt_length = 0
; notes = 
; nozzle_diameter = 1.54
; only_retract_when_crossing_perimeters = 1
; ooze_prevention = 0
; output_filename_format = [input_filename_base].gcode
; perimeter_acceleration = 0
; post_process = 
; pressure_advance = 0
; resolution = 0
; retract_before_travel = 2
; retract_layer_change = 1
; retract_length = 0
; retract_length_toolchange = 10
; retract_lift = 0
; retract_restart_extra = 0
; retract_restart_extra_toolchange = 0
; retract_speed = 0
; skirt_distance = 6
; skirt_height = 1
; skirts = 0
; slowdown_below_layer_time = 30
; spiral_vase = 0
; standby_temperature_delta = -5
; start_gcode = G28 ; home all axes\nG1 Z5 F5000 ; lift nozzle\nM302\nM92 E10000\nM500\nM501\nG1 E100
; temperature = 30
; threads = 2
; toolchange_gcode = 
; travel_speed = 130
; use_firmware_retraction = 0
; use_relative_e_distances = 0
; use_volumetric_e = 0
; vibration_limit = 0
; wipe = 0
; z_offset = 0
; dont_support_bridges = 1
; extrusion_width = 0
; first_layer_height = 100%
; infill_only_where_needed = 0
; interface_shells = 0
; layer_height = 0.3
; raft_layers = 0
; seam_position = random
; support_material = 0
; support_material_angle = 0
; support_material_contact_distance = 0.2
; support_material_enforce_layers = 0
; support_material_extruder = 1
; support_material_extrusion_width = 0
; support_material_interface_extruder = 1
; support_material_interface_layers = 3
; support_material_interface_spacing = 0
; support_material_interface_speed = 100%
; support_material_pattern = pillars
; support_material_spacing = 2.5
; support_material_speed = 7
; support_material_threshold = 0
; xy_size_compensation = 0
; bottom_solid_layers = 3
; bridge_flow_ratio = 1
; bridge_speed = 10
; external_fill_pattern = rectilinear
; external_perimeter_extrusion_width = 0
; external_perimeter_speed = 70%
; external_perimeters_first = 1
; extra_perimeters = 1
; fill_angle = 45
; fill_density = 60%
; fill_pattern = rectilinear
; gap_fill_speed = 10
; infill_every_layers = 1
; infill_extruder = 1
; infill_extrusion_width = 0
; infill_overlap = 15%
; infill_speed = 10
; overhangs = 1
; perimeter_extruder = 1
; perimeter_extrusion_width = 0
; perimeter_speed = 10
; perimeters = 1
; small_perimeter_speed = 70%
; solid_infill_below_area = 70
