; generated by Slic3r 1.2.9 on 2016-03-11 at 01:31:39

; external perimeters extrusion width = 1.54mm
; perimeters extrusion width = 2.62mm
; infill extrusion width = 6.27mm
; solid infill extrusion width = 2.62mm
; top infill extrusion width = 2.62mm

M107
M104 S30 ; set temperature
G28 ; home all axes
G1 Z5 F5000 ; lift nozzle
M302
M92 E10000
M500
M501
G1 E100
M109 S30 ; wait for temperature to be reached
G21 ; set units to millimeters
G90 ; use absolute coordinates
M82 ; use absolute distances for extrusion
G92 E0
G1 Z0.300 F7800.000
G1 X114.705 Y92.597 F7800.000
G1 X115.950 Y92.693 E0.05652 F378.000
G1 X116.051 Y92.700 E0.06110 F378.000
G1 X117.378 Y93.064 E0.12336
G1 X118.442 Y93.663 E0.17859
G1 X119.217 Y94.467 E0.22912
G1 X119.681 Y95.456 E0.27857
G1 X119.837 Y96.650 E0.33304
G1 X119.734 Y97.552 E0.37415
G1 X119.428 Y98.339 E0.41233
G1 X118.917 Y99.016 E0.45070
G1 X118.215 Y99.561 E0.49093
G1 X117.328 Y99.946 E0.53467
G1 X116.209 Y100.177 E0.58638
G1 X116.186 Y100.600 E0.60551
G1 X117.039 Y100.878 E0.64613
G1 X117.709 Y101.267 E0.68118
G1 X118.244 Y101.778 E0.71469
G1 X118.635 Y102.398 E0.74782
G1 X118.871 Y103.110 E0.78178
G1 X118.949 Y103.901 E0.81775
G1 X118.386 Y105.853 E0.90965
G1 X116.707 Y107.019 E1.00216
G1 X113.793 Y107.423 E1.13527
G1 X108.492 Y107.423 E1.37515
G1 X108.492 Y92.577 E2.04692
G1 X114.474 Y92.579 E2.31763
G1 X114.392 Y93.788 F7800.000
G1 X115.533 Y93.866 E2.36937 F378.000
G1 X116.501 Y94.113 E2.41457
G1 X117.251 Y94.537 E2.45355
G1 X117.781 Y95.139 E2.48986
G1 X118.096 Y95.902 E2.52722
G1 X118.200 Y96.831 E2.56949
G1 X117.746 Y98.445 E2.64537
G1 X116.375 Y99.420 E2.72149
G1 X114.203 Y99.729 E2.82080
G1 X110.113 Y99.729 E3.00586
G1 X110.113 Y93.786 E3.27478
G1 X114.161 Y93.786 E3.45796 F378.000
G92 E0
G1 X118.655 Y98.076 F7800.000
G1 X118.655 Y98.076 F7800.000
G1 X113.816 Y100.895 F7800.000
G1 X114.854 Y100.967 E0.04709 F378.000
G1 X115.725 Y101.188 E0.08774
G1 X116.419 Y101.567 E0.12357
G1 X116.924 Y102.117 E0.15733
G1 X117.224 Y102.825 E0.19214
G1 X117.321 Y103.676 E0.23090
G1 X117.220 Y104.489 E0.26798
G1 X116.904 Y105.154 E0.30127
G1 X116.378 Y105.643 E0.33381
G1 X115.677 Y105.966 E0.36872
G1 X114.821 Y106.153 E0.40833
G1 X113.815 Y106.214 E0.45397
G1 X110.113 Y106.214 E0.62148
G1 X110.113 Y100.895 E0.86216
G1 X113.585 Y100.895 E1.01925 F378.000
G1 X115.975 Y100.912 F7800.000
G1 X116.704 Y101.227 E1.09705 F540.000
G1 X116.035 Y99.839 F7800.000
G1 X116.472 Y99.763 E1.14050 F540.000
G1 X116.892 Y99.589 E1.18511
G1 X117.097 Y99.394 F7800.000
G1 X117.399 Y99.697 E1.20468 F540.000
G1 X117.783 Y99.530 E1.22383
G1 X117.273 Y99.019 E1.25683
G1 X117.595 Y98.790 E1.27490
G1 X118.162 Y99.357 E1.31155
G1 X118.472 Y99.117 E1.32950
G1 X117.917 Y98.561 E1.36540
G1 X118.047 Y98.141 E1.38554
G1 X118.781 Y98.875 E1.43302
G1 X119.018 Y98.561 E1.45101
G1 X118.168 Y97.710 E1.50599
G1 X118.289 Y97.280 E1.52641
G1 X119.249 Y98.241 E1.58851
G1 X119.404 Y97.844 E1.60796
G1 X118.410 Y96.850 E1.67223
G1 X118.374 Y96.263 E1.69912
G1 X119.531 Y97.420 E1.77393
G1 X119.587 Y96.926 E1.79669
G1 X118.252 Y95.591 E1.88299
G1 X119.044 Y94.729 F7800.000
G1 X118.105 Y93.791 E1.94367 F540.000
G1 X116.977 Y93.214 F7800.000
G1 X119.475 Y95.712 E2.10513 F540.000
G1 X119.558 Y96.346 E2.13437
G1 X116.218 Y93.006 E2.35029
G1 X115.557 Y92.895 E2.38095
G1 X116.523 Y93.862 E2.44343
G1 X115.784 Y93.673 E2.47832
G1 X114.960 Y92.849 E2.53158
G1 X114.363 Y92.804 E2.55895
G1 X115.168 Y93.609 E2.61103
G1 X114.577 Y93.569 E2.63812
G1 X113.811 Y92.803 E2.68763
G1 X113.260 Y92.803 E2.71281
G1 X114.017 Y93.560 E2.76176
G1 X113.466 Y93.560 E2.78695
G1 X112.709 Y92.803 E2.83590
G1 X112.158 Y92.803 E2.86109
G1 X112.915 Y93.560 E2.91003
G1 X112.364 Y93.560 E2.93522
G1 X111.607 Y92.803 E2.98417
G1 X111.056 Y92.803 E3.00936
G1 X111.813 Y93.560 E3.05830
G1 X111.263 Y93.560 E3.08349
G1 X110.505 Y92.803 E3.13244
G1 X109.954 Y92.803 E3.15763
G1 X110.712 Y93.560 E3.20658
G1 X110.161 Y93.560 E3.23176
G1 X109.403 Y92.803 E3.28071
G1 X108.853 Y92.803 E3.30590
G1 X109.887 Y93.837 E3.37277
G1 X109.887 Y94.388 E3.39796
G1 X108.718 Y93.219 E3.47354
G1 X108.718 Y93.770 E3.49873
G1 X109.887 Y94.939 E3.57432
G1 X109.887 Y95.490 E3.59950
G1 X108.718 Y94.321 E3.67509
G1 X108.718 Y94.872 E3.70028
G1 X109.887 Y96.041 E3.77586
G1 X109.887 Y96.592 E3.80105
G1 X108.718 Y95.423 E3.87663
G1 X108.718 Y95.974 E3.90182
G1 X109.887 Y97.143 E3.97740
G1 X109.887 Y97.694 E4.00259
G1 X108.718 Y96.525 E4.07818
G1 X108.718 Y97.076 E4.10337
G1 X109.887 Y98.245 E4.17895
G1 X109.887 Y98.796 E4.20414
G1 X108.718 Y97.627 E4.27972
G1 X108.718 Y98.178 E4.30491
G1 X109.887 Y99.347 E4.38049
G1 X109.887 Y99.898 E4.40568
G1 X108.718 Y98.729 E4.48127
G1 X108.718 Y99.280 E4.50645
G1 X110.107 Y100.669 E4.59627
G1 X109.887 Y101.000 F7800.000
G1 X108.718 Y99.831 E4.67185 F540.000
G1 X108.718 Y100.382 E4.69704
G1 X109.887 Y101.551 E4.77262
G1 X109.887 Y102.102 E4.79781
G1 X108.718 Y100.933 E4.87340
G1 X108.718 Y101.484 E4.89858
G1 X109.887 Y102.653 E4.97417
G1 X109.887 Y103.204 E4.99936
G1 X108.718 Y102.035 E5.07494
G1 X108.718 Y102.586 E5.10013
G1 X109.887 Y103.755 E5.17571
G1 X109.887 Y104.306 E5.20090
G1 X108.718 Y103.137 E5.27649
G1 X108.718 Y103.688 E5.30167
G1 X109.887 Y104.857 E5.37726
G1 X109.887 Y105.408 E5.40245
G1 X108.718 Y104.239 E5.47803
G1 X108.718 Y104.790 E5.50322
G1 X109.887 Y105.959 E5.57880
G1 X109.817 Y106.440 E5.60103
G1 X110.574 Y107.197 E5.64998
G1 X111.125 Y107.197 E5.67517
G1 X110.368 Y106.440 E5.72412
G1 X109.887 Y106.510 E5.74635
G1 X108.718 Y105.341 E5.82193
G1 X108.718 Y105.892 E5.84712
G1 X110.023 Y107.197 E5.93153
G1 X109.472 Y107.197 E5.95671
G1 X108.718 Y106.442 E6.00550
G1 X108.718 Y106.993 E6.03069
G1 X108.921 Y107.197 E6.04385
G1 X110.919 Y106.440 F7800.000
G1 X111.676 Y107.197 E6.09279 F540.000
G1 X112.227 Y107.197 E6.11798
G1 X111.470 Y106.440 E6.16693
G1 X112.021 Y106.440 E6.19212
G1 X112.778 Y107.197 E6.24107
G1 X113.329 Y107.197 E6.26625
G1 X112.572 Y106.440 E6.31520
G1 X113.123 Y106.440 E6.34039
G1 X113.877 Y107.194 E6.38913
G1 X114.361 Y107.127 E6.41146
G1 X113.674 Y106.440 E6.45586
G1 X114.197 Y106.412 E6.47982
G1 X114.844 Y107.060 E6.52166
G1 X115.328 Y106.992 E6.54399
G1 X114.717 Y106.381 E6.58352
G1 X115.177 Y106.290 E6.60497
G1 X115.812 Y106.925 E6.64601
G1 X116.296 Y106.858 E6.66834
G1 X115.629 Y106.191 E6.71143
G1 X116.017 Y106.028 E6.73067
G1 X116.745 Y106.756 E6.77772
G1 X117.070 Y106.530 E6.79582
G1 X116.395 Y105.855 E6.83949
G1 X116.698 Y105.608 E6.85739
G1 X117.395 Y106.305 E6.90246
G1 X117.721 Y106.079 E6.92056
G1 X116.984 Y105.342 E6.96818
G1 X117.196 Y105.003 E6.98645
G1 X118.046 Y105.853 E7.04140
G1 X118.267 Y105.523 E7.05956
G1 X117.373 Y104.630 E7.11731
G1 X117.476 Y104.182 E7.13832
G1 X118.390 Y105.095 E7.19737
G1 X118.513 Y104.667 E7.21772
G1 X117.538 Y103.692 E7.28078
G1 X117.492 Y103.096 E7.30812
G1 X118.636 Y104.240 E7.38207
G1 X118.699 Y103.751 E7.40459
G1 X117.319 Y102.371 E7.49378
G1 X116.862 Y101.364 F7800.000
G1 X118.598 Y103.100 E7.60603 F540.000
G1 X115.788 Y100.840 F7800.000
G1 X114.808 Y99.860 E7.66939 F540.000
G1 X115.290 Y99.792 E7.69166
G1 X115.886 Y100.387 E7.73015
G1 X115.193 Y100.796 F7800.000
G1 X114.326 Y99.929 E7.78622 F540.000
G1 X113.801 Y99.955 E7.81025
G1 X114.560 Y100.714 E7.85933
G1 X113.968 Y100.673 E7.88645
G1 X113.250 Y99.955 E7.93288
G1 X112.699 Y99.955 E7.95807
G1 X113.413 Y100.669 E8.00424
G1 X112.862 Y100.669 E8.02942
G1 X112.148 Y99.955 E8.07559
G1 X111.597 Y99.955 E8.10078
G1 X112.311 Y100.669 E8.14695
G1 X111.760 Y100.669 E8.17214
G1 X111.046 Y99.955 E8.21830
G1 X110.495 Y99.955 E8.24349
G1 X111.209 Y100.669 E8.28966
G1 X110.658 Y100.669 E8.31485
G1 X109.944 Y99.955 E8.36101
G92 E0
G1 X108.267 Y107.648 F7800.000
G1 X97.077 Y108.071 F7800.000
G1 X89.363 Y108.648 F7800.000
G1 X85.730 Y106.470 F7800.000
G1 X83.607 Y108.076 F7800.000
G1 X82.094 Y107.648 F7800.000
G1 X80.987 Y104.879 F7800.000
G1 X84.613 Y92.577 E0.58032 F378.000
G1 X86.746 Y92.577 E0.67681
G1 X88.144 Y97.654 E0.91509
G1 X89.665 Y103.285 E1.17903 F378.000
G1 X90.141 Y105.383 E1.27635
G1 X90.581 Y105.381 E1.29625
G1 X91.140 Y102.891 E1.41171
G1 X91.340 Y102.128 E1.44742
G1 X93.946 Y92.577 E1.89540
G1 X96.078 Y92.577 E1.99187
G1 X100.453 Y107.423 E2.69220
G1 X98.767 Y107.423 E2.76850
G1 X96.181 Y98.109 E3.20589
G1 X95.760 Y96.535 E3.27962
G1 X95.185 Y94.108 E3.39247
G1 X94.750 Y94.115 E3.41214
G1 X94.168 Y96.596 E3.52746
G1 X93.793 Y98.068 E3.59619
G1 X91.176 Y107.423 E4.03575
G1 X89.534 Y107.423 E4.11007
G1 X87.053 Y98.555 E4.52675
G1 X86.568 Y96.725 E4.61243
G1 X85.965 Y94.129 E4.73303
G1 X85.527 Y94.129 E4.75283
G1 X84.943 Y96.649 E4.86991
G1 X84.627 Y97.872 E4.92706
G1 X81.924 Y107.423 E5.37620
G1 X80.237 Y107.423 E5.45254
G1 X80.922 Y105.100 E5.56211
G1 X80.777 Y107.197 F7800.000
G1 X80.577 Y106.997 E5.57508 F540.000
G1 X80.704 Y106.570 E5.59557
G1 X81.331 Y107.197 E5.63633
G1 X81.798 Y107.110 E5.65815
G1 X80.830 Y106.142 E5.72105
G1 X80.956 Y105.714 E5.74154
G1 X81.920 Y106.679 E5.80418
G1 X82.042 Y106.247 E5.82479
G1 X81.082 Y105.287 E5.88718
G1 X81.208 Y104.859 E5.90767
G1 X82.164 Y105.815 E5.96980
G1 X82.286 Y105.384 E5.99041
G1 X81.334 Y104.431 E6.05229
G1 X81.460 Y104.004 E6.07278
G1 X82.408 Y104.952 E6.13440
G1 X82.531 Y104.521 E6.15501
G1 X81.586 Y103.576 E6.21638
G1 X81.712 Y103.148 E6.23687
G1 X82.653 Y104.089 E6.29799
G1 X82.775 Y103.657 E6.31859
G1 X81.838 Y102.721 E6.37946
G1 X81.964 Y102.293 E6.39994
G1 X82.897 Y103.226 E6.46055
G1 X83.019 Y102.794 E6.48116
G1 X82.090 Y101.865 E6.54151
G1 X82.216 Y101.438 E6.56199
G1 X83.141 Y102.363 E6.62209
G1 X83.263 Y101.931 E6.64270
G1 X82.342 Y101.010 E6.70254
G1 X82.469 Y100.582 E6.72302
G1 X83.386 Y101.499 E6.78261
G1 X83.508 Y101.068 E6.80322
G1 X82.595 Y100.155 E6.86255
G1 X82.721 Y99.727 E6.88303
G1 X83.630 Y100.636 E6.94211
G1 X83.752 Y100.205 E6.96272
G1 X82.847 Y99.299 E7.02154
G1 X82.973 Y98.872 E7.04203
G1 X83.874 Y99.773 E7.10059
G1 X83.996 Y99.341 E7.12120
G1 X83.099 Y98.444 E7.17951
G1 X83.225 Y98.016 E7.20000
G1 X84.118 Y98.910 E7.25805
G1 X84.241 Y98.478 E7.27866
G1 X83.351 Y97.589 E7.33646
G1 X83.477 Y97.161 E7.35695
G1 X84.363 Y98.047 E7.41449
G1 X84.480 Y97.610 E7.43526
G1 X83.603 Y96.733 E7.49223
G1 X83.729 Y96.306 E7.51271
G1 X84.594 Y97.170 E7.56888
G1 X84.707 Y96.730 E7.58976
G1 X83.855 Y95.878 E7.64512
G1 X83.981 Y95.450 E7.66560
G1 X84.813 Y96.282 E7.71965
G1 X84.917 Y95.833 E7.74085
G1 X84.107 Y95.023 E7.79347
G1 X84.233 Y94.595 E7.81396
G1 X85.022 Y95.383 E7.86516
G1 X85.126 Y94.934 E7.88636
G1 X84.360 Y94.167 E7.93615
G1 X84.486 Y93.740 E7.95663
G1 X85.230 Y94.484 E8.00499
G1 X85.334 Y94.034 E8.02619
G1 X84.612 Y93.312 E8.07313
G1 X84.738 Y92.884 E8.09362
G1 X85.756 Y93.903 E8.15978
G1 X86.290 Y94.436 F7800.000
G1 X87.267 Y95.414 E8.22329 F540.000
G1 X87.477 Y96.178 E8.25971
G1 X86.457 Y95.157 E8.32601
G1 X86.624 Y95.878 E8.36002
G1 X87.688 Y96.942 E8.42912
G1 X86.793 Y96.601 F7800.000
G1 X87.898 Y97.706 E8.50093 F540.000
G1 X88.104 Y98.465 E8.53708
G1 X86.993 Y97.355 E8.60926
G1 X87.193 Y98.108 E8.64508
G1 X88.309 Y99.224 E8.71759
G1 X88.514 Y99.983 E8.75369
G1 X87.402 Y98.871 E8.82590
G1 X87.617 Y99.640 E8.86258
G1 X88.719 Y100.741 E8.93413
G1 X88.924 Y101.500 E8.97024
G1 X87.832 Y100.409 E9.04113
G1 X89.128 Y102.259 F7800.000
G1 X88.048 Y101.178 E9.11137 F540.000
G1 X88.263 Y101.947 E9.14805
G1 X89.333 Y103.017 E9.21762
G1 X89.520 Y103.757 F7800.000
G1 X88.478 Y102.715 E9.28532 F540.000
G1 X88.693 Y103.484 F7800.000
G1 X89.682 Y104.474 E9.34962 F540.000
G1 X89.845 Y105.190 F7800.000
G1 X88.908 Y104.253 E9.41052 F540.000
G1 X89.123 Y105.022 F7800.000
G1 X91.085 Y106.983 E9.53798 F540.000
G1 X90.744 Y107.197 E9.55644
G1 X89.338 Y105.791 E9.64783
G1 X89.553 Y106.559 E9.68450
G1 X90.191 Y107.197 E9.72594
G1 X90.263 Y105.608 F7800.000
G1 X91.206 Y106.551 E9.78721 F540.000
G1 X91.327 Y106.118 E9.80785
G1 X90.758 Y105.550 E9.84478
G1 X90.860 Y105.098 E9.86607
G1 X91.448 Y105.685 E9.90426
G1 X91.569 Y105.253 E9.92491
G1 X90.961 Y104.645 E9.96436
G1 X91.063 Y104.193 E9.98565
G1 X91.690 Y104.820 E10.02637
G1 X91.811 Y104.387 F7800.000
G1 X91.165 Y103.741 E10.06835 F540.000
G1 X91.266 Y103.289 E10.08964
G1 X91.932 Y103.954 E10.13288
G1 X92.053 Y103.522 E10.15352
G1 X91.369 Y102.838 E10.19793
G1 X91.484 Y102.399 E10.21878
G1 X92.174 Y103.089 E10.26361
G1 X92.295 Y102.656 E10.28426
G1 X91.600 Y101.961 E10.32940
G1 X91.719 Y101.526 E10.35012
G1 X92.416 Y102.224 E10.39541
G1 X92.537 Y101.791 E10.41606
G1 X91.837 Y101.091 E10.46150
G1 X91.956 Y100.656 E10.48222
G1 X92.658 Y101.358 E10.52781
G1 X92.779 Y100.925 E10.54846
G1 X92.075 Y100.221 E10.59420
G1 X92.194 Y99.786 E10.61492
G1 X92.900 Y100.493 E10.66081
G1 X93.021 Y100.060 E10.68146
G1 X92.312 Y99.351 E10.72750
G1 X92.431 Y98.916 E10.74822
G1 X93.142 Y99.627 E10.79441
G1 X93.263 Y99.195 E10.81505
G1 X92.550 Y98.481 E10.86139
G1 X92.668 Y98.046 E10.88211
G1 X93.384 Y98.762 E10.92860
G1 X93.505 Y98.329 E10.94924
G1 X92.787 Y97.611 E10.99589
G1 X92.906 Y97.176 E11.01660
G1 X93.622 Y97.893 E11.06317
G1 X93.735 Y97.452 E11.08409
G1 X93.025 Y96.741 E11.13025
G1 X93.143 Y96.306 E11.15097
G1 X93.847 Y97.010 E11.19673
G1 X93.959 Y96.569 E11.21767
G1 X93.262 Y95.871 E11.26299
G1 X93.381 Y95.436 E11.28371
G1 X94.065 Y96.120 E11.32815
G1 X94.170 Y95.672 E11.34931
G1 X93.499 Y95.001 E11.39288
G1 X93.618 Y94.566 E11.41360
G1 X94.275 Y95.223 E11.45630
G1 X94.380 Y94.775 E11.47746
G1 X93.737 Y94.131 E11.51929
G1 X93.856 Y93.696 E11.54000
G1 X94.486 Y94.326 E11.58095
G1 X94.606 Y93.892 E11.60163
G1 X93.974 Y93.261 E11.64266
G1 X94.093 Y92.826 E11.66338
G1 X95.151 Y93.884 E11.73212
G1 X95.459 Y94.192 F7800.000
G1 X96.638 Y95.371 E11.80876 F540.000
G1 X96.870 Y96.157 E11.84636
G1 X95.631 Y94.918 E11.92685
G1 X95.803 Y95.644 E11.96112
G1 X97.101 Y96.942 E12.04547
G1 X97.333 Y97.727 E12.08308
G1 X95.975 Y96.369 E12.17129
G1 X96.176 Y97.124 E12.20719
G1 X97.564 Y98.512 E12.29735
G1 X97.795 Y99.297 E12.33496
G1 X96.378 Y97.880 E12.42704
G1 X96.590 Y98.646 E12.46354
G1 X98.027 Y100.082 E12.55689
G1 X98.258 Y100.867 E12.59450
G1 X96.803 Y99.412 E12.68905
G1 X97.016 Y100.179 E12.72561
G1 X98.490 Y101.652 E12.82136
G1 X98.721 Y102.438 E12.85897
G1 X97.229 Y100.945 E12.95592
G1 X97.442 Y101.712 E12.99248
G1 X98.952 Y103.223 E13.09064
G1 X99.184 Y104.008 E13.12824
G1 X97.655 Y102.479 E13.22760
G1 X97.867 Y103.245 E13.26416
G1 X99.415 Y104.793 E13.36472
G1 X99.646 Y105.578 E13.40232
G1 X98.080 Y104.012 E13.50409
G1 X98.293 Y104.779 E13.54064
G1 X99.878 Y106.363 E13.64361
G1 X100.109 Y107.148 E13.68121
G1 X98.506 Y105.545 E13.78538
G1 X98.719 Y106.312 E13.82194
G1 X99.604 Y107.197 E13.87945
G1 X96.407 Y94.586 F7800.000
G1 X94.624 Y92.803 E13.99533 F540.000
G1 X95.944 Y93.016 F7800.000
G1 X95.731 Y92.803 E14.00918 F540.000
G1 X95.177 Y92.803 E14.03462
G1 X96.176 Y93.801 E14.09949
G92 E0
G1 X86.156 Y93.353 F7800.000
G1 X86.156 Y93.353 F7800.000
G1 X87.056 Y94.649 F7800.000
G1 X85.210 Y92.803 E0.11997 F540.000
G1 X85.764 Y92.803 E0.14541
G1 X86.846 Y93.885 E0.21574
G1 X86.636 Y93.121 E0.25215
G1 X86.318 Y92.803 E0.27282
M106 S255
G92 E0
G1 Z0.600 F7800.000
G1 X110.141 Y103.801 F7800.000
G1 X109.302 Y99.504 E1.31181 F600.000
G1 X109.302 Y94.011 E2.95776
G1 X109.375 Y93.461 E3.12413
G1 X110.338 Y93.181 E3.42438
G1 X114.406 Y93.182 E4.64347
G1 X115.703 Y93.283 E5.03313
G1 X115.943 Y93.322 E5.10601
G1 X116.839 Y93.575 E5.38515
G1 X117.120 Y93.691 E5.47621
G1 X117.549 Y93.932 E5.62360
G1 X117.985 Y94.254 E5.78597
G1 X118.319 Y94.615 E5.93341
G1 X118.521 Y94.875 E6.03194
G1 X118.885 Y95.689 E6.29912
G1 X119.008 Y96.695 E6.60296
G1 X118.970 Y97.093 E6.72259
G1 X118.919 Y97.351 E6.80143
G1 X118.721 Y97.944 E6.98890
G1 X118.428 Y98.533 E7.18601
G1 X118.021 Y98.969 E7.36456
G1 X117.912 Y99.050 E7.40540
G1 X117.176 Y99.466 E7.65872
G1 X116.641 Y99.699 E7.83360
G1 X116.306 Y99.792 E7.93769
G1 X115.451 Y100.308 E8.23704
G1 X114.653 Y101.178 E8.59084
G1 X109.460 Y100.312 F7800.000
G1 X114.303 Y100.324 E10.04218 F600.000
G1 X114.879 Y100.303 E10.21481
G1 X115.435 Y100.326 E10.38163
G1 X115.809 Y100.739 E10.54858
