; generated by Slic3r 1.2.9 on 2016-03-11 at 01:31:41

; external perimeters extrusion width = 1.54mm
; perimeters extrusion width = 2.62mm
; infill extrusion width = 6.27mm
; solid infill extrusion width = 2.62mm
; top infill extrusion width = 2.62mm

M107
M104 S30 ; set temperature
G28 ; home all axes
G1 Z5 F5000 ; lift nozzle
M302
M92 E10000
M500
M501
G1 E100
M109 S30 ; wait for temperature to be reached
G21 ; set units to millimeters
G90 ; use absolute coordinates
M82 ; use absolute distances for extrusion
G92 E0
G1 Z0.300 F7800.000
G1 X109.754 Y92.577 F7800.000
G1 X113.297 Y92.577 E0.16031 F378.000
G1 X114.602 Y92.673 E0.21951
G1 X114.690 Y92.680 E0.22351 F378.000
G1 X115.956 Y92.986 E0.28243
G1 X117.105 Y93.493 E0.33928
G1 X118.113 Y94.190 E0.39475
G1 X118.955 Y95.065 E0.44967
G1 X119.633 Y96.120 E0.50644
G1 X120.131 Y97.333 E0.56573
G1 X120.430 Y98.678 E0.62808
G1 X120.530 Y100.153 E0.69499
G1 X120.301 Y102.317 E0.79348
G1 X119.619 Y104.105 E0.88005
G1 X118.489 Y105.532 E0.96244
G1 X116.938 Y106.578 E1.04705
G1 X114.992 Y107.210 E1.13964
G1 X112.632 Y107.423 E1.24686
G1 X107.806 Y107.423 E1.46523
G1 X107.806 Y92.577 E2.13700
G1 X109.523 Y92.577 E2.21469
G1 X109.523 Y93.786 F7800.000
G1 X113.074 Y93.786 E2.37535 F378.000
G1 X114.179 Y93.870 E2.42552
G1 X115.205 Y94.126 E2.47336
G1 X116.141 Y94.553 E2.51991
G1 X116.963 Y95.145 E2.56573
G1 X117.647 Y95.887 E2.61143
G1 X118.192 Y96.778 E2.65866
G1 X118.586 Y97.796 E2.70807
G1 X118.822 Y98.923 E2.76015
G1 X118.900 Y100.161 E2.81629
G1 X118.722 Y101.954 E2.89782
G1 X118.181 Y103.459 E2.97018
G1 X117.272 Y104.660 E3.03836
G1 X116.021 Y105.529 E3.10728
G1 X114.460 Y106.045 E3.18166
G1 X112.609 Y106.214 E3.26579
G1 X109.427 Y106.214 E3.40974
G1 X109.427 Y93.921 E3.96598
G1 X115.120 Y93.849 F7800.000
G1 X114.143 Y92.872 E4.02862 F540.000
G1 X113.553 Y92.829 E4.05548
G1 X114.391 Y93.667 E4.10928
G1 X113.784 Y93.607 E4.13696
G1 X112.980 Y92.803 E4.18855
G1 X112.434 Y92.803 E4.21336
G1 X113.193 Y93.562 E4.26206
G1 X112.644 Y93.560 E4.28696
G1 X111.887 Y92.803 E4.33553
G1 X111.340 Y92.803 E4.36034
G1 X112.097 Y93.560 E4.40892
G1 X111.550 Y93.560 E4.43373
G1 X110.793 Y92.803 E4.48231
G1 X110.246 Y92.803 E4.50712
G1 X111.003 Y93.560 E4.55570
G1 X110.457 Y93.560 E4.58051
G1 X109.699 Y92.803 E4.62909
G1 X109.153 Y92.803 E4.65390
G1 X109.910 Y93.560 E4.70248
G1 X109.363 Y93.560 E4.72728
G1 X108.606 Y92.803 E4.77586
G1 X108.066 Y92.810 E4.80037
G1 X109.201 Y93.945 E4.87325
G1 X109.201 Y94.492 E4.89806
G1 X108.032 Y93.323 E4.97307
G1 X108.032 Y93.870 E4.99788
G1 X109.201 Y95.039 E5.07289
G1 X109.201 Y95.586 E5.09770
G1 X108.032 Y94.417 E5.17272
G1 X108.032 Y94.963 E5.19753
G1 X109.201 Y96.133 E5.27254
G1 X109.201 Y96.679 E5.29735
G1 X108.032 Y95.510 E5.37237
G1 X108.032 Y96.057 E5.39718
G1 X109.201 Y97.226 E5.47219
G1 X109.201 Y97.773 E5.49700
G1 X108.032 Y96.604 E5.57201
G1 X108.032 Y97.151 E5.59682
G1 X109.201 Y98.320 E5.67184
G1 X109.201 Y98.867 E5.69665
G1 X108.032 Y97.698 E5.77166
G1 X108.032 Y98.244 E5.79647
G1 X109.201 Y99.413 E5.87149
G1 X109.201 Y99.960 E5.89630
G1 X108.032 Y98.791 E5.97131
G1 X108.032 Y99.338 E5.99612
G1 X109.201 Y100.507 E6.07113
G1 X109.201 Y101.054 E6.09594
G1 X108.032 Y99.885 E6.17096
G1 X108.032 Y100.432 E6.19577
G1 X109.201 Y101.601 E6.27078
G1 X109.201 Y102.148 E6.29559
G1 X108.032 Y100.978 E6.37061
G1 X108.032 Y101.525 E6.39542
G1 X109.201 Y102.694 E6.47043
G1 X109.201 Y103.241 E6.49524
G1 X108.032 Y102.072 E6.57026
G1 X108.032 Y102.619 E6.59506
G1 X109.201 Y103.788 E6.67008
G1 X109.201 Y104.335 E6.69489
G1 X108.032 Y103.166 E6.76990
G1 X108.032 Y103.713 E6.79471
G1 X109.201 Y104.882 E6.86973
G1 X109.201 Y105.428 E6.89454
G1 X108.032 Y104.259 E6.96955
G1 X108.032 Y104.806 E6.99436
G1 X109.201 Y105.975 E7.06938
G1 X109.119 Y106.440 E7.09078
G1 X109.876 Y107.197 E7.13936
G1 X110.423 Y107.197 E7.16417
G1 X109.666 Y106.440 E7.21275
G1 X109.201 Y106.522 E7.23416
G1 X108.032 Y105.353 E7.30917
G1 X108.032 Y105.900 E7.33398
G1 X109.329 Y107.197 E7.41722
G1 X108.783 Y107.197 E7.44203
G1 X108.032 Y106.447 E7.49018
G1 X108.032 Y106.993 E7.51499
G1 X108.236 Y107.197 E7.52805
G1 X110.213 Y106.440 F7800.000
G1 X110.970 Y107.197 E7.57663 F540.000
G1 X111.517 Y107.197 E7.60144
G1 X110.760 Y106.440 E7.65002
G1 X111.306 Y106.440 E7.67483
G1 X112.064 Y107.197 E7.72341
G1 X112.610 Y107.197 E7.74822
G1 X111.853 Y106.440 E7.79679
G1 X112.400 Y106.440 E7.82160
G1 X113.119 Y107.159 E7.86775
G1 X113.621 Y107.114 E7.89059
G1 X112.913 Y106.406 E7.93601
G1 X113.414 Y106.360 E7.95884
G1 X114.122 Y107.068 E8.00429
G1 X114.624 Y107.023 E8.02713
G1 X113.915 Y106.314 E8.07261
G1 X114.416 Y106.269 E8.09543
G1 X115.105 Y106.958 E8.13965
G1 X115.518 Y106.824 E8.15934
G1 X114.832 Y106.137 E8.20338
G1 X115.242 Y106.001 E8.22302
G1 X115.931 Y106.690 E8.26717
G1 X116.343 Y106.556 E8.28686
G1 X115.653 Y105.866 E8.33114
G1 X116.064 Y105.730 E8.35078
G1 X116.756 Y106.422 E8.39517
G1 X117.109 Y106.228 E8.41344
G1 X116.390 Y105.509 E8.45960
G1 X116.713 Y105.285 E8.47743
G1 X117.436 Y106.008 E8.52383
G1 X117.763 Y105.787 E8.54170
G1 X117.036 Y105.060 E8.58834
G1 X117.358 Y104.836 E8.60617
G1 X118.089 Y105.567 E8.65305
G1 X118.392 Y105.323 E8.67070
G1 X117.607 Y104.538 E8.72109
G1 X117.842 Y104.227 E8.73880
G1 X118.643 Y105.027 E8.79015
G1 X118.884 Y104.722 E8.80781
G1 X118.078 Y103.915 E8.85956
G1 X118.313 Y103.604 E8.87727
G1 X119.126 Y104.417 E8.92942
G1 X119.368 Y104.112 E8.94708
G1 X118.481 Y103.225 E9.00398
G1 X118.626 Y102.823 E9.02337
G1 X119.542 Y103.739 E9.08219
G1 X119.693 Y103.344 E9.10141
G1 X118.770 Y102.421 E9.16064
G1 X118.915 Y102.018 E9.18003
G1 X119.844 Y102.948 E9.23966
G1 X119.995 Y102.552 E9.25888
G1 X118.983 Y101.539 E9.32385
G1 X119.032 Y101.042 E9.34653
G1 X120.104 Y102.113 E9.41529
G1 X120.156 Y101.619 E9.43784
G1 X119.081 Y100.544 E9.50680
G1 X119.124 Y100.040 E9.52975
G1 X120.208 Y101.125 E9.59932
G1 X120.261 Y100.630 E9.62188
G1 X119.087 Y99.457 E9.69718
G1 X119.050 Y98.873 E9.72372
G1 X120.296 Y100.119 E9.80365
G1 X120.256 Y99.532 E9.83032
G1 X118.919 Y98.195 E9.91610
G1 X118.739 Y97.468 E9.95007
G1 X120.216 Y98.945 E10.04485
G1 X120.088 Y98.270 E10.07604
G1 X118.393 Y96.575 E10.18477
G1 X119.569 Y96.657 F7800.000
G1 X116.372 Y93.460 E10.38994 F540.000
G1 X116.024 Y94.206 F7800.000
G1 X114.772 Y92.954 E10.47025 F540.000
G1 X115.493 Y93.128 E10.50390
G1 X119.931 Y97.566 E10.78865
G1 X118.720 Y95.262 F7800.000
G1 X117.739 Y94.281 E10.85162 F540.000
G92 E0
G1 X107.581 Y107.648 F7800.000
G1 X96.385 Y108.071 F7800.000
G1 X88.671 Y108.648 F7800.000
G1 X85.038 Y106.470 F7800.000
G1 X82.914 Y108.076 F7800.000
G1 X81.402 Y107.648 F7800.000
G1 X81.254 Y107.342 F7800.000
G1 X81.232 Y107.423 E0.00380 F378.000
G1 X79.545 Y107.423 E0.08013
G1 X83.921 Y92.577 E0.78048
G1 X86.053 Y92.577 E0.87697
G1 X87.451 Y97.654 E1.11525
G1 X88.972 Y103.285 E1.37919 F378.000
G1 X89.449 Y105.383 E1.47651
G1 X89.888 Y105.381 E1.49641
G1 X90.448 Y102.891 E1.61187
G1 X90.647 Y102.128 E1.64758
G1 X93.254 Y92.577 E2.09556
G1 X95.385 Y92.577 E2.19203
G1 X99.761 Y107.423 E2.89236
G1 X98.075 Y107.423 E2.96866
G1 X95.488 Y98.109 E3.40605
G1 X95.068 Y96.535 E3.47978
G1 X94.493 Y94.108 E3.59263
G1 X94.058 Y94.115 E3.61230
G1 X93.476 Y96.596 E3.72762
G1 X93.100 Y98.068 E3.79635
G1 X90.484 Y107.423 E4.23590
G1 X88.841 Y107.423 E4.31023
G1 X86.361 Y98.555 E4.72690
G1 X85.875 Y96.725 E4.81259
G1 X85.273 Y94.129 E4.93319
G1 X84.835 Y94.129 E4.95299
G1 X84.251 Y96.649 E5.07007
G1 X83.935 Y97.872 E5.12722
G1 X81.317 Y107.120 E5.56211
G1 X80.085 Y107.197 F7800.000
G1 X79.885 Y106.997 E5.57508 F540.000
G1 X80.011 Y106.570 E5.59557
G1 X80.638 Y107.197 E5.63633
G1 X81.105 Y107.110 E5.65815
G1 X80.137 Y106.142 E5.72105
G1 X80.263 Y105.714 E5.74154
G1 X81.227 Y106.679 E5.80418
G1 X81.349 Y106.247 E5.82479
G1 X80.389 Y105.287 E5.88718
G1 X80.515 Y104.859 E5.90767
G1 X81.472 Y105.815 E5.96980
G1 X81.594 Y105.384 E5.99041
G1 X80.641 Y104.431 E6.05229
G1 X80.767 Y104.004 E6.07278
G1 X81.716 Y104.952 E6.13440
G1 X81.838 Y104.521 E6.15501
G1 X80.894 Y103.576 E6.21638
G1 X81.020 Y103.148 E6.23687
G1 X81.960 Y104.089 E6.29799
G1 X82.082 Y103.657 E6.31859
G1 X81.146 Y102.721 E6.37946
G1 X81.272 Y102.293 E6.39994
G1 X82.205 Y103.226 E6.46055
G1 X82.327 Y102.794 E6.48116
G1 X81.398 Y101.865 E6.54151
G1 X81.524 Y101.438 E6.56199
G1 X82.449 Y102.363 E6.62209
G1 X82.571 Y101.931 E6.64270
G1 X81.650 Y101.010 E6.70254
G1 X81.776 Y100.582 E6.72302
G1 X82.693 Y101.499 E6.78261
G1 X82.815 Y101.068 E6.80322
G1 X81.902 Y100.155 E6.86255
G1 X82.028 Y99.727 E6.88303
G1 X82.937 Y100.636 E6.94211
G1 X83.060 Y100.205 E6.96272
G1 X82.154 Y99.299 E7.02154
G1 X82.280 Y98.872 E7.04203
G1 X83.182 Y99.773 E7.10059
G1 X83.304 Y99.341 E7.12120
G1 X82.406 Y98.444 E7.17951
G1 X82.532 Y98.016 E7.20000
G1 X83.426 Y98.910 E7.25805
G1 X83.548 Y98.478 E7.27866
G1 X82.659 Y97.589 E7.33646
G1 X82.785 Y97.161 E7.35695
G1 X83.670 Y98.047 E7.41449
G1 X83.787 Y97.610 E7.43526
G1 X82.911 Y96.733 E7.49223
G1 X83.037 Y96.306 E7.51271
G1 X83.901 Y97.170 E7.56888
G1 X84.015 Y96.730 E7.58976
G1 X83.163 Y95.878 E7.64512
G1 X83.289 Y95.450 E7.66560
G1 X84.121 Y96.282 E7.71965
G1 X84.225 Y95.833 E7.74085
G1 X83.415 Y95.023 E7.79347
G1 X83.541 Y94.595 E7.81396
G1 X84.329 Y95.383 E7.86516
G1 X84.433 Y94.934 E7.88636
G1 X83.667 Y94.167 E7.93615
G1 X83.793 Y93.740 E7.95663
G1 X84.537 Y94.484 E8.00499
G1 X84.642 Y94.034 E8.02619
G1 X83.919 Y93.312 E8.07313
G1 X84.045 Y92.884 E8.09362
G1 X85.064 Y93.903 E8.15978
G1 X85.597 Y94.436 F7800.000
G1 X86.574 Y95.414 E8.22329 F540.000
G1 X86.785 Y96.178 E8.25971
G1 X85.764 Y95.157 E8.32601
G1 X85.932 Y95.878 E8.36002
G1 X86.995 Y96.942 E8.42912
G1 X86.101 Y96.601 F7800.000
G1 X87.206 Y97.706 E8.50093 F540.000
G1 X87.411 Y98.465 E8.53708
G1 X86.300 Y97.355 E8.60926
G1 X86.500 Y98.108 E8.64508
G1 X87.616 Y99.224 E8.71759
G1 X87.821 Y99.983 E8.75369
G1 X86.710 Y98.871 E8.82590
G1 X86.925 Y99.640 E8.86258
G1 X88.026 Y100.741 E8.93413
G1 X88.231 Y101.500 E8.97024
G1 X87.140 Y100.409 E9.04113
G1 X88.436 Y102.259 F7800.000
G1 X87.355 Y101.178 E9.11137 F540.000
G1 X87.570 Y101.947 E9.14805
G1 X88.641 Y103.017 E9.21762
G1 X88.827 Y103.757 F7800.000
G1 X87.785 Y102.715 E9.28532 F540.000
G1 X88.000 Y103.484 F7800.000
G1 X88.990 Y104.474 E9.34962 F540.000
G1 X89.152 Y105.190 F7800.000
G1 X88.215 Y104.253 E9.41052 F540.000
G1 X88.430 Y105.022 F7800.000
G1 X90.392 Y106.983 E9.53798 F540.000
G1 X90.052 Y107.197 E9.55644
G1 X88.645 Y105.791 E9.64783
G1 X88.860 Y106.559 E9.68451
G1 X89.498 Y107.197 E9.72594
G1 X89.570 Y105.608 F7800.000
G1 X90.513 Y106.551 E9.78721 F540.000
G1 X90.634 Y106.118 E9.80785
G1 X90.066 Y105.550 E9.84478
G1 X90.167 Y105.098 E9.86607
G1 X90.755 Y105.685 E9.90427
G1 X90.876 Y105.253 E9.92491
G1 X90.269 Y104.645 E9.96436
G1 X90.371 Y104.193 E9.98565
G1 X90.997 Y104.820 E10.02637
G1 X91.118 Y104.387 F7800.000
G1 X90.472 Y103.741 E10.06835 F540.000
G1 X90.574 Y103.289 E10.08964
G1 X91.239 Y103.954 E10.13288
G1 X91.360 Y103.522 E10.15352
G1 X90.677 Y102.838 E10.19794
G1 X90.791 Y102.399 E10.21879
G1 X91.481 Y103.089 E10.26362
G1 X91.602 Y102.656 E10.28426
G1 X90.907 Y101.961 E10.32940
G1 X91.026 Y101.526 E10.35012
G1 X91.723 Y102.224 E10.39542
G1 X91.844 Y101.791 E10.41606
G1 X91.145 Y101.091 E10.46150
G1 X91.264 Y100.656 E10.48222
G1 X91.965 Y101.358 E10.52781
G1 X92.086 Y100.925 E10.54846
G1 X91.382 Y100.221 E10.59420
G1 X91.501 Y99.786 E10.61492
G1 X92.207 Y100.493 E10.66081
G1 X92.328 Y100.060 E10.68146
G1 X91.620 Y99.351 E10.72750
G1 X91.738 Y98.916 E10.74822
G1 X92.449 Y99.627 E10.79441
G1 X92.570 Y99.195 E10.81505
G1 X91.857 Y98.481 E10.86139
G1 X91.976 Y98.046 E10.88211
G1 X92.691 Y98.762 E10.92860
G1 X92.812 Y98.329 E10.94925
G1 X92.095 Y97.611 E10.99589
G1 X92.213 Y97.176 E11.01660
G1 X92.930 Y97.893 E11.06317
G1 X93.042 Y97.452 E11.08409
G1 X92.332 Y96.741 E11.13026
G1 X92.451 Y96.306 E11.15097
G1 X93.155 Y97.010 E11.19673
G1 X93.267 Y96.569 E11.21767
G1 X92.569 Y95.871 E11.26299
G1 X92.688 Y95.436 E11.28371
G1 X93.372 Y96.120 E11.32815
G1 X93.477 Y95.672 E11.34931
G1 X92.807 Y95.001 E11.39288
G1 X92.926 Y94.566 E11.41360
G1 X93.583 Y95.223 E11.45630
G1 X93.688 Y94.775 E11.47746
G1 X93.044 Y94.131 E11.51929
G1 X93.163 Y93.696 E11.54000
G1 X93.793 Y94.326 E11.58095
G1 X93.913 Y93.892 E11.60164
G1 X93.282 Y93.261 E11.64266
G1 X93.400 Y92.826 E11.66338
G1 X94.458 Y93.884 E11.73212
G1 X94.766 Y94.192 F7800.000
G1 X95.946 Y95.371 E11.80876 F540.000
G1 X96.177 Y96.157 E11.84636
G1 X94.938 Y94.918 E11.92685
G1 X95.110 Y95.644 E11.96112
G1 X96.409 Y96.942 E12.04547
G1 X96.640 Y97.727 E12.08308
G1 X95.283 Y96.369 E12.17129
G1 X95.484 Y97.124 E12.20719
G1 X96.871 Y98.512 E12.29735
G1 X97.103 Y99.297 E12.33496
G1 X95.686 Y97.880 E12.42704
G1 X95.898 Y98.646 E12.46354
G1 X97.334 Y100.082 E12.55689
G1 X97.566 Y100.867 E12.59450
G1 X96.110 Y99.412 E12.68905
G1 X96.323 Y100.179 E12.72561
G1 X97.797 Y101.652 E12.82136
G1 X98.028 Y102.438 E12.85897
G1 X96.536 Y100.945 E12.95592
G1 X96.749 Y101.712 E12.99248
G1 X98.260 Y103.223 E13.09064
G1 X98.491 Y104.008 E13.12824
G1 X96.962 Y102.479 E13.22760
G1 X97.175 Y103.245 E13.26416
G1 X98.723 Y104.793 E13.36472
G1 X98.954 Y105.578 E13.40233
G1 X97.388 Y104.012 E13.50409
G1 X97.601 Y104.779 E13.54064
G1 X99.185 Y106.363 E13.64361
G1 X99.417 Y107.148 E13.68122
G1 X97.814 Y105.545 E13.78538
G1 X98.026 Y106.312 E13.82194
G1 X98.912 Y107.197 E13.87945
G1 X95.714 Y94.586 F7800.000
G1 X93.931 Y92.803 E13.99533 F540.000
G1 X95.252 Y93.016 F7800.000
G1 X95.039 Y92.803 E14.00918 F540.000
G1 X94.485 Y92.803 E14.03463
G1 X95.483 Y93.801 E14.09949
G92 E0
G1 X85.463 Y93.353 F7800.000
G1 X85.463 Y93.353 F7800.000
G1 X86.364 Y94.649 F7800.000
G1 X84.518 Y92.803 E0.11997 F540.000
G1 X85.071 Y92.803 E0.14541
G1 X86.154 Y93.885 E0.21574
G1 X85.943 Y93.121 E0.25215
G1 X85.625 Y92.803 E0.27282
M106 S255
G92 E0
G1 Z0.600 F7800.000
G1 X108.690 Y93.461 F7800.000
G1 X109.652 Y93.181 E0.30026 F600.000
G1 X113.128 Y93.183 E1.34183
G1 X114.207 Y93.258 E1.66579
G1 X114.591 Y93.314 E1.78197
G1 X115.340 Y93.498 E2.01330
G1 X115.738 Y93.627 E2.13872
G1 X116.403 Y93.926 E2.35726
G1 X116.755 Y94.118 E2.47722
G1 X117.364 Y94.547 E2.70058
G1 X117.627 Y94.762 E2.80224
G1 X118.345 Y95.547 E3.12097
G1 X118.928 Y96.488 E3.45264
G1 X119.360 Y97.575 E3.80317
G1 X119.624 Y98.794 E4.17697
G1 X119.713 Y100.137 E4.58031
G1 X119.509 Y102.128 E5.17988
G1 X118.927 Y103.711 E5.68536
G1 X118.770 Y103.947 E5.77032
G1 X117.973 Y104.976 E6.16013
G1 X117.642 Y105.257 E6.29028
G1 X116.632 Y105.949 E6.65727
G1 X116.423 Y106.052 E6.72693
G1 X116.191 Y106.147 E6.80220
G1 X114.864 Y106.582 E7.22073
G1 X114.489 Y106.649 E7.33463
G1 X112.605 Y106.818 E7.90159
G1 X109.652 Y106.818 E8.78632
G1 X108.690 Y106.539 E9.08657
G1 X108.617 Y105.989 E9.25294
G1 X108.617 Y94.011 E12.84210
G1 X108.690 Y93.461 E13.00847
G92 E0
G1 X107.581 Y107.648 F7800.000
G1 X103.616 Y105.683 F7800.000
G1 X102.736 Y106.860 F7800.000
G1 X100.062 Y107.648 F7800.000
G1 X98.980 Y107.648 F7800.000
G1 X96.195 Y97.917 E3.03301 F600.000
G1 X95.758 Y96.361 E3.51720
G1 X95.167 Y94.134 E4.20759
G1 X94.773 Y93.397 E4.45821
G1 X94.300 Y93.344 E4.60061
G1 X93.866 Y93.379 E4.73109
G1 X93.440 Y94.150 E4.99505
G1 X92.473 Y97.900 E6.15551
G1 X91.058 Y103.040 E7.75283
G1 X90.481 Y105.330 E8.46067
G1 X89.710 Y106.402 E8.85636
G1 X89.616 Y106.402 E8.88453
G1 X88.851 Y105.333 E9.27839
G1 X88.370 Y103.435 E9.86515
G1 X86.493 Y96.571 E11.99749
G1 X85.884 Y94.170 E12.73968
G1 X85.439 Y93.383 E13.01065
G1 X85.013 Y93.353 E13.13865
G1 X84.543 Y93.408 E13.28071
G1 X84.148 Y94.153 E13.53321
G1 X83.206 Y97.675 E14.62567
G1 X80.324 Y107.648 E17.73629
G92 E0
G1 Z0.900 F7800.000
G1 X108.690 Y93.461 F7800.000
G1 X109.652 Y93.181 E0.30026 F600.000
G1 X113.128 Y93.183 E1.34183
G1 X114.207 Y93.258 E1.66579
G1 X114.591 Y93.314 E1.78197
G1 X115.340 Y93.498 E2.01330
G1 X115.738 Y93.627 E2.13872
G1 X116.403 Y93.926 E2.35725
G1 X116.755 Y94.118 E2.47722
G1 X117.364 Y94.547 E2.70058
G1 X117.627 Y94.762 E2.80224
G1 X118.345 Y95.547 E3.12097
G1 X118.928 Y96.488 E3.45264
G1 X119.360 Y97.575 E3.80317
