; generated by Slic3r 1.2.9 on 2016-03-11 at 01:31:42

; external perimeters extrusion width = 1.54mm
; perimeters extrusion width = 2.62mm
; infill extrusion width = 6.27mm
; solid infill extrusion width = 2.62mm
; top infill extrusion width = 2.62mm

M107
M104 S30 ; set temperature
G28 ; home all axes
G1 Z5 F5000 ; lift nozzle
M302
M92 E10000
M500
M501
G1 E100
M109 S30 ; wait for temperature to be reached
G21 ; set units to millimeters
G90 ; use absolute coordinates
M82 ; use absolute distances for extrusion
G92 E0
G1 Z0.300 F7800.000
G1 X117.956 Y106.181 F7800.000
G1 X119.503 Y106.181 E0.07001 F378.000
G1 X119.503 Y107.423 E0.12621
G1 X108.383 Y107.423 E0.62939
G1 X108.383 Y92.577 E1.30116
G1 X119.947 Y92.577 E1.82442
G1 X119.947 Y93.819 E1.88062
G1 X110.004 Y93.819 E2.33053 F378.000
G1 X110.004 Y99.611 E2.59262
G1 X118.853 Y99.611 E2.99303
G1 X118.853 Y100.831 E3.04823
G1 X110.004 Y100.831 E3.44864
G1 X110.004 Y106.181 E3.69073
G1 X117.725 Y106.181 E4.04008
G1 X118.390 Y106.407 F7800.000
G1 X119.180 Y107.197 E4.09067 F540.000
G1 X119.277 Y106.749 E4.11143
G1 X118.935 Y106.407 E4.13332
G1 X118.634 Y107.197 F7800.000
G1 X117.844 Y106.407 E4.18391 F540.000
G1 X117.298 Y106.407 E4.20861
G1 X118.089 Y107.197 E4.25920
G1 X117.543 Y107.197 E4.28390
G1 X116.753 Y106.407 E4.33449
G1 X116.207 Y106.407 E4.35919
G1 X116.997 Y107.197 E4.40977
G1 X116.452 Y107.197 E4.43448
G1 X115.662 Y106.407 E4.48506
G1 X115.116 Y106.407 E4.50976
G1 X115.906 Y107.197 E4.56035
G1 X115.360 Y107.197 E4.58505
G1 X114.570 Y106.407 E4.63564
G1 X114.025 Y106.407 E4.66034
G1 X114.815 Y107.197 E4.71093
G1 X114.269 Y107.197 E4.73563
G1 X113.479 Y106.407 E4.78621
G1 X112.933 Y106.407 E4.81092
G1 X113.724 Y107.197 E4.86150
G1 X113.178 Y107.197 E4.88620
G1 X112.388 Y106.407 E4.93679
G1 X111.842 Y106.407 E4.96149
G1 X112.632 Y107.197 E5.01208
G1 X112.087 Y107.197 E5.03678
G1 X111.297 Y106.407 E5.08737
G1 X110.751 Y106.407 E5.11207
G1 X111.541 Y107.197 E5.16265
G1 X110.995 Y107.197 E5.18736
G1 X110.205 Y106.407 E5.23794
G1 X109.778 Y106.526 E5.25800
G1 X108.609 Y105.357 E5.33285
G1 X108.609 Y105.902 E5.35756
G1 X109.904 Y107.197 E5.44046
G1 X110.450 Y107.197 E5.46516
G1 X109.660 Y106.407 E5.51575
G1 X109.778 Y105.980 E5.53581
G1 X108.609 Y104.811 E5.61066
G1 X108.609 Y104.265 E5.63536
G1 X109.778 Y105.434 E5.71021
G1 X109.778 Y104.889 E5.73491
G1 X108.609 Y103.720 E5.80977
G1 X108.609 Y103.174 E5.83447
G1 X109.778 Y104.343 E5.90932
G1 X109.778 Y103.798 E5.93402
G1 X108.609 Y102.628 E6.00887
G1 X108.609 Y102.083 E6.03358
G1 X109.778 Y103.252 E6.10843
G1 X109.778 Y102.706 E6.13313
G1 X108.609 Y101.537 E6.20798
G1 X108.609 Y100.992 E6.23268
G1 X109.778 Y102.161 E6.30753
G1 X109.778 Y101.615 E6.33224
G1 X108.609 Y100.446 E6.40709
G1 X108.609 Y99.900 E6.43179
G1 X109.778 Y101.069 E6.50664
G1 X109.860 Y100.605 E6.52798
G1 X108.609 Y99.355 E6.60804
G1 X109.778 Y93.976 F7800.000
G1 X108.627 Y92.825 E6.68174 F540.000
G1 X108.609 Y93.353 E6.70565
G1 X109.778 Y94.522 E6.78050
G1 X109.778 Y95.067 E6.80520
G1 X108.609 Y93.898 E6.88005
G1 X108.609 Y94.444 E6.90475
G1 X109.778 Y95.613 E6.97960
G1 X109.778 Y96.159 E7.00431
G1 X108.609 Y94.990 E7.07916
G1 X108.609 Y95.535 E7.10386
G1 X109.778 Y96.704 E7.17871
G1 X109.778 Y97.250 E7.20341
G1 X108.609 Y96.081 E7.27826
G1 X108.609 Y96.626 E7.30297
G1 X109.778 Y97.796 E7.37782
G1 X109.778 Y98.341 E7.40252
G1 X108.609 Y97.172 E7.47737
G1 X108.609 Y97.718 E7.50207
G1 X109.778 Y98.887 E7.57693
G1 X109.778 Y99.432 E7.60163
G1 X108.609 Y98.263 E7.67648
G1 X108.609 Y98.809 E7.70118
G1 X110.405 Y100.605 E7.81617
G1 X110.951 Y100.605 E7.84087
G1 X110.183 Y99.837 E7.89005
G1 X110.728 Y99.837 E7.91475
G1 X111.497 Y100.605 E7.96393
G1 X112.042 Y100.605 E7.98863
G1 X111.274 Y99.837 E8.03781
G1 X111.820 Y99.837 E8.06251
G1 X112.588 Y100.605 E8.11169
G1 X113.133 Y100.605 E8.13639
G1 X112.365 Y99.837 E8.18557
G1 X112.911 Y99.837 E8.21027
G1 X113.679 Y100.605 E8.25945
G1 X114.225 Y100.605 E8.28415
G1 X113.457 Y99.837 E8.33333
G1 X114.002 Y99.837 E8.35803
G1 X114.770 Y100.605 E8.40721
G1 X115.316 Y100.605 E8.43191
G1 X114.548 Y99.837 E8.48109
G1 X115.094 Y99.837 E8.50579
G1 X115.862 Y100.605 E8.55497
G1 X116.407 Y100.605 E8.57967
G1 X115.639 Y99.837 E8.62885
G1 X116.185 Y99.837 E8.65355
G1 X116.953 Y100.605 E8.70273
G1 X117.498 Y100.605 E8.72743
G1 X116.730 Y99.837 E8.77660
G1 X117.276 Y99.837 E8.80131
G1 X118.044 Y100.605 E8.85048
G1 X118.590 Y100.605 E8.87519
G1 X117.822 Y99.837 E8.92436
G1 X118.367 Y99.837 E8.94907
G1 X118.627 Y100.097 E8.96572
G92 E0
G1 X109.229 Y93.352 F7800.000
G1 X109.229 Y93.352 F7800.000
G1 X119.721 Y93.007 F7800.000
G1 X119.518 Y92.803 E0.01304 F540.000
G1 X118.972 Y92.803 E0.03774
G1 X119.721 Y93.552 E0.08571
G1 X119.217 Y93.593 E0.10864
G1 X118.426 Y92.803 E0.15922
G1 X117.881 Y92.803 E0.18392
G1 X118.671 Y93.593 E0.23451
G1 X118.125 Y93.593 E0.25921
G1 X117.335 Y92.803 E0.30980
G1 X116.790 Y92.803 E0.33450
G1 X117.580 Y93.593 E0.38508
G1 X117.034 Y93.593 E0.40978
G1 X116.244 Y92.803 E0.46037
G1 X115.698 Y92.803 E0.48507
G1 X116.488 Y93.593 E0.53566
G1 X115.943 Y93.593 E0.56036
G1 X115.153 Y92.803 E0.61094
G1 X114.607 Y92.803 E0.63565
G1 X115.397 Y93.593 E0.68623
G1 X114.852 Y93.593 E0.71093
G1 X114.061 Y92.803 E0.76152
G1 X113.516 Y92.803 E0.78622
G1 X114.306 Y93.593 E0.83681
G1 X113.760 Y93.593 E0.86151
G1 X112.970 Y92.803 E0.91209
G1 X112.425 Y92.803 E0.93680
G1 X113.215 Y93.593 E0.98738
G1 X112.669 Y93.593 E1.01208
G1 X111.879 Y92.803 E1.06267
G1 X111.333 Y92.803 E1.08737
G1 X112.123 Y93.593 E1.13796
G1 X111.578 Y93.593 E1.16266
G1 X110.788 Y92.803 E1.21324
G1 X110.242 Y92.803 E1.23795
G1 X111.032 Y93.593 E1.28853
G1 X110.486 Y93.593 E1.31323
G1 X109.696 Y92.803 E1.36382
G1 X109.151 Y92.803 E1.38852
G1 X109.941 Y93.593 E1.43910
G1 X108.609 Y106.448 F7800.000
G1 X109.358 Y107.197 E1.48707 F540.000
G1 X108.813 Y107.197 E1.51178
G1 X108.609 Y106.993 E1.52481
G92 E0
G1 X108.158 Y107.648 F7800.000
G1 X106.158 Y107.648 F7800.000
G1 X103.320 Y106.860 F7800.000
G1 X100.646 Y107.648 F7800.000
G1 X98.611 Y101.539 F7800.000
G1 X100.345 Y107.423 E0.27758 F378.000
G1 X98.659 Y107.423 E0.35387
G1 X96.072 Y98.109 E0.79126
G1 X95.652 Y96.535 E0.86499
G1 X95.077 Y94.108 E0.97784
G1 X94.642 Y94.115 E0.99752
G1 X94.060 Y96.596 E1.11284
G1 X93.684 Y98.068 E1.18157
G1 X91.068 Y107.423 E1.62112
G1 X89.425 Y107.423 E1.69545
G1 X86.945 Y98.555 E2.11212
G1 X86.459 Y96.725 E2.19781
G1 X85.857 Y94.129 E2.31840
G1 X85.419 Y94.129 E2.33821
G1 X84.835 Y96.649 E2.45529
G1 X84.519 Y97.872 E2.51244
G1 X81.816 Y107.423 E2.96158
G1 X80.129 Y107.423 E3.03791
G1 X84.505 Y92.577 E3.73826
G1 X86.637 Y92.577 E3.83475
G1 X88.035 Y97.654 E4.07303
G1 X89.556 Y103.285 E4.33697 F378.000
G1 X90.033 Y105.383 E4.43429
G1 X90.472 Y105.381 E4.45419
G1 X91.032 Y102.891 E4.56965
G1 X91.231 Y102.128 E4.60536
G1 X93.838 Y92.577 E5.05334
G1 X95.969 Y92.577 E5.14981
G1 X98.545 Y101.317 E5.56211
G1 X98.610 Y106.312 F7800.000
G1 X99.496 Y107.197 E5.61963 F540.000
G1 X100.001 Y107.148 E5.64294
G1 X98.398 Y105.545 E5.74711
G1 X98.185 Y104.779 E5.78366
G1 X99.769 Y106.363 E5.88663
G1 X99.538 Y105.578 E5.92423
G1 X97.972 Y104.012 E6.02599
G1 X97.759 Y103.245 E6.06255
G1 X99.307 Y104.793 E6.16311
G1 X99.075 Y104.008 E6.20072
G1 X97.546 Y102.479 E6.30008
G1 X97.333 Y101.712 E6.33663
G1 X98.844 Y103.223 E6.43479
G1 X98.612 Y102.438 E6.47240
G1 X97.120 Y100.945 E6.56935
G1 X96.907 Y100.179 E6.60591
G1 X98.381 Y101.652 E6.70166
G1 X98.150 Y100.867 E6.73927
G1 X96.694 Y99.412 E6.83382
G1 X96.482 Y98.646 E6.87038
G1 X97.918 Y100.082 E6.96373
G1 X97.687 Y99.297 E7.00133
G1 X96.270 Y97.880 E7.09342
G1 X96.068 Y97.124 E7.12934
G1 X97.455 Y98.512 E7.21950
G1 X97.224 Y97.727 E7.25711
G1 X95.867 Y96.369 E7.34532
G1 X95.694 Y95.644 E7.37958
G1 X96.993 Y96.942 E7.46393
G1 X96.761 Y96.157 E7.50154
G1 X95.522 Y94.918 E7.58203
G1 X95.350 Y94.192 F7800.000
G1 X96.530 Y95.371 E7.65867 F540.000
G1 X96.298 Y94.586 E7.69627
G1 X94.515 Y92.803 E7.81215
G1 X93.984 Y92.826 E7.83656
G1 X95.042 Y93.884 E7.90530
G1 X94.497 Y93.892 E7.93036
G1 X93.866 Y93.261 E7.97138
G1 X93.747 Y93.696 E7.99210
G1 X94.377 Y94.326 E8.03305
G1 X94.272 Y94.775 E8.05422
G1 X93.628 Y94.131 E8.09604
G1 X93.510 Y94.566 E8.11676
G1 X94.167 Y95.223 E8.15945
G1 X94.061 Y95.672 E8.18062
G1 X93.391 Y95.001 E8.22419
G1 X93.272 Y95.436 E8.24491
G1 X93.956 Y96.120 E8.28935
G1 X93.851 Y96.569 E8.31051
G1 X93.153 Y95.871 E8.35583
G1 X93.035 Y96.306 E8.37655
G1 X93.739 Y97.010 E8.42231
G1 X93.626 Y97.452 E8.44323
G1 X92.916 Y96.741 E8.48939
G1 X92.797 Y97.176 E8.51011
G1 X93.514 Y97.893 E8.55668
G1 X93.396 Y98.329 E8.57743
G1 X92.679 Y97.611 E8.62407
G1 X92.560 Y98.046 E8.64479
G1 X93.275 Y98.762 E8.69128
G1 X93.154 Y99.195 E8.71192
G1 X92.441 Y98.481 E8.75826
G1 X92.322 Y98.916 E8.77898
G1 X93.033 Y99.627 E8.82517
G1 X92.912 Y100.060 E8.84582
G1 X92.204 Y99.351 E8.89186
G1 X92.085 Y99.786 E8.91258
G1 X92.791 Y100.493 E8.95847
G1 X92.670 Y100.925 E8.97911
G1 X91.966 Y100.221 E9.02486
G1 X91.848 Y100.656 E9.04558
G1 X92.549 Y101.358 E9.09117
G1 X92.428 Y101.791 E9.11181
G1 X91.729 Y101.091 E9.15726
G1 X91.610 Y101.526 E9.17797
G1 X92.307 Y102.224 E9.22327
G1 X92.186 Y102.656 E9.24391
G1 X91.491 Y101.961 E9.28906
G1 X91.375 Y102.399 E9.30986
G1 X92.065 Y103.089 E9.35469
G1 X91.944 Y103.522 E9.37533
G1 X91.261 Y102.838 E9.41975
G1 X91.158 Y103.289 E9.44099
G1 X91.823 Y103.954 E9.48423
G1 X91.702 Y104.387 E9.50487
G1 X91.056 Y103.741 E9.54685
G1 X90.955 Y104.193 E9.56814
G1 X91.581 Y104.820 E9.60886
G1 X91.460 Y105.253 E9.62950
G1 X90.853 Y104.645 E9.66896
G1 X90.751 Y105.098 E9.69025
G1 X91.339 Y105.685 E9.72844
G1 X91.218 Y106.118 E9.74908
G1 X90.650 Y105.550 E9.78601
G1 X90.154 Y105.608 E9.80894
G1 X91.097 Y106.551 E9.87020
G1 X90.976 Y106.983 E9.89085
G1 X89.014 Y105.022 E10.01831
G1 X89.736 Y105.190 E10.05238
G1 X88.799 Y104.253 E10.11327
G1 X89.411 Y103.757 F7800.000
G1 X88.369 Y102.715 E10.18098 F540.000
G1 X89.020 Y102.259 F7800.000
G1 X87.939 Y101.178 E10.25121 F540.000
G1 X87.724 Y100.409 E10.28789
G1 X88.815 Y101.500 E10.35878
G1 X88.610 Y100.741 E10.39489
G1 X87.509 Y99.640 E10.46644
G1 X87.294 Y98.871 E10.50312
G1 X88.405 Y99.983 E10.57533
G1 X88.200 Y99.224 E10.61144
G1 X87.084 Y98.108 E10.68394
G1 X86.884 Y97.355 E10.71977
G1 X87.995 Y98.465 E10.79195
G1 X87.790 Y97.706 E10.82810
G1 X86.685 Y96.601 E10.89990
G1 X86.516 Y95.878 E10.93399
G1 X87.579 Y96.942 E11.00309
G1 X87.369 Y96.178 E11.03951
G1 X86.348 Y95.157 E11.10581
G1 X86.181 Y94.436 E11.13982
G1 X87.158 Y95.414 E11.20333
G1 X86.948 Y94.649 E11.23974
G1 X85.102 Y92.803 E11.35972
G1 X84.629 Y92.884 E11.38174
G1 X85.648 Y93.903 E11.44790
G1 X85.226 Y94.034 F7800.000
G1 X84.503 Y93.312 E11.49484 F540.000
G1 X84.377 Y93.740 E11.51533
G1 X85.121 Y94.484 E11.56369
G1 X85.017 Y94.934 E11.58489
G1 X84.251 Y94.167 E11.63467
G1 X84.125 Y94.595 E11.65516
G1 X84.913 Y95.383 E11.70636
G1 X84.809 Y95.833 E11.72756
G1 X83.999 Y95.023 E11.78019
G1 X83.873 Y95.450 E11.80067
G1 X84.705 Y96.282 E11.85472
G1 X84.599 Y96.730 E11.87586
G1 X83.747 Y95.878 E11.93123
G1 X83.621 Y96.306 E11.95171
G1 X84.485 Y97.170 E12.00788
G1 X84.371 Y97.610 E12.02875
G1 X83.495 Y96.733 E12.08572
G1 X83.369 Y97.161 E12.10620
G1 X84.254 Y98.047 E12.16375
G1 X84.132 Y98.478 E12.18436
G1 X83.243 Y97.589 E12.24216
G1 X83.116 Y98.016 E12.26265
G1 X84.010 Y98.910 E12.32070
G1 X83.888 Y99.341 E12.34131
G1 X82.990 Y98.444 E12.39962
G1 X82.864 Y98.872 E12.42011
G1 X83.766 Y99.773 E12.47867
G1 X83.644 Y100.205 E12.49928
G1 X82.738 Y99.299 E12.55810
G1 X82.612 Y99.727 E12.57859
G1 X83.521 Y100.636 E12.63766
G1 X83.399 Y101.068 E12.65827
G1 X82.486 Y100.155 E12.71760
G1 X82.360 Y100.582 E12.73809
G1 X83.277 Y101.499 E12.79767
G1 X83.155 Y101.931 E12.81828
G1 X82.234 Y101.010 E12.87812
G1 X82.108 Y101.438 E12.89861
G1 X83.033 Y102.363 E12.95871
G1 X82.911 Y102.794 E12.97931
G1 X81.982 Y101.865 E13.03967
G1 X81.856 Y102.293 E13.06015
G1 X82.789 Y103.226 E13.12076
G1 X82.666 Y103.657 E13.14137
G1 X81.730 Y102.721 E13.20223
G1 X81.604 Y103.148 E13.22271
G1 X82.544 Y104.089 E13.28383
G1 X82.422 Y104.521 E13.30444
G1 X81.478 Y103.576 E13.36581
G1 X81.351 Y104.004 E13.38629
G1 X82.300 Y104.952 E13.44792
G1 X82.178 Y105.384 E13.46853
G1 X81.225 Y104.431 E13.53041
G1 X81.099 Y104.859 E13.55089
G1 X82.056 Y105.815 E13.61303
G1 X81.933 Y106.247 E13.63364
G1 X80.973 Y105.287 E13.69603
G1 X80.847 Y105.714 E13.71652
G1 X81.811 Y106.679 E13.77916
G1 X81.689 Y107.110 E13.79977
G1 X80.721 Y106.142 E13.86267
G1 X80.595 Y106.570 E13.88316
G1 X81.222 Y107.197 E13.92392
G1 X80.669 Y107.197 E13.94936
G1 X80.469 Y106.997 E13.96234
G92 E0
G1 X81.229 Y106.648 F7800.000
G1 X81.229 Y106.648 F7800.000
G1 X88.584 Y103.484 F7800.000
G1 X89.574 Y104.474 E0.06430 F540.000
G1 X89.229 Y105.791 F7800.000
G1 X90.636 Y107.197 E0.15569 F540.000
G1 X90.082 Y107.197 E0.18113
G1 X89.444 Y106.559 E0.22257
G1 X89.225 Y103.017 F7800.000
G1 X88.154 Y101.947 E0.29214 F540.000
G1 X86.738 Y93.885 F7800.000
G1 X85.655 Y92.803 E0.36246 F540.000
G1 X86.209 Y92.803 E0.38791
G1 X86.527 Y93.121 E0.40858
G92 E0
G1 X86.047 Y93.353 F7800.000
G1 X86.047 Y93.353 F7800.000
G1 X95.836 Y93.016 F7800.000
G1 X95.623 Y92.803 E0.01385 F540.000
G1 X95.069 Y92.803 E0.03929
G1 X96.067 Y93.801 E0.10416
M106 S255
G92 E0
G1 Z0.600 F7800.000
G1 X120.172 Y93.198 F7800.000
G1 X110.229 Y93.198 E2.97938 F600.000
G1 X109.274 Y93.468 E3.27683
G1 X109.194 Y94.044 E3.45118
G1 X109.194 Y99.386 E5.05189
G1 X110.065 Y103.706 E6.37226
G1 X109.229 Y106.648 F7800.000
G1 X109.229 Y106.648 F7800.000
G1 X119.728 Y106.802 F7800.000
G1 X110.229 Y106.802 E9.21860 F600.000
G1 X109.274 Y106.532 E9.51604
G1 X109.194 Y105.956 E9.69039
G1 X109.194 Y101.056 E11.15866
G1 X109.362 Y100.221 E11.41390
G1 X119.078 Y100.221 E14.32531
G92 E0
G1 X120.950 Y107.648 F7800.000
G1 X106.158 Y107.648 F7800.000
G1 X103.320 Y106.860 F7800.000
G1 X100.646 Y107.648 F7800.000
G1 X99.564 Y107.648 F7800.000
G1 X96.779 Y97.917 E3.03301 F600.000
G1 X96.342 Y96.361 E3.51720
G1 X95.751 Y94.134 E4.20759
G1 X95.357 Y93.397 E4.45821
G1 X94.884 Y93.344 E4.60061
G1 X94.450 Y93.379 E4.73109
G1 X94.024 Y94.150 E4.99505
G1 X93.057 Y97.900 E6.15551
G1 X91.642 Y103.040 E7.75283
G1 X91.065 Y105.330 E8.46067
G1 X90.294 Y106.402 E8.85636
G1 X90.200 Y106.402 E8.88453
G1 X89.435 Y105.333 E9.27839
G1 X88.954 Y103.435 E9.86515
G1 X87.077 Y96.571 E11.99749
G1 X86.468 Y94.170 E12.73968
G1 X86.023 Y93.383 E13.01065
G1 X85.597 Y93.353 E13.13865
G1 X85.127 Y93.408 E13.28071
G1 X84.732 Y94.153 E13.53321
G1 X83.790 Y97.675 E14.62567
G1 X80.908 Y107.648 E17.73629
G92 E0
G1 Z0.900 F7800.000
G1 X120.172 Y93.198 F7800.000
G1 X110.229 Y93.198 E2.97938 F600.000
G1 X109.274 Y93.468 E3.27683
G1 X109.194 Y94.044 E3.45118
G1 X109.194 Y99.386 E5.05189
G1 X110.065 Y103.706 E6.37226
G1 X109.229 Y106.648 F7800.000
G1 X109.229 Y106.648 F7800.000
G1 X119.728 Y106.802 F7800.000
G1 X110.229 Y106.802 E9.21860 F600.000
G1 X109.274 Y106.532 E9.51604
G1 X109.194 Y105.956 E9.69039
G1 X109.194 Y101.056 E11.15866
G1 X109.362 Y100.221 E11.41390
G1 X119.078 Y100.221 E14.32531
G92 E0
G1 X120.950 Y107.648 F7800.000
G1 X106.158 Y107.648 F7800.000
G1 X103.320 Y106.860 F7800.000
G1 X100.646 Y107.648 F7800.000
G1 X99.564 Y107.648 F7800.000
G1 X96.779 Y97.917 E3.03301 F600.000
G1 X96.342 Y96.361 E3.51720
G1 X95.751 Y94.134 E4.20759
G1 X95.357 Y93.397 E4.45821
G1 X94.884 Y93.344 E4.60061
G1 X94.450 Y93.379 E4.73109
G1 X94.024 Y94.150 E4.99505
G1 X93.057 Y97.900 E6.15551
G1 X91.642 Y103.040 E7.75282
G1 X91.065 Y105.330 E8.46067
G1 X90.294 Y106.402 E8.85636
G1 X90.200 Y106.402 E8.88453
G1 X89.435 Y105.333 E9.27839
G1 X88.953 Y103.432 E9.86608
G1 X87.077 Y96.571 E11.99749
G1 X86.468 Y94.170 E12.73968
G1 X86.023 Y93.383 E13.01066
G1 X85.597 Y93.353 E13.13865
G1 X85.127 Y93.408 E13.28071
G1 X84.732 Y94.153 E13.53322
G1 X83.790 Y97.675 E14.62567
G1 X80.908 Y107.648 E17.73630
G92 E0
G1 Z1.200 F7800.000
G1 X120.172 Y93.198 F7800.000
G1 X110.229 Y93.198 E2.97938 F600.000
G1 X109.274 Y93.468 E3.27683
G1 X109.194 Y94.044 E3.45118
G1 X109.194 Y99.386 E5.05189
