; generated by Slic3r 1.2.9 on 2016-03-11 at 01:31:43

; external perimeters extrusion width = 1.54mm
; perimeters extrusion width = 2.62mm
; infill extrusion width = 6.27mm
; solid infill extrusion width = 2.62mm
; top infill extrusion width = 2.62mm

M107
M104 S30 ; set temperature
G28 ; home all axes
G1 Z5 F5000 ; lift nozzle
M302
M92 E10000
M500
M501
G1 E100
M109 S30 ; wait for temperature to be reached
G21 ; set units to millimeters
G90 ; use absolute coordinates
M82 ; use absolute distances for extrusion
G92 E0
G1 Z0.300 F7800.000
G1 X108.964 Y96.040 F7800.000
G1 X108.964 Y92.577 E0.15670 F378.000
G1 X110.585 Y92.577 E0.23005
G1 X110.585 Y98.800 E0.51164
G1 X119.110 Y98.800 E0.89739 F378.000
G1 X119.110 Y100.063 E0.95454
G1 X110.585 Y100.063 E1.34029
G1 X110.585 Y106.181 E1.61712
G1 X119.371 Y106.181 E2.01468
G1 X119.371 Y107.423 E2.07088
G1 X108.964 Y107.423 E2.54179
G1 X108.964 Y96.271 E3.04641
G1 X110.359 Y98.888 F7800.000
G1 X109.190 Y97.719 E3.12125 F540.000
G1 X109.190 Y97.173 E3.14595
G1 X110.359 Y98.342 E3.22079
G1 X110.359 Y97.797 E3.24548
G1 X109.190 Y96.628 E3.32033
G1 X109.190 Y96.082 E3.34502
G1 X110.359 Y97.251 E3.41986
G1 X110.359 Y96.706 E3.44456
G1 X109.190 Y95.537 E3.51940
G1 X109.190 Y94.991 E3.54410
G1 X110.359 Y96.160 E3.61894
G1 X110.359 Y95.615 E3.64364
G1 X109.190 Y94.446 E3.71848
G1 X109.190 Y93.900 E3.74317
G1 X110.359 Y95.069 E3.81802
G1 X110.359 Y94.523 E3.84271
G1 X109.190 Y93.354 E3.91755
G1 X109.207 Y92.826 E3.94149
G1 X110.359 Y93.978 E4.01524
G1 X110.359 Y93.432 E4.03994
G1 X109.729 Y92.803 E4.08023
G92 E0
G1 X109.810 Y93.352 F7800.000
G1 X109.810 Y93.352 F7800.000
G1 X118.884 Y99.230 F7800.000
G1 X118.680 Y99.026 E0.01303 F540.000
G1 X118.135 Y99.026 E0.03773
G1 X118.884 Y99.775 E0.08569
G1 X118.400 Y99.837 E0.10776
G1 X117.589 Y99.026 E0.15969
G1 X117.044 Y99.026 E0.18438
G1 X117.855 Y99.837 E0.23631
G1 X117.309 Y99.837 E0.26100
G1 X116.498 Y99.026 E0.31293
G1 X115.952 Y99.026 E0.33762
G1 X116.764 Y99.837 E0.38955
G1 X116.218 Y99.837 E0.41424
G1 X115.407 Y99.026 E0.46617
G1 X114.861 Y99.026 E0.49086
G1 X115.672 Y99.837 E0.54279
G1 X115.127 Y99.837 E0.56748
G1 X114.316 Y99.026 E0.61941
G1 X113.770 Y99.026 E0.64410
G1 X114.581 Y99.837 E0.69603
G1 X114.036 Y99.837 E0.72072
G1 X113.225 Y99.026 E0.77264
G1 X112.679 Y99.026 E0.79734
G1 X113.490 Y99.837 E0.84926
G1 X112.945 Y99.837 E0.87396
G1 X112.133 Y99.026 E0.92588
G1 X111.588 Y99.026 E0.95058
G1 X112.399 Y99.837 E1.00250
G1 X111.853 Y99.837 E1.02720
G1 X111.042 Y99.026 E1.07912
G1 X110.497 Y99.026 E1.10382
G1 X111.308 Y99.837 E1.15574
G1 X110.762 Y99.837 E1.18044
G1 X109.190 Y98.264 E1.28111
G1 X109.190 Y98.810 E1.30581
G1 X110.359 Y99.979 E1.38065
G1 X110.359 Y100.525 E1.40535
G1 X109.190 Y99.356 E1.48019
G1 X109.190 Y99.901 E1.50489
G1 X110.359 Y101.070 E1.57973
G1 X110.359 Y101.616 E1.60442
G1 X109.190 Y100.447 E1.67927
G1 X109.190 Y100.992 E1.70396
G1 X110.359 Y102.161 E1.77880
G1 X110.359 Y102.707 E1.80350
G1 X109.190 Y101.538 E1.87834
G1 X109.190 Y102.083 E1.90304
G1 X110.359 Y103.252 E1.97788
G1 X110.359 Y103.798 E2.00258
G1 X109.190 Y102.629 E2.07742
G1 X109.190 Y103.175 E2.10211
G1 X110.359 Y104.344 E2.17696
G1 X110.359 Y104.889 E2.20165
G1 X109.190 Y103.720 E2.27650
G1 X109.190 Y104.266 E2.30119
G1 X110.359 Y105.435 E2.37603
G1 X110.359 Y105.980 E2.40073
G1 X109.190 Y104.811 E2.47557
G1 X109.190 Y105.357 E2.50027
G1 X111.030 Y107.197 E2.61808
G1 X111.576 Y107.197 E2.64277
G1 X110.785 Y106.407 E2.69335
G1 X111.331 Y106.407 E2.71805
G1 X112.121 Y107.197 E2.76863
G1 X112.667 Y107.197 E2.79332
G1 X111.877 Y106.407 E2.84390
G1 X112.422 Y106.407 E2.86860
G1 X113.212 Y107.197 E2.91918
G1 X113.758 Y107.197 E2.94387
G1 X112.968 Y106.407 E2.99445
G1 X113.513 Y106.407 E3.01915
G1 X114.303 Y107.197 E3.06973
G1 X114.849 Y107.197 E3.09443
G1 X114.059 Y106.407 E3.14501
G1 X114.604 Y106.407 E3.16970
G1 X115.395 Y107.197 E3.22028
G1 X115.940 Y107.197 E3.24498
G1 X115.150 Y106.407 E3.29556
G1 X115.696 Y106.407 E3.32025
G1 X116.486 Y107.197 E3.37083
G1 X117.031 Y107.197 E3.39553
G1 X116.241 Y106.407 E3.44611
G1 X116.787 Y106.407 E3.47080
G1 X117.577 Y107.197 E3.52138
G1 X118.122 Y107.197 E3.54608
G1 X117.332 Y106.407 E3.59666
G1 X117.878 Y106.407 E3.62135
G1 X118.668 Y107.197 E3.67193
G1 X119.145 Y107.128 E3.69375
G1 X118.423 Y106.407 E3.73993
G1 X118.969 Y106.407 E3.76463
G1 X119.145 Y106.583 E3.77589
G1 X110.484 Y107.197 F7800.000
G1 X109.190 Y105.902 E3.85877 F540.000
G1 X109.190 Y106.448 E3.88347
G1 X109.939 Y107.197 E3.93143
G1 X109.393 Y107.197 E3.95612
G1 X109.190 Y106.993 E3.96916
G92 E0
G1 X110.810 Y100.288 F7800.000
G1 X120.465 Y100.288 F7800.000
G1 X119.335 Y96.314 F7800.000
G1 X110.810 Y91.352 F7800.000
G1 X94.242 Y91.352 F7800.000
G1 X90.820 Y97.046 F7800.000
G1 X90.821 Y97.504 F7800.000
G1 X88.946 Y98.020 F7800.000
G1 X87.214 Y92.577 F7800.000
G1 X88.612 Y97.654 E0.23828 F378.000
G1 X90.133 Y103.285 E0.50222 F378.000
G1 X90.609 Y105.383 E0.59954
G1 X91.049 Y105.381 E0.61944
G1 X91.608 Y102.891 E0.73490
G1 X91.808 Y102.128 E0.77061
G1 X94.414 Y92.577 E1.21859
G1 X96.546 Y92.577 E1.31506
G1 X100.921 Y107.423 E2.01539
G1 X99.235 Y107.423 E2.09169
G1 X96.649 Y98.109 E2.52908
G1 X96.228 Y96.535 E2.60281
G1 X95.653 Y94.108 E2.71566
G1 X95.218 Y94.115 E2.73533
G1 X94.636 Y96.596 E2.85065
G1 X94.261 Y98.068 E2.91938
G1 X91.644 Y107.423 E3.35893
G1 X90.002 Y107.423 E3.43326
G1 X87.521 Y98.555 E3.84993
G1 X87.036 Y96.725 E3.93562
G1 X86.433 Y94.129 E4.05622
G1 X85.995 Y94.129 E4.07602
G1 X85.411 Y96.649 E4.19310
G1 X85.095 Y97.872 E4.25025
G1 X82.392 Y107.423 E4.69939
G1 X80.705 Y107.423 E4.77573
G1 X85.081 Y92.577 E5.47608
G1 X86.983 Y92.577 E5.56211
G1 X87.104 Y93.121 F7800.000
G1 X86.786 Y92.803 E5.58278 F540.000
G1 X86.232 Y92.803 E5.60822
G1 X87.314 Y93.885 E5.67854
G1 X86.224 Y93.903 F7800.000
G1 X85.206 Y92.884 E5.74471 F540.000
G1 X85.678 Y92.803 E5.76673
G1 X87.524 Y94.649 E5.88670
G1 X87.735 Y95.414 E5.92312
G1 X86.758 Y94.436 E5.98662
G1 X86.925 Y95.157 E6.02064
G1 X87.945 Y96.178 E6.08694
G1 X88.156 Y96.942 E6.12335
G1 X87.092 Y95.878 E6.19245
G1 X87.261 Y96.601 E6.22654
G1 X88.366 Y97.706 E6.29835
G1 X88.572 Y98.465 E6.33450
G1 X87.461 Y97.355 E6.40668
G1 X87.661 Y98.108 E6.44251
G1 X88.777 Y99.224 E6.51501
G1 X88.982 Y99.983 E6.55111
G1 X87.870 Y98.871 E6.62333
G1 X88.085 Y99.640 E6.66000
G1 X89.187 Y100.741 E6.73156
G1 X89.392 Y101.500 E6.76766
G1 X88.300 Y100.409 E6.83856
G1 X88.516 Y101.178 E6.87523
G1 X89.596 Y102.259 E6.94547
G1 X89.801 Y103.017 F7800.000
G1 X88.731 Y101.947 E7.01504 F540.000
G1 X88.946 Y102.715 F7800.000
G1 X89.988 Y103.757 E7.08275 F540.000
G1 X90.150 Y104.474 F7800.000
G1 X89.161 Y103.484 E7.14705 F540.000
G1 X89.376 Y104.253 F7800.000
G1 X90.313 Y105.190 E7.20794 F540.000
G1 X89.591 Y105.022 E7.24201
G1 X91.553 Y106.983 E7.36947
G1 X91.674 Y106.551 E7.39012
G1 X90.731 Y105.608 E7.45138
G1 X91.226 Y105.550 E7.47431
G1 X91.795 Y106.118 E7.51124
G1 X91.916 Y105.685 E7.53188
G1 X91.328 Y105.098 E7.57007
G1 X91.429 Y104.645 E7.59136
G1 X92.037 Y105.253 E7.63082
G1 X92.158 Y104.820 E7.65146
G1 X91.531 Y104.193 E7.69218
G1 X91.633 Y103.741 E7.71347
G1 X92.279 Y104.387 E7.75544
G1 X92.400 Y103.954 E7.77609
G1 X91.734 Y103.289 E7.81933
G1 X91.837 Y102.838 E7.84057
G1 X92.521 Y103.522 E7.88499
G1 X92.642 Y103.089 E7.90563
G1 X91.952 Y102.399 E7.95046
G1 X92.068 Y101.961 E7.97126
G1 X92.763 Y102.656 E8.01641
G1 X92.884 Y102.224 E8.03705
G1 X92.187 Y101.526 E8.08234
G1 X92.305 Y101.091 E8.10306
G1 X93.005 Y101.791 E8.14851
G1 X93.126 Y101.358 E8.16915
G1 X92.424 Y100.656 E8.21474
G1 X92.543 Y100.221 E8.23546
G1 X93.247 Y100.925 E8.28120
G1 X93.368 Y100.493 E8.30185
G1 X92.662 Y99.786 E8.34774
G1 X92.780 Y99.351 E8.36846
G1 X93.489 Y100.060 E8.41450
G1 X93.610 Y99.627 E8.43514
G1 X92.899 Y98.916 E8.48134
G1 X93.018 Y98.481 E8.50205
G1 X93.731 Y99.195 E8.54840
G1 X93.852 Y98.762 E8.56904
G1 X93.136 Y98.046 E8.61553
G1 X93.255 Y97.611 E8.63625
G1 X93.973 Y98.329 E8.68289
G1 X94.090 Y97.893 E8.70364
G1 X93.374 Y97.176 E8.75021
G1 X93.493 Y96.741 E8.77093
G1 X94.203 Y97.452 E8.81709
G1 X94.315 Y97.010 E8.83801
G1 X93.611 Y96.306 E8.88377
G1 X93.730 Y95.871 E8.90449
G1 X94.427 Y96.569 E8.94980
G1 X94.533 Y96.120 E8.97097
G1 X93.849 Y95.436 E9.01541
G1 X93.967 Y95.001 E9.03613
G1 X94.638 Y95.672 E9.07970
G1 X94.743 Y95.223 E9.10086
G1 X94.086 Y94.566 E9.14356
G1 X94.205 Y94.131 E9.16428
G1 X94.848 Y94.775 E9.20610
G1 X94.954 Y94.326 E9.22727
G1 X94.324 Y93.696 E9.26822
G1 X94.442 Y93.261 E9.28894
G1 X95.074 Y93.892 E9.32996
G1 X95.619 Y93.884 E9.35502
G1 X94.561 Y92.826 E9.42376
G1 X95.092 Y92.803 E9.44817
G1 X96.875 Y94.586 E9.56405
G1 X97.106 Y95.371 E9.60165
G1 X95.927 Y94.192 E9.67829
G1 X96.099 Y94.918 F7800.000
G1 X97.338 Y96.157 E9.75878 F540.000
G1 X97.569 Y96.942 E9.79638
G1 X96.271 Y95.644 E9.88073
G1 X96.443 Y96.369 E9.91500
G1 X97.801 Y97.727 E10.00321
G1 X98.032 Y98.512 E10.04082
G1 X96.644 Y97.124 E10.13098
G1 X96.846 Y97.880 E10.16690
G1 X98.263 Y99.297 E10.25899
G1 X98.495 Y100.082 E10.29659
G1 X97.058 Y98.646 E10.38994
G1 X97.271 Y99.412 E10.42650
G1 X98.726 Y100.867 E10.52105
G1 X98.958 Y101.652 E10.55866
G1 X97.484 Y100.179 E10.65441
G1 X97.697 Y100.945 E10.69097
G1 X99.189 Y102.438 E10.78792
G1 X99.420 Y103.223 E10.82553
G1 X97.910 Y101.712 E10.92369
G1 X98.123 Y102.479 E10.96024
G1 X99.652 Y104.008 E11.05960
G1 X99.883 Y104.793 E11.09721
G1 X98.335 Y103.245 E11.19777
G1 X98.548 Y104.012 E11.23432
G1 X100.114 Y105.578 E11.33609
G1 X100.346 Y106.363 E11.37369
G1 X98.761 Y104.779 E11.47666
G1 X98.974 Y105.545 E11.51321
G1 X100.577 Y107.148 E11.61738
G1 X100.072 Y107.197 E11.64069
G1 X99.187 Y106.312 E11.69821
G92 E0
G1 X91.194 Y106.156 F7800.000
G1 X90.870 Y106.402 F7800.000
G1 X90.775 Y106.403 F7800.000
G1 X90.451 Y106.158 F7800.000
G1 X90.021 Y106.559 F7800.000
G1 X90.659 Y107.197 E0.04144 F540.000
G1 X91.212 Y107.197 E0.06688
G1 X89.806 Y105.791 E0.15827
G92 E0
G1 X81.806 Y106.648 F7800.000
G1 X81.806 Y106.648 F7800.000
G1 X81.783 Y106.617 F7800.000
G1 X81.742 Y106.648 F7800.000
G1 X81.045 Y106.997 F7800.000
G1 X81.245 Y107.197 E0.01297 F540.000
G1 X81.799 Y107.197 E0.03842
G1 X81.172 Y106.570 E0.07918
G1 X81.298 Y106.142 E0.09966
G1 X82.266 Y107.110 E0.16257
G1 X82.388 Y106.679 E0.18317
G1 X81.424 Y105.714 E0.24582
G1 X81.550 Y105.287 E0.26631
G1 X82.510 Y106.247 E0.32870
G1 X82.632 Y105.815 E0.34931
G1 X81.676 Y104.859 E0.41144
G1 X81.802 Y104.431 E0.43193
G1 X82.754 Y105.384 E0.49381
G1 X82.876 Y104.952 E0.51442
G1 X81.928 Y104.004 E0.57604
G1 X82.054 Y103.576 E0.59653
G1 X82.999 Y104.521 E0.65790
G1 X83.121 Y104.089 E0.67851
G1 X82.180 Y103.148 E0.73962
G1 X82.306 Y102.721 E0.76011
G1 X83.243 Y103.657 E0.82097
G1 X83.365 Y103.226 E0.84158
G1 X82.432 Y102.293 E0.90219
G1 X82.558 Y101.865 E0.92267
G1 X83.487 Y102.794 E0.98302
G1 X83.609 Y102.363 E1.00363
G1 X82.684 Y101.438 E1.06373
G1 X82.810 Y101.010 E1.08421
G1 X83.731 Y101.931 E1.14405
G1 X83.854 Y101.499 E1.16466
G1 X82.937 Y100.582 E1.22425
G1 X83.063 Y100.155 E1.24473
G1 X83.976 Y101.068 E1.30407
G1 X84.098 Y100.636 E1.32467
G1 X83.189 Y99.727 E1.38375
G1 X83.315 Y99.299 E1.40423
G1 X84.220 Y100.205 E1.46306
G1 X84.342 Y99.773 E1.48366
G1 X83.441 Y98.872 E1.54223
G1 X83.567 Y98.444 E1.56272
G1 X84.464 Y99.341 E1.62103
G1 X84.586 Y98.910 E1.64164
G1 X83.693 Y98.016 E1.69969
G1 X83.819 Y97.589 E1.72018
G1 X84.709 Y98.478 E1.77798
G1 X84.831 Y98.047 E1.79859
G1 X83.945 Y97.161 E1.85613
G1 X84.071 Y96.733 E1.87662
G1 X84.948 Y97.610 E1.93358
G1 X85.062 Y97.170 E1.95446
G1 X84.197 Y96.306 E2.01063
G1 X84.323 Y95.878 E2.03111
G1 X85.175 Y96.730 E2.08647
G1 X85.281 Y96.282 E2.10762
G1 X84.449 Y95.450 E2.16167
G1 X84.575 Y95.023 E2.18215
G1 X85.385 Y95.833 E2.23477
G1 X85.490 Y95.383 E2.25598
G1 X84.701 Y94.595 E2.30718
G1 X84.828 Y94.167 E2.32766
G1 X85.594 Y94.934 E2.37745
G1 X85.698 Y94.484 E2.39865
G1 X84.954 Y93.740 E2.44701
G1 X85.080 Y93.312 E2.46749
G1 X85.802 Y94.034 E2.51443
G92 E0
G1 X86.624 Y93.353 F7800.000
G1 X86.624 Y93.353 F7800.000
G1 X96.412 Y93.016 F7800.000
G1 X96.199 Y92.803 E0.01385 F540.000
G1 X95.645 Y92.803 E0.03929
G1 X96.644 Y93.801 E0.10416
M106 S255
G92 E0
G1 Z0.600 F7800.000
G1 X110.671 Y102.912 F7800.000
G1 X109.774 Y98.575 E1.32720 F600.000
G1 X109.774 Y92.352 E3.19190
G1 X109.810 Y93.352 F7800.000
G1 X109.774 Y93.388 F7800.000
G1 X109.774 Y106.612 F7800.000
G1 X109.810 Y106.648 F7800.000
G1 X119.596 Y106.802 F7800.000
G1 X110.810 Y106.802 E5.82459 F600.000
G1 X109.854 Y106.532 E6.12204
G1 X109.774 Y105.956 E6.29639
G1 X109.774 Y100.288 E7.99479
G1 X109.951 Y99.431 E8.25686
G1 X119.335 Y99.431 E11.06856
G92 E0
G1 X120.596 Y107.648 F7800.000
G1 X106.739 Y107.648 F7800.000
G1 X103.897 Y106.860 F7800.000
G1 X101.222 Y107.648 F7800.000
G1 X100.141 Y107.648 F7800.000
G1 X97.356 Y97.917 E3.03301 F600.000
G1 X96.919 Y96.361 E3.51720
G1 X96.327 Y94.134 E4.20759
G1 X95.933 Y93.397 E4.45821
G1 X95.461 Y93.344 E4.60061
G1 X95.027 Y93.379 E4.73109
G1 X94.600 Y94.150 E4.99505
G1 X93.634 Y97.900 E6.15551
G1 X92.218 Y103.040 E7.75283
G1 X91.641 Y105.330 E8.46067
G1 X90.870 Y106.402 E8.85636
G1 X90.776 Y106.402 E8.88453
G1 X90.011 Y105.333 E9.27839
G1 X89.531 Y103.435 E9.86515
G1 X87.653 Y96.571 E11.99749
G1 X87.044 Y94.170 E12.73968
G1 X86.600 Y93.383 E13.01065
G1 X86.174 Y93.353 E13.13865
G1 X85.703 Y93.408 E13.28071
G1 X85.309 Y94.153 E13.53321
G1 X84.366 Y97.675 E14.62567
G1 X81.485 Y107.648 E17.73629
G92 E0
G1 Z0.900 F7800.000
G1 X110.671 Y102.912 F7800.000
G1 X109.774 Y98.575 E1.32720 F600.000
G1 X109.774 Y92.352 E3.19190
G1 X109.810 Y93.352 F7800.000
G1 X109.774 Y93.388 F7800.000
G1 X109.774 Y106.612 F7800.000
G1 X109.810 Y106.648 F7800.000
G1 X119.596 Y106.802 F7800.000
G1 X110.810 Y106.802 E5.82459 F600.000
G1 X109.854 Y106.532 E6.12204
G1 X109.774 Y105.956 E6.29639
G1 X109.774 Y100.288 E7.99479
G1 X109.951 Y99.431 E8.25686
G1 X119.335 Y99.431 E11.06856
G92 E0
G1 X120.596 Y107.648 F7800.000
G1 X106.739 Y107.648 F7800.000
G1 X103.897 Y106.860 F7800.000
G1 X101.222 Y107.648 F7800.000
G1 X100.141 Y107.648 F7800.000
G1 X97.356 Y97.917 E3.03301 F600.000
G1 X96.919 Y96.361 E3.51720
G1 X96.327 Y94.134 E4.20759
G1 X95.933 Y93.397 E4.45821
G1 X95.461 Y93.344 E4.60061
G1 X95.027 Y93.379 E4.73109
G1 X94.600 Y94.150 E4.99505
G1 X93.634 Y97.900 E6.15551
G1 X92.218 Y103.040 E7.75282
G1 X91.641 Y105.330 E8.46067
G1 X90.870 Y106.402 E8.85636
G1 X90.776 Y106.402 E8.88453
G1 X90.011 Y105.333 E9.27839
G1 X89.530 Y103.432 E9.86608
G1 X87.653 Y96.571 E11.99749
G1 X87.044 Y94.170 E12.73968
G1 X86.600 Y93.383 E13.01066
G1 X86.174 Y93.353 E13.13865
G1 X85.703 Y93.408 E13.28071
G1 X85.309 Y94.153 E13.53322
G1 X84.366 Y97.675 E14.62567
G1 X81.485 Y107.648 E17.73630
G92 E0
G1 Z1.200 F7800.000
G1 X110.671 Y102.912 F7800.000
G1 X109.774 Y98.575 E1.32720 F600.000
G1 X109.774 Y92.352 E3.19190
G1 X109.810 Y93.352 F7800.000
G1 X109.774 Y93.388 F7800.000
G1 X109.774 Y106.612 F7800.000
G1 X109.810 Y106.648 F7800.000
G1 X119.596 Y106.802 F7800.000
G1 X110.810 Y106.802 E5.82459 F600.000
G1 X109.854 Y106.532 E6.12204
G1 X109.774 Y105.956 E6.29639
G1 X109.774 Y100.288 E7.99479
G1 X109.951 Y99.431 E8.25686
G1 X119.335 Y99.431 E11.06856
G92 E0
G1 X120.596 Y107.648 F7800.000
G1 X106.739 Y107.648 F7800.000
G1 X103.897 Y106.860 F7800.000
G1 X101.222 Y107.648 F7800.000
G1 X100.141 Y107.648 F7800.000
G1 X97.356 Y97.917 E3.03301 F600.000
G1 X96.919 Y96.361 E3.51720
G1 X96.327 Y94.134 E4.20759
G1 X95.933 Y93.397 E4.45821
G1 X95.461 Y93.344 E4.60061
G1 X95.027 Y93.379 E4.73109
G1 X94.600 Y94.150 E4.99505
G1 X93.634 Y97.900 E6.15551
G1 X92.218 Y103.040 E7.75282
G1 X91.641 Y105.330 E8.46067
G1 X90.870 Y106.402 E8.85636
G1 X90.776 Y106.402 E8.88453
G1 X90.011 Y105.333 E9.27839
G1 X89.530 Y103.432 E9.86608
G1 X87.652 Y96.571 E11.99749
G1 X87.044 Y94.170 E12.73968
G1 X86.600 Y93.383 E13.01066
G1 X86.174 Y93.353 E13.13865
G1 X85.703 Y93.408 E13.28071
G1 X85.309 Y94.153 E13.53322
G1 X84.366 Y97.675 E14.62568
G1 X81.485 Y107.648 E17.73630
G92 E0
G1 Z1.500 F7800.000
G1 X110.671 Y102.912 F7800.000
G1 X109.774 Y98.575 E1.32720 F600.000
