; generated by Slic3r 1.2.9 on 2016-03-11 at 01:31:45

; external perimeters extrusion width = 1.54mm
; perimeters extrusion width = 2.62mm
; infill extrusion width = 6.27mm
; solid infill extrusion width = 2.62mm
; top infill extrusion width = 2.62mm

M107
M104 S30 ; set temperature
G28 ; home all axes
G1 Z5 F5000 ; lift nozzle
M302
M92 E10000
M500
M501
G1 E100
M109 S30 ; wait for temperature to be reached
G21 ; set units to millimeters
G90 ; use absolute coordinates
M82 ; use absolute distances for extrusion
G92 E0
G1 Z0.300 F7800.000
G1 X118.535 Y94.353 F7800.000
G1 X118.535 Y92.577 E0.08035 F378.000
G1 X120.156 Y92.577 E0.15370
G1 X120.156 Y107.423 E0.82547
G1 X118.535 Y107.423 E0.89882
G1 X118.535 Y100.959 E1.19131
G1 X109.802 Y100.959 E1.58647
G1 X109.802 Y107.423 E1.87896
G1 X108.181 Y107.423 E1.95231
G1 X108.181 Y92.577 E2.62408
G1 X109.802 Y92.577 E2.69743
G1 X109.802 Y99.674 E3.01857
G1 X118.535 Y99.674 E3.41373 F378.000
G1 X118.535 Y94.584 E3.64406
G1 X119.930 Y93.007 F7800.000
G1 X119.727 Y92.803 E3.65731 F540.000
G1 X119.172 Y92.803 E3.68283
G1 X119.930 Y93.561 E3.73216
G1 X119.930 Y94.116 E3.75768
G1 X118.761 Y92.947 E3.83376
G1 X118.761 Y93.501 E3.85928
G1 X119.930 Y94.670 E3.93535
G1 X119.930 Y95.225 E3.96087
G1 X118.761 Y94.056 E4.03695
G1 X118.761 Y94.610 E4.06247
G1 X119.930 Y95.779 E4.13854
G1 X119.930 Y96.334 E4.16406
G1 X118.761 Y95.165 E4.24014
G1 X118.761 Y95.719 E4.26565
G1 X119.930 Y96.889 E4.34173
G1 X119.930 Y97.443 E4.36725
G1 X118.761 Y96.274 E4.44333
G1 X118.761 Y96.829 E4.46884
G1 X119.930 Y97.998 E4.54492
G1 X119.930 Y98.552 E4.57044
G1 X118.761 Y97.383 E4.64652
G1 X118.761 Y97.938 E4.67203
G1 X119.930 Y99.107 E4.74811
G1 X119.930 Y99.661 E4.77363
G1 X118.761 Y98.492 E4.84971
G1 X118.761 Y99.047 E4.87522
G1 X119.930 Y100.216 E4.95130
G1 X119.930 Y100.770 E4.97682
G1 X118.761 Y99.601 E5.05290
G1 X118.505 Y99.900 F7800.000
G1 X119.930 Y101.325 E5.14563 F540.000
G1 X119.930 Y101.880 E5.17115
G1 X117.951 Y99.900 E5.29997
G1 X117.396 Y99.900 E5.32549
G1 X118.229 Y100.733 E5.37970
G1 X117.675 Y100.733 E5.40522
G1 X116.842 Y99.900 E5.45943
G1 X116.287 Y99.900 E5.48495
G1 X117.120 Y100.733 E5.53916
G1 X116.566 Y100.733 E5.56468
G1 X115.732 Y99.900 E5.61889
G1 X115.178 Y99.900 E5.64441
G1 X116.011 Y100.733 E5.69862
G1 X115.456 Y100.733 E5.72414
G1 X114.623 Y99.900 E5.77835
G1 X114.069 Y99.900 E5.80387
G1 X114.902 Y100.733 E5.85808
G1 X114.347 Y100.733 E5.88360
G1 X113.514 Y99.900 E5.93781
G1 X112.960 Y99.900 E5.96333
G1 X113.793 Y100.733 E6.01754
G1 X113.238 Y100.733 E6.04306
G1 X112.405 Y99.900 E6.09727
G1 X111.850 Y99.900 E6.12279
G1 X112.684 Y100.733 E6.17700
G1 X112.129 Y100.733 E6.20252
G1 X111.296 Y99.900 E6.25673
G1 X110.741 Y99.900 E6.28225
G1 X111.574 Y100.733 E6.33646
G1 X111.020 Y100.733 E6.36198
G1 X110.187 Y99.900 E6.41619
G1 X109.632 Y99.900 E6.44171
G1 X110.465 Y100.733 E6.49592
G1 X109.911 Y100.733 E6.52144
G1 X108.407 Y99.230 E6.61928
G1 X108.407 Y99.784 E6.64480
G1 X109.576 Y100.953 E6.72087
G1 X109.576 Y101.508 E6.74639
G1 X108.407 Y100.339 E6.82247
G1 X108.407 Y100.893 E6.84799
G1 X109.576 Y102.062 E6.92406
G1 X109.576 Y102.617 E6.94958
G1 X108.407 Y101.448 E7.02566
G1 X108.407 Y102.002 E7.05118
G1 X109.576 Y103.171 E7.12725
G1 X109.576 Y103.726 E7.15277
G1 X108.407 Y102.557 E7.22885
G1 X108.407 Y103.112 E7.25437
G1 X109.576 Y104.281 E7.33044
G1 X109.576 Y104.835 E7.35596
G1 X108.407 Y103.666 E7.43204
G1 X108.407 Y104.221 E7.45756
G1 X109.576 Y105.390 E7.53363
G1 X109.576 Y105.944 E7.55915
G1 X108.407 Y104.775 E7.63523
G1 X108.407 Y105.330 E7.66075
G1 X109.576 Y106.499 E7.73682
G1 X109.576 Y107.053 E7.76234
G1 X108.407 Y105.884 E7.83842
G1 X108.407 Y106.439 E7.86394
G1 X109.165 Y107.197 E7.91327
G1 X108.611 Y107.197 E7.93879
G1 X108.407 Y106.993 E7.95204
G1 X109.576 Y99.844 F7800.000
G1 X108.407 Y98.675 E8.02811 F540.000
G1 X108.407 Y98.120 E8.05363
G1 X109.576 Y99.290 E8.12971
G1 X109.576 Y98.735 E8.15522
G1 X108.407 Y97.566 E8.23130
G1 X108.407 Y97.011 E8.25682
G1 X109.576 Y98.180 E8.33290
G1 X109.576 Y97.626 E8.35841
G1 X108.407 Y96.457 E8.43449
G1 X108.407 Y95.902 E8.46001
G1 X109.576 Y97.071 E8.53609
G1 X109.576 Y96.517 E8.56160
G1 X108.407 Y95.348 E8.63768
G1 X108.407 Y94.793 E8.66320
G1 X109.576 Y95.962 E8.73928
G1 X109.576 Y95.408 E8.76479
G1 X108.407 Y94.238 E8.84087
G1 X108.407 Y93.684 E8.86639
G1 X109.576 Y94.853 E8.94247
G1 X109.576 Y94.298 E8.96798
G1 X108.407 Y93.129 E9.04406
G1 X108.635 Y92.803 E9.06238
G1 X109.576 Y93.744 E9.12361
G1 X109.576 Y93.189 E9.14913
G1 X109.190 Y92.803 E9.17427
G92 E0
G1 X109.027 Y93.352 F7800.000
G1 X109.027 Y93.352 F7800.000
G1 X118.761 Y101.265 F7800.000
G1 X119.930 Y102.434 E0.07608 F540.000
G1 X119.930 Y102.989 E0.10159
G1 X118.761 Y101.820 E0.17767
G1 X118.761 Y102.374 E0.20319
G1 X119.930 Y103.543 E0.27927
G1 X119.930 Y104.098 E0.30478
G1 X118.761 Y102.929 E0.38086
G1 X118.761 Y103.483 E0.40638
G1 X119.930 Y104.652 E0.48246
G1 X119.930 Y105.207 E0.50797
G1 X118.761 Y104.038 E0.58405
G1 X118.761 Y104.592 E0.60957
G1 X119.930 Y105.762 E0.68565
G1 X119.930 Y106.316 E0.71116
G1 X118.761 Y105.147 E0.78724
G1 X118.761 Y105.702 E0.81276
G1 X119.930 Y106.871 E0.88884
G1 X119.702 Y107.197 E0.90716
G1 X118.761 Y106.256 E0.96839
G1 X118.761 Y106.811 E0.99390
G1 X119.148 Y107.197 E1.01904
G92 E0
G1 X118.310 Y101.184 F7800.000
G1 X114.169 Y105.507 F7800.000
G1 X112.027 Y107.648 F7800.000
G1 X89.046 Y108.648 F7800.000
G1 X85.426 Y98.904 F7800.000
G1 X85.428 Y96.939 F7800.000
G1 X85.429 Y96.854 F7800.000
G1 X84.844 Y96.703 F7800.000
G1 X81.880 Y100.772 F7800.000
G1 X84.296 Y92.577 E0.38659 F378.000
G1 X86.428 Y92.577 E0.48307
G1 X87.826 Y97.654 E0.72135
G1 X89.347 Y103.285 E0.98530 F378.000
G1 X89.824 Y105.383 E1.08261
G1 X90.263 Y105.381 E1.10252
G1 X90.823 Y102.891 E1.21798
G1 X91.022 Y102.128 E1.25368
G1 X93.629 Y92.577 E1.70166
G1 X95.760 Y92.577 E1.79813
G1 X100.136 Y107.423 E2.49847
G1 X98.450 Y107.423 E2.57476
G1 X95.863 Y98.109 E3.01215
G1 X95.443 Y96.535 E3.08588
G1 X94.868 Y94.108 E3.19873
G1 X94.433 Y94.115 E3.21840
G1 X93.851 Y96.596 E3.33372
G1 X93.475 Y98.068 E3.40245
G1 X90.859 Y107.423 E3.84201
G1 X89.216 Y107.423 E3.91633
G1 X86.736 Y98.555 E4.33301
G1 X86.250 Y96.725 E4.41869
G1 X85.648 Y94.129 E4.53929
G1 X85.210 Y94.129 E4.55909
G1 X84.626 Y96.649 E4.67617
G1 X84.310 Y97.872 E4.73333
G1 X81.607 Y107.423 E5.18247
G1 X79.920 Y107.423 E5.25880
G1 X81.815 Y100.993 E5.56211
G92 E0
G1 X82.569 Y101.176 F7800.000
G1 X82.569 Y101.176 F7800.000
G1 X87.515 Y100.409 F7800.000
G1 X88.606 Y101.500 E0.07089 F540.000
G1 X88.401 Y100.741 E0.10700
G1 X87.300 Y99.640 E0.17855
G1 X87.085 Y98.871 E0.21523
G1 X88.196 Y99.983 E0.28744
G1 X87.991 Y99.224 E0.32355
G1 X86.875 Y98.108 E0.39605
G1 X86.675 Y97.355 E0.43188
G1 X87.786 Y98.465 E0.50406
G1 X87.581 Y97.706 E0.54021
G1 X86.476 Y96.601 E0.61201
G1 X87.370 Y96.942 F7800.000
G1 X86.307 Y95.878 E0.68111 F540.000
G1 X86.139 Y95.157 E0.71512
G1 X87.160 Y96.178 E0.78143
G1 X86.949 Y95.414 E0.81784
G1 X85.972 Y94.436 E0.88135
G1 X85.439 Y93.903 F7800.000
G1 X84.420 Y92.884 E0.94751 F540.000
G1 X84.294 Y93.312 E0.96800
G1 X85.017 Y94.034 E1.01494
G1 X84.912 Y94.484 E1.03614
G1 X84.168 Y93.740 E1.08450
G1 X84.042 Y94.167 E1.10499
G1 X84.808 Y94.934 E1.15477
G1 X84.704 Y95.383 E1.17597
G1 X83.916 Y94.595 E1.22717
G1 X83.790 Y95.023 E1.24766
G1 X84.600 Y95.833 E1.30028
G1 X84.496 Y96.282 E1.32148
G1 X83.664 Y95.450 E1.37553
G1 X83.538 Y95.878 E1.39601
G1 X84.390 Y96.730 E1.45138
G1 X84.276 Y97.170 E1.47226
G1 X83.412 Y96.306 E1.52842
G1 X83.286 Y96.733 E1.54891
G1 X84.162 Y97.610 E1.60587
G1 X84.045 Y98.047 E1.62664
G1 X83.160 Y97.161 E1.68419
G1 X83.034 Y97.589 E1.70467
G1 X83.923 Y98.478 E1.76247
G1 X83.801 Y98.910 E1.78308
G1 X82.907 Y98.016 E1.84114
G1 X82.781 Y98.444 E1.86162
G1 X83.679 Y99.341 E1.91993
G1 X83.557 Y99.773 E1.94054
G1 X82.655 Y98.872 E1.99911
G1 X82.529 Y99.299 E2.01959
G1 X83.435 Y100.205 E2.07841
G1 X83.312 Y100.636 E2.09902
G1 X82.403 Y99.727 E2.15810
G1 X82.277 Y100.155 E2.17858
G1 X83.190 Y101.068 E2.23792
G1 X83.068 Y101.499 E2.25852
G1 X82.151 Y100.582 E2.31811
G1 X82.025 Y101.010 E2.33860
G1 X82.946 Y101.931 E2.39844
G1 X82.824 Y102.363 E2.41904
G1 X81.899 Y101.438 E2.47914
G1 X81.773 Y101.865 E2.49963
G1 X82.702 Y102.794 E2.55998
G1 X82.580 Y103.226 E2.58059
G1 X81.647 Y102.293 E2.64119
G1 X81.521 Y102.721 E2.66168
G1 X82.457 Y103.657 E2.72254
G1 X82.335 Y104.089 E2.74315
G1 X81.395 Y103.148 E2.80426
G1 X81.269 Y103.576 E2.82475
G1 X82.213 Y104.521 E2.88612
G1 X82.091 Y104.952 E2.90673
G1 X81.142 Y104.004 E2.96836
G1 X81.016 Y104.431 E2.98884
G1 X81.969 Y105.384 E3.05072
G1 X81.847 Y105.815 E3.07133
G1 X80.890 Y104.859 E3.13347
G1 X80.764 Y105.287 E3.15395
G1 X81.724 Y106.247 E3.21634
G1 X81.602 Y106.679 E3.23695
G1 X80.638 Y105.714 E3.29960
G1 X80.512 Y106.142 E3.32008
G1 X81.480 Y107.110 E3.38298
G1 X81.013 Y107.197 E3.40480
G1 X80.386 Y106.570 E3.44556
G1 X80.260 Y106.997 E3.46605
G1 X80.460 Y107.197 E3.47902
G92 E0
G1 X81.020 Y106.648 F7800.000
G1 X81.020 Y106.648 F7800.000
G1 X88.805 Y105.022 F7800.000
G1 X90.767 Y106.983 E0.12746 F540.000
G1 X90.427 Y107.197 E0.14592
G1 X89.020 Y105.791 E0.23731
G1 X89.235 Y106.559 E0.27399
G1 X89.873 Y107.197 E0.31542
G1 X89.945 Y105.608 F7800.000
G1 X90.888 Y106.551 E0.37669 F540.000
G1 X91.009 Y106.118 E0.39733
G1 X90.441 Y105.550 E0.43426
G1 X90.542 Y105.098 E0.45556
G1 X91.130 Y105.685 E0.49375
G1 X91.251 Y105.253 E0.51439
G1 X90.644 Y104.645 E0.55385
G1 X90.746 Y104.193 E0.57514
G1 X91.372 Y104.820 E0.61585
G1 X91.493 Y104.387 F7800.000
G1 X90.847 Y103.741 E0.65783 F540.000
G1 X90.949 Y103.289 E0.67912
G1 X91.614 Y103.954 E0.72236
G1 X91.735 Y103.522 E0.74300
G1 X91.052 Y102.838 E0.78742
G1 X91.166 Y102.399 E0.80827
G1 X91.856 Y103.089 E0.85310
G1 X91.977 Y102.656 E0.87374
G1 X91.282 Y101.961 E0.91889
G1 X91.401 Y101.526 E0.93960
G1 X92.098 Y102.224 E0.98490
G1 X92.219 Y101.791 E1.00554
G1 X91.520 Y101.091 E1.05099
G1 X91.639 Y100.656 E1.07170
G1 X92.340 Y101.358 E1.11730
G1 X92.461 Y100.925 E1.13794
G1 X91.757 Y100.221 E1.18368
G1 X91.876 Y99.786 E1.20440
G1 X92.582 Y100.493 E1.25029
G1 X92.703 Y100.060 E1.27094
G1 X91.995 Y99.351 E1.31698
G1 X92.113 Y98.916 E1.33770
G1 X92.824 Y99.627 E1.38389
G1 X92.945 Y99.195 E1.40453
G1 X92.232 Y98.481 E1.45087
G1 X92.351 Y98.046 E1.47159
G1 X93.066 Y98.762 E1.51808
G1 X93.187 Y98.329 E1.53873
G1 X92.470 Y97.611 E1.58537
G1 X92.588 Y97.176 E1.60609
G1 X93.305 Y97.893 E1.65265
G1 X93.417 Y97.452 E1.67357
G1 X92.707 Y96.741 E1.71974
G1 X92.826 Y96.306 E1.74045
G1 X93.530 Y97.010 E1.78621
G1 X93.642 Y96.569 E1.80715
G1 X92.944 Y95.871 E1.85247
G1 X93.063 Y95.436 E1.87319
G1 X93.747 Y96.120 E1.91763
G1 X93.852 Y95.672 E1.93880
G1 X93.182 Y95.001 E1.98237
G1 X93.301 Y94.566 E2.00308
G1 X93.958 Y95.223 E2.04578
G1 X94.063 Y94.775 E2.06694
G1 X93.419 Y94.131 E2.10877
G1 X93.538 Y93.696 E2.12949
G1 X94.168 Y94.326 E2.17044
G1 X94.288 Y93.892 E2.19112
G1 X93.657 Y93.261 E2.23214
G1 X93.775 Y92.826 E2.25286
G1 X94.833 Y93.884 E2.32160
G1 X95.141 Y94.192 F7800.000
G1 X96.321 Y95.371 E2.39824 F540.000
G1 X96.552 Y96.157 E2.43584
G1 X95.313 Y94.918 E2.51634
G1 X95.485 Y95.644 E2.55060
G1 X96.784 Y96.942 E2.63495
G1 X97.015 Y97.727 E2.67256
G1 X95.658 Y96.369 E2.76077
G1 X95.859 Y97.124 E2.79668
G1 X97.246 Y98.512 E2.88683
G1 X97.478 Y99.297 E2.92444
G1 X96.061 Y97.880 E3.01653
G1 X96.273 Y98.646 E3.05303
G1 X97.709 Y100.082 E3.14638
G1 X97.941 Y100.867 E3.18398
G1 X96.485 Y99.412 E3.27853
G1 X96.698 Y100.179 E3.31509
G1 X98.172 Y101.652 E3.41084
G1 X98.403 Y102.438 E3.44845
G1 X96.911 Y100.945 E3.54541
G1 X97.124 Y101.712 E3.58196
G1 X98.635 Y103.223 E3.68012
G1 X98.866 Y104.008 E3.71773
G1 X97.337 Y102.479 E3.81708
G1 X97.550 Y103.245 E3.85364
G1 X99.098 Y104.793 E3.95420
G1 X99.329 Y105.578 E3.99181
G1 X97.763 Y104.012 E4.09357
G1 X97.976 Y104.779 E4.13013
G1 X99.560 Y106.363 E4.23309
G1 X99.792 Y107.148 E4.27070
G1 X98.189 Y105.545 E4.37486
G1 X98.401 Y106.312 E4.41142
G1 X99.287 Y107.197 E4.46894
G92 E0
G1 X90.409 Y106.156 F7800.000
G1 X90.085 Y106.402 F7800.000
G1 X89.989 Y106.403 F7800.000
G1 X89.665 Y106.158 F7800.000
G1 X89.527 Y105.190 F7800.000
G1 X88.590 Y104.253 E0.06089 F540.000
G1 X89.202 Y103.757 F7800.000
G1 X88.160 Y102.715 E0.12860 F540.000
G1 X88.811 Y102.259 F7800.000
G1 X87.730 Y101.178 E0.19883 F540.000
G1 X87.945 Y101.947 E0.23551
G1 X89.016 Y103.017 E0.30509
G1 X88.375 Y103.484 F7800.000
G1 X89.365 Y104.474 E0.36939 F540.000
G1 X86.739 Y94.649 F7800.000
G1 X84.893 Y92.803 E0.48936 F540.000
G1 X85.446 Y92.803 E0.51480
G1 X86.529 Y93.885 E0.58512
G1 X86.318 Y93.121 E0.62154
G1 X86.000 Y92.803 E0.64221
G92 E0
G1 X85.838 Y93.353 F7800.000
G1 X85.838 Y93.353 F7800.000
G1 X94.306 Y92.803 F7800.000
G1 X96.089 Y94.586 E0.11588 F540.000
G1 X95.858 Y93.801 F7800.000
G1 X94.860 Y92.803 E0.18075 F540.000
G1 X95.414 Y92.803 E0.20619
G1 X95.627 Y93.016 E0.22004
M106 S255
G92 E0
G1 Z0.600 F7800.000
G1 X108.992 Y92.352 F7800.000
G1 X108.992 Y99.449 E2.12659 F600.000
G1 X109.902 Y103.796 E3.45730
G92 E0
G1 X119.310 Y106.648 F7800.000
G1 X119.310 Y106.648 F7800.000
G1 X119.346 Y107.648 F7800.000
G1 X119.346 Y101.184 E1.93691 F600.000
G1 X119.164 Y100.316 E2.20250
G1 X119.346 Y99.449 E2.46808
G1 X119.346 Y92.352 E4.59467
G92 E0
G1 X109.027 Y93.352 F7800.000
G1 X108.992 Y93.387 F7800.000
G1 X108.992 Y106.612 F7800.000
G1 X109.027 Y106.648 F7800.000
G1 X108.992 Y107.648 F7800.000
G1 X108.992 Y101.184 E1.93691 F600.000
G1 X109.173 Y100.316 E2.20250
G1 X120.381 Y100.316 E5.56087
G92 E0
G1 X110.027 Y101.184 F7800.000
G1 X110.027 Y101.184 F7800.000
G1 X114.169 Y105.326 F7800.000
G1 X114.169 Y105.507 F7800.000
G1 X112.027 Y107.648 F7800.000
G1 X110.027 Y108.648 F7800.000
G1 X107.956 Y108.648 F7800.000
G1 X105.956 Y107.648 F7800.000
G1 X103.991 Y105.683 F7800.000
G1 X103.111 Y106.860 F7800.000
G1 X100.437 Y107.648 F7800.000
G1 X99.355 Y107.648 F7800.000
G1 X96.570 Y97.917 E3.03301 F600.000
G1 X96.133 Y96.361 E3.51720
G1 X95.542 Y94.134 E4.20759
G1 X95.148 Y93.397 E4.45821
G1 X94.675 Y93.344 E4.60061
G1 X94.241 Y93.379 E4.73109
G1 X93.815 Y94.150 E4.99505
G1 X92.848 Y97.900 E6.15551
G1 X91.433 Y103.040 E7.75283
G1 X90.856 Y105.330 E8.46067
G1 X90.085 Y106.402 E8.85636
G1 X89.991 Y106.402 E8.88453
G1 X89.226 Y105.333 E9.27839
G1 X88.745 Y103.435 E9.86515
G1 X86.868 Y96.571 E11.99749
G1 X86.259 Y94.170 E12.73968
G1 X85.814 Y93.383 E13.01065
G1 X85.388 Y93.353 E13.13865
G1 X84.918 Y93.408 E13.28071
G1 X84.523 Y94.153 E13.53321
G1 X83.581 Y97.675 E14.62567
G1 X80.699 Y107.648 E17.73629
G92 E0
G1 Z0.900 F7800.000
G1 X108.992 Y92.352 F7800.000
G1 X108.992 Y99.449 E2.12659 F600.000
G1 X109.902 Y103.796 E3.45730
G92 E0
G1 X119.310 Y106.648 F7800.000
G1 X119.310 Y106.648 F7800.000
G1 X119.346 Y107.648 F7800.000
G1 X119.346 Y101.184 E1.93691 F600.000
G1 X119.164 Y100.316 E2.20250
G1 X119.346 Y99.449 E2.46808
G1 X119.346 Y92.352 E4.59467
G92 E0
G1 X109.027 Y93.352 F7800.000
G1 X108.992 Y93.387 F7800.000
G1 X108.992 Y106.612 F7800.000
G1 X109.027 Y106.648 F7800.000
G1 X108.992 Y107.648 F7800.000
G1 X108.992 Y101.184 E1.93691 F600.000
G1 X109.173 Y100.316 E2.20250
G1 X120.381 Y100.316 E5.56087
G92 E0
G1 X110.027 Y101.184 F7800.000
G1 X110.027 Y101.184 F7800.000
G1 X114.169 Y105.326 F7800.000
G1 X114.169 Y105.507 F7800.000
G1 X112.027 Y107.648 F7800.000
G1 X110.027 Y108.648 F7800.000
G1 X107.956 Y108.648 F7800.000
G1 X105.956 Y107.648 F7800.000
G1 X103.991 Y105.683 F7800.000
G1 X103.111 Y106.860 F7800.000
G1 X100.437 Y107.648 F7800.000
G1 X99.355 Y107.648 F7800.000
G1 X96.570 Y97.917 E3.03301 F600.000
G1 X96.133 Y96.361 E3.51720
G1 X95.542 Y94.134 E4.20759
G1 X95.148 Y93.397 E4.45821
G1 X94.675 Y93.344 E4.60061
G1 X94.241 Y93.379 E4.73109
G1 X93.815 Y94.150 E4.99505
G1 X92.848 Y97.900 E6.15551
G1 X91.433 Y103.040 E7.75282
G1 X90.856 Y105.330 E8.46067
G1 X90.085 Y106.402 E8.85636
G1 X89.991 Y106.402 E8.88453
G1 X89.226 Y105.333 E9.27839
G1 X88.744 Y103.432 E9.86608
G1 X86.868 Y96.571 E11.99749
G1 X86.259 Y94.170 E12.73968
G1 X85.814 Y93.383 E13.01066
G1 X85.388 Y93.353 E13.13865
