; generated by Slic3r 1.2.9 on 2016-03-11 at 01:31:47

; external perimeters extrusion width = 1.54mm
; perimeters extrusion width = 2.62mm
; infill extrusion width = 6.27mm
; solid infill extrusion width = 2.62mm
; top infill extrusion width = 2.62mm

M107
M104 S30 ; set temperature
G28 ; home all axes
G1 Z5 F5000 ; lift nozzle
M302
M92 E10000
M500
M501
G1 E100
M109 S30 ; wait for temperature to be reached
G21 ; set units to millimeters
G90 ; use absolute coordinates
M82 ; use absolute distances for extrusion
G92 E0
G1 Z0.300 F7800.000
G1 X117.773 Y99.032 F7800.000
G1 X117.773 Y107.519 E0.38403 F378.000
G1 X113.210 Y107.519 E0.59050
G1 X113.210 Y106.277 E0.64670
G1 X116.162 Y106.277 E0.78028
G1 X116.162 Y96.973 E1.20127
G1 X116.087 Y96.025 E1.24431
G1 X115.854 Y95.217 E1.28234
G1 X115.457 Y94.566 E1.31686
G1 X114.916 Y94.089 E1.34950
G1 X114.258 Y93.804 E1.38196
G1 X113.496 Y93.710 E1.41668
G1 X112.787 Y93.796 E1.44900
G1 X112.155 Y94.055 E1.47990
G1 X111.611 Y94.484 E1.51127
G1 X111.175 Y95.060 E1.54393
G1 X110.862 Y95.757 E1.57853
G1 X110.721 Y96.352 E1.60618
G1 X109.170 Y96.095 E1.67731
G1 X109.891 Y94.173 E1.77018
G1 X111.344 Y92.911 E1.85725
G1 X113.495 Y92.483 E1.95650
G1 X114.663 Y92.611 E2.00968
G1 X114.732 Y92.618 E2.01280 F378.000
G1 X115.775 Y93.020 E2.06338
G1 X116.626 Y93.686 E2.11228
G1 X117.259 Y94.587 E2.16212
G1 X117.642 Y95.697 E2.21527
G1 X117.773 Y97.036 E2.27613
G1 X117.773 Y98.801 E2.35600
G1 X116.155 Y95.351 F7800.000
G1 X117.505 Y96.701 E2.44410 F540.000
G1 X117.547 Y97.299 E2.47176
G1 X116.324 Y96.077 E2.55154
G1 X116.372 Y96.680 E2.57949
G1 X117.547 Y97.855 E2.65614
G1 X117.547 Y98.411 E2.68180
G1 X116.388 Y97.252 E2.75743
G1 X116.388 Y97.808 E2.78308
G1 X117.547 Y98.967 E2.85871
G1 X117.547 Y99.523 E2.88436
G1 X116.388 Y98.364 E2.95999
G1 X116.388 Y98.920 E2.98565
G1 X117.547 Y100.079 E3.06128
G1 X117.547 Y100.636 E3.08693
G1 X116.388 Y99.476 E3.16256
G1 X116.388 Y100.033 E3.18822
G1 X117.547 Y101.192 E3.26384
G1 X117.547 Y101.748 E3.28950
G1 X116.388 Y100.589 E3.36513
G1 X116.388 Y101.145 E3.39078
G1 X117.547 Y102.304 E3.46641
G1 X117.547 Y102.860 E3.49207
G1 X116.388 Y101.701 E3.56770
G1 X116.388 Y102.257 E3.59335
G1 X117.547 Y103.416 E3.66898
G1 X117.547 Y103.972 E3.69463
G1 X116.388 Y102.813 E3.77026
G1 X116.388 Y103.369 E3.79592
G1 X117.547 Y104.528 E3.87155
G1 X117.547 Y105.084 E3.89720
G1 X116.388 Y103.925 E3.97283
G1 X116.388 Y104.481 E3.99848
G1 X117.547 Y105.640 E4.07411
G1 X117.547 Y106.196 E4.09977
G1 X116.388 Y105.037 E4.17540
G1 X116.388 Y105.593 E4.20105
G1 X117.547 Y106.752 E4.27668
G1 X117.519 Y107.281 E4.30110
G1 X116.388 Y106.149 E4.37493
G1 X116.186 Y106.503 F7800.000
G1 X116.976 Y107.293 E4.42648 F540.000
G1 X116.420 Y107.293 E4.45213
G1 X115.630 Y106.503 E4.50368
G1 X115.073 Y106.503 E4.52934
G1 X115.864 Y107.293 E4.58089
G1 X115.307 Y107.293 E4.60655
G1 X114.517 Y106.503 E4.65810
G1 X113.961 Y106.503 E4.68375
G1 X114.751 Y107.293 E4.73530
G1 X114.195 Y107.293 E4.76096
G1 X113.436 Y106.533 E4.81052
G1 X113.436 Y107.089 E4.83618
G1 X113.639 Y107.293 E4.84946
G92 E0
G1 X116.937 Y96.942 F7800.000
G1 X116.867 Y95.884 F7800.000
G1 X116.864 Y95.867 F7800.000
G1 X116.680 Y95.283 F7800.000
G1 X110.143 Y96.012 F7800.000
G1 X109.615 Y95.484 E0.03447 F540.000
G1 X109.767 Y95.080 E0.05439
G1 X110.608 Y95.921 E0.10927
G1 X110.754 Y95.511 E0.12936
G1 X109.919 Y94.676 E0.18385
G1 X110.085 Y94.286 E0.20340
G1 X110.926 Y95.127 E0.25826
G1 X111.141 Y94.785 E0.27687
G1 X110.369 Y94.013 E0.32724
G1 X110.666 Y93.755 E0.34543
G1 X111.380 Y94.469 E0.39202
G1 X111.664 Y94.197 E0.41017
G1 X110.964 Y93.496 E0.45586
G1 X111.261 Y93.238 E0.47405
G1 X111.975 Y93.951 E0.52060
G1 X112.341 Y93.761 E0.53963
G1 X111.646 Y93.067 E0.58494
G1 X112.110 Y92.975 E0.60676
G1 X112.735 Y93.600 E0.64755
G1 X113.217 Y93.526 E0.67005
G1 X112.574 Y92.882 E0.71202
G1 X113.038 Y92.790 E0.73384
G1 X113.751 Y93.503 E0.78038
G1 X114.385 Y93.581 E0.80984
G1 X113.527 Y92.724 E0.86578
G1 X114.151 Y92.791 E0.89474
G1 X117.445 Y96.085 E1.10963
G1 X117.242 Y95.327 E1.14585
G1 X114.864 Y92.949 E1.30102
G1 X116.187 Y93.715 F7800.000
G1 X116.550 Y94.078 E1.32467 F540.000
G92 E0
G1 X111.241 Y92.702 F7800.000
G1 X107.079 Y93.057 F7800.000
G1 X107.661 Y104.059 F7800.000
G1 X105.495 Y106.956 F7800.000
G1 X100.662 Y108.744 F7800.000
G1 X97.041 Y102.505 F7800.000
G1 X97.047 Y98.527 F7800.000
G1 X97.047 Y98.494 F7800.000
G1 X96.076 Y98.222 F7800.000
G1 X92.517 Y107.519 F7800.000
G1 X91.600 Y107.519 E0.04152 F378.000
G1 X89.119 Y98.651 E0.45819
G1 X88.634 Y96.821 E0.54388
G1 X88.031 Y94.225 E0.66448
G1 X87.593 Y94.225 E0.68428
G1 X87.009 Y96.745 E0.80136
G1 X86.693 Y97.968 E0.85851
G1 X83.990 Y107.519 E1.30765
G1 X82.303 Y107.519 E1.38398
G1 X86.679 Y92.673 E2.08433
G1 X88.812 Y92.673 E2.18082
G1 X90.210 Y97.750 E2.41910
G1 X91.731 Y103.381 E2.68304 F378.000
G1 X92.207 Y105.479 E2.78036
G1 X92.647 Y105.477 E2.80026
G1 X93.206 Y102.987 E2.91572
G1 X93.406 Y102.224 E2.95143
G1 X96.012 Y92.673 E3.39941
G1 X98.144 Y92.673 E3.49588
G1 X102.519 Y107.519 E4.19621
G1 X100.833 Y107.519 E4.27251
G1 X98.247 Y98.205 E4.70990
G1 X97.826 Y96.631 E4.78363
G1 X97.251 Y94.204 E4.89648
G1 X96.816 Y94.211 E4.91615
G1 X96.234 Y96.692 E5.03147
G1 X95.859 Y98.164 E5.10020
G1 X93.242 Y107.519 E5.53976
G1 X92.748 Y107.519 E5.56211
G1 X92.257 Y107.293 F7800.000
G1 X91.619 Y106.655 E5.60355 F540.000
G1 X91.404 Y105.887 E5.64023
G1 X92.810 Y107.293 E5.73162
G1 X93.151 Y107.079 E5.75007
G1 X91.189 Y105.118 E5.87753
G1 X91.911 Y105.286 F7800.000
G1 X90.974 Y104.349 E5.93843 F540.000
G1 X91.586 Y103.853 F7800.000
G1 X90.544 Y102.811 E6.00613 F540.000
G1 X91.194 Y102.355 F7800.000
G1 X90.114 Y101.274 E6.07637 F540.000
G1 X89.898 Y100.505 E6.11305
G1 X90.990 Y101.596 E6.18394
G1 X90.785 Y100.837 E6.22004
G1 X89.683 Y99.736 E6.29160
G1 X89.468 Y98.967 E6.32828
G1 X90.580 Y100.079 E6.40049
G1 X90.375 Y99.320 E6.43659
G1 X89.259 Y98.204 E6.50909
G1 X89.059 Y97.451 E6.54492
G1 X90.170 Y98.561 E6.61710
G1 X89.964 Y97.802 E6.65325
G1 X88.859 Y96.697 E6.72506
G1 X88.690 Y95.974 E6.75915
G1 X89.754 Y97.038 E6.82825
G1 X89.543 Y96.274 E6.86466
G1 X88.523 Y95.253 E6.93097
G1 X88.356 Y94.532 E6.96498
G1 X89.333 Y95.510 E7.02848
G1 X89.122 Y94.745 E7.06490
G1 X87.276 Y92.899 E7.18487
G1 X86.804 Y92.980 E7.20689
G1 X87.822 Y93.999 E7.27306
G1 X87.400 Y94.130 F7800.000
G1 X86.678 Y93.408 E7.32000 F540.000
G1 X86.552 Y93.836 E7.34048
G1 X87.296 Y94.580 E7.38884
G1 X87.192 Y95.030 E7.41005
G1 X86.426 Y94.263 E7.45983
G1 X86.299 Y94.691 E7.48031
G1 X87.088 Y95.479 E7.53152
G1 X86.983 Y95.929 E7.55272
G1 X86.173 Y95.119 E7.60534
G1 X86.047 Y95.546 E7.62583
G1 X86.879 Y96.378 E7.67987
G1 X86.773 Y96.826 E7.70102
G1 X85.921 Y95.974 E7.75638
G1 X85.795 Y96.402 E7.77687
G1 X86.660 Y97.266 E7.83303
G1 X86.546 Y97.706 E7.85391
G1 X85.669 Y96.829 E7.91087
G1 X85.543 Y97.257 E7.93136
G1 X86.429 Y98.143 E7.98891
G1 X86.307 Y98.574 E8.00951
G1 X85.417 Y97.685 E8.06732
G1 X85.291 Y98.112 E8.08780
G1 X86.184 Y99.006 E8.14586
G1 X86.062 Y99.437 E8.16647
G1 X85.165 Y98.540 E8.22478
G1 X85.039 Y98.968 E8.24526
G1 X85.940 Y99.869 E8.30383
G1 X85.818 Y100.301 E8.32444
G1 X84.913 Y99.395 E8.38326
G1 X84.787 Y99.823 E8.40374
G1 X85.696 Y100.732 E8.46282
G1 X85.574 Y101.164 E8.48343
G1 X84.661 Y100.251 E8.54276
G1 X84.535 Y100.678 E8.56324
G1 X85.452 Y101.595 E8.62283
G1 X85.329 Y102.027 E8.64344
G1 X84.408 Y101.106 E8.70328
G1 X84.282 Y101.534 E8.72376
G1 X85.207 Y102.459 E8.78386
G1 X85.085 Y102.890 E8.80447
G1 X84.156 Y101.961 E8.86482
G1 X84.030 Y102.389 E8.88531
G1 X84.963 Y103.322 E8.94591
G1 X84.841 Y103.753 E8.96652
G1 X83.904 Y102.817 E9.02738
G1 X83.778 Y103.244 E9.04787
G1 X84.719 Y104.185 E9.10898
G1 X84.597 Y104.617 E9.12959
G1 X83.652 Y103.672 E9.19096
G1 X83.526 Y104.100 E9.21145
G1 X84.474 Y105.048 E9.27308
G1 X84.352 Y105.480 E9.29368
G1 X83.400 Y104.527 E9.35557
G1 X83.274 Y104.955 E9.37605
G1 X84.230 Y105.911 E9.43819
G1 X84.108 Y106.343 E9.45880
G1 X83.148 Y105.383 E9.52119
G1 X83.022 Y105.810 E9.54167
G1 X83.986 Y106.775 E9.60432
G1 X83.864 Y107.206 E9.62493
G1 X82.896 Y106.238 E9.68783
G1 X82.770 Y106.666 E9.70831
G1 X83.397 Y107.293 E9.74908
G1 X82.843 Y107.293 E9.77452
G1 X82.643 Y107.093 E9.78749
G92 E0
G1 X83.404 Y106.744 F7800.000
G1 X83.404 Y106.744 F7800.000
G1 X90.759 Y103.580 F7800.000
G1 X91.748 Y104.570 E0.06430 F540.000
G1 X92.329 Y105.704 F7800.000
G1 X93.272 Y106.647 E0.12556 F540.000
G1 X93.393 Y106.214 E0.14621
G1 X92.824 Y105.646 E0.18314
G1 X92.926 Y105.193 E0.20443
G1 X93.514 Y105.781 E0.24262
G1 X93.635 Y105.349 E0.26327
G1 X93.027 Y104.741 E0.30272
G1 X93.129 Y104.289 E0.32401
G1 X93.756 Y104.916 E0.36473
G1 X93.231 Y103.837 F7800.000
G1 X93.877 Y104.483 E0.40670 F540.000
G1 X93.998 Y104.050 E0.42735
G1 X93.332 Y103.385 E0.47059
G1 X93.435 Y102.934 F7800.000
G1 X94.119 Y103.618 E0.51500 F540.000
G1 X94.240 Y103.185 E0.53564
G1 X93.550 Y102.495 E0.58047
G1 X93.666 Y102.057 E0.60127
G1 X94.361 Y102.752 E0.64642
G1 X94.482 Y102.320 E0.66706
G1 X93.785 Y101.622 E0.71236
G1 X93.903 Y101.187 E0.73307
G1 X94.603 Y101.887 E0.77852
G1 X94.724 Y101.454 E0.79916
G1 X94.022 Y100.752 E0.84476
G1 X94.141 Y100.317 E0.86547
G1 X94.845 Y101.021 E0.91122
G1 X94.966 Y100.589 E0.93186
G1 X94.260 Y99.882 E0.97775
G1 X94.378 Y99.447 E0.99847
G1 X95.087 Y100.156 E1.04451
G1 X95.208 Y99.723 E1.06516
G1 X94.497 Y99.012 E1.11135
G1 X94.616 Y98.577 E1.13207
G1 X95.329 Y99.291 E1.17841
G1 X95.450 Y98.858 E1.19905
G1 X94.734 Y98.142 E1.24554
G1 X94.853 Y97.707 E1.26626
G1 X95.571 Y98.425 E1.31290
G1 X95.688 Y97.989 E1.33366
G1 X94.972 Y97.272 E1.38022
G1 X95.091 Y96.837 E1.40094
G1 X95.801 Y97.548 E1.44710
G1 X95.913 Y97.106 E1.46802
G1 X95.209 Y96.402 E1.51378
G1 X95.328 Y95.967 E1.53450
G1 X96.025 Y96.665 E1.57982
G1 X96.131 Y96.216 E1.60098
G1 X95.447 Y95.532 E1.64542
G1 X95.565 Y95.097 E1.66614
G1 X96.236 Y95.768 E1.70971
G1 X96.341 Y95.319 E1.73088
G1 X95.684 Y94.662 E1.77357
G1 X95.803 Y94.227 E1.79429
G1 X96.446 Y94.871 E1.83611
G1 X96.552 Y94.422 E1.85728
G1 X95.922 Y93.792 E1.89823
G1 X96.040 Y93.357 E1.91895
G1 X96.672 Y93.988 E1.95997
G1 X97.217 Y93.980 E1.98503
G1 X96.159 Y92.922 E2.05377
G1 X96.690 Y92.899 E2.07818
G1 X98.473 Y94.682 E2.19406
G1 X98.242 Y93.897 F7800.000
G1 X97.243 Y92.899 E2.25892 F540.000
G1 X97.797 Y92.899 E2.28436
G1 X98.010 Y93.112 E2.29822
G1 X97.525 Y94.288 F7800.000
G1 X98.704 Y95.467 E2.37485 F540.000
G1 X98.936 Y96.253 E2.41246
G1 X97.697 Y95.014 E2.49295
G1 X97.869 Y95.740 E2.52722
G1 X99.167 Y97.038 E2.61157
G1 X99.399 Y97.823 E2.64917
G1 X98.041 Y96.465 E2.73738
G1 X98.242 Y97.220 E2.77329
G1 X99.630 Y98.608 E2.86345
G1 X99.861 Y99.393 E2.90105
G1 X98.444 Y97.976 E2.99314
G1 X98.656 Y98.742 E3.02964
G1 X100.093 Y100.178 E3.12299
G1 X100.324 Y100.963 E3.16059
G1 X98.869 Y99.508 E3.25515
G1 X99.082 Y100.275 E3.29170
G1 X100.556 Y101.748 E3.38745
G1 X100.787 Y102.534 E3.42506
G1 X99.295 Y101.041 E3.52202
G1 X99.508 Y101.808 E3.55857
G1 X101.018 Y103.319 E3.65673
G1 X101.250 Y104.104 E3.69434
G1 X99.721 Y102.575 E3.79370
G1 X99.933 Y103.341 E3.83025
G1 X101.481 Y104.889 E3.93081
G1 X101.712 Y105.674 E3.96842
G1 X100.146 Y104.108 E4.07018
G1 X100.359 Y104.875 E4.10674
G1 X101.944 Y106.459 E4.20970
G1 X102.175 Y107.244 E4.24731
G1 X100.572 Y105.641 E4.35147
G1 X100.785 Y106.408 E4.38803
G1 X101.670 Y107.293 E4.44555
G92 E0
G1 X92.792 Y106.252 F7800.000
G1 X92.468 Y106.498 F7800.000
G1 X92.373 Y106.499 F7800.000
G1 X92.049 Y106.254 F7800.000
G1 X91.399 Y103.113 F7800.000
G1 X90.329 Y102.043 E0.06957 F540.000
G1 X88.912 Y93.981 F7800.000
G1 X87.830 Y92.899 E0.13990 F540.000
G1 X88.384 Y92.899 E0.16534
G1 X88.702 Y93.217 E0.18601
M106 S255
G92 E0
G1 Z0.600 F7800.000
G1 X109.794 Y96.426 F7800.000
G1 X110.542 Y94.626 E0.58425 F600.000
G1 X111.211 Y93.931 E0.87318
G1 X111.661 Y93.558 E1.04832
G1 X111.941 Y93.448 E1.13847
G1 X112.748 Y93.220 E1.38992
G1 X113.522 Y93.101 E1.62450
G1 X114.300 Y93.189 E1.85916
G1 X114.579 Y93.245 E1.94452
G1 X115.143 Y93.476 E2.12694
G1 X115.431 Y93.625 E2.22431
G1 X115.898 Y94.013 E2.40605
G1 X116.089 Y94.195 E2.48520
G1 X116.484 Y94.798 E2.70119
G1 X116.568 Y94.940 E2.75057
G1 X116.838 Y95.785 E3.01629
G1 X116.876 Y95.985 E3.07743
G1 X116.967 Y97.075 E3.40516
G1 X116.967 Y106.052 E6.09506
G1 X116.886 Y106.632 E6.27054
G1 X115.937 Y106.898 E6.56584
G1 X112.985 Y106.898 E7.45040
G92 E0
G1 X109.293 Y106.052 F7800.000
G1 X105.495 Y106.956 F7800.000
G1 X102.820 Y107.744 F7800.000
G1 X101.739 Y107.744 F7800.000
G1 X98.954 Y98.013 E3.03301 F600.000
G1 X98.517 Y96.457 E3.51720
G1 X97.925 Y94.230 E4.20759
G1 X97.531 Y93.493 E4.45821
G1 X97.059 Y93.440 E4.60060
G1 X96.625 Y93.475 E4.73109
G1 X96.198 Y94.246 E4.99505
G1 X95.232 Y97.996 E6.15551
G1 X93.816 Y103.136 E7.75283
G1 X93.239 Y105.426 E8.46067
G1 X92.468 Y106.498 E8.85636
G1 X92.374 Y106.498 E8.88453
G1 X91.609 Y105.429 E9.27839
G1 X91.129 Y103.531 E9.86516
G1 X89.251 Y96.667 E11.99749
G1 X88.642 Y94.266 E12.73968
G1 X88.198 Y93.479 E13.01065
G1 X87.772 Y93.449 E13.13865
G1 X87.301 Y93.504 E13.28071
G1 X86.907 Y94.249 E13.53321
G1 X85.964 Y97.771 E14.62567
G1 X83.083 Y107.744 E17.73629
G92 E0
G1 Z0.900 F7800.000
G1 X109.794 Y96.426 F7800.000
G1 X110.542 Y94.626 E0.58425 F600.000
G1 X111.211 Y93.931 E0.87318
G1 X111.661 Y93.558 E1.04832
G1 X111.941 Y93.448 E1.13847
G1 X112.748 Y93.220 E1.38992
G1 X113.522 Y93.101 E1.62450
G1 X114.300 Y93.189 E1.85916
G1 X114.579 Y93.245 E1.94451
G1 X115.143 Y93.476 E2.12694
G1 X115.431 Y93.625 E2.22431
G1 X115.898 Y94.013 E2.40605
G1 X116.089 Y94.195 E2.48520
G1 X116.484 Y94.798 E2.70119
G1 X116.568 Y94.940 E2.75057
G1 X116.838 Y95.785 E3.01629
G1 X116.876 Y95.985 E3.07743
G1 X116.967 Y97.075 E3.40516
G1 X116.967 Y106.052 E6.09506
G1 X116.886 Y106.632 E6.27054
G1 X115.937 Y106.898 E6.56584
G1 X112.985 Y106.898 E7.45040
G92 E0
G1 X109.293 Y106.052 F7800.000
G1 X105.495 Y106.956 F7800.000
G1 X102.820 Y107.744 F7800.000
G1 X101.739 Y107.744 F7800.000
G1 X98.954 Y98.013 E3.03301 F600.000
G1 X98.517 Y96.457 E3.51720
G1 X97.925 Y94.230 E4.20759
G1 X97.531 Y93.493 E4.45821
G1 X97.059 Y93.440 E4.60061
G1 X96.625 Y93.475 E4.73109
G1 X96.198 Y94.246 E4.99505
G1 X95.232 Y97.996 E6.15551
G1 X93.816 Y103.136 E7.75282
G1 X93.239 Y105.426 E8.46067
G1 X92.468 Y106.498 E8.85636
G1 X92.374 Y106.498 E8.88453
G1 X91.609 Y105.429 E9.27839
G1 X91.128 Y103.528 E9.86608
G1 X89.251 Y96.667 E11.99749
G1 X88.642 Y94.266 E12.73968
G1 X88.198 Y93.479 E13.01066
G1 X87.772 Y93.449 E13.13865
G1 X87.301 Y93.504 E13.28071
G1 X86.907 Y94.249 E13.53322
G1 X85.964 Y97.771 E14.62567
G1 X83.083 Y107.744 E17.73630
G92 E0
G1 Z1.200 F7800.000
G1 X109.794 Y96.426 F7800.000
G1 X110.542 Y94.626 E0.58425 F600.000
G1 X111.211 Y93.931 E0.87318
G1 X111.661 Y93.558 E1.04832
G1 X111.941 Y93.448 E1.13847
G1 X112.748 Y93.220 E1.38992
G1 X113.522 Y93.101 E1.62450
G1 X114.300 Y93.189 E1.85916
G1 X114.579 Y93.245 E1.94452
G1 X115.143 Y93.476 E2.12694
G1 X115.431 Y93.625 E2.22431
G1 X115.898 Y94.013 E2.40605
G1 X116.089 Y94.195 E2.48520
G1 X116.484 Y94.798 E2.70119
G1 X116.568 Y94.940 E2.75057
G1 X116.838 Y95.785 E3.01629
G1 X116.876 Y95.985 E3.07743
G1 X116.967 Y97.075 E3.40516
G1 X116.967 Y106.052 E6.09506
G1 X116.886 Y106.632 E6.27054
G1 X115.937 Y106.898 E6.56584
G1 X112.985 Y106.898 E7.45040
G92 E0
G1 X109.293 Y106.052 F7800.000
G1 X105.495 Y106.956 F7800.000
G1 X102.820 Y107.744 F7800.000
G1 X101.739 Y107.744 F7800.000
G1 X98.954 Y98.013 E3.03301 F600.000
G1 X98.517 Y96.457 E3.51720
G1 X97.925 Y94.230 E4.20759
G1 X97.531 Y93.493 E4.45821
G1 X97.059 Y93.440 E4.60061
G1 X96.625 Y93.475 E4.73109
G1 X96.198 Y94.246 E4.99505
G1 X95.232 Y97.996 E6.15551
G1 X93.816 Y103.136 E7.75282
G1 X93.239 Y105.426 E8.46067
G1 X92.468 Y106.498 E8.85636
G1 X92.374 Y106.498 E8.88453
G1 X91.609 Y105.429 E9.27839
G1 X91.128 Y103.528 E9.86608
G1 X89.250 Y96.667 E11.99749
G1 X88.642 Y94.266 E12.73968
G1 X88.198 Y93.479 E13.01066
G1 X87.772 Y93.449 E13.13865
G1 X87.301 Y93.504 E13.28071
G1 X86.907 Y94.249 E13.53322
G1 X85.964 Y97.771 E14.62568
G1 X83.083 Y107.744 E17.73630
G92 E0
G1 Z1.500 F7800.000
