; generated by Slic3r 1.2.9 on 2016-03-11 at 01:31:49

; external perimeters extrusion width = 1.54mm
; perimeters extrusion width = 2.62mm
; infill extrusion width = 6.27mm
; solid infill extrusion width = 2.62mm
; top infill extrusion width = 2.62mm

M107
M104 S30 ; set temperature
G28 ; home all axes
G1 Z5 F5000 ; lift nozzle
M302
M92 E10000
M500
M501
G1 E100
M109 S30 ; wait for temperature to be reached
G21 ; set units to millimeters
G90 ; use absolute coordinates
M82 ; use absolute distances for extrusion
G92 E0
G1 Z0.300 F7800.000
G1 X111.117 Y104.776 F7800.000
G1 X111.117 Y107.423 E0.11977 F378.000
G1 X109.496 Y107.423 E0.19312
G1 X109.496 Y92.577 E0.86489
G1 X118.839 Y92.577 E1.28765
G1 X118.839 Y93.819 E1.34385
G1 X111.117 Y93.819 E1.69327 F378.000
G1 X111.117 Y104.545 E2.17862
G1 X109.925 Y107.197 F7800.000
G1 X109.722 Y106.993 E2.19195 F540.000
G1 X109.722 Y106.435 E2.21778
G1 X110.483 Y107.197 E2.26765
G1 X110.891 Y107.047 E2.28776
G1 X109.722 Y105.877 E2.36431
G1 X109.722 Y105.319 E2.39014
G1 X110.891 Y106.489 E2.46669
G1 X110.891 Y105.931 E2.49253
G1 X109.722 Y104.761 E2.56907
G1 X109.722 Y104.203 E2.59491
G1 X110.891 Y105.373 E2.67146
G1 X110.891 Y104.815 E2.69729
G1 X109.722 Y103.645 E2.77384
G1 X109.722 Y103.087 E2.79968
G1 X110.891 Y104.257 E2.87622
G1 X110.891 Y103.699 E2.90206
G1 X109.722 Y102.529 E2.97861
G1 X109.722 Y101.971 E3.00444
G1 X110.891 Y103.141 E3.08099
G1 X110.891 Y102.583 E3.10683
G1 X109.722 Y101.413 E3.18337
G1 X109.722 Y100.855 E3.20921
G1 X110.891 Y102.025 E3.28576
G1 X110.891 Y101.467 E3.31159
G1 X109.722 Y100.297 E3.38814
G1 X109.722 Y99.739 E3.41398
G1 X110.891 Y100.909 E3.49052
G1 X110.891 Y100.351 E3.51636
G1 X109.722 Y99.181 E3.59291
G1 X109.722 Y98.623 E3.61874
G1 X110.891 Y99.793 E3.69529
G1 X110.891 Y99.235 E3.72113
G1 X109.722 Y98.065 E3.79767
G1 X109.722 Y97.507 E3.82351
G1 X110.891 Y98.677 E3.90006
G1 X110.891 Y98.119 E3.92589
G1 X109.722 Y96.949 E4.00244
G1 X109.722 Y96.391 E4.02828
G1 X110.891 Y97.561 E4.10482
G1 X110.891 Y97.003 E4.13066
G1 X109.722 Y95.833 E4.20721
G1 X109.722 Y95.275 E4.23304
G1 X110.891 Y96.445 E4.30959
G1 X110.891 Y95.887 E4.33543
G1 X109.722 Y94.717 E4.41197
G1 X109.722 Y94.159 E4.43781
G1 X110.891 Y95.329 E4.51436
G1 X110.891 Y94.771 E4.54019
G1 X109.722 Y93.601 E4.61674
G1 X109.722 Y93.043 E4.64258
G1 X110.891 Y94.213 E4.71912
G1 X110.891 Y93.655 E4.74496
G1 X110.039 Y92.803 E4.80072
G1 X110.597 Y92.803 E4.82656
G1 X111.387 Y93.593 E4.87829
G1 X111.945 Y93.593 E4.90412
G1 X111.155 Y92.803 E4.95585
G1 X111.713 Y92.803 E4.98169
G1 X112.503 Y93.593 E5.03342
G1 X113.061 Y93.593 E5.05926
G1 X112.271 Y92.803 E5.11099
G1 X112.829 Y92.803 E5.13682
G1 X113.619 Y93.593 E5.18855
G1 X114.177 Y93.593 E5.21439
G1 X113.387 Y92.803 E5.26612
G1 X113.945 Y92.803 E5.29196
G1 X114.735 Y93.593 E5.34369
G1 X115.293 Y93.593 E5.36952
G1 X114.503 Y92.803 E5.42125
G1 X115.061 Y92.803 E5.44709
G1 X115.851 Y93.593 E5.49882
G1 X116.409 Y93.593 E5.52466
G1 X115.619 Y92.803 E5.57639
G1 X116.177 Y92.803 E5.60222
G1 X116.967 Y93.593 E5.65395
G1 X117.525 Y93.593 E5.67979
G1 X116.735 Y92.803 E5.73152
G1 X117.293 Y92.803 E5.75736
G1 X118.083 Y93.593 E5.80909
G1 X118.613 Y93.565 E5.83364
G1 X117.851 Y92.803 E5.88351
G1 X118.409 Y92.803 E5.90934
G1 X118.613 Y93.007 E5.92267
G92 E0
G1 X109.271 Y92.352 F7800.000
G1 X107.271 Y92.352 F7800.000
G1 X98.742 Y91.911 F7800.000
G1 X97.246 Y92.352 F7800.000
G1 X98.458 Y97.261 F7800.000
G1 X101.453 Y107.423 E0.47937 F378.000
G1 X99.767 Y107.423 E0.55567
G1 X97.181 Y98.109 E0.99305
G1 X96.760 Y96.535 E1.06678
G1 X96.185 Y94.108 E1.17963
G1 X95.750 Y94.115 E1.19931
G1 X95.168 Y96.596 E1.31463
G1 X94.793 Y98.068 E1.38336
G1 X92.176 Y107.423 E1.82291
G1 X90.534 Y107.423 E1.89724
G1 X88.053 Y98.555 E2.31391
G1 X87.568 Y96.725 E2.39960
G1 X86.965 Y94.129 E2.52020
G1 X86.527 Y94.129 E2.54000
G1 X85.943 Y96.649 E2.65708
G1 X85.627 Y97.872 E2.71423
G1 X82.924 Y107.423 E3.16337
G1 X81.237 Y107.423 E3.23970
G1 X85.613 Y92.577 E3.94005
G1 X87.746 Y92.577 E4.03654
G1 X89.144 Y97.654 E4.27482
G1 X90.665 Y103.285 E4.53876 F378.000
G1 X91.141 Y105.383 E4.63608
G1 X91.581 Y105.381 E4.65598
G1 X92.140 Y102.891 E4.77144
G1 X92.340 Y102.128 E4.80715
G1 X94.946 Y92.577 E5.25513
G1 X97.078 Y92.577 E5.35160
G1 X98.393 Y97.040 E5.56211
G1 X97.407 Y94.586 F7800.000
G1 X95.624 Y92.803 E5.67799 F540.000
G1 X95.093 Y92.826 E5.70239
G1 X96.151 Y93.884 E5.77114
G1 X95.606 Y93.892 E5.79620
G1 X94.974 Y93.261 E5.83722
G1 X94.856 Y93.696 E5.85794
G1 X95.486 Y94.326 E5.89889
G1 X95.380 Y94.775 E5.92005
G1 X94.737 Y94.131 E5.96188
G1 X94.618 Y94.566 E5.98260
G1 X95.275 Y95.223 E6.02529
G1 X95.170 Y95.672 E6.04646
G1 X94.499 Y95.001 E6.09003
G1 X94.381 Y95.436 E6.11074
G1 X95.065 Y96.120 E6.15519
G1 X94.959 Y96.569 E6.17635
G1 X94.262 Y95.871 E6.22167
G1 X94.143 Y96.306 E6.24239
G1 X94.847 Y97.010 E6.28814
G1 X94.735 Y97.452 E6.30906
G1 X94.025 Y96.741 E6.35523
G1 X93.906 Y97.176 E6.37595
G1 X94.622 Y97.893 E6.42251
G1 X94.505 Y98.329 E6.44327
G1 X93.787 Y97.611 E6.48991
G1 X93.668 Y98.046 E6.51063
G1 X94.384 Y98.762 E6.55712
G1 X94.263 Y99.195 E6.57776
G1 X93.550 Y98.481 E6.62410
G1 X93.431 Y98.916 E6.64482
G1 X94.142 Y99.627 E6.69101
G1 X94.021 Y100.060 E6.71166
G1 X93.312 Y99.351 E6.75770
G1 X93.194 Y99.786 E6.77841
G1 X93.900 Y100.493 E6.82431
G1 X93.779 Y100.925 E6.84495
G1 X93.075 Y100.221 E6.89069
G1 X92.956 Y100.656 E6.91141
G1 X93.658 Y101.358 E6.95701
G1 X93.537 Y101.791 E6.97765
G1 X92.837 Y101.091 E7.02309
G1 X92.719 Y101.526 E7.04381
G1 X93.416 Y102.224 E7.08911
G1 X93.295 Y102.656 E7.10975
G1 X92.600 Y101.961 E7.15489
G1 X92.484 Y102.399 E7.17569
G1 X93.174 Y103.089 E7.22052
G1 X93.053 Y103.522 E7.24117
G1 X92.369 Y102.838 E7.28558
G1 X92.266 Y103.289 F7800.000
G1 X92.932 Y103.954 E7.32882 F540.000
G1 X92.811 Y104.387 E7.34946
G1 X92.165 Y103.741 E7.39144
G1 X92.690 Y104.820 F7800.000
G1 X92.063 Y104.193 E7.43216 F540.000
G1 X91.961 Y104.645 E7.45345
G1 X92.569 Y105.253 E7.49290
G1 X92.448 Y105.685 E7.51355
G1 X91.860 Y105.098 E7.55174
G1 X91.758 Y105.550 E7.57303
G1 X92.327 Y106.118 E7.60996
G1 X92.206 Y106.551 E7.63060
G1 X91.263 Y105.608 E7.69187
G1 X90.845 Y105.190 F7800.000
G1 X89.908 Y104.253 E7.75276 F540.000
G1 X90.520 Y103.757 F7800.000
G1 X89.478 Y102.715 E7.82047 F540.000
G1 X90.128 Y102.259 F7800.000
G1 X89.048 Y101.178 E7.89070 F540.000
G1 X88.832 Y100.409 E7.92738
G1 X89.924 Y101.500 E7.99827
G1 X89.719 Y100.741 E8.03438
G1 X88.617 Y99.640 E8.10593
G1 X88.402 Y98.871 E8.14261
G1 X89.514 Y99.983 E8.21482
G1 X89.309 Y99.224 E8.25093
G1 X88.193 Y98.108 E8.32343
G1 X87.993 Y97.355 E8.35925
G1 X89.104 Y98.465 E8.43144
G1 X88.898 Y97.706 E8.46759
G1 X87.793 Y96.601 E8.53939
G1 X87.624 Y95.878 E8.57348
G1 X88.688 Y96.942 E8.64258
G1 X88.477 Y96.178 E8.67900
G1 X87.457 Y95.157 E8.74530
G1 X87.290 Y94.436 E8.77931
G1 X88.267 Y95.414 E8.84282
G1 X88.056 Y94.649 E8.87923
G1 X86.210 Y92.803 E8.99921
G1 X85.738 Y92.884 E9.02123
G1 X86.756 Y93.903 E9.08739
G1 X86.334 Y94.034 F7800.000
G1 X85.612 Y93.312 E9.13433 F540.000
G1 X85.486 Y93.740 E9.15482
G1 X86.230 Y94.484 E9.20318
G1 X86.126 Y94.934 E9.22438
G1 X85.360 Y94.167 E9.27416
G1 X85.233 Y94.595 E9.29465
G1 X86.022 Y95.383 E9.34585
G1 X85.917 Y95.833 E9.36705
G1 X85.107 Y95.023 E9.41967
G1 X84.981 Y95.450 E9.44016
G1 X85.813 Y96.282 E9.49420
G1 X85.707 Y96.730 E9.51535
G1 X84.855 Y95.878 E9.57072
G1 X84.729 Y96.306 E9.59120
G1 X85.594 Y97.170 E9.64736
G1 X85.480 Y97.610 E9.66824
G1 X84.603 Y96.733 E9.72521
G1 X84.477 Y97.161 E9.74569
G1 X85.363 Y98.047 E9.80324
G1 X85.241 Y98.478 E9.82385
G1 X84.351 Y97.589 E9.88165
G1 X84.225 Y98.016 E9.90213
G1 X85.118 Y98.910 E9.96019
G1 X84.996 Y99.341 E9.98080
G1 X84.099 Y98.444 E10.03911
G1 X83.973 Y98.872 E10.05960
G1 X84.874 Y99.773 E10.11816
G1 X84.752 Y100.205 E10.13877
G1 X83.847 Y99.299 E10.19759
G1 X83.721 Y99.727 E10.21808
G1 X84.630 Y100.636 E10.27715
G1 X84.508 Y101.068 E10.29776
G1 X83.595 Y100.155 E10.35709
G1 X83.469 Y100.582 E10.37758
G1 X84.386 Y101.499 E10.43716
G1 X84.263 Y101.931 E10.45777
G1 X83.342 Y101.010 E10.51761
G1 X83.216 Y101.438 E10.53810
G1 X84.141 Y102.363 E10.59819
G1 X84.019 Y102.794 E10.61880
G1 X83.090 Y101.865 E10.67915
G1 X82.964 Y102.293 E10.69964
G1 X83.897 Y103.226 E10.76025
G1 X83.775 Y103.657 E10.78085
G1 X82.838 Y102.721 E10.84172
G1 X82.712 Y103.148 E10.86220
G1 X83.653 Y104.089 E10.92332
G1 X83.531 Y104.521 E10.94393
G1 X82.586 Y103.576 E11.00530
G1 X82.460 Y104.004 E11.02578
G1 X83.408 Y104.952 E11.08741
G1 X83.286 Y105.384 E11.10802
G1 X82.334 Y104.431 E11.16990
G1 X82.208 Y104.859 E11.19038
G1 X83.164 Y105.815 E11.25252
G1 X83.042 Y106.247 E11.27313
G1 X82.082 Y105.287 E11.33552
G1 X81.956 Y105.714 E11.35601
G1 X82.920 Y106.679 E11.41865
G1 X82.798 Y107.110 E11.43926
G1 X81.830 Y106.142 E11.50216
G1 X81.704 Y106.570 E11.52265
G1 X82.331 Y107.197 E11.56341
G1 X81.777 Y107.197 E11.58885
G1 X81.577 Y106.997 E11.60183
G92 E0
G1 X82.338 Y106.648 F7800.000
G1 X82.338 Y106.648 F7800.000
G1 X90.123 Y105.022 F7800.000
G1 X92.085 Y106.983 E0.12746 F540.000
G1 X91.744 Y107.197 E0.14592
G1 X90.338 Y105.791 E0.23731
G1 X90.553 Y106.559 E0.27399
G1 X91.191 Y107.197 E0.31542
G1 X90.682 Y104.474 F7800.000
G1 X89.693 Y103.484 E0.37972 F540.000
G1 X90.333 Y103.017 F7800.000
G1 X89.263 Y101.947 E0.44930 F540.000
G1 X87.846 Y93.885 F7800.000
G1 X86.764 Y92.803 E0.51962 F540.000
G1 X87.318 Y92.803 E0.54506
G1 X87.636 Y93.121 E0.56573
G92 E0
G1 X87.156 Y93.353 F7800.000
G1 X87.156 Y93.353 F7800.000
G1 X96.459 Y94.192 F7800.000
G1 X97.638 Y95.371 E0.07663 F540.000
G1 X97.870 Y96.157 E0.11424
G1 X96.631 Y94.918 E0.19473
G1 X96.803 Y95.644 E0.22900
G1 X98.101 Y96.942 E0.31335
G1 X98.333 Y97.727 E0.35096
G1 X96.975 Y96.369 E0.43917
G1 X97.176 Y97.124 E0.47507
G1 X98.564 Y98.512 E0.56523
G1 X98.795 Y99.297 E0.60284
G1 X97.378 Y97.880 E0.69492
G1 X97.590 Y98.646 E0.73142
G1 X99.027 Y100.082 E0.82477
G1 X99.258 Y100.867 E0.86238
G1 X97.803 Y99.412 E0.95693
G1 X98.016 Y100.179 E0.99349
G1 X99.490 Y101.652 E1.08924
G1 X99.721 Y102.438 E1.12685
G1 X98.229 Y100.945 E1.22380
G1 X98.442 Y101.712 E1.26036
G1 X99.952 Y103.223 E1.35851
G1 X100.184 Y104.008 E1.39612
G1 X98.655 Y102.479 E1.49548
G1 X98.867 Y103.245 E1.53204
G1 X100.415 Y104.793 E1.63260
G1 X100.646 Y105.578 E1.67020
G1 X99.080 Y104.012 E1.77197
G1 X99.293 Y104.779 E1.80852
G1 X100.878 Y106.363 E1.91149
G1 X101.109 Y107.148 E1.94909
G1 X99.506 Y105.545 E2.05326
G1 X99.719 Y106.312 E2.08981
G1 X100.604 Y107.197 E2.14733
G1 X97.176 Y93.801 F7800.000
G1 X96.177 Y92.803 E2.21220 F540.000
G1 X96.731 Y92.803 E2.23764
G1 X96.944 Y93.016 E2.25149
M106 S255
G92 E0
G1 Z0.600 F7800.000
G1 X110.306 Y107.648 F7800.000
G1 X110.306 Y94.044 E4.07639 F600.000
G1 X110.386 Y93.468 E4.25074
G1 X111.342 Y93.198 E4.54819
G1 X119.064 Y93.198 E6.86205
G92 E0
G1 X111.342 Y94.044 F7800.000
G1 X111.342 Y94.044 F7800.000
G1 X116.203 Y98.905 F7800.000
G1 X116.203 Y104.787 F7800.000
G1 X113.342 Y107.648 F7800.000
G1 X111.342 Y108.648 F7800.000
G1 X109.271 Y108.648 F7800.000
G1 X107.271 Y107.648 F7800.000
G1 X105.307 Y105.685 F7800.000
G1 X104.429 Y106.860 F7800.000
G1 X101.754 Y107.648 F7800.000
G1 X100.673 Y107.648 F7800.000
G1 X97.888 Y97.917 E3.03301 F600.000
G1 X97.451 Y96.361 E3.51720
G1 X96.859 Y94.134 E4.20759
G1 X96.465 Y93.397 E4.45821
G1 X95.993 Y93.344 E4.60061
G1 X95.559 Y93.379 E4.73109
G1 X95.132 Y94.150 E4.99505
G1 X94.166 Y97.900 E6.15551
G1 X92.750 Y103.040 E7.75283
G1 X92.173 Y105.330 E8.46067
G1 X91.402 Y106.402 E8.85636
G1 X91.308 Y106.402 E8.88453
G1 X90.543 Y105.333 E9.27839
G1 X90.063 Y103.435 E9.86515
G1 X88.185 Y96.571 E11.99749
G1 X87.576 Y94.170 E12.73968
G1 X87.132 Y93.383 E13.01065
G1 X86.706 Y93.353 E13.13865
G1 X86.235 Y93.408 E13.28071
G1 X85.841 Y94.153 E13.53321
G1 X84.898 Y97.675 E14.62567
G1 X82.017 Y107.648 E17.73629
G92 E0
G1 Z0.900 F7800.000
G1 X110.306 Y107.648 F7800.000
G1 X110.306 Y94.044 E4.07639 F600.000
G1 X110.386 Y93.468 E4.25074
G1 X111.342 Y93.198 E4.54819
G1 X119.064 Y93.198 E6.86205
G92 E0
G1 X111.342 Y94.044 F7800.000
G1 X111.342 Y94.044 F7800.000
G1 X116.203 Y98.905 F7800.000
G1 X116.203 Y104.787 F7800.000
G1 X113.342 Y107.648 F7800.000
G1 X111.342 Y108.648 F7800.000
G1 X109.271 Y108.648 F7800.000
G1 X107.271 Y107.648 F7800.000
G1 X105.307 Y105.685 F7800.000
G1 X104.429 Y106.860 F7800.000
G1 X101.754 Y107.648 F7800.000
G1 X100.673 Y107.648 F7800.000
G1 X97.888 Y97.917 E3.03301 F600.000
G1 X97.451 Y96.361 E3.51720
G1 X96.859 Y94.134 E4.20759
G1 X96.465 Y93.397 E4.45821
G1 X95.993 Y93.344 E4.60061
G1 X95.559 Y93.379 E4.73109
G1 X95.132 Y94.150 E4.99505
G1 X94.166 Y97.900 E6.15551
G1 X92.750 Y103.040 E7.75282
G1 X92.173 Y105.330 E8.46067
G1 X91.402 Y106.402 E8.85636
G1 X91.308 Y106.402 E8.88453
G1 X90.543 Y105.333 E9.27839
G1 X90.062 Y103.432 E9.86608
G1 X88.185 Y96.571 E11.99749
G1 X87.576 Y94.170 E12.73968
G1 X87.132 Y93.383 E13.01066
G1 X86.706 Y93.353 E13.13865
G1 X86.235 Y93.408 E13.28071
G1 X85.841 Y94.153 E13.53322
G1 X84.898 Y97.675 E14.62567
G1 X82.017 Y107.648 E17.73630
G92 E0
G1 Z1.200 F7800.000
G1 X110.306 Y107.648 F7800.000
G1 X110.306 Y94.044 E4.07639 F600.000
G1 X110.386 Y93.468 E4.25074
G1 X111.342 Y93.198 E4.54819
G1 X119.064 Y93.198 E6.86205
G92 E0
G1 X111.342 Y94.044 F7800.000
G1 X111.342 Y94.044 F7800.000
G1 X116.203 Y98.905 F7800.000
G1 X116.203 Y104.787 F7800.000
G1 X113.342 Y107.648 F7800.000
G1 X111.342 Y108.648 F7800.000
G1 X109.271 Y108.648 F7800.000
G1 X107.271 Y107.648 F7800.000
G1 X105.307 Y105.685 F7800.000
G1 X104.429 Y106.860 F7800.000
G1 X101.754 Y107.648 F7800.000
G1 X100.673 Y107.648 F7800.000
G1 X97.888 Y97.917 E3.03301 F600.000
G1 X97.451 Y96.361 E3.51720
G1 X96.859 Y94.134 E4.20759
G1 X96.465 Y93.397 E4.45821
G1 X95.993 Y93.344 E4.60061
G1 X95.559 Y93.379 E4.73109
G1 X95.132 Y94.150 E4.99505
G1 X94.166 Y97.900 E6.15551
G1 X92.750 Y103.040 E7.75282
G1 X92.173 Y105.330 E8.46067
G1 X91.402 Y106.402 E8.85636
G1 X91.308 Y106.402 E8.88453
G1 X90.543 Y105.333 E9.27839
G1 X90.062 Y103.432 E9.86608
G1 X88.184 Y96.571 E11.99749
G1 X87.576 Y94.170 E12.73968
G1 X87.132 Y93.383 E13.01066
G1 X86.706 Y93.353 E13.13865
G1 X86.235 Y93.408 E13.28071
G1 X85.841 Y94.153 E13.53322
G1 X84.898 Y97.675 E14.62568
G1 X82.017 Y107.648 E17.73630
G92 E0
G1 Z1.500 F7800.000
G1 X110.306 Y107.648 F7800.000
G1 X110.306 Y94.044 E4.07639 F600.000
G1 X110.386 Y93.468 E4.25074
G1 X111.342 Y93.198 E4.54819
G1 X119.064 Y93.198 E6.86205
G92 E0
G1 X111.342 Y94.044 F7800.000
G1 X111.342 Y94.044 F7800.000
G1 X116.203 Y98.905 F7800.000
G1 X116.203 Y104.787 F7800.000
G1 X113.342 Y107.648 F7800.000
G1 X111.342 Y108.648 F7800.000
G1 X109.271 Y108.648 F7800.000
G1 X107.271 Y107.648 F7800.000
G1 X105.307 Y105.685 F7800.000
G1 X104.429 Y106.860 F7800.000
G1 X101.754 Y107.648 F7800.000
G1 X100.673 Y107.648 F7800.000
G1 X97.888 Y97.917 E3.03301 F600.000
G1 X97.451 Y96.361 E3.51720
G1 X96.859 Y94.134 E4.20759
G1 X96.465 Y93.397 E4.45821
G1 X95.993 Y93.344 E4.60061
G1 X95.559 Y93.379 E4.73109
G1 X95.132 Y94.150 E4.99505
G1 X94.166 Y97.900 E6.15551
G1 X92.750 Y103.040 E7.75282
G1 X92.173 Y105.330 E8.46067
G1 X91.402 Y106.402 E8.85636
G1 X91.308 Y106.402 E8.88452
G1 X90.543 Y105.333 E9.27839
G1 X90.062 Y103.432 E9.86608
G1 X88.184 Y96.571 E11.99749
G1 X87.576 Y94.170 E12.73968
G1 X87.132 Y93.383 E13.01066
G1 X86.706 Y93.353 E13.13866
G1 X86.235 Y93.408 E13.28071
G1 X85.841 Y94.153 E13.53322
G1 X84.898 Y97.675 E14.62568
G1 X82.017 Y107.648 E17.73630
G92 E0
G1 Z1.800 F7800.000
G1 X110.306 Y107.648 F7800.000
G1 X110.306 Y94.044 E4.07639 F600.000
G1 X110.386 Y93.468 E4.25074
G1 X111.342 Y93.198 E4.54819
G1 X119.064 Y93.198 E6.86205
G92 E0
G1 X111.342 Y94.044 F7800.000
G1 X111.342 Y94.044 F7800.000
G1 X116.203 Y98.905 F7800.000
G1 X116.203 Y104.787 F7800.000
G1 X113.342 Y107.648 F7800.000
G1 X111.342 Y108.648 F7800.000
G1 X109.271 Y108.648 F7800.000
G1 X107.271 Y107.648 F7800.000
G1 X105.307 Y105.685 F7800.000
G1 X104.429 Y106.860 F7800.000
G1 X101.754 Y107.648 F7800.000
G1 X100.673 Y107.648 F7800.000
G1 X97.888 Y97.917 E3.03301 F600.000
G1 X97.451 Y96.361 E3.51720
