; generated by Slic3r 1.2.9 on 2016-03-11 at 01:31:51

; external perimeters extrusion width = 1.54mm
; perimeters extrusion width = 2.62mm
; infill extrusion width = 6.27mm
; solid infill extrusion width = 2.62mm
; top infill extrusion width = 2.62mm

M107
M104 S30 ; set temperature
G28 ; home all axes
G1 Z5 F5000 ; lift nozzle
M302
M92 E10000
M500
M501
G1 E100
M109 S30 ; wait for temperature to be reached
G21 ; set units to millimeters
G90 ; use absolute coordinates
M82 ; use absolute distances for extrusion
G92 E0
G1 Z0.300 F7800.000
G1 X120.156 Y99.148 F7800.000
G1 X120.156 Y107.423 E0.37442 F378.000
G1 X118.741 Y107.423 E0.43844
G1 X118.741 Y97.618 E0.88211
G1 X118.756 Y96.856 E0.91659
G1 X118.871 Y94.524 E1.02225
G1 X118.467 Y94.395 E1.04145
G1 X110.239 Y107.423 E1.73868
G1 X108.181 Y107.423 E1.83180
G1 X108.181 Y92.577 E2.50357
G1 X109.574 Y92.577 E2.56660
G1 X109.574 Y102.512 E3.01614
G1 X109.520 Y104.320 E3.09800 F378.000
G1 X109.466 Y105.392 E3.14655
G1 X109.871 Y105.520 E3.16577
G1 X118.012 Y92.577 E3.85764
G1 X120.156 Y92.577 E3.95469
G1 X120.156 Y98.917 E4.24159
G1 X119.074 Y94.923 F7800.000
G1 X119.930 Y95.779 E4.29735 F540.000
G1 X119.930 Y96.334 E4.32286
G1 X119.047 Y95.451 E4.38032
G1 X119.021 Y95.979 E4.40466
G1 X119.930 Y96.889 E4.46382
G1 X119.930 Y97.443 E4.48934
G1 X118.995 Y96.508 E4.55019
G1 X118.977 Y97.044 E4.57487
G1 X119.930 Y97.998 E4.63693
G1 X119.930 Y98.552 E4.66245
G1 X118.967 Y97.589 E4.72512
G1 X118.967 Y98.144 E4.75064
G1 X119.930 Y99.107 E4.81331
G1 X119.930 Y99.661 E4.83883
G1 X118.967 Y98.698 E4.90150
G1 X118.967 Y99.253 E4.92702
G1 X119.930 Y100.216 E4.98969
G1 X119.930 Y100.770 E5.01521
G1 X118.967 Y99.807 E5.07788
G1 X118.967 Y100.362 E5.10340
G1 X119.930 Y101.325 E5.16607
G1 X119.930 Y101.880 E5.19159
G1 X118.967 Y100.917 E5.25426
G1 X118.967 Y101.471 E5.27978
G1 X119.930 Y102.434 E5.34245
G1 X119.930 Y102.989 E5.36797
G1 X118.967 Y102.026 E5.43064
G1 X118.967 Y102.580 E5.45616
G1 X119.930 Y103.543 E5.51883
G1 X119.930 Y104.098 E5.54435
G1 X118.967 Y103.135 E5.60702
G1 X118.967 Y103.689 E5.63254
G1 X119.930 Y104.652 E5.69521
G1 X119.930 Y105.207 E5.72073
G1 X118.967 Y104.244 E5.78340
G1 X118.967 Y104.798 E5.80891
G1 X119.930 Y105.762 E5.87159
G1 X119.930 Y106.316 E5.89710
G1 X118.967 Y105.353 E5.95978
G1 X118.967 Y105.908 E5.98529
G1 X119.930 Y106.871 E6.04797
G1 X119.702 Y107.197 E6.06629
G1 X118.967 Y106.462 E6.11411
G1 X118.967 Y107.017 E6.13963
G1 X119.148 Y107.197 E6.15136
G92 E0
G1 X109.988 Y106.370 F7800.000
G1 X109.714 Y106.470 F7800.000
G1 X109.212 Y106.392 F7800.000
G1 X108.956 Y106.043 F7800.000
G1 X109.260 Y105.073 F7800.000
G1 X108.407 Y104.221 E0.05547 F540.000
G1 X108.407 Y103.666 E0.08099
G1 X109.287 Y104.546 E0.13822
G1 X109.306 Y104.010 E0.16287
G1 X108.407 Y103.112 E0.22135
G1 X108.407 Y102.557 E0.24687
G1 X109.322 Y103.472 E0.30640
G1 X109.338 Y102.933 E0.33119
G1 X108.407 Y102.002 E0.39176
G1 X108.407 Y101.448 E0.41728
G1 X109.348 Y102.389 E0.47852
G1 X109.348 Y101.834 E0.50404
G1 X108.407 Y100.893 E0.56528
G1 X108.407 Y100.339 E0.59080
G1 X109.348 Y101.280 E0.65204
G1 X109.348 Y100.725 E0.67756
G1 X108.407 Y99.784 E0.73880
G1 X108.407 Y99.230 E0.76431
G1 X109.348 Y100.171 E0.82555
G1 X109.348 Y99.616 E0.85107
G1 X108.407 Y98.675 E0.91231
G1 X108.407 Y98.120 E0.93783
G1 X109.348 Y99.062 E0.99907
G1 X109.348 Y98.507 E1.02459
G1 X108.407 Y97.566 E1.08583
G1 X108.407 Y97.011 E1.11134
G1 X109.348 Y97.952 E1.17259
G1 X109.348 Y97.398 E1.19810
G1 X108.407 Y96.457 E1.25934
G1 X108.407 Y95.902 E1.28486
G1 X109.348 Y96.843 E1.34610
G1 X109.348 Y96.289 E1.37162
G1 X108.407 Y95.348 E1.43286
G1 X108.407 Y94.793 E1.45838
G1 X109.348 Y95.734 E1.51962
G1 X109.348 Y95.180 E1.54513
G1 X108.407 Y94.238 E1.60637
G1 X108.407 Y93.684 E1.63189
G1 X109.348 Y94.625 E1.69313
G1 X109.348 Y94.070 E1.71865
G1 X108.407 Y93.129 E1.77989
G1 X108.635 Y92.803 E1.79821
G1 X109.348 Y93.516 E1.84461
G92 E0
G1 X118.324 Y93.535 F7800.000
G1 X118.505 Y93.470 F7800.000
G1 X119.161 Y93.572 F7800.000
G1 X119.381 Y93.352 F7800.000
G1 X119.930 Y93.007 F7800.000
G1 X119.727 Y92.803 E0.01325 F540.000
G1 X119.172 Y92.803 E0.03877
G1 X119.930 Y93.561 E0.08810
G1 X119.930 Y94.116 E0.11362
G1 X118.618 Y92.803 E0.19905
G1 X118.086 Y92.825 E0.22355
G1 X119.930 Y94.670 E0.34359
G1 X119.930 Y95.225 E0.36911
G1 X117.871 Y93.166 E0.50309
G1 X117.657 Y93.506 E0.52160
G1 X118.356 Y94.205 E0.56707
G1 X118.141 Y94.545 E0.58557
G1 X117.443 Y93.847 E0.63100
G1 X117.229 Y94.187 E0.64951
G1 X117.927 Y94.885 E0.69491
G1 X117.712 Y95.225 E0.71341
G1 X117.015 Y94.528 E0.75878
G1 X116.801 Y94.868 E0.77728
G1 X117.497 Y95.565 E0.82262
G1 X117.283 Y95.905 E0.84112
G1 X116.587 Y95.209 E0.88642
G1 X116.373 Y95.549 E0.90492
G1 X117.068 Y96.245 E0.95019
G1 X116.853 Y96.584 E0.96869
G1 X116.158 Y95.889 E1.01392
G1 X115.944 Y96.230 E1.03243
G1 X116.639 Y96.924 E1.07763
G1 X116.424 Y97.264 E1.09612
G1 X115.730 Y96.570 E1.14129
G1 X115.516 Y96.911 E1.15979
G1 X116.210 Y97.604 E1.20492
G1 X115.995 Y97.944 E1.22342
G1 X115.302 Y97.251 E1.26852
G1 X115.088 Y97.592 E1.28703
G1 X115.780 Y98.284 E1.33209
G1 X115.566 Y98.624 E1.35059
G1 X114.874 Y97.932 E1.39561
G1 X114.659 Y98.272 E1.41412
G1 X115.351 Y98.964 E1.45911
G1 X115.136 Y99.304 E1.47761
G1 X114.445 Y98.613 E1.52257
G1 X114.231 Y98.953 E1.54108
G1 X114.922 Y99.644 E1.58600
G1 X114.707 Y99.984 E1.60450
G1 X114.017 Y99.294 E1.64939
G1 X113.803 Y99.634 E1.66790
G1 X114.492 Y100.323 E1.71276
G1 X114.278 Y100.663 E1.73126
G1 X113.589 Y99.975 E1.77608
G1 X113.375 Y100.315 E1.79459
G1 X114.063 Y101.003 E1.83938
G1 X113.848 Y101.343 E1.85787
G1 X113.161 Y100.655 E1.90263
G1 X112.946 Y100.996 E1.92114
G1 X113.634 Y101.683 E1.96586
G1 X113.419 Y102.023 E1.98436
G1 X112.732 Y101.336 E2.02904
G1 X112.518 Y101.677 E2.04755
G1 X113.204 Y102.363 E2.09220
G1 X112.990 Y102.703 E2.11070
G1 X112.304 Y102.017 E2.15532
G1 X112.090 Y102.358 E2.17383
G1 X112.775 Y103.043 E2.21841
G1 X112.560 Y103.383 E2.23691
G1 X111.876 Y102.698 E2.28146
G1 X111.662 Y103.038 E2.29997
G1 X112.346 Y103.723 E2.34448
G1 X112.131 Y104.062 E2.36298
G1 X111.447 Y103.379 E2.40747
G1 X111.233 Y103.719 E2.42597
G1 X111.916 Y104.402 E2.47042
G1 X111.702 Y104.742 E2.48892
G1 X111.019 Y104.060 E2.53333
G1 X110.805 Y104.400 E2.55184
G1 X111.487 Y105.082 E2.59622
G1 X111.272 Y105.422 E2.61472
G1 X110.591 Y104.741 E2.65907
G1 X110.377 Y105.081 E2.67757
G1 X111.058 Y105.762 E2.72189
G1 X110.843 Y106.102 E2.74038
G1 X110.163 Y105.421 E2.78466
G1 X109.948 Y105.762 E2.80317
G1 X110.628 Y106.442 E2.84741
G1 X110.414 Y106.782 E2.86591
G1 X108.407 Y104.775 E2.99648
G1 X108.407 Y105.330 E3.02200
G1 X110.199 Y107.122 E3.13860
G1 X109.720 Y107.197 E3.16092
G1 X108.407 Y105.884 E3.24634
G1 X108.407 Y106.439 E3.27186
G1 X109.165 Y107.197 E3.32119
G1 X108.611 Y107.197 E3.34671
G1 X108.407 Y106.993 E3.35996
G92 E0
G1 X107.956 Y107.648 F7800.000
G1 X105.956 Y107.648 F7800.000
G1 X103.111 Y106.860 F7800.000
G1 X100.437 Y107.648 F7800.000
G1 X98.445 Y107.406 F7800.000
G1 X95.863 Y98.109 E0.43661 F378.000
G1 X95.443 Y96.535 E0.51034
G1 X94.868 Y94.108 E0.62319
G1 X94.433 Y94.115 E0.64287
G1 X93.851 Y96.596 E0.75819
G1 X93.475 Y98.068 E0.82692
G1 X90.859 Y107.423 E1.26647
G1 X89.216 Y107.423 E1.34080
G1 X86.736 Y98.555 E1.75747
G1 X86.250 Y96.725 E1.84316
G1 X85.648 Y94.129 E1.96375
G1 X85.210 Y94.129 E1.98355
G1 X84.626 Y96.649 E2.10063
G1 X84.310 Y97.872 E2.15779
G1 X81.607 Y107.423 E2.60693
G1 X79.920 Y107.423 E2.68326
G1 X84.296 Y92.577 E3.38361
G1 X86.428 Y92.577 E3.48010
G1 X87.826 Y97.654 E3.71838
G1 X89.347 Y103.285 E3.98232 F378.000
G1 X89.824 Y105.383 E4.07964
G1 X90.263 Y105.381 E4.09954
G1 X90.823 Y102.891 E4.21500
G1 X91.022 Y102.128 E4.25071
G1 X93.629 Y92.577 E4.69869
G1 X95.760 Y92.577 E4.79515
G1 X100.136 Y107.423 E5.49549
G1 X98.664 Y107.423 E5.56211
G1 X99.287 Y107.197 F7800.000
G1 X98.401 Y106.312 E5.61963 F540.000
G1 X98.189 Y105.545 E5.65618
G1 X99.792 Y107.148 E5.76035
G1 X99.560 Y106.363 E5.79796
G1 X97.976 Y104.779 E5.90092
G1 X97.763 Y104.012 E5.93748
G1 X99.329 Y105.578 E6.03924
G1 X99.098 Y104.793 E6.07684
G1 X97.550 Y103.245 E6.17741
G1 X97.337 Y102.479 E6.21396
G1 X98.866 Y104.008 E6.31332
G1 X98.635 Y103.223 E6.35093
G1 X97.124 Y101.712 E6.44908
G1 X96.911 Y100.945 E6.48564
G1 X98.403 Y102.438 E6.58260
G1 X98.172 Y101.652 E6.62020
G1 X96.698 Y100.179 E6.71596
G1 X96.485 Y99.412 E6.75251
G1 X97.941 Y100.867 E6.84706
G1 X97.709 Y100.082 E6.88467
G1 X96.273 Y98.646 E6.97802
G1 X96.061 Y97.880 E7.01452
G1 X97.478 Y99.297 E7.10660
G1 X97.246 Y98.512 E7.14421
G1 X95.859 Y97.124 E7.23437
G1 X95.658 Y96.369 E7.27028
G1 X97.015 Y97.727 E7.35848
G1 X96.784 Y96.942 E7.39609
G1 X95.485 Y95.644 E7.48044
G1 X95.313 Y94.918 E7.51471
G1 X96.552 Y96.157 E7.59520
G1 X96.321 Y95.371 E7.63281
G1 X95.141 Y94.192 E7.70944
G1 X94.833 Y93.884 F7800.000
G1 X93.775 Y92.826 E7.77819 F540.000
G1 X93.657 Y93.261 E7.79890
G1 X94.288 Y93.892 E7.83993
G1 X94.168 Y94.326 E7.86061
G1 X93.538 Y93.696 E7.90156
G1 X93.419 Y94.131 E7.92228
G1 X94.063 Y94.775 E7.96410
G1 X93.958 Y95.223 E7.98527
G1 X93.301 Y94.566 E8.02796
G1 X93.182 Y95.001 E8.04868
G1 X93.852 Y95.672 E8.09225
G1 X93.747 Y96.120 E8.11342
G1 X93.063 Y95.436 E8.15786
G1 X92.944 Y95.871 E8.17858
G1 X93.642 Y96.569 E8.22389
G1 X93.530 Y97.010 E8.24483
G1 X92.826 Y96.306 E8.29059
G1 X92.707 Y96.741 E8.31131
G1 X93.417 Y97.452 E8.35747
G1 X93.305 Y97.893 E8.37839
G1 X92.588 Y97.176 E8.42496
G1 X92.470 Y97.611 E8.44568
G1 X93.187 Y98.329 E8.49232
G1 X93.066 Y98.762 E8.51296
G1 X92.351 Y98.046 E8.55945
G1 X92.232 Y98.481 E8.58017
G1 X92.945 Y99.195 E8.62651
G1 X92.824 Y99.627 E8.64716
G1 X92.113 Y98.916 E8.69335
G1 X91.995 Y99.351 E8.71407
G1 X92.703 Y100.060 E8.76011
G1 X92.582 Y100.493 E8.78075
G1 X91.876 Y99.786 E8.82664
G1 X91.757 Y100.221 E8.84736
G1 X92.461 Y100.925 E8.89311
G1 X92.340 Y101.358 E8.91375
G1 X91.639 Y100.656 E8.95934
G1 X91.520 Y101.091 E8.98006
G1 X92.219 Y101.791 E9.02550
G1 X92.098 Y102.224 E9.04615
G1 X91.401 Y101.526 E9.09144
G1 X91.282 Y101.961 E9.11216
G1 X91.977 Y102.656 E9.15730
G1 X91.856 Y103.089 E9.17795
G1 X91.166 Y102.399 E9.22278
G1 X91.052 Y102.838 E9.24363
G1 X91.735 Y103.522 E9.28804
G1 X91.614 Y103.954 E9.30869
G1 X90.949 Y103.289 E9.35193
G1 X90.847 Y103.741 E9.37322
G1 X91.493 Y104.387 E9.41519
G1 X91.372 Y104.820 F7800.000
G1 X90.746 Y104.193 E9.45591 F540.000
G1 X90.644 Y104.645 E9.47720
G1 X91.251 Y105.253 E9.51665
G1 X91.130 Y105.685 E9.53730
G1 X90.542 Y105.098 E9.57549
G1 X90.441 Y105.550 E9.59678
G1 X91.009 Y106.118 E9.63371
G1 X90.888 Y106.551 E9.65436
G1 X89.945 Y105.608 E9.71562
G1 X89.527 Y105.190 F7800.000
G1 X88.590 Y104.253 E9.77652 F540.000
G1 X89.202 Y103.757 F7800.000
G1 X88.160 Y102.715 E9.84422 F540.000
G1 X88.811 Y102.259 F7800.000
G1 X87.730 Y101.178 E9.91445 F540.000
G1 X87.945 Y101.947 E9.95113
G1 X89.016 Y103.017 E10.02071
G1 X88.375 Y103.484 F7800.000
G1 X89.365 Y104.474 E10.08501 F540.000
G1 X88.805 Y105.022 F7800.000
G1 X90.767 Y106.983 E10.21247 F540.000
G1 X90.427 Y107.197 E10.23092
G1 X89.020 Y105.791 E10.32232
G1 X89.235 Y106.559 E10.35899
G1 X89.873 Y107.197 E10.40043
G1 X87.515 Y100.409 F7800.000
G1 X88.606 Y101.500 E10.47132 F540.000
G1 X88.401 Y100.741 E10.50743
G1 X87.300 Y99.640 E10.57898
G1 X87.085 Y98.871 E10.61566
G1 X88.196 Y99.983 E10.68787
G1 X87.991 Y99.224 E10.72398
G1 X86.875 Y98.108 E10.79648
G1 X86.675 Y97.355 E10.83231
G1 X87.786 Y98.465 E10.90449
G1 X87.581 Y97.706 E10.94064
G1 X86.476 Y96.601 E11.01244
G1 X87.370 Y96.942 F7800.000
G1 X86.307 Y95.878 E11.08154 F540.000
G1 X86.139 Y95.157 E11.11556
G1 X87.160 Y96.178 E11.18186
G1 X86.949 Y95.414 E11.21827
G1 X85.972 Y94.436 E11.28178
G1 X85.439 Y93.903 F7800.000
G1 X84.420 Y92.884 E11.34795 F540.000
G1 X84.294 Y93.312 E11.36843
G1 X85.017 Y94.034 E11.41537
G1 X84.912 Y94.484 E11.43657
G1 X84.168 Y93.740 E11.48493
G1 X84.042 Y94.167 E11.50542
G1 X84.808 Y94.934 E11.55520
G1 X84.704 Y95.383 E11.57640
G1 X83.916 Y94.595 E11.62761
G1 X83.790 Y95.023 E11.64809
G1 X84.600 Y95.833 E11.70071
G1 X84.496 Y96.282 E11.72192
G1 X83.664 Y95.450 E11.77596
G1 X83.538 Y95.878 E11.79644
G1 X84.390 Y96.730 E11.85181
G1 X84.276 Y97.170 E11.87269
G1 X83.412 Y96.306 E11.92885
G1 X83.286 Y96.733 E11.94934
G1 X84.162 Y97.610 E12.00630
G1 X84.045 Y98.047 E12.02707
G1 X83.160 Y97.161 E12.08462
G1 X83.034 Y97.589 E12.10510
G1 X83.923 Y98.478 E12.16290
G1 X83.801 Y98.910 E12.18351
G1 X82.907 Y98.016 E12.24157
G1 X82.781 Y98.444 E12.26205
G1 X83.679 Y99.341 E12.32036
G1 X83.557 Y99.773 E12.34097
G1 X82.655 Y98.872 E12.39954
G1 X82.529 Y99.299 E12.42002
G1 X83.435 Y100.205 E12.47885
G1 X83.312 Y100.636 E12.49945
G1 X82.403 Y99.727 E12.55853
G1 X82.277 Y100.155 E12.57901
G1 X83.190 Y101.068 E12.63835
G1 X83.068 Y101.499 E12.65895
G1 X82.151 Y100.582 E12.71854
G1 X82.025 Y101.010 E12.73903
G1 X82.946 Y101.931 E12.79887
G1 X82.824 Y102.363 E12.81948
G1 X81.899 Y101.438 E12.87957
G1 X81.773 Y101.865 E12.90006
G1 X82.702 Y102.794 E12.96041
G1 X82.580 Y103.226 E12.98102
G1 X81.647 Y102.293 E13.04162
G1 X81.521 Y102.721 E13.06211
G1 X82.457 Y103.657 E13.12297
G1 X82.335 Y104.089 E13.14358
G1 X81.395 Y103.148 E13.20469
G1 X81.269 Y103.576 E13.22518
G1 X82.213 Y104.521 E13.28655
G1 X82.091 Y104.952 E13.30716
G1 X81.142 Y104.004 E13.36879
G1 X81.016 Y104.431 E13.38927
G1 X81.969 Y105.384 E13.45115
G1 X81.847 Y105.815 E13.47176
G1 X80.890 Y104.859 E13.53390
G1 X80.764 Y105.287 E13.55438
G1 X81.724 Y106.247 E13.61677
G1 X81.602 Y106.679 E13.63738
G1 X80.638 Y105.714 E13.70003
G1 X80.512 Y106.142 E13.72051
G1 X81.480 Y107.110 E13.78342
G1 X81.013 Y107.197 E13.80523
G1 X80.386 Y106.570 E13.84599
G1 X80.260 Y106.997 E13.86648
G1 X80.460 Y107.197 E13.87945
G92 E0
G1 X82.569 Y101.176 F7800.000
G1 X82.569 Y101.176 F7800.000
G1 X86.739 Y94.649 F7800.000
G1 X84.893 Y92.803 E0.11997 F540.000
G1 X85.446 Y92.803 E0.14541
G1 X86.529 Y93.885 E0.21574
G1 X86.318 Y93.121 E0.25215
G1 X86.000 Y92.803 E0.27282
G92 E0
G1 X85.838 Y93.353 F7800.000
G1 X85.838 Y93.353 F7800.000
G1 X94.306 Y92.803 F7800.000
G1 X96.089 Y94.586 E0.11588 F540.000
G1 X95.858 Y93.801 F7800.000
G1 X94.860 Y92.803 E0.18075 F540.000
G1 X95.414 Y92.803 E0.20619
G1 X95.627 Y93.016 E0.22004
M106 S255
G92 E0
G1 Z0.600 F7800.000
G1 X108.878 Y92.352 F7800.000
G1 X108.878 Y102.501 E3.04120 F600.000
G1 X108.828 Y105.185 E3.84543
G1 X109.214 Y106.390 E4.22466
G1 X109.403 Y106.422 E4.28198
G1 X109.703 Y106.449 E4.37217
G1 X110.525 Y105.726 E4.70041
G1 X117.802 Y94.181 E8.78972
G1 X118.525 Y93.507 E9.08590
G1 X118.925 Y93.535 E9.20580
G1 X119.157 Y93.577 E9.27644
G1 X119.509 Y94.729 E9.63745
G1 X119.449 Y97.625 E10.50545
G1 X119.449 Y107.648 E13.50886
G92 E0
G1 X110.363 Y108.648 F7800.000
G1 X107.956 Y108.648 F7800.000
G1 X103.991 Y105.683 F7800.000
G1 X103.111 Y106.860 F7800.000
G1 X100.437 Y107.648 F7800.000
G1 X99.355 Y107.648 F7800.000
G1 X96.570 Y97.917 E3.03301 F600.000
G1 X96.133 Y96.361 E3.51720
G1 X95.542 Y94.134 E4.20759
G1 X95.148 Y93.397 E4.45821
G1 X94.675 Y93.344 E4.60061
G1 X94.241 Y93.379 E4.73109
G1 X93.815 Y94.150 E4.99505
G1 X92.848 Y97.900 E6.15551
G1 X91.433 Y103.040 E7.75283
G1 X90.856 Y105.330 E8.46067
G1 X90.085 Y106.402 E8.85636
G1 X89.991 Y106.402 E8.88453
G1 X89.226 Y105.333 E9.27839
G1 X88.745 Y103.435 E9.86515
G1 X86.868 Y96.571 E11.99749
G1 X86.259 Y94.170 E12.73968
G1 X85.814 Y93.383 E13.01065
G1 X85.388 Y93.353 E13.13865
G1 X84.918 Y93.408 E13.28071
G1 X84.523 Y94.153 E13.53321
G1 X83.581 Y97.675 E14.62567
G1 X80.699 Y107.648 E17.73629
G92 E0
G1 Z0.900 F7800.000
G1 X108.878 Y92.352 F7800.000
G1 X108.878 Y102.501 E3.04120 F600.000
G1 X108.828 Y105.185 E3.84543
G1 X109.214 Y106.390 E4.22466
G1 X109.403 Y106.422 E4.28198
G1 X109.703 Y106.449 E4.37217
G1 X110.525 Y105.726 E4.70041
G1 X117.802 Y94.181 E8.78972
G1 X118.525 Y93.507 E9.08590
G1 X118.925 Y93.535 E9.20579
G1 X119.157 Y93.577 E9.27644
G1 X119.509 Y94.729 E9.63745
G1 X119.449 Y97.625 E10.50545
G1 X119.449 Y107.648 E13.50886
G92 E0
G1 X110.363 Y108.648 F7800.000
G1 X107.956 Y108.648 F7800.000
G1 X103.991 Y105.683 F7800.000
