; generated by Slic3r 1.2.9 on 2016-03-11 at 01:31:52

; external perimeters extrusion width = 1.54mm
; perimeters extrusion width = 2.62mm
; infill extrusion width = 6.27mm
; solid infill extrusion width = 2.62mm
; top infill extrusion width = 2.62mm

M107
M104 S30 ; set temperature
G28 ; home all axes
G1 Z5 F5000 ; lift nozzle
M302
M92 E10000
M500
M501
G1 E100
M109 S30 ; wait for temperature to be reached
G21 ; set units to millimeters
G90 ; use absolute coordinates
M82 ; use absolute distances for extrusion
G92 E0
G1 Z0.300 F7800.000
G1 X119.933 Y104.632 F7800.000
G1 X119.588 Y105.169 E0.02891 F378.000
G1 X118.747 Y106.032 E0.08343
G1 X117.731 Y106.716 E0.13885
G1 X116.558 Y107.214 E0.19649
G1 X115.246 Y107.514 E0.25740
G1 X113.797 Y107.614 E0.32315
G1 X111.633 Y107.390 E0.42158
G1 X109.829 Y106.725 E0.50859
G1 X108.370 Y105.621 E0.59138
G1 X107.293 Y104.124 E0.67480
G1 X106.644 Y102.275 E0.76347
G1 X106.426 Y100.061 E0.86414
G1 X106.523 Y98.562 E0.93212
G1 X106.816 Y97.196 E0.99536
G1 X107.302 Y95.965 E1.05523
G1 X107.969 Y94.896 E1.11226
G1 X108.807 Y94.011 E1.16739
G1 X109.819 Y93.308 E1.22314
G1 X110.991 Y92.797 E1.28100
G1 X112.308 Y92.489 E1.34220
G1 X113.772 Y92.386 E1.40860
G1 X115.130 Y92.483 E1.47023
G1 X115.223 Y92.490 E1.47446 F378.000
G1 X116.534 Y92.802 E1.53544
G1 X117.707 Y93.319 E1.59343
G1 X118.725 Y94.028 E1.64955
G1 X119.570 Y94.915 E1.70500
G1 X120.247 Y95.983 E1.76221
G1 X120.742 Y97.209 E1.82205
G1 X121.040 Y98.570 E1.88505
G1 X121.139 Y100.065 E1.95287
G1 X121.041 Y101.563 E2.02081
G1 X120.746 Y102.916 E2.08344
G1 X120.258 Y104.124 E2.14242
G1 X120.057 Y104.437 E2.15924
G1 X118.720 Y103.565 F7800.000
G1 X117.994 Y104.678 E2.21937 F378.000
G1 X116.859 Y105.623 E2.28619
G1 X115.455 Y106.188 E2.35469
G1 X113.794 Y106.374 E2.43030
G1 X112.121 Y106.191 E2.50644
G1 X110.708 Y105.634 E2.57518
G1 X109.567 Y104.701 E2.64186
G1 X108.735 Y103.438 E2.71030
G1 X108.241 Y101.890 E2.78382
G1 X108.078 Y100.065 E2.86674
G1 X108.243 Y98.242 E2.94955
G1 X108.742 Y96.676 E3.02394
G1 X109.580 Y95.372 E3.09410
G1 X110.723 Y94.394 E3.16216
G1 X112.125 Y93.808 E3.23090
G1 X113.626 Y93.632 E3.29931
G1 X113.771 Y93.615 E3.30590 F378.000
G1 X115.455 Y93.801 E3.38256
G1 X116.871 Y94.368 E3.45158
G1 X118.006 Y95.317 E3.51851
G1 X118.828 Y96.605 E3.58766
G1 X119.316 Y98.190 E3.66269
G1 X119.477 Y100.065 E3.74787
G1 X119.314 Y101.868 E3.82978
G1 X118.835 Y103.366 E3.90095
G1 X120.168 Y96.489 F7800.000
G1 X116.958 Y93.279 E4.10921 F540.000
G1 X116.517 Y93.944 F7800.000
G1 X115.346 Y92.773 E4.18518 F540.000
G1 X116.072 Y92.946 F7800.000
G1 X118.305 Y95.179 E4.33013 F540.000
G1 X118.163 Y95.037 F7800.000
G1 X120.534 Y97.408 E4.48401 F540.000
G1 X120.689 Y98.116 E4.51728
G1 X119.055 Y96.482 E4.62332
G1 X119.301 Y97.281 E4.66168
G1 X120.823 Y98.803 E4.76044
G1 X120.863 Y99.396 E4.78769
G1 X119.540 Y98.073 E4.87354
G1 X119.592 Y98.678 E4.90140
G1 X120.902 Y99.988 E4.98644
G1 X120.888 Y100.527 E5.01116
G1 X119.644 Y99.283 E5.09190
G1 X119.696 Y99.888 E5.11976
G1 X120.854 Y101.046 E5.19491
G1 X120.819 Y101.565 E5.21877
G1 X119.665 Y100.411 E5.29366
G1 X119.620 Y100.918 E5.31703
G1 X120.725 Y102.023 E5.38878
G1 X120.626 Y102.478 E5.41011
G1 X119.574 Y101.425 E5.47840
G1 X119.514 Y101.918 E5.50117
G1 X120.524 Y102.928 E5.56676
G1 X120.365 Y103.322 E5.58625
G1 X119.380 Y102.337 E5.65021
G1 X119.245 Y102.756 E5.67039
G1 X120.206 Y103.716 E5.73272
G1 X120.040 Y104.103 E5.75204
G1 X119.111 Y103.175 E5.81230
G1 X118.951 Y103.567 E5.83175
G1 X119.824 Y104.440 E5.88844
G1 X119.608 Y104.777 E5.90681
G1 X118.732 Y103.902 E5.96363
G1 X118.514 Y104.236 E5.98197
G1 X119.378 Y105.100 E6.03804
G1 X119.102 Y105.377 E6.05598
G1 X118.296 Y104.571 E6.10827
G1 X118.052 Y104.880 E6.12633
G1 X118.825 Y105.653 E6.17650
G1 X118.549 Y105.930 E6.19444
G1 X117.750 Y105.132 E6.24625
G1 X117.448 Y105.383 E6.26426
G1 X118.219 Y106.153 E6.31427
G1 X117.889 Y106.376 E6.33255
G1 X117.147 Y105.634 E6.38069
G1 X116.817 Y105.857 E6.39897
G1 X117.539 Y106.580 E6.44587
G1 X117.151 Y106.745 E6.46522
G1 X116.422 Y106.016 E6.51252
G1 X116.028 Y106.174 E6.53202
G1 X116.763 Y106.909 E6.57972
G1 X116.348 Y107.047 E6.59979
G1 X115.634 Y106.333 E6.64612
G1 X115.185 Y106.437 E6.66727
G1 X115.897 Y107.150 E6.71353
G1 X115.447 Y107.253 E6.73472
G1 X114.687 Y106.493 E6.78403
G1 X114.190 Y106.549 E6.80699
G1 X114.955 Y107.313 E6.85659
G1 X114.437 Y107.349 E6.88038
G1 X113.688 Y106.600 E6.92901
G1 X113.067 Y106.531 E6.95769
G1 X113.920 Y107.385 E7.01306
G1 X113.310 Y107.328 E7.04117
G1 X112.445 Y106.463 E7.09728
G1 X111.758 Y106.329 E7.12942
G1 X112.693 Y107.264 E7.19010
G1 X112.076 Y107.200 E7.21856
G1 X110.846 Y105.969 E7.29843
G1 X110.447 Y106.676 F7800.000
G1 X107.389 Y103.619 E7.49686 F540.000
G1 X107.090 Y102.766 F7800.000
G1 X111.323 Y106.999 E7.77157 F540.000
G1 X108.792 Y105.574 F7800.000
G1 X108.437 Y105.220 E7.79455 F540.000
G1 X108.550 Y103.674 F7800.000
G1 X106.850 Y101.973 E7.90488 F540.000
G1 X106.789 Y101.360 E7.93318
G1 X108.281 Y102.851 E8.02996
G1 X108.021 Y102.039 E8.06909
G1 X106.729 Y100.746 E8.15296
G1 X106.668 Y100.133 E8.18126
G1 X107.965 Y101.430 E8.26545
G1 X107.911 Y100.823 E8.29342
G1 X106.678 Y99.589 E8.37347
G1 X106.711 Y99.070 E8.39735
G1 X107.857 Y100.215 E8.47168
G1 X107.891 Y99.697 E8.49552
G1 X106.745 Y98.551 E8.56990
G1 X106.839 Y98.092 E8.59139
G1 X107.937 Y99.190 E8.66264
G1 X107.983 Y98.683 E8.68600
G1 X106.937 Y97.636 E8.75390
G1 X107.037 Y97.184 E8.77517
G1 X108.044 Y98.191 E8.84051
G1 X108.178 Y97.771 E8.86070
G1 X107.194 Y96.787 E8.92456
G1 X107.350 Y96.391 E8.94412
G1 X108.311 Y97.352 E9.00650
G1 X108.445 Y96.933 E9.02669
G1 X107.511 Y95.998 E9.08733
G1 X107.723 Y95.658 E9.10575
G1 X108.601 Y96.535 E9.16271
G1 X108.817 Y96.199 E9.18107
G1 X107.936 Y95.317 E9.23827
G1 X108.153 Y94.981 E9.25663
G1 X109.034 Y95.862 E9.31379
G1 X109.250 Y95.525 E9.33216
G1 X108.422 Y94.697 E9.38588
G1 X108.699 Y94.421 E9.40382
G1 X109.481 Y95.203 E9.45459
G1 X109.779 Y94.948 E9.47259
G1 X108.975 Y94.144 E9.52475
G1 X109.293 Y93.910 E9.54290
G1 X110.077 Y94.693 E9.59375
G1 X110.375 Y94.438 E9.61175
G1 X109.620 Y93.683 E9.66076
G1 X109.956 Y93.467 E9.67912
G1 X110.683 Y94.193 E9.72625
G1 X111.073 Y94.030 E9.74565
G1 X110.341 Y93.299 E9.79311
G1 X110.727 Y93.131 E9.81238
G1 X111.463 Y93.867 E9.86016
G1 X111.853 Y93.704 E9.87956
G1 X111.129 Y92.980 E9.92654
G1 X111.577 Y92.875 E9.94766
G1 X112.274 Y93.572 E9.99288
G1 X112.769 Y93.514 E10.01575
G1 X112.025 Y92.770 E10.06400
G1 X112.504 Y92.696 E10.08623
G1 X113.264 Y93.456 E10.13553
G1 X113.758 Y93.398 E10.15840
G1 X113.020 Y92.660 E10.20629
G1 X113.537 Y92.623 E10.23005
G1 X114.356 Y93.443 E10.28323
G1 X114.979 Y93.512 E10.31195
G1 X114.109 Y92.643 E10.36835
G1 X114.705 Y92.685 E10.39576
G1 X115.601 Y93.581 E10.45386
G1 X118.348 Y94.116 F7800.000
G1 X119.188 Y94.956 E10.50837 F540.000
G92 E0
G1 X107.790 Y94.757 F7800.000
G1 X103.219 Y94.332 F7800.000
G1 X101.477 Y95.528 F7800.000
G1 X96.584 Y91.869 F7800.000
G1 X94.945 Y92.352 F7800.000
G1 X92.645 Y92.577 F7800.000
G1 X94.777 Y92.577 E0.09647 F378.000
G1 X99.152 Y107.423 E0.79681
G1 X97.466 Y107.423 E0.87310
G1 X94.880 Y98.109 E1.31049
G1 X94.459 Y96.535 E1.38422
G1 X93.884 Y94.108 E1.49707
G1 X93.449 Y94.115 E1.51674
G1 X92.867 Y96.596 E1.63206
G1 X92.492 Y98.068 E1.70079
G1 X89.875 Y107.423 E2.14035
G1 X88.233 Y107.423 E2.21467
G1 X85.752 Y98.555 E2.63135
G1 X85.267 Y96.725 E2.71703
G1 X84.664 Y94.129 E2.83763
G1 X84.226 Y94.129 E2.85743
G1 X83.642 Y96.649 E2.97451
G1 X83.326 Y97.872 E3.03166
G1 X80.623 Y107.423 E3.48080
G1 X78.936 Y107.423 E3.55714
G1 X83.312 Y92.577 E4.25749
G1 X85.445 Y92.577 E4.35397
G1 X86.843 Y97.654 E4.59226
G1 X88.364 Y103.285 E4.85620 F378.000
G1 X88.840 Y105.383 E4.95352
G1 X89.280 Y105.381 E4.97342
G1 X89.839 Y102.891 E5.08888
G1 X90.039 Y102.128 E5.12458
G1 X92.584 Y92.800 E5.56211
G1 X93.323 Y92.803 F7800.000
G1 X95.106 Y94.586 E5.67799 F540.000
G1 X94.875 Y93.801 F7800.000
G1 X93.876 Y92.803 E5.74286 F540.000
G1 X94.430 Y92.803 E5.76830
G1 X94.643 Y93.016 E5.78215
G1 X93.850 Y93.884 F7800.000
G1 X92.792 Y92.826 E5.85089 F540.000
G1 X92.673 Y93.261 E5.87161
G1 X93.305 Y93.892 E5.91264
G1 X93.185 Y94.326 E5.93332
G1 X92.555 Y93.696 E5.97427
G1 X92.436 Y94.131 E5.99498
G1 X93.079 Y94.775 E6.03681
G1 X92.974 Y95.223 E6.05797
G1 X92.317 Y94.566 E6.10067
G1 X92.198 Y95.001 E6.12139
G1 X92.869 Y95.672 E6.16496
G1 X92.764 Y96.120 E6.18612
G1 X92.080 Y95.436 E6.23056
G1 X91.961 Y95.871 E6.25128
G1 X92.658 Y96.569 E6.29660
G1 X92.546 Y97.010 E6.31754
G1 X91.842 Y96.306 E6.36330
G1 X91.724 Y96.741 E6.38401
G1 X92.434 Y97.452 E6.43018
G1 X92.321 Y97.893 E6.45110
G1 X91.605 Y97.176 E6.49767
G1 X91.486 Y97.611 E6.51838
G1 X92.204 Y98.329 E6.56502
G1 X92.083 Y98.762 E6.58567
G1 X91.367 Y98.046 E6.63216
G1 X91.249 Y98.481 E6.65288
G1 X91.962 Y99.195 E6.69922
G1 X91.841 Y99.627 E6.71986
G1 X91.130 Y98.916 E6.76605
G1 X91.011 Y99.351 E6.78677
G1 X91.720 Y100.060 E6.83281
G1 X91.599 Y100.493 E6.85346
G1 X90.893 Y99.786 E6.89935
G1 X90.774 Y100.221 E6.92007
G1 X91.478 Y100.925 E6.96581
G1 X91.357 Y101.358 E6.98646
G1 X90.655 Y100.656 E7.03205
G1 X90.536 Y101.091 E7.05277
G1 X91.236 Y101.791 E7.09821
G1 X91.115 Y102.224 E7.11885
G1 X90.418 Y101.526 E7.16415
G1 X90.299 Y101.961 E7.18487
G1 X90.994 Y102.656 E7.23001
G1 X90.873 Y103.089 E7.25065
G1 X90.183 Y102.399 E7.29548
G1 X90.068 Y102.838 E7.31633
G1 X90.752 Y103.522 E7.36075
G1 X90.631 Y103.954 E7.38139
G1 X89.965 Y103.289 E7.42463
G1 X89.864 Y103.741 E7.44592
G1 X90.510 Y104.387 E7.48790
G1 X90.389 Y104.820 F7800.000
G1 X89.762 Y104.193 E7.52862 F540.000
G1 X89.660 Y104.645 E7.54991
G1 X90.268 Y105.253 E7.58936
G1 X90.147 Y105.685 E7.61000
G1 X89.559 Y105.097 E7.64820
G1 X89.457 Y105.550 E7.66949
G1 X90.026 Y106.118 E7.70642
G1 X89.905 Y106.551 E7.72706
G1 X88.962 Y105.608 E7.78833
G1 X88.544 Y105.190 F7800.000
G1 X87.607 Y104.253 E7.84922 F540.000
G1 X88.219 Y103.757 F7800.000
G1 X87.177 Y102.715 E7.91693 F540.000
G1 X87.827 Y102.259 F7800.000
G1 X86.747 Y101.178 E7.98716 F540.000
G1 X86.962 Y101.947 E8.02384
G1 X88.032 Y103.017 E8.09341
G1 X87.392 Y103.484 F7800.000
G1 X88.381 Y104.474 E8.15771 F540.000
G1 X87.822 Y105.022 F7800.000
G1 X89.784 Y106.983 E8.28518 F540.000
G1 X89.443 Y107.197 E8.30363
G1 X88.037 Y105.791 E8.39502
G1 X88.252 Y106.559 E8.43170
G1 X88.890 Y107.197 E8.47314
G1 X86.531 Y100.409 F7800.000
G1 X87.623 Y101.500 E8.54403 F540.000
G1 X87.418 Y100.741 E8.58013
G1 X86.316 Y99.640 E8.65169
G1 X86.101 Y98.871 E8.68837
G1 X87.213 Y99.983 E8.76058
G1 X87.008 Y99.224 E8.79668
G1 X85.892 Y98.108 E8.86918
G1 X85.692 Y97.355 E8.90501
G1 X86.803 Y98.465 E8.97719
G1 X86.597 Y97.706 E9.01334
G1 X85.492 Y96.601 E9.08515
G1 X86.387 Y96.942 F7800.000
G1 X85.323 Y95.878 E9.15425 F540.000
G1 X85.156 Y95.157 E9.18826
G1 X86.176 Y96.178 E9.25456
G1 X85.966 Y95.414 E9.29098
G1 X84.989 Y94.436 E9.35448
G1 X84.455 Y93.903 F7800.000
G1 X83.437 Y92.884 E9.42065 F540.000
G1 X83.311 Y93.312 E9.44114
G1 X84.033 Y94.034 E9.48808
G1 X83.929 Y94.484 E9.50928
G1 X83.185 Y93.740 E9.55764
G1 X83.059 Y94.167 E9.57812
G1 X83.825 Y94.934 E9.62791
G1 X83.721 Y95.383 E9.64911
G1 X82.932 Y94.595 E9.70031
G1 X82.806 Y95.023 E9.72080
G1 X83.616 Y95.833 E9.77342
G1 X83.512 Y96.282 E9.79462
G1 X82.680 Y95.450 E9.84866
G1 X82.554 Y95.878 E9.86915
G1 X83.406 Y96.730 E9.92451
G1 X83.293 Y97.170 E9.94539
G1 X82.428 Y96.306 E10.00156
G1 X82.302 Y96.733 E10.02204
G1 X83.179 Y97.610 E10.07901
G1 X83.062 Y98.047 E10.09978
G1 X82.176 Y97.161 E10.15732
G1 X82.050 Y97.589 E10.17781
G1 X82.940 Y98.478 E10.23561
G1 X82.817 Y98.910 E10.25622
G1 X81.924 Y98.016 E10.31427
G1 X81.798 Y98.444 E10.33476
G1 X82.695 Y99.341 E10.39307
G1 X82.573 Y99.773 E10.41368
G1 X81.672 Y98.872 E10.47224
G1 X81.546 Y99.299 E10.49273
G1 X82.451 Y100.205 E10.55155
G1 X82.329 Y100.636 E10.57216
G1 X81.420 Y99.727 E10.63124
G1 X81.294 Y100.155 E10.65172
G1 X82.207 Y101.068 E10.71105
G1 X82.085 Y101.499 E10.73166
G1 X81.168 Y100.582 E10.79125
G1 X81.041 Y101.010 E10.81173
G1 X81.962 Y101.931 E10.87157
G1 X81.840 Y102.363 E10.89218
G1 X80.915 Y101.438 E10.95228
G1 X80.789 Y101.865 E10.97276
G1 X81.718 Y102.794 E11.03311
G1 X81.596 Y103.226 E11.05372
G1 X80.663 Y102.293 E11.11433
G1 X80.537 Y102.721 E11.13481
G1 X81.474 Y103.657 E11.19568
G1 X81.352 Y104.089 E11.21628
G1 X80.411 Y103.148 E11.27740
G1 X80.285 Y103.576 E11.29789
G1 X81.230 Y104.521 E11.35926
G1 X81.107 Y104.952 E11.37987
G1 X80.159 Y104.004 E11.44149
G1 X80.033 Y104.431 E11.46198
G1 X80.985 Y105.384 E11.52386
G1 X80.863 Y105.815 E11.54447
G1 X79.907 Y104.859 E11.60660
G1 X79.781 Y105.287 E11.62709
G1 X80.741 Y106.247 E11.68948
G1 X80.619 Y106.679 E11.71009
G1 X79.655 Y105.714 E11.77274
G1 X79.529 Y106.142 E11.79322
G1 X80.497 Y107.110 E11.85612
G1 X80.030 Y107.197 E11.87794
G1 X79.403 Y106.570 E11.91870
G1 X79.276 Y106.997 E11.93919
G1 X79.476 Y107.197 E11.95216
G92 E0
G1 X81.586 Y101.176 F7800.000
G1 X81.586 Y101.176 F7800.000
G1 X85.755 Y94.649 F7800.000
G1 X83.909 Y92.803 E0.11997 F540.000
G1 X84.463 Y92.803 E0.14541
G1 X85.545 Y93.885 E0.21574
G1 X85.335 Y93.121 E0.25215
G1 X85.017 Y92.803 E0.27282
G92 E0
G1 X84.855 Y93.353 F7800.000
G1 X84.855 Y93.353 F7800.000
G1 X94.158 Y94.192 F7800.000
G1 X95.337 Y95.371 E0.07663 F540.000
G1 X95.569 Y96.157 E0.11424
G1 X94.330 Y94.918 E0.19473
G1 X94.502 Y95.644 E0.22900
G1 X95.800 Y96.942 E0.31335
G1 X96.032 Y97.727 E0.35096
G1 X94.674 Y96.369 E0.43917
G1 X94.875 Y97.124 E0.47507
G1 X96.263 Y98.512 E0.56523
G1 X96.494 Y99.297 E0.60284
G1 X95.077 Y97.880 E0.69492
G1 X95.289 Y98.646 E0.73142
G1 X96.726 Y100.082 E0.82477
G1 X96.957 Y100.867 E0.86238
G1 X95.502 Y99.412 E0.95693
G1 X95.715 Y100.179 E0.99349
G1 X97.189 Y101.652 E1.08924
G1 X97.420 Y102.438 E1.12685
G1 X95.928 Y100.945 E1.22380
G1 X96.141 Y101.712 E1.26036
G1 X97.651 Y103.223 E1.35851
G1 X97.883 Y104.008 E1.39612
G1 X96.354 Y102.479 E1.49548
G1 X96.566 Y103.245 E1.53204
G1 X98.114 Y104.793 E1.63260
G1 X98.345 Y105.578 E1.67020
G1 X96.779 Y104.012 E1.77197
G1 X96.992 Y104.779 E1.80852
G1 X98.577 Y106.363 E1.91149
G1 X98.808 Y107.148 E1.94909
G1 X97.205 Y105.545 E2.05326
G1 X97.418 Y106.312 E2.08981
G1 X98.303 Y107.197 E2.14733
M106 S255
G92 E0
G1 Z0.600 F7800.000
G1 X107.254 Y100.047 F7800.000
G1 X107.359 Y98.678 E0.41153 F600.000
G1 X107.478 Y97.973 E0.62588
G1 X107.620 Y97.439 E0.79152
G1 X108.021 Y96.328 E1.14547
G1 X108.610 Y95.391 E1.47686
G1 X108.925 Y94.989 E1.62983
G1 X109.116 Y94.779 E1.71524
G1 X109.309 Y94.596 E1.79480
G1 X110.168 Y93.933 E2.11988
G1 X110.494 Y93.754 E2.23139
G1 X111.208 Y93.449 E2.46386
G1 X111.854 Y93.240 E2.66727
G1 X112.405 Y93.127 E2.83584
G1 X113.771 Y93.002 E3.24709
G1 X115.126 Y93.123 E3.65471
G1 X115.712 Y93.240 E3.83387
G1 X116.322 Y93.433 E4.02548
G1 X117.079 Y93.752 E4.27155
G1 X117.375 Y93.910 E4.37210
G1 X118.252 Y94.580 E4.70267
G1 X118.434 Y94.750 E4.77749
G1 X118.627 Y94.962 E4.86330
G1 X118.963 Y95.390 E5.02624
G1 X119.554 Y96.339 E5.36128
G1 X119.951 Y97.454 E5.71596
G1 X120.121 Y98.145 E5.92930
G1 X120.204 Y98.688 E6.09399
G1 X120.307 Y100.065 E6.50780
G1 X120.201 Y101.445 E6.92235
G1 X120.082 Y102.140 E7.13365
G1 X119.941 Y102.667 E7.29723
G1 X119.543 Y103.754 E7.64416
G1 X118.957 Y104.668 E7.96932
G1 X118.643 Y105.061 E8.12007
G1 X118.445 Y105.273 E8.20699
G1 X118.258 Y105.446 E8.28338
G1 X117.394 Y106.094 E8.60709
G1 X117.078 Y106.261 E8.71416
G1 X116.348 Y106.563 E8.95088
G1 X115.718 Y106.761 E9.14865
G1 X115.151 Y106.873 E9.32168
G1 X113.807 Y106.992 E9.72604
G1 X112.083 Y106.812 E10.24542
G1 X111.860 Y106.773 E10.31349
G1 X110.497 Y106.264 E10.74920
G1 X110.170 Y106.101 E10.85885
G1 X109.133 Y105.287 E11.25388
G1 X108.917 Y105.088 E11.34192
G1 X108.006 Y103.753 E11.82619
G1 X107.470 Y102.162 E12.32904
G1 X107.428 Y101.938 E12.39746
G1 X107.254 Y100.047 E12.96634
G92 E0
G1 X106.423 Y102.324 F7800.000
G1 X103.177 Y105.604 F7800.000
G1 X102.384 Y106.784 F7800.000
G1 X99.453 Y107.648 F7800.000
G1 X98.372 Y107.648 F7800.000
G1 X95.587 Y97.917 E3.03301 F600.000
G1 X95.150 Y96.361 E3.51720
G1 X94.558 Y94.134 E4.20759
