; generated by Slic3r 1.2.9 on 2016-03-11 at 01:31:53

; external perimeters extrusion width = 1.54mm
; perimeters extrusion width = 2.62mm
; infill extrusion width = 6.27mm
; solid infill extrusion width = 2.62mm
; top infill extrusion width = 2.62mm

M107
M104 S30 ; set temperature
G28 ; home all axes
G1 Z5 F5000 ; lift nozzle
M302
M92 E10000
M500
M501
G1 E100
M109 S30 ; wait for temperature to be reached
G21 ; set units to millimeters
G90 ; use absolute coordinates
M82 ; use absolute distances for extrusion
G92 E0
G1 Z0.300 F7800.000
G1 X119.404 Y101.074 F7800.000
G1 X119.687 Y101.766 E0.03380 F378.000
G1 X119.837 Y103.055 E0.09254
G1 X119.688 Y104.347 E0.15139
G1 X119.244 Y105.415 E0.20370
G1 X118.508 Y106.273 E0.25485
G1 X117.496 Y106.907 E0.30889
G1 X116.224 Y107.292 E0.36906
G1 X114.675 Y107.423 E0.43937
G1 X108.492 Y107.423 E0.71917
G1 X108.492 Y92.577 E1.39094
G1 X110.113 Y92.577 E1.46429
G1 X110.113 Y98.556 E1.73483
G1 X114.806 Y98.556 E1.94721 F378.000
G1 X116.273 Y98.695 E2.01388
G1 X117.498 Y99.103 E2.07230
G1 X118.499 Y99.777 E2.12692
G1 X119.241 Y100.677 E2.17969
G1 X119.316 Y100.861 E2.18867
G1 X117.801 Y101.210 F7800.000
G1 X118.213 Y103.035 E2.27331 F378.000
G1 X117.789 Y104.800 E2.35547
G1 X116.503 Y105.872 E2.43124
G1 X114.454 Y106.214 E2.52522
G1 X110.113 Y106.214 E2.72167
G1 X110.113 Y99.743 E3.01448
G1 X114.542 Y99.743 E3.21488 F378.000
G1 X116.546 Y100.098 E3.30698
G1 X117.628 Y101.057 E3.37240
G1 X118.506 Y100.252 F7800.000
G1 X118.121 Y99.867 E3.39732 F540.000
G1 X116.864 Y99.161 F7800.000
G1 X119.357 Y101.654 E3.55848 F540.000
G1 X119.520 Y102.368 E3.59194
G1 X116.062 Y98.910 E3.81552
G1 X115.453 Y98.852 E3.84346
G1 X116.434 Y99.833 E3.90687
G1 X115.764 Y99.714 E3.93796
G1 X114.845 Y98.795 E3.99742
G1 X114.281 Y98.782 E4.02319
G1 X115.095 Y99.596 E4.07581
G1 X114.465 Y99.517 E4.10482
G1 X113.730 Y98.782 E4.15234
G1 X113.179 Y98.782 E4.17753
G1 X113.914 Y99.517 E4.22506
G1 X113.363 Y99.517 E4.25025
G1 X112.628 Y98.782 E4.29777
G1 X112.077 Y98.782 E4.32296
G1 X112.812 Y99.517 E4.37049
G1 X112.261 Y99.517 E4.39568
G1 X111.526 Y98.782 E4.44321
G1 X110.975 Y98.782 E4.46839
G1 X111.710 Y99.517 E4.51592
G1 X111.159 Y99.517 E4.54111
G1 X110.424 Y98.782 E4.58864
G1 X109.887 Y98.796 E4.61320
G1 X108.718 Y97.627 E4.68879
G1 X108.718 Y97.076 E4.71397
G1 X109.887 Y98.245 E4.78956
G1 X109.873 Y98.782 E4.81412
G1 X110.608 Y99.517 E4.86165
G1 X110.057 Y99.517 E4.88684
G1 X108.718 Y98.178 E4.97343
G1 X108.718 Y98.729 E4.99862
G1 X109.887 Y99.898 E5.07421
G1 X109.887 Y100.449 E5.09940
G1 X108.718 Y99.280 E5.17498
G1 X108.718 Y99.831 E5.20017
G1 X109.887 Y101.000 E5.27576
G1 X109.887 Y101.551 E5.30095
G1 X108.718 Y100.382 E5.37653
G1 X108.718 Y100.933 E5.40172
G1 X109.887 Y102.102 E5.47731
G1 X109.887 Y102.653 E5.50250
G1 X108.718 Y101.484 E5.57808
G1 X108.718 Y102.035 E5.60327
G1 X109.887 Y103.204 E5.67886
G1 X109.887 Y103.755 E5.70405
G1 X108.718 Y102.586 E5.77963
G1 X108.718 Y103.137 E5.80482
G1 X109.887 Y104.306 E5.88041
G1 X109.887 Y104.857 E5.90560
G1 X108.718 Y103.688 E5.98118
G1 X108.718 Y104.239 E6.00637
G1 X109.887 Y105.408 E6.08196
G1 X109.887 Y105.959 E6.10715
G1 X108.718 Y104.790 E6.18273
G1 X108.718 Y105.341 E6.20792
G1 X110.574 Y107.197 E6.32795
G1 X111.125 Y107.197 E6.35314
G1 X110.368 Y106.440 E6.40209
G1 X110.919 Y106.440 E6.42728
G1 X111.676 Y107.197 E6.47623
G1 X112.227 Y107.197 E6.50142
G1 X111.470 Y106.440 E6.55037
G1 X112.021 Y106.440 E6.57556
G1 X112.778 Y107.197 E6.62450
G1 X113.329 Y107.197 E6.64969
G1 X112.572 Y106.440 E6.69864
G1 X113.123 Y106.440 E6.72383
G1 X113.880 Y107.197 E6.77278
G1 X114.431 Y107.197 E6.79797
G1 X113.674 Y106.440 E6.84692
G1 X114.225 Y106.440 E6.87211
G1 X114.964 Y107.178 E6.91986
G1 X115.472 Y107.136 E6.94316
G1 X114.722 Y106.386 E6.99163
G1 X115.194 Y106.307 E7.01352
G1 X115.980 Y107.093 E7.06429
G1 X116.447 Y107.009 E7.08601
G1 X115.667 Y106.228 E7.13650
G1 X116.139 Y106.150 E7.15839
G1 X116.870 Y106.881 E7.20569
G1 X117.293 Y106.753 E7.22589
G1 X116.590 Y106.050 E7.27133
G1 X116.891 Y105.800 E7.28922
G1 X117.663 Y106.572 E7.33914
G1 X118.002 Y106.360 E7.35742
G1 X117.191 Y105.549 E7.40982
G1 X117.492 Y105.299 E7.42770
G1 X118.335 Y106.142 E7.48222
G1 X118.607 Y105.863 E7.50003
G1 X117.792 Y105.048 E7.55267
G1 X118.022 Y104.727 E7.57073
G1 X118.861 Y105.566 E7.62499
G1 X119.096 Y105.250 E7.64300
G1 X118.128 Y104.283 E7.70552
G1 X118.235 Y103.838 E7.72641
G1 X119.257 Y104.860 E7.79249
G1 X119.419 Y104.471 E7.81176
G1 X118.342 Y103.394 E7.88140
G1 X118.445 Y102.946 E7.90240
G1 X119.508 Y104.009 E7.97114
G1 X119.565 Y103.516 E7.99387
G1 X118.284 Y102.234 E8.07669
G1 X118.124 Y101.523 E8.11004
G1 X119.592 Y102.991 E8.20499
G1 X118.576 Y105.004 F7800.000
G1 X117.792 Y105.807 F7800.000
G1 X110.023 Y107.197 F7800.000
G1 X108.718 Y105.891 E8.28940 F540.000
G1 X108.718 Y106.442 E8.31459
G1 X109.472 Y107.197 E8.36337
G1 X108.921 Y107.197 E8.38856
G1 X108.718 Y106.993 E8.40172
G1 X109.887 Y97.694 F7800.000
G1 X108.718 Y96.525 E8.47731 F540.000
G1 X108.718 Y95.974 E8.50250
G1 X109.887 Y97.143 E8.57809
G1 X109.887 Y96.592 E8.60327
G1 X108.718 Y95.423 E8.67886
G1 X108.718 Y94.872 E8.70405
G1 X109.887 Y96.041 E8.77964
G1 X109.887 Y95.490 E8.80482
G1 X108.718 Y94.321 E8.88041
G1 X108.718 Y93.770 E8.90560
G1 X109.887 Y94.939 E8.98119
G1 X109.887 Y94.388 E9.00637
G1 X108.718 Y93.219 E9.08196
G1 X108.853 Y92.803 E9.10195
G1 X109.887 Y93.837 E9.16880
G1 X109.887 Y93.286 E9.19399
G1 X109.404 Y92.803 E9.22522
G92 E0
G1 X108.267 Y92.352 F7800.000
G1 X104.306 Y105.687 F7800.000
G1 X103.429 Y106.860 F7800.000
G1 X100.754 Y108.648 F7800.000
G1 X89.363 Y108.648 F7800.000
G1 X85.746 Y96.923 F7800.000
G1 X85.749 Y95.519 F7800.000
G1 X85.747 Y95.035 F7800.000
G1 X85.746 Y94.404 F7800.000
G1 X85.706 Y94.354 F7800.000
G1 X82.041 Y101.302 F7800.000
G1 X84.613 Y92.577 E0.41161 F378.000
G1 X86.746 Y92.577 E0.50810
G1 X88.144 Y97.654 E0.74638
G1 X89.665 Y103.285 E1.01032 F378.000
G1 X90.141 Y105.383 E1.10764
G1 X90.581 Y105.381 E1.12754
G1 X91.140 Y102.891 E1.24300
G1 X91.340 Y102.128 E1.27870
G1 X93.946 Y92.577 E1.72668
G1 X96.078 Y92.577 E1.82315
G1 X100.453 Y107.423 E2.52349
G1 X98.767 Y107.423 E2.59978
G1 X96.181 Y98.109 E3.03717
G1 X95.760 Y96.535 E3.11090
G1 X95.185 Y94.108 E3.22375
G1 X94.750 Y94.115 E3.24343
G1 X94.168 Y96.596 E3.35875
G1 X93.793 Y98.068 E3.42748
G1 X91.176 Y107.423 E3.86703
G1 X89.534 Y107.423 E3.94136
G1 X87.053 Y98.555 E4.35803
G1 X86.568 Y96.725 E4.44372
G1 X85.965 Y94.129 E4.56431
G1 X85.527 Y94.129 E4.58412
G1 X84.943 Y96.649 E4.70119
G1 X84.627 Y97.872 E4.75835
G1 X81.924 Y107.423 E5.20749
G1 X80.237 Y107.423 E5.28382
G1 X81.976 Y101.524 E5.56211
G1 X80.777 Y107.197 F7800.000
G1 X80.577 Y106.997 E5.57508 F540.000
G1 X80.704 Y106.570 E5.59557
G1 X81.331 Y107.197 E5.63633
G1 X81.798 Y107.110 E5.65815
G1 X80.830 Y106.142 E5.72105
G1 X80.956 Y105.714 E5.74154
G1 X81.920 Y106.679 E5.80418
G1 X82.042 Y106.247 E5.82479
G1 X81.082 Y105.287 E5.88718
G1 X81.208 Y104.859 E5.90767
G1 X82.164 Y105.815 E5.96980
G1 X82.286 Y105.384 E5.99041
G1 X81.334 Y104.431 E6.05229
G1 X81.460 Y104.004 E6.07278
G1 X82.408 Y104.952 E6.13440
G1 X82.531 Y104.521 E6.15501
G1 X81.586 Y103.576 E6.21638
G1 X81.712 Y103.148 E6.23687
G1 X82.653 Y104.089 E6.29799
G1 X82.775 Y103.657 E6.31859
G1 X81.838 Y102.721 E6.37946
G1 X81.964 Y102.293 E6.39994
G1 X82.897 Y103.226 E6.46055
G1 X83.019 Y102.794 E6.48116
G1 X82.090 Y101.865 E6.54151
G1 X82.216 Y101.438 E6.56199
G1 X83.141 Y102.363 E6.62209
G1 X83.263 Y101.931 E6.64270
G1 X82.342 Y101.010 E6.70254
G1 X82.469 Y100.582 E6.72302
G1 X83.386 Y101.499 E6.78261
G1 X83.508 Y101.068 E6.80322
G1 X82.595 Y100.155 E6.86255
G1 X82.721 Y99.727 E6.88303
G1 X83.630 Y100.636 E6.94211
G1 X83.752 Y100.205 E6.96272
G1 X82.847 Y99.299 E7.02154
G1 X82.973 Y98.872 E7.04203
G1 X83.874 Y99.773 E7.10059
G1 X83.996 Y99.341 E7.12120
G1 X83.099 Y98.444 E7.17951
G1 X83.225 Y98.016 E7.20000
G1 X84.118 Y98.910 E7.25805
G1 X84.241 Y98.478 E7.27866
G1 X83.351 Y97.589 E7.33646
G1 X83.477 Y97.161 E7.35695
G1 X84.363 Y98.047 E7.41449
G1 X84.480 Y97.610 E7.43526
G1 X83.603 Y96.733 E7.49223
G1 X83.729 Y96.306 E7.51271
G1 X84.594 Y97.170 E7.56888
G1 X84.707 Y96.730 E7.58976
G1 X83.855 Y95.878 E7.64512
G1 X83.981 Y95.450 E7.66560
G1 X84.813 Y96.282 E7.71965
G1 X84.917 Y95.833 E7.74085
G1 X84.107 Y95.023 E7.79347
G1 X84.233 Y94.595 E7.81396
G1 X85.022 Y95.383 E7.86516
G1 X85.126 Y94.934 E7.88636
G1 X84.360 Y94.167 E7.93615
G1 X84.486 Y93.740 E7.95663
G1 X85.230 Y94.484 E8.00499
G1 X85.334 Y94.034 E8.02619
G1 X84.612 Y93.312 E8.07313
G1 X84.738 Y92.884 E8.09362
G1 X85.756 Y93.903 E8.15978
G1 X86.290 Y94.436 F7800.000
G1 X87.267 Y95.414 E8.22329 F540.000
G1 X87.477 Y96.178 E8.25971
G1 X86.457 Y95.157 E8.32601
G1 X86.624 Y95.878 E8.36002
G1 X87.688 Y96.942 E8.42912
G1 X86.793 Y96.601 F7800.000
G1 X87.898 Y97.706 E8.50093 F540.000
G1 X88.104 Y98.465 E8.53708
G1 X86.993 Y97.355 E8.60926
G1 X87.193 Y98.108 E8.64508
G1 X88.309 Y99.224 E8.71759
G1 X88.514 Y99.983 E8.75369
G1 X87.402 Y98.871 E8.82590
G1 X87.617 Y99.640 E8.86258
G1 X88.719 Y100.741 E8.93413
G1 X88.924 Y101.500 E8.97024
G1 X87.832 Y100.409 E9.04113
G1 X89.128 Y102.259 F7800.000
G1 X88.048 Y101.178 E9.11137 F540.000
G1 X88.263 Y101.947 E9.14805
G1 X89.333 Y103.017 E9.21762
G1 X89.520 Y103.757 F7800.000
G1 X88.478 Y102.715 E9.28532 F540.000
G1 X88.693 Y103.484 F7800.000
G1 X89.682 Y104.474 E9.34962 F540.000
G1 X89.845 Y105.190 F7800.000
G1 X88.908 Y104.253 E9.41052 F540.000
G1 X89.123 Y105.022 F7800.000
G1 X91.085 Y106.983 E9.53798 F540.000
G1 X90.744 Y107.197 E9.55644
G1 X89.338 Y105.791 E9.64783
G1 X89.553 Y106.559 E9.68450
G1 X90.191 Y107.197 E9.72594
G1 X90.263 Y105.608 F7800.000
G1 X91.206 Y106.551 E9.78721 F540.000
G1 X91.327 Y106.118 E9.80785
G1 X90.758 Y105.550 E9.84478
G1 X90.860 Y105.098 E9.86607
G1 X91.448 Y105.685 E9.90426
G1 X91.569 Y105.253 E9.92491
G1 X90.961 Y104.645 E9.96436
G1 X91.063 Y104.193 E9.98565
G1 X91.690 Y104.820 E10.02637
G1 X91.811 Y104.387 F7800.000
G1 X91.165 Y103.741 E10.06835 F540.000
G1 X91.266 Y103.289 E10.08964
G1 X91.932 Y103.954 E10.13288
G1 X92.053 Y103.522 E10.15352
G1 X91.369 Y102.838 E10.19793
G1 X91.484 Y102.399 E10.21878
G1 X92.174 Y103.089 E10.26361
G1 X92.295 Y102.656 E10.28426
G1 X91.600 Y101.961 E10.32940
G1 X91.719 Y101.526 E10.35012
G1 X92.416 Y102.224 E10.39541
G1 X92.537 Y101.791 E10.41606
G1 X91.837 Y101.091 E10.46150
G1 X91.956 Y100.656 E10.48222
G1 X92.658 Y101.358 E10.52781
G1 X92.779 Y100.925 E10.54846
G1 X92.075 Y100.221 E10.59420
G1 X92.194 Y99.786 E10.61492
G1 X92.900 Y100.493 E10.66081
G1 X93.021 Y100.060 E10.68146
G1 X92.312 Y99.351 E10.72750
G1 X92.431 Y98.916 E10.74822
G1 X93.142 Y99.627 E10.79441
G1 X93.263 Y99.195 E10.81505
G1 X92.550 Y98.481 E10.86139
G1 X92.668 Y98.046 E10.88211
G1 X93.384 Y98.762 E10.92860
G1 X93.505 Y98.329 E10.94924
G1 X92.787 Y97.611 E10.99589
G1 X92.906 Y97.176 E11.01660
G1 X93.622 Y97.893 E11.06317
G1 X93.735 Y97.452 E11.08409
G1 X93.025 Y96.741 E11.13025
G1 X93.143 Y96.306 E11.15097
G1 X93.847 Y97.010 E11.19673
G1 X93.959 Y96.569 E11.21767
G1 X93.262 Y95.871 E11.26299
G1 X93.381 Y95.436 E11.28371
G1 X94.065 Y96.120 E11.32815
G1 X94.170 Y95.672 E11.34931
G1 X93.499 Y95.001 E11.39288
G1 X93.618 Y94.566 E11.41360
G1 X94.275 Y95.223 E11.45630
G1 X94.380 Y94.775 E11.47746
G1 X93.737 Y94.131 E11.51929
G1 X93.856 Y93.696 E11.54000
G1 X94.486 Y94.326 E11.58095
G1 X94.606 Y93.892 E11.60163
G1 X93.974 Y93.261 E11.64266
G1 X94.093 Y92.826 E11.66338
G1 X95.151 Y93.884 E11.73212
G1 X95.459 Y94.192 F7800.000
G1 X96.638 Y95.371 E11.80876 F540.000
G1 X96.870 Y96.157 E11.84636
G1 X95.631 Y94.918 E11.92685
G1 X95.803 Y95.644 E11.96112
G1 X97.101 Y96.942 E12.04547
G1 X97.333 Y97.727 E12.08308
G1 X95.975 Y96.369 E12.17129
G1 X96.176 Y97.124 E12.20719
G1 X97.564 Y98.512 E12.29735
G1 X97.795 Y99.297 E12.33496
G1 X96.378 Y97.880 E12.42704
G1 X96.590 Y98.646 E12.46354
G1 X98.027 Y100.082 E12.55689
G1 X98.258 Y100.867 E12.59450
G1 X96.803 Y99.412 E12.68905
G1 X97.016 Y100.179 E12.72561
G1 X98.490 Y101.652 E12.82136
G1 X98.721 Y102.438 E12.85897
G1 X97.229 Y100.945 E12.95592
G1 X97.442 Y101.712 E12.99248
G1 X98.952 Y103.223 E13.09064
G1 X99.184 Y104.008 E13.12824
G1 X97.655 Y102.479 E13.22760
G1 X97.867 Y103.245 E13.26416
G1 X99.415 Y104.793 E13.36472
G1 X99.646 Y105.578 E13.40232
G1 X98.080 Y104.012 E13.50409
G1 X98.293 Y104.779 E13.54064
G1 X99.878 Y106.363 E13.64361
G1 X100.109 Y107.148 E13.68121
G1 X98.506 Y105.545 E13.78538
G1 X98.719 Y106.312 E13.82194
G1 X99.604 Y107.197 E13.87945
G1 X96.407 Y94.586 F7800.000
G1 X94.624 Y92.803 E13.99533 F540.000
G1 X95.944 Y93.016 F7800.000
G1 X95.731 Y92.803 E14.00918 F540.000
G1 X95.177 Y92.803 E14.03462
G1 X96.176 Y93.801 E14.09949
G92 E0
G1 X86.156 Y93.353 F7800.000
G1 X86.156 Y93.353 F7800.000
G1 X87.056 Y94.649 F7800.000
G1 X85.210 Y92.803 E0.11997 F540.000
G1 X85.764 Y92.803 E0.14541
G1 X86.846 Y93.885 E0.21574
G1 X86.636 Y93.121 E0.25215
G1 X86.318 Y92.803 E0.27282
M106 S255
G92 E0
G1 Z0.600 F7800.000
G1 X110.153 Y102.637 F7800.000
G1 X109.302 Y98.331 E1.31513 F600.000
G1 X109.302 Y92.352 E3.10672
G1 X109.464 Y99.149 F7800.000
G1 X114.666 Y99.156 E4.66536 F600.000
G1 X116.135 Y99.350 E5.10941
G1 X116.593 Y99.466 E5.25115
G1 X117.032 Y99.645 E5.39311
G1 X117.187 Y99.734 E5.44676
G1 X117.980 Y100.349 E5.74740
G1 X118.234 Y100.612 E5.85687
G1 X118.567 Y101.080 E6.02919
G1 X118.851 Y101.981 E6.31226
G1 X119.019 Y103.055 E6.63802
G1 X118.841 Y104.127 E6.96349
G1 X118.558 Y104.993 E7.23646
G1 X118.221 Y105.435 E7.40303
G1 X117.986 Y105.666 E7.50174
G1 X117.193 Y106.241 E7.79522
G1 X116.984 Y106.354 E7.86657
G1 X116.549 Y106.519 E8.00594
G1 X116.096 Y106.625 E8.14537
G1 X114.649 Y106.807 E8.58223
G1 X114.436 Y106.818 E8.64631
G1 X110.338 Y106.818 E9.87426
G1 X109.375 Y106.539 E10.17451
G1 X109.302 Y105.989 E10.34088
G1 X109.302 Y99.968 E12.14505
G1 X109.464 Y99.149 E12.39505
G92 E0
G1 X108.267 Y107.648 F7800.000
G1 X104.306 Y105.687 F7800.000
G1 X103.429 Y106.860 F7800.000
G1 X100.754 Y107.648 F7800.000
G1 X99.673 Y107.648 F7800.000
G1 X96.888 Y97.917 E3.03301 F600.000
G1 X96.451 Y96.361 E3.51720
G1 X95.859 Y94.134 E4.20759
G1 X95.465 Y93.397 E4.45821
G1 X94.993 Y93.344 E4.60061
G1 X94.559 Y93.379 E4.73109
G1 X94.132 Y94.150 E4.99505
G1 X93.166 Y97.900 E6.15551
G1 X91.750 Y103.040 E7.75283
G1 X91.173 Y105.330 E8.46067
G1 X90.402 Y106.402 E8.85636
G1 X90.308 Y106.402 E8.88453
G1 X89.543 Y105.333 E9.27839
G1 X89.063 Y103.435 E9.86515
G1 X87.185 Y96.571 E11.99749
G1 X86.576 Y94.170 E12.73968
G1 X86.132 Y93.383 E13.01065
G1 X85.706 Y93.353 E13.13865
G1 X85.235 Y93.408 E13.28071
G1 X84.841 Y94.153 E13.53321
G1 X83.898 Y97.675 E14.62567
G1 X81.017 Y107.648 E17.73629
G92 E0
G1 Z0.900 F7800.000
G1 X110.153 Y102.637 F7800.000
G1 X109.302 Y98.331 E1.31513 F600.000
G1 X109.302 Y92.352 E3.10672
G1 X109.464 Y99.149 F7800.000
G1 X114.666 Y99.156 E4.66536 F600.000
G1 X116.135 Y99.350 E5.10941
G1 X116.593 Y99.466 E5.25115
G1 X117.032 Y99.645 E5.39311
G1 X117.187 Y99.734 E5.44676
G1 X117.980 Y100.349 E5.74740
G1 X118.234 Y100.612 E5.85687
G1 X118.567 Y101.080 E6.02919
G1 X118.851 Y101.981 E6.31226
G1 X119.019 Y103.055 E6.63802
G1 X118.841 Y104.127 E6.96349
G1 X118.558 Y104.993 E7.23646
G1 X118.221 Y105.435 E7.40303
G1 X117.986 Y105.666 E7.50174
G1 X117.193 Y106.241 E7.79522
G1 X116.984 Y106.354 E7.86657
G1 X116.549 Y106.519 E8.00594
G1 X116.096 Y106.625 E8.14537
G1 X114.649 Y106.807 E8.58223
G1 X114.436 Y106.818 E8.64631
G1 X110.338 Y106.818 E9.87426
G1 X109.375 Y106.539 E10.17451
G1 X109.302 Y105.989 E10.34088
G1 X109.302 Y99.968 E12.14505
G1 X109.464 Y99.149 E12.39505
G92 E0
G1 X108.267 Y107.648 F7800.000
G1 X104.306 Y105.687 F7800.000
G1 X103.429 Y106.860 F7800.000
G1 X100.754 Y107.648 F7800.000
G1 X99.673 Y107.648 F7800.000
G1 X96.888 Y97.917 E3.03301 F600.000
G1 X96.451 Y96.361 E3.51720
G1 X95.859 Y94.134 E4.20759
G1 X95.465 Y93.397 E4.45821
G1 X94.993 Y93.344 E4.60061
G1 X94.559 Y93.379 E4.73109
G1 X94.132 Y94.150 E4.99505
G1 X93.166 Y97.900 E6.15551
G1 X91.750 Y103.040 E7.75282
G1 X91.173 Y105.330 E8.46067
