; generated by Slic3r 1.2.9 on 2016-03-11 at 01:32:00

; external perimeters extrusion width = 1.54mm
; perimeters extrusion width = 2.62mm
; infill extrusion width = 6.27mm
; solid infill extrusion width = 2.62mm
; top infill extrusion width = 2.62mm

M107
M104 S30 ; set temperature
G28 ; home all axes
G1 Z5 F5000 ; lift nozzle
M302
M92 E10000
M500
M501
G1 E100
M109 S30 ; wait for temperature to be reached
G21 ; set units to millimeters
G90 ; use absolute coordinates
M82 ; use absolute distances for extrusion
G92 E0
G1 Z0.300 F7800.000
G1 X106.400 Y96.559 F7800.000
G1 X107.574 Y92.577 E0.18787 F378.000
G1 X109.706 Y92.577 E0.28436
G1 X111.104 Y97.654 E0.52264
G1 X112.625 Y103.285 E0.78658 F378.000
G1 X113.101 Y105.383 E0.88389
G1 X113.541 Y105.381 E0.90379
G1 X114.100 Y102.891 E1.01925
G1 X114.300 Y102.128 E1.05496
G1 X116.906 Y92.577 E1.50294
G1 X119.038 Y92.577 E1.59941
G1 X123.413 Y107.423 E2.29974
G1 X121.727 Y107.423 E2.37604
G1 X119.141 Y98.109 E2.81342
G1 X118.721 Y96.535 E2.88716
G1 X118.145 Y94.108 E3.00001
G1 X117.711 Y94.115 E3.01968
G1 X117.128 Y96.596 E3.13500
G1 X116.753 Y98.068 E3.20373
G1 X114.137 Y107.423 E3.64328
G1 X112.494 Y107.423 E3.71761
G1 X110.013 Y98.555 E4.13428
G1 X109.528 Y96.725 E4.21997
G1 X108.925 Y94.129 E4.34056
G1 X108.488 Y94.129 E4.36037
G1 X107.903 Y96.649 E4.47744
G1 X107.587 Y97.872 E4.53460
G1 X104.884 Y107.423 E4.98374
G1 X103.197 Y107.423 E5.06007
G1 X106.334 Y96.781 E5.56210
G1 X108.716 Y93.903 F7800.000
G1 X107.698 Y92.884 E5.62827 F540.000
G1 X107.572 Y93.312 E5.64875
G1 X108.294 Y94.034 E5.69569
G1 X108.190 Y94.484 E5.71689
G1 X107.446 Y93.740 E5.76526
G1 X107.320 Y94.167 E5.78574
G1 X108.086 Y94.934 E5.83553
G1 X107.982 Y95.383 E5.85673
G1 X107.194 Y94.595 E5.90793
G1 X107.068 Y95.023 E5.92842
G1 X107.877 Y95.833 E5.98104
G1 X107.773 Y96.282 E6.00225
G1 X106.941 Y95.450 E6.05630
G1 X106.815 Y95.878 E6.07678
G1 X107.668 Y96.730 E6.13215
G1 X107.554 Y97.170 E6.15303
G1 X106.689 Y96.306 E6.20919
G1 X106.563 Y96.733 E6.22968
G1 X107.440 Y97.610 E6.28664
G1 X107.323 Y98.047 E6.30741
G1 X106.437 Y97.161 E6.36496
G1 X106.311 Y97.589 E6.38544
G1 X107.201 Y98.478 E6.44325
G1 X107.079 Y98.910 E6.46385
G1 X106.185 Y98.016 E6.52191
G1 X106.059 Y98.444 E6.54239
G1 X106.956 Y99.341 E6.60071
G1 X106.834 Y99.773 E6.62131
G1 X105.933 Y98.872 E6.67988
G1 X105.807 Y99.299 E6.70036
G1 X106.712 Y100.205 E6.75919
G1 X106.590 Y100.636 E6.77979
G1 X105.681 Y99.727 E6.83887
G1 X105.555 Y100.155 E6.85936
G1 X106.468 Y101.068 E6.91869
G1 X106.346 Y101.499 E6.93929
G1 X105.429 Y100.582 E6.99888
G1 X105.303 Y101.010 E7.01937
G1 X106.224 Y101.931 E7.07921
G1 X106.101 Y102.363 E7.09981
G1 X105.176 Y101.438 E7.15991
G1 X105.050 Y101.865 E7.18040
G1 X105.979 Y102.794 E7.24075
G1 X105.857 Y103.226 E7.26136
G1 X104.924 Y102.293 E7.32196
G1 X104.798 Y102.721 E7.34245
G1 X105.735 Y103.657 E7.40331
G1 X105.613 Y104.089 E7.42392
G1 X104.672 Y103.148 E7.48503
G1 X104.546 Y103.576 E7.50552
G1 X105.491 Y104.521 E7.56689
G1 X105.369 Y104.952 E7.58750
G1 X104.420 Y104.004 E7.64912
G1 X104.294 Y104.431 E7.66961
G1 X105.246 Y105.384 E7.73149
G1 X105.124 Y105.815 E7.75210
G1 X104.168 Y104.859 E7.81423
G1 X104.042 Y105.287 E7.83472
G1 X105.002 Y106.247 E7.89711
G1 X104.880 Y106.679 E7.91772
G1 X103.916 Y105.714 E7.98036
G1 X103.790 Y106.142 E8.00085
G1 X104.758 Y107.110 E8.06375
G1 X104.291 Y107.197 E8.08557
G1 X103.664 Y106.570 E8.12633
G1 X103.538 Y106.997 E8.14681
G1 X103.737 Y107.197 E8.15979
G92 E0
G1 X104.298 Y106.648 F7800.000
G1 X104.298 Y106.648 F7800.000
G1 X111.868 Y104.253 F7800.000
G1 X112.805 Y105.190 E0.06090 F540.000
G1 X112.083 Y105.022 E0.09497
G1 X114.045 Y106.983 E0.22243
G1 X114.166 Y106.551 E0.24307
G1 X113.223 Y105.608 E0.30434
G1 X113.718 Y105.550 E0.32727
G1 X114.287 Y106.118 E0.36420
G1 X114.408 Y105.685 E0.38484
G1 X113.820 Y105.097 E0.42304
G1 X113.922 Y104.645 E0.44433
G1 X114.529 Y105.253 E0.48378
G1 X114.650 Y104.820 E0.50442
G1 X114.023 Y104.193 E0.54514
G1 X114.125 Y103.741 E0.56643
G1 X114.771 Y104.387 E0.60840
G1 X114.892 Y103.954 E0.62904
G1 X114.226 Y103.289 E0.67228
G1 X114.329 Y102.838 E0.69352
G1 X115.013 Y103.522 E0.73793
G1 X115.134 Y103.089 E0.75858
G1 X114.444 Y102.399 E0.80341
G1 X114.560 Y101.961 E0.82421
G1 X115.255 Y102.656 E0.86935
G1 X115.376 Y102.224 E0.89000
G1 X114.679 Y101.526 E0.93529
G1 X114.797 Y101.091 E0.95601
G1 X115.497 Y101.791 E1.00145
G1 X115.618 Y101.358 E1.02210
G1 X114.916 Y100.656 E1.06769
G1 X115.035 Y100.221 E1.08841
G1 X115.739 Y100.925 E1.13415
G1 X115.860 Y100.493 E1.15479
G1 X115.154 Y99.786 E1.20069
G1 X115.272 Y99.351 E1.22140
G1 X115.981 Y100.060 E1.26745
G1 X116.102 Y99.627 E1.28809
G1 X115.391 Y98.916 E1.33428
G1 X115.510 Y98.481 E1.35500
G1 X116.223 Y99.195 E1.40134
G1 X116.344 Y98.762 E1.42198
G1 X115.628 Y98.046 E1.46847
G1 X115.747 Y97.611 E1.48919
G1 X116.465 Y98.329 E1.53583
G1 X116.583 Y97.893 E1.55659
G1 X115.866 Y97.176 E1.60315
G1 X115.985 Y96.741 E1.62387
G1 X116.695 Y97.452 E1.67004
G1 X116.808 Y97.011 E1.69096
G1 X116.103 Y96.306 E1.73672
G1 X116.222 Y95.871 E1.75744
G1 X116.920 Y96.569 E1.80276
G1 X117.025 Y96.120 E1.82392
G1 X116.341 Y95.436 E1.86837
G1 X116.459 Y95.001 E1.88909
G1 X117.130 Y95.672 E1.93266
G1 X117.235 Y95.223 E1.95383
G1 X116.578 Y94.566 E1.99653
G1 X116.697 Y94.131 E2.01725
G1 X117.341 Y94.775 E2.05907
G1 X117.446 Y94.326 E2.08024
G1 X116.816 Y93.696 E2.12119
G1 X116.934 Y93.261 E2.14191
G1 X117.566 Y93.893 E2.18293
G1 X118.111 Y93.884 E2.20799
G1 X117.053 Y92.826 E2.27674
G1 X117.584 Y92.803 E2.30114
G1 X119.367 Y94.586 E2.41702
G1 X119.598 Y95.371 E2.45463
G1 X118.419 Y94.192 E2.53126
G1 X118.591 Y94.918 F7800.000
G1 X119.830 Y96.157 E2.61175 F540.000
G1 X120.061 Y96.942 E2.64936
G1 X118.763 Y95.644 E2.73371
G1 X118.935 Y96.369 E2.76798
G1 X120.293 Y97.727 E2.85618
G1 X120.524 Y98.512 E2.89379
G1 X119.137 Y97.125 E2.98394
G1 X119.338 Y97.880 E3.01987
G1 X120.755 Y99.297 E3.11195
G1 X120.987 Y100.082 E3.14956
G1 X119.550 Y98.646 E3.24290
G1 X119.763 Y99.412 E3.27945
G1 X121.218 Y100.867 E3.37400
G1 X121.450 Y101.652 E3.41160
G1 X119.976 Y100.179 E3.50735
G1 X120.189 Y100.946 E3.54391
G1 X121.681 Y102.438 E3.64086
G1 X121.912 Y103.223 E3.67846
G1 X120.402 Y101.712 E3.77661
G1 X120.615 Y102.479 E3.81317
G1 X122.144 Y104.008 E3.91252
G1 X122.375 Y104.793 E3.95013
G1 X120.828 Y103.245 E4.05069
G1 X121.040 Y104.012 E4.08724
G1 X122.607 Y105.578 E4.18900
G1 X122.838 Y106.363 E4.22661
G1 X121.253 Y104.779 E4.32957
G1 X121.466 Y105.545 E4.36613
G1 X123.069 Y107.148 E4.47029
G1 X122.564 Y107.197 E4.49360
G1 X121.679 Y106.312 E4.55112
G92 E0
G1 X113.686 Y106.156 F7800.000
G1 X113.362 Y106.402 F7800.000
G1 X113.267 Y106.402 F7800.000
G1 X112.943 Y106.158 F7800.000
G1 X112.513 Y106.559 F7800.000
G1 X113.151 Y107.197 E0.04144 F540.000
G1 X113.705 Y107.197 E0.06688
G1 X112.298 Y105.791 E0.15827
G1 X112.642 Y104.474 F7800.000
G1 X111.653 Y103.484 E0.22257 F540.000
G1 X112.293 Y103.017 F7800.000
G1 X111.223 Y101.947 E0.29214 F540.000
G1 X111.008 Y101.178 E0.32882
G1 X112.089 Y102.259 E0.39906
G1 X111.884 Y101.500 F7800.000
G1 X110.793 Y100.409 E0.46995 F540.000
G1 X110.577 Y99.640 E0.50663
G1 X111.679 Y100.741 E0.57818
G1 X111.474 Y99.983 E0.61428
G1 X110.362 Y98.871 E0.68650
G1 X110.153 Y98.108 E0.72285
G1 X111.269 Y99.224 E0.79535
G1 X111.064 Y98.465 E0.83146
G1 X109.953 Y97.355 E0.90364
G1 X109.753 Y96.601 E0.93947
G1 X110.858 Y97.706 E1.01127
G1 X110.648 Y96.942 E1.04769
G1 X109.584 Y95.878 E1.11679
G1 X109.417 Y95.157 E1.15080
G1 X110.437 Y96.178 E1.21710
G1 X110.227 Y95.414 E1.25352
G1 X109.250 Y94.436 E1.31702
G1 X110.017 Y94.649 F7800.000
G1 X108.170 Y92.803 E1.43700 F540.000
G1 X108.724 Y92.803 E1.46244
G1 X109.806 Y93.885 E1.53276
G1 X109.596 Y93.121 E1.56918
G1 X109.278 Y92.803 E1.58985
G92 E0
G1 X109.116 Y93.353 F7800.000
G1 X109.116 Y93.353 F7800.000
G1 X118.904 Y93.016 F7800.000
G1 X118.691 Y92.803 E0.01385 F540.000
G1 X118.137 Y92.803 E0.03929
G1 X119.136 Y93.801 E0.10416
G92 E0
G1 X121.252 Y102.830 F7800.000
G1 X113.686 Y106.156 F7800.000
G1 X111.438 Y102.715 F7800.000
G1 X112.480 Y103.757 E0.06770 F540.000
G92 E0
G1 X109.796 Y98.614 F7800.000
G1 X108.693 Y102.830 F7800.000
G1 X105.054 Y108.648 F7800.000
G1 X97.104 Y108.648 F7800.000
G1 X91.322 Y106.473 F7800.000
G1 X91.324 Y102.414 F7800.000
G1 X93.331 Y101.854 F7800.000
G1 X93.815 Y97.284 F7800.000
G1 X96.803 Y107.423 E0.47830 F378.000
G1 X95.117 Y107.423 E0.55459
G1 X92.530 Y98.109 E0.99198
G1 X92.110 Y96.535 E1.06571
G1 X91.535 Y94.108 E1.17856
G1 X91.100 Y94.115 E1.19823
G1 X90.518 Y96.596 E1.31355
G1 X90.142 Y98.068 E1.38228
G1 X87.526 Y107.423 E1.82184
G1 X85.883 Y107.423 E1.89616
G1 X83.403 Y98.555 E2.31284
G1 X82.917 Y96.725 E2.39853
G1 X82.315 Y94.129 E2.51912
G1 X81.877 Y94.129 E2.53892
G1 X81.293 Y96.649 E2.65600
G1 X80.977 Y97.872 E2.71316
G1 X78.274 Y107.423 E3.16230
G1 X76.587 Y107.423 E3.23863
G1 X80.963 Y92.577 E3.93898
G1 X83.095 Y92.577 E4.03547
G1 X84.493 Y97.654 E4.27375
G1 X86.014 Y103.285 E4.53769 F378.000
G1 X86.491 Y105.383 E4.63501
G1 X86.930 Y105.381 E4.65491
G1 X87.490 Y102.891 E4.77037
G1 X87.689 Y102.128 E4.80607
G1 X90.296 Y92.577 E5.25405
G1 X92.427 Y92.577 E5.35052
G1 X93.749 Y97.062 E5.56211
G1 X92.756 Y94.586 F7800.000
G1 X90.973 Y92.803 E5.67799 F540.000
G1 X91.500 Y93.884 F7800.000
G1 X90.442 Y92.826 E5.74673 F540.000
G1 X90.324 Y93.261 E5.76745
G1 X90.955 Y93.892 E5.80848
G1 X90.835 Y94.326 E5.82916
G1 X90.205 Y93.696 E5.87011
G1 X90.086 Y94.131 E5.89083
G1 X90.730 Y94.775 E5.93265
G1 X90.625 Y95.223 E5.95382
G1 X89.968 Y94.566 E5.99651
G1 X89.849 Y95.001 E6.01723
G1 X90.519 Y95.672 E6.06080
G1 X90.414 Y96.120 E6.08196
G1 X89.730 Y95.436 E6.12641
G1 X89.611 Y95.871 E6.14712
G1 X90.309 Y96.569 E6.19244
G1 X90.197 Y97.010 E6.21338
G1 X89.493 Y96.306 E6.25914
G1 X89.374 Y96.741 E6.27986
G1 X90.084 Y97.452 E6.32602
G1 X89.972 Y97.893 E6.34694
G1 X89.255 Y97.176 E6.39351
G1 X89.137 Y97.611 E6.41423
G1 X89.854 Y98.329 E6.46087
G1 X89.733 Y98.762 E6.48151
G1 X89.018 Y98.046 E6.52800
G1 X88.899 Y98.481 E6.54872
G1 X89.612 Y99.195 E6.59506
G1 X89.491 Y99.627 E6.61571
G1 X88.780 Y98.916 E6.66190
G1 X88.662 Y99.351 E6.68261
G1 X89.370 Y100.060 E6.72866
G1 X89.249 Y100.493 E6.74930
G1 X88.543 Y99.786 E6.79519
G1 X88.424 Y100.221 E6.81591
G1 X89.128 Y100.925 E6.86165
G1 X89.007 Y101.358 E6.88230
G1 X88.306 Y100.656 E6.92789
G1 X88.187 Y101.091 E6.94861
G1 X88.886 Y101.791 E6.99405
G1 X88.765 Y102.224 E7.01470
G1 X88.068 Y101.526 E7.05999
G1 X87.949 Y101.961 E7.08071
G1 X88.644 Y102.656 E7.12585
G1 X88.523 Y103.089 E7.14650
G1 X87.833 Y102.399 E7.19133
G1 X87.719 Y102.838 E7.21218
G1 X88.402 Y103.522 E7.25659
G1 X88.281 Y103.954 E7.27724
G1 X87.616 Y103.289 E7.32047
G1 X87.514 Y103.741 E7.34177
G1 X88.160 Y104.387 E7.38374
G1 X88.039 Y104.820 F7800.000
G1 X87.413 Y104.193 E7.42446 F540.000
G1 X87.311 Y104.645 E7.44575
G1 X87.918 Y105.253 E7.48520
G1 X87.797 Y105.685 E7.50585
G1 X87.209 Y105.098 E7.54404
G1 X87.108 Y105.550 E7.56533
G1 X87.676 Y106.118 E7.60226
G1 X87.555 Y106.551 E7.62291
G1 X86.612 Y105.608 E7.68417
G1 X86.194 Y105.190 F7800.000
G1 X85.257 Y104.253 E7.74507 F540.000
G1 X85.869 Y103.757 F7800.000
G1 X84.827 Y102.715 E7.81277 F540.000
G1 X85.478 Y102.259 F7800.000
G1 X84.397 Y101.178 E7.88300 F540.000
G1 X84.612 Y101.947 E7.91968
G1 X85.683 Y103.017 E7.98926
G1 X85.042 Y103.484 F7800.000
G1 X86.032 Y104.474 E8.05356 F540.000
G1 X85.472 Y105.022 F7800.000
G1 X87.434 Y106.983 E8.18102 F540.000
G1 X87.094 Y107.197 E8.19947
G1 X85.687 Y105.791 E8.29086
G1 X85.902 Y106.559 E8.32754
G1 X86.540 Y107.197 E8.36898
G1 X84.182 Y100.409 F7800.000
G1 X85.273 Y101.500 E8.43987 F540.000
G1 X85.068 Y100.741 E8.47598
G1 X83.967 Y99.640 E8.54753
G1 X83.752 Y98.871 E8.58421
G1 X84.863 Y99.983 E8.65642
G1 X84.658 Y99.224 E8.69253
G1 X83.542 Y98.108 E8.76503
G1 X83.342 Y97.355 E8.80085
G1 X84.453 Y98.465 E8.87304
G1 X84.248 Y97.706 E8.90919
G1 X83.143 Y96.601 E8.98099
G1 X84.037 Y96.942 F7800.000
G1 X82.974 Y95.878 E9.05009 F540.000
G1 X82.806 Y95.157 E9.08410
G1 X83.827 Y96.178 E9.15041
G1 X83.616 Y95.414 E9.18682
G1 X82.639 Y94.436 E9.25033
G1 X82.106 Y93.903 F7800.000
G1 X81.087 Y92.884 E9.31649 F540.000
G1 X80.961 Y93.312 E9.33698
G1 X81.684 Y94.034 E9.38392
G1 X81.579 Y94.484 E9.40512
G1 X80.835 Y93.740 E9.45348
G1 X80.709 Y94.167 E9.47397
G1 X81.475 Y94.934 E9.52375
G1 X81.371 Y95.383 E9.54495
G1 X80.583 Y94.595 E9.59615
G1 X80.457 Y95.023 E9.61664
G1 X81.267 Y95.833 E9.66926
G1 X81.163 Y96.282 E9.69046
G1 X80.331 Y95.450 E9.74451
G1 X80.205 Y95.878 E9.76499
G1 X81.057 Y96.730 E9.82036
G1 X80.943 Y97.170 E9.84124
G1 X80.079 Y96.306 E9.89740
G1 X79.953 Y96.733 E9.91788
G1 X80.829 Y97.610 E9.97485
G1 X80.712 Y98.047 E9.99562
G1 X79.827 Y97.161 E10.05316
G1 X79.701 Y97.589 E10.07365
G1 X80.590 Y98.478 E10.13145
G1 X80.468 Y98.910 E10.15206
G1 X79.574 Y98.016 E10.21012
G1 X79.448 Y98.444 E10.23060
G1 X80.346 Y99.341 E10.28891
G1 X80.224 Y99.773 E10.30952
G1 X79.322 Y98.872 E10.36809
G1 X79.196 Y99.299 E10.38857
G1 X80.102 Y100.205 E10.44739
G1 X79.979 Y100.636 E10.46800
G1 X79.070 Y99.727 E10.52708
G1 X78.944 Y100.155 E10.54756
G1 X79.857 Y101.068 E10.60689
G1 X79.735 Y101.499 E10.62750
G1 X78.818 Y100.582 E10.68709
G1 X78.692 Y101.010 E10.70757
G1 X79.613 Y101.931 E10.76741
G1 X79.491 Y102.363 E10.78802
G1 X78.566 Y101.438 E10.84812
G1 X78.440 Y101.865 E10.86860
G1 X79.369 Y102.794 E10.92896
G1 X79.247 Y103.226 E10.94956
G1 X78.314 Y102.293 E11.01017
G1 X78.188 Y102.721 E11.03066
G1 X79.124 Y103.657 E11.09152
G1 X79.002 Y104.089 E11.11213
G1 X78.062 Y103.148 E11.17324
G1 X77.936 Y103.576 E11.19373
G1 X78.880 Y104.521 E11.25510
G1 X78.758 Y104.952 E11.27571
G1 X77.809 Y104.004 E11.33733
G1 X77.683 Y104.431 E11.35782
G1 X78.636 Y105.384 E11.41970
G1 X78.514 Y105.815 E11.44031
G1 X77.557 Y104.859 E11.50244
G1 X77.431 Y105.287 E11.52293
G1 X78.391 Y106.247 E11.58532
G1 X78.269 Y106.679 E11.60593
G1 X77.305 Y105.714 E11.66858
G1 X77.179 Y106.142 E11.68906
G1 X78.147 Y107.110 E11.75196
G1 X77.680 Y107.197 E11.77378
G1 X77.053 Y106.570 E11.81454
G1 X76.927 Y106.997 E11.83503
G1 X77.127 Y107.197 E11.84800
G92 E0
G1 X79.236 Y101.176 F7800.000
G1 X79.236 Y101.176 F7800.000
G1 X83.406 Y94.649 F7800.000
G1 X81.560 Y92.803 E0.11997 F540.000
G1 X82.113 Y92.803 E0.14541
G1 X83.196 Y93.885 E0.21574
G1 X82.985 Y93.121 E0.25215
G1 X82.667 Y92.803 E0.27282
G92 E0
G1 X82.505 Y93.353 F7800.000
G1 X82.505 Y93.353 F7800.000
G1 X91.808 Y94.192 F7800.000
G1 X92.988 Y95.371 E0.07663 F540.000
G1 X93.219 Y96.157 E0.11424
G1 X91.980 Y94.918 E0.19473
G1 X92.152 Y95.644 E0.22900
G1 X93.451 Y96.942 E0.31335
G1 X93.682 Y97.727 E0.35096
G1 X92.325 Y96.369 E0.43917
G1 X92.526 Y97.124 E0.47507
G1 X93.913 Y98.512 E0.56523
G1 X94.145 Y99.297 E0.60284
G1 X92.728 Y97.880 E0.69492
G1 X92.940 Y98.646 E0.73142
G1 X94.376 Y100.082 E0.82477
G1 X94.608 Y100.867 E0.86238
G1 X93.152 Y99.412 E0.95693
G1 X93.365 Y100.179 E0.99349
G1 X94.839 Y101.652 E1.08924
G1 X95.070 Y102.438 E1.12685
G1 X93.578 Y100.945 E1.22380
G1 X93.791 Y101.712 E1.26036
G1 X95.302 Y103.223 E1.35851
G1 X95.533 Y104.008 E1.39612
G1 X94.004 Y102.479 E1.49548
G1 X94.217 Y103.245 E1.53204
G1 X95.765 Y104.793 E1.63260
G1 X95.996 Y105.578 E1.67020
G1 X94.430 Y104.012 E1.77197
G1 X94.643 Y104.779 E1.80852
G1 X96.227 Y106.363 E1.91149
G1 X96.459 Y107.148 E1.94909
G1 X94.856 Y105.545 E2.05326
G1 X95.068 Y106.312 E2.08982
G1 X95.954 Y107.197 E2.14733
G1 X92.525 Y93.801 F7800.000
G1 X91.527 Y92.803 E2.21220 F540.000
G1 X92.081 Y92.803 E2.23764
G1 X92.294 Y93.016 E2.25149
M106 S255
G92 E0
G1 Z0.600 F7800.000
G1 X122.633 Y107.648 F7800.000
G1 X119.848 Y97.917 E3.03301 F600.000
G1 X119.411 Y96.361 E3.51720
G1 X118.819 Y94.134 E4.20758
G1 X118.425 Y93.397 E4.45820
G1 X117.953 Y93.344 E4.60061
G1 X117.519 Y93.379 E4.73108
G1 X117.092 Y94.150 E4.99506
G1 X116.126 Y97.900 E6.15549
G1 X114.711 Y103.040 E7.75279
G1 X114.133 Y105.330 E8.46064
G1 X113.362 Y106.402 E8.85635
G1 X113.268 Y106.402 E8.88449
G1 X112.503 Y105.333 E9.27837
G1 X112.023 Y103.435 E9.86511
G1 X110.145 Y96.571 E11.99745
