; generated by Slic3r 1.2.9 on 2016-03-11 at 01:32:01

; external perimeters extrusion width = 1.54mm
; perimeters extrusion width = 2.62mm
; infill extrusion width = 6.27mm
; solid infill extrusion width = 2.62mm
; top infill extrusion width = 2.62mm

M107
M104 S30 ; set temperature
G28 ; home all axes
G1 Z5 F5000 ; lift nozzle
M302
M92 E10000
M500
M501
G1 E100
M109 S30 ; wait for temperature to be reached
G21 ; set units to millimeters
G90 ; use absolute coordinates
M82 ; use absolute distances for extrusion
G92 E0
G1 Z0.300 F7800.000
G1 X109.823 Y104.210 F7800.000
G1 X112.674 Y100.299 E0.21902 F378.000
G1 X107.038 Y92.577 E0.65162
G1 X108.766 Y92.577 E0.72980
G1 X113.019 Y98.666 E1.06591
G1 X113.556 Y99.435 E1.10832 F378.000
G1 X118.246 Y92.577 E1.48427
G1 X119.982 Y92.577 E1.56279
G1 X114.479 Y100.376 E1.99469
G1 X119.534 Y107.423 E2.38711
G1 X117.802 Y107.423 E2.46545
G1 X113.567 Y101.251 E2.80414
G1 X109.210 Y107.423 E3.14600
G1 X107.481 Y107.423 E3.22423
G1 X109.687 Y104.397 E3.39367
G1 X108.228 Y107.197 F7800.000
G1 X108.030 Y106.999 E3.40650 F540.000
G1 X108.263 Y106.680 E3.42463
G1 X108.780 Y107.197 E3.45818
G1 X109.215 Y107.080 E3.47884
G1 X108.495 Y106.360 E3.52551
G1 X108.728 Y106.040 E3.54363
G1 X109.444 Y106.756 E3.59002
G1 X109.673 Y106.432 E3.60819
G1 X108.961 Y105.721 E3.65430
G1 X109.194 Y105.401 E3.67243
G1 X109.901 Y106.108 E3.71825
G1 X110.130 Y105.784 E3.73643
G1 X109.427 Y105.082 E3.78198
G1 X109.660 Y104.762 E3.80010
G1 X110.358 Y105.461 E3.84537
G1 X110.587 Y105.137 E3.86355
G1 X109.893 Y104.443 E3.90854
G1 X110.126 Y104.123 E3.92666
G1 X110.816 Y104.813 E3.97138
G1 X111.044 Y104.489 E3.98955
G1 X110.359 Y103.804 E4.03398
G1 X110.592 Y103.484 E4.05211
G1 X111.273 Y104.165 E4.09627
G1 X111.502 Y103.841 E4.11444
G1 X110.825 Y103.165 E4.15832
G1 X111.058 Y102.845 E4.17644
G1 X111.730 Y103.518 E4.22004
G1 X111.959 Y103.194 E4.23821
G1 X111.291 Y102.525 E4.28153
G1 X111.524 Y102.206 E4.29966
G1 X112.188 Y102.870 E4.34270
G1 X112.416 Y102.546 E4.36087
G1 X111.757 Y101.886 E4.40363
G1 X111.989 Y101.567 E4.42176
G1 X112.645 Y102.222 E4.46424
G1 X112.873 Y101.898 E4.48241
G1 X112.222 Y101.247 E4.52462
G1 X112.455 Y100.928 E4.54274
G1 X113.102 Y101.574 E4.58467
G1 X113.331 Y101.251 E4.60284
G1 X112.688 Y100.608 E4.64449
G1 X112.921 Y100.289 E4.66261
G1 X116.951 Y104.318 E4.92385
G1 X116.399 Y104.872 F7800.000
G1 X118.725 Y107.197 E5.07461 F540.000
G1 X118.172 Y107.197 E5.09994
G1 X117.607 Y106.632 E5.13657
G1 X118.353 Y106.273 F7800.000
G1 X115.191 Y103.111 E5.34152 F540.000
G1 X115.549 Y102.364 F7800.000
G1 X111.815 Y98.630 E5.58359 F540.000
G1 X112.001 Y97.711 F7800.000
G1 X108.828 Y94.538 E5.78929 F540.000
G1 X109.441 Y94.046 F7800.000
G1 X108.198 Y92.803 E5.86986 F540.000
G1 X107.645 Y92.803 E5.89519
G1 X110.721 Y95.878 E6.09457
G1 X110.322 Y96.584 F7800.000
G1 X114.189 Y100.451 E6.34527 F540.000
G1 X114.417 Y100.127 E6.36344
G1 X113.764 Y99.474 E6.40579
G1 X113.988 Y99.146 E6.42401
G1 X114.646 Y99.803 E6.46662
G1 X114.874 Y99.479 E6.48479
G1 X114.213 Y98.818 E6.52768
G1 X114.437 Y98.490 E6.54590
G1 X115.103 Y99.155 E6.58905
G1 X115.331 Y98.831 E6.60723
G1 X114.662 Y98.162 E6.65065
G1 X114.886 Y97.834 E6.66887
G1 X115.560 Y98.508 E6.71256
G1 X115.789 Y98.184 E6.73073
G1 X115.110 Y97.506 E6.77469
G1 X115.335 Y97.177 E6.79291
G1 X116.017 Y97.860 E6.83714
G1 X116.246 Y97.536 E6.85531
G1 X115.559 Y96.849 E6.89981
G1 X115.784 Y96.521 E6.91803
G1 X116.474 Y97.212 E6.96280
G1 X116.703 Y96.888 E6.98097
G1 X116.008 Y96.193 E7.02601
G1 X116.232 Y95.865 E7.04423
G1 X116.931 Y96.564 E7.08954
G1 X117.160 Y96.240 E7.10771
G1 X116.457 Y95.537 E7.15329
G1 X116.681 Y95.209 E7.17151
G1 X117.388 Y95.916 E7.21735
G1 X117.617 Y95.592 E7.23552
G1 X116.906 Y94.881 E7.28164
G1 X117.130 Y94.553 E7.29986
G1 X117.846 Y95.268 E7.34624
G1 X118.074 Y94.944 E7.36441
G1 X117.354 Y94.225 E7.41107
G1 X117.579 Y93.897 E7.42929
G1 X118.303 Y94.621 E7.47621
G1 X118.531 Y94.297 E7.49438
G1 X117.803 Y93.569 E7.54157
G1 X118.028 Y93.241 E7.55979
G1 X118.760 Y93.973 E7.60725
G1 X118.988 Y93.649 E7.62542
G1 X118.252 Y92.913 E7.67315
G1 X118.695 Y92.803 E7.69407
G1 X119.217 Y93.325 E7.72790
G1 X119.247 Y92.803 E7.75186
G1 X119.445 Y93.001 E7.76470
G92 E0
G1 X113.554 Y99.039 F7800.000
G1 X109.925 Y91.624 F7800.000
G1 X106.595 Y91.352 F7800.000
G1 X100.402 Y108.648 F7800.000
G1 X96.725 Y108.071 F7800.000
G1 X94.623 Y102.409 F7800.000
G1 X94.629 Y98.440 F7800.000
G1 X95.612 Y98.168 F7800.000
G1 X95.726 Y92.577 F7800.000
G1 X100.101 Y107.423 E0.70034 F378.000
G1 X98.415 Y107.423 E0.77663
G1 X95.829 Y98.109 E1.21402
G1 X95.408 Y96.535 E1.28775
G1 X94.833 Y94.108 E1.40060
G1 X94.398 Y94.115 E1.42028
G1 X93.816 Y96.596 E1.53559
G1 X93.441 Y98.068 E1.60432
G1 X90.824 Y107.423 E2.04388
G1 X89.182 Y107.423 E2.11821
G1 X86.701 Y98.555 E2.53488
G1 X86.216 Y96.725 E2.62057
G1 X85.613 Y94.129 E2.74116
G1 X85.175 Y94.129 E2.76096
G1 X84.591 Y96.649 E2.87804
G1 X84.275 Y97.872 E2.93520
G1 X81.572 Y107.423 E3.38434
G1 X79.885 Y107.423 E3.46067
G1 X84.261 Y92.577 E4.16102
G1 X86.394 Y92.577 E4.25751
G1 X87.792 Y97.654 E4.49579
G1 X89.313 Y103.285 E4.75973 F378.000
G1 X89.789 Y105.383 E4.85705
G1 X90.229 Y105.381 E4.87695
G1 X90.788 Y102.891 E4.99241
G1 X90.988 Y102.128 E5.02811
G1 X93.594 Y92.577 E5.47610
G1 X95.495 Y92.577 E5.56211
G1 X95.592 Y93.016 F7800.000
G1 X95.379 Y92.803 E5.57596 F540.000
G1 X94.825 Y92.803 E5.60140
G1 X95.824 Y93.801 E5.66627
G1 X95.107 Y94.192 F7800.000
G1 X96.286 Y95.371 E5.74290 F540.000
G1 X96.518 Y96.157 E5.78051
G1 X95.279 Y94.918 E5.86100
G1 X95.451 Y95.644 E5.89527
G1 X96.749 Y96.942 E5.97962
G1 X96.981 Y97.727 E6.01723
G1 X95.623 Y96.369 E6.10543
G1 X95.824 Y97.124 E6.14134
G1 X97.212 Y98.512 E6.23150
G1 X97.443 Y99.297 E6.26910
G1 X96.026 Y97.880 E6.36119
G1 X96.238 Y98.646 E6.39769
G1 X97.675 Y100.082 E6.49104
G1 X97.906 Y100.867 E6.52865
G1 X96.451 Y99.412 E6.62320
G1 X96.664 Y100.179 E6.65975
G1 X98.138 Y101.652 E6.75551
G1 X98.369 Y102.438 E6.79311
G1 X96.877 Y100.945 E6.89007
G1 X97.090 Y101.712 E6.92662
G1 X98.600 Y103.223 E7.02478
G1 X98.832 Y104.008 E7.06239
G1 X97.303 Y102.479 E7.16175
G1 X97.515 Y103.245 E7.19830
G1 X99.063 Y104.793 E7.29886
G1 X99.294 Y105.578 E7.33647
G1 X97.728 Y104.012 E7.43823
G1 X97.941 Y104.779 E7.47479
G1 X99.526 Y106.363 E7.57775
G1 X99.757 Y107.148 E7.61536
G1 X98.154 Y105.545 E7.71953
G1 X98.367 Y106.312 E7.75608
G1 X99.252 Y107.197 E7.81360
G92 E0
G1 X99.004 Y106.648 F7800.000
G1 X99.004 Y106.648 F7800.000
G1 X91.338 Y104.820 F7800.000
G1 X90.711 Y104.193 E0.04072 F540.000
G1 X90.609 Y104.645 E0.06201
G1 X91.217 Y105.253 E0.10146
G1 X91.096 Y105.685 E0.12210
G1 X90.508 Y105.098 E0.16030
G1 X90.406 Y105.550 E0.18159
G1 X90.975 Y106.118 E0.21852
G1 X90.854 Y106.551 E0.23916
G1 X89.911 Y105.608 E0.30043
G1 X89.493 Y105.190 F7800.000
G1 X88.556 Y104.253 E0.36132 F540.000
G1 X89.168 Y103.757 F7800.000
G1 X88.126 Y102.715 E0.42903 F540.000
G1 X88.776 Y102.259 F7800.000
G1 X87.696 Y101.178 E0.49926 F540.000
G1 X87.911 Y101.947 E0.53594
G1 X88.981 Y103.017 E0.60551
G1 X88.341 Y103.484 F7800.000
G1 X89.330 Y104.474 E0.66981 F540.000
G1 X88.771 Y105.022 F7800.000
G1 X90.733 Y106.983 E0.79728 F540.000
G1 X90.392 Y107.197 E0.81573
G1 X88.986 Y105.791 E0.90712
G1 X89.201 Y106.559 E0.94380
G1 X89.839 Y107.197 E0.98524
G1 X91.459 Y104.387 F7800.000
G1 X90.813 Y103.741 E1.02721 F540.000
G1 X90.914 Y103.289 E1.04850
G1 X91.580 Y103.954 E1.09174
G1 X91.701 Y103.522 E1.11239
G1 X91.017 Y102.838 E1.15680
G1 X91.132 Y102.399 E1.17765
G1 X91.822 Y103.089 E1.22248
G1 X91.943 Y102.656 E1.24313
G1 X91.248 Y101.961 E1.28827
G1 X91.367 Y101.526 E1.30899
G1 X92.064 Y102.224 E1.35428
G1 X92.185 Y101.791 E1.37493
G1 X91.485 Y101.091 E1.42037
G1 X91.604 Y100.656 E1.44109
G1 X92.306 Y101.358 E1.48668
G1 X92.427 Y100.925 E1.50733
G1 X91.723 Y100.221 E1.55307
G1 X91.842 Y99.786 E1.57379
G1 X92.548 Y100.493 E1.61968
G1 X92.669 Y100.060 E1.64032
G1 X91.960 Y99.351 E1.68636
G1 X92.079 Y98.916 E1.70708
G1 X92.790 Y99.627 E1.75327
G1 X92.911 Y99.195 E1.77392
G1 X92.198 Y98.481 E1.82026
G1 X92.316 Y98.046 E1.84098
G1 X93.032 Y98.762 E1.88747
G1 X93.153 Y98.329 E1.90811
G1 X92.435 Y97.611 E1.95475
G1 X92.554 Y97.176 E1.97547
G1 X93.270 Y97.893 E2.02204
G1 X93.383 Y97.452 E2.04296
G1 X92.673 Y96.741 E2.08912
G1 X92.791 Y96.306 E2.10984
G1 X93.495 Y97.010 E2.15560
G1 X93.607 Y96.569 E2.17654
G1 X92.910 Y95.871 E2.22185
G1 X93.029 Y95.436 E2.24257
G1 X93.713 Y96.120 E2.28702
G1 X93.818 Y95.672 E2.30818
G1 X93.147 Y95.001 E2.35175
G1 X93.266 Y94.566 E2.37247
G1 X93.923 Y95.223 E2.41516
G1 X94.028 Y94.775 E2.43633
G1 X93.385 Y94.131 E2.47815
G1 X93.504 Y93.696 E2.49887
G1 X94.134 Y94.326 E2.53982
G1 X94.254 Y93.892 E2.56050
G1 X93.622 Y93.261 E2.60153
G1 X93.741 Y92.826 E2.62224
G1 X94.799 Y93.884 E2.69099
G1 X94.272 Y92.803 F7800.000
G1 X96.055 Y94.586 E2.80687 F540.000
G92 E0
G1 X85.804 Y93.353 F7800.000
G1 X85.804 Y93.353 F7800.000
G1 X87.336 Y96.942 F7800.000
G1 X86.272 Y95.878 E0.06910 F540.000
G1 X86.105 Y95.157 E0.10311
G1 X87.125 Y96.178 E0.16941
G1 X86.915 Y95.414 E0.20583
G1 X85.938 Y94.436 E0.26934
G1 X85.404 Y93.903 F7800.000
G1 X84.386 Y92.884 E0.33550 F540.000
G1 X84.260 Y93.312 E0.35599
G1 X84.982 Y94.034 E0.40293
G1 X84.878 Y94.484 E0.42413
G1 X84.134 Y93.740 E0.47249
G1 X84.008 Y94.167 E0.49298
G1 X84.774 Y94.934 E0.54276
G1 X84.670 Y95.383 E0.56396
G1 X83.881 Y94.595 E0.61516
G1 X83.755 Y95.023 E0.63565
G1 X84.565 Y95.833 E0.68827
G1 X84.461 Y96.282 E0.70947
G1 X83.629 Y95.450 E0.76352
G1 X83.503 Y95.878 E0.78400
G1 X84.355 Y96.730 E0.83936
G1 X84.242 Y97.170 E0.86024
G1 X83.377 Y96.306 E0.91641
G1 X83.251 Y96.733 E0.93689
G1 X84.128 Y97.610 E0.99386
G1 X84.011 Y98.047 E1.01463
G1 X83.125 Y97.161 E1.07217
G1 X82.999 Y97.589 E1.09266
G1 X83.889 Y98.478 E1.15046
G1 X83.766 Y98.910 E1.17107
G1 X82.873 Y98.016 E1.22912
G1 X82.747 Y98.444 E1.24961
G1 X83.644 Y99.341 E1.30792
G1 X83.522 Y99.773 E1.32853
G1 X82.621 Y98.872 E1.38709
G1 X82.495 Y99.299 E1.40758
G1 X83.400 Y100.205 E1.46640
G1 X83.278 Y100.636 E1.48701
G1 X82.369 Y99.727 E1.54609
G1 X82.243 Y100.155 E1.56657
G1 X83.156 Y101.068 E1.62590
G1 X83.034 Y101.499 E1.64651
G1 X82.117 Y100.582 E1.70610
G1 X81.990 Y101.010 E1.72658
G1 X82.911 Y101.931 E1.78642
G1 X82.789 Y102.363 E1.80703
G1 X81.864 Y101.438 E1.86713
G1 X81.738 Y101.865 E1.88761
G1 X82.667 Y102.794 E1.94796
G1 X82.545 Y103.226 E1.96857
G1 X81.612 Y102.293 E2.02918
G1 X81.486 Y102.721 E2.04966
G1 X82.423 Y103.657 E2.11053
G1 X82.301 Y104.089 E2.13113
G1 X81.360 Y103.148 E2.19225
G1 X81.234 Y103.576 E2.21274
G1 X82.179 Y104.521 E2.27411
G1 X82.056 Y104.952 E2.29472
G1 X81.108 Y104.004 E2.35634
G1 X80.982 Y104.431 E2.37683
G1 X81.934 Y105.384 E2.43871
G1 X81.812 Y105.815 E2.45932
G1 X80.856 Y104.859 E2.52145
G1 X80.730 Y105.287 E2.54194
G1 X81.690 Y106.247 E2.60433
G1 X81.568 Y106.679 E2.62494
G1 X80.604 Y105.714 E2.68758
G1 X80.478 Y106.142 E2.70807
G1 X81.446 Y107.110 E2.77097
G1 X80.979 Y107.197 E2.79279
G1 X80.352 Y106.570 E2.83355
G1 X80.225 Y106.997 E2.85403
G1 X80.425 Y107.197 E2.86701
G92 E0
G1 X82.535 Y101.176 F7800.000
G1 X82.535 Y101.176 F7800.000
G1 X87.480 Y100.409 F7800.000
G1 X88.572 Y101.500 E0.07089 F540.000
G1 X88.367 Y100.741 E0.10700
G1 X87.265 Y99.640 E0.17855
G1 X87.050 Y98.871 E0.21523
G1 X88.162 Y99.983 E0.28744
G1 X87.957 Y99.224 E0.32355
G1 X86.841 Y98.108 E0.39605
G1 X86.641 Y97.355 E0.43188
G1 X87.752 Y98.465 E0.50406
G1 X87.546 Y97.706 E0.54021
G1 X86.441 Y96.601 E0.61201
G1 X86.704 Y94.649 F7800.000
G1 X84.858 Y92.803 E0.73199 F540.000
G1 X85.412 Y92.803 E0.75743
G1 X86.494 Y93.885 E0.82775
G1 X86.284 Y93.121 E0.86416
G1 X85.966 Y92.803 E0.88483
M106 S255
G92 E0
G1 Z0.600 F7800.000
G1 X119.266 Y92.352 F7800.000
G1 X114.277 Y99.533 E2.62026 F600.000
G1 X114.002 Y99.844 E2.74446
G1 X113.579 Y100.224 E2.91494
G1 X113.571 Y100.459 E2.98522
G1 X114.034 Y100.892 E3.17516
G1 X114.269 Y101.162 E3.28236
G1 X118.819 Y107.648 E5.65652
G1 X116.196 Y102.630 F7800.000
G1 X113.101 Y99.785 E6.91634 F600.000
G1 X112.866 Y99.520 E7.02241
G1 X107.747 Y92.352 E9.66156
G92 E0
G1 X108.189 Y107.648 F7800.000
G1 X112.855 Y101.144 E2.39857 F600.000
G1 X113.135 Y100.838 E2.52286
G1 X116.255 Y98.128 E3.76123
G92 E0
G1 X107.039 Y107.648 F7800.000
G1 X103.755 Y105.952 F7800.000
G1 X103.077 Y106.860 F7800.000
G1 X100.402 Y107.648 F7800.000
G1 X99.321 Y107.648 F7800.000
G1 X96.536 Y97.917 E3.03301 F600.000
G1 X96.099 Y96.361 E3.51720
G1 X95.507 Y94.134 E4.20759
G1 X95.113 Y93.397 E4.45821
G1 X94.641 Y93.344 E4.60061
G1 X94.207 Y93.379 E4.73109
G1 X93.780 Y94.150 E4.99505
G1 X92.814 Y97.900 E6.15551
G1 X91.398 Y103.040 E7.75283
G1 X90.821 Y105.330 E8.46067
G1 X90.050 Y106.402 E8.85636
G1 X89.956 Y106.402 E8.88453
G1 X89.191 Y105.333 E9.27839
G1 X88.711 Y103.435 E9.86515
G1 X86.833 Y96.571 E11.99749
G1 X86.224 Y94.170 E12.73968
G1 X85.780 Y93.383 E13.01065
G1 X85.354 Y93.353 E13.13865
G1 X84.883 Y93.408 E13.28071
G1 X84.489 Y94.153 E13.53321
G1 X83.546 Y97.675 E14.62567
G1 X80.665 Y107.648 E17.73629
G92 E0
G1 Z0.900 F7800.000
G1 X119.266 Y92.352 F7800.000
G1 X114.277 Y99.533 E2.62027 F600.000
G1 X114.002 Y99.844 E2.74446
G1 X113.579 Y100.224 E2.91494
G1 X113.571 Y100.459 E2.98522
G1 X114.034 Y100.892 E3.17516
G1 X114.269 Y101.162 E3.28236
G1 X118.819 Y107.648 E5.65652
G1 X116.196 Y102.630 F7800.000
G1 X113.101 Y99.785 E6.91634 F600.000
G1 X112.866 Y99.520 E7.02241
G1 X107.747 Y92.352 E9.66157
G92 E0
G1 X108.189 Y107.648 F7800.000
G1 X112.855 Y101.144 E2.39857 F600.000
G1 X113.135 Y100.838 E2.52286
G1 X116.255 Y98.128 E3.76123
G92 E0
G1 X107.039 Y107.648 F7800.000
G1 X103.755 Y105.952 F7800.000
G1 X103.077 Y106.860 F7800.000
G1 X100.402 Y107.648 F7800.000
G1 X99.321 Y107.648 F7800.000
G1 X96.536 Y97.917 E3.03301 F600.000
G1 X96.099 Y96.361 E3.51720
G1 X95.507 Y94.134 E4.20759
G1 X95.113 Y93.397 E4.45821
G1 X94.641 Y93.344 E4.60061
G1 X94.207 Y93.379 E4.73109
G1 X93.780 Y94.150 E4.99505
G1 X92.814 Y97.900 E6.15551
G1 X91.398 Y103.040 E7.75282
G1 X90.821 Y105.330 E8.46067
G1 X90.050 Y106.402 E8.85636
G1 X89.956 Y106.402 E8.88453
G1 X89.191 Y105.333 E9.27839
G1 X88.710 Y103.432 E9.86608
G1 X86.833 Y96.571 E11.99749
G1 X86.224 Y94.170 E12.73968
G1 X85.780 Y93.383 E13.01066
G1 X85.354 Y93.353 E13.13865
G1 X84.883 Y93.408 E13.28071
G1 X84.489 Y94.153 E13.53322
G1 X83.546 Y97.675 E14.62567
G1 X80.665 Y107.648 E17.73630
G92 E0
G1 Z1.200 F7800.000
G1 X119.266 Y92.352 F7800.000
G1 X114.277 Y99.533 E2.62026 F600.000
G1 X114.002 Y99.844 E2.74446
G1 X113.579 Y100.224 E2.91494
G1 X113.571 Y100.459 E2.98522
G1 X114.034 Y100.892 E3.17516
G1 X114.269 Y101.162 E3.28236
G1 X118.819 Y107.648 E5.65652
G1 X116.196 Y102.630 F7800.000
G1 X113.101 Y99.785 E6.91634 F600.000
G1 X112.866 Y99.520 E7.02241
G1 X107.747 Y92.352 E9.66156
G92 E0
G1 X108.189 Y107.648 F7800.000
G1 X112.855 Y101.144 E2.39857 F600.000
G1 X113.135 Y100.838 E2.52286
G1 X116.255 Y98.128 E3.76123
G92 E0
G1 X107.039 Y107.648 F7800.000
G1 X103.755 Y105.952 F7800.000
G1 X103.077 Y106.860 F7800.000
G1 X100.402 Y107.648 F7800.000
G1 X99.321 Y107.648 F7800.000
G1 X96.536 Y97.917 E3.03301 F600.000
G1 X96.099 Y96.361 E3.51720
G1 X95.507 Y94.134 E4.20759
G1 X95.113 Y93.397 E4.45821
G1 X94.641 Y93.344 E4.60061
G1 X94.207 Y93.379 E4.73109
G1 X93.780 Y94.150 E4.99505
G1 X92.814 Y97.900 E6.15551
G1 X91.398 Y103.040 E7.75282
G1 X90.821 Y105.330 E8.46067
G1 X90.050 Y106.402 E8.85636
G1 X89.956 Y106.402 E8.88453
G1 X89.191 Y105.333 E9.27839
G1 X88.710 Y103.432 E9.86608
G1 X86.832 Y96.571 E11.99749
G1 X86.224 Y94.170 E12.73968
G1 X85.780 Y93.383 E13.01066
G1 X85.354 Y93.353 E13.13865
G1 X84.883 Y93.408 E13.28071
G1 X84.489 Y94.153 E13.53322
G1 X83.546 Y97.675 E14.62568
G1 X80.665 Y107.648 E17.73630
G92 E0
G1 Z1.500 F7800.000
G1 X119.266 Y92.352 F7800.000
G1 X114.277 Y99.533 E2.62027 F600.000
G1 X114.002 Y99.844 E2.74446
G1 X113.579 Y100.224 E2.91494
G1 X113.571 Y100.459 E2.98522
G1 X114.034 Y100.892 E3.17517
G1 X114.269 Y101.162 E3.28236
G1 X118.819 Y107.648 E5.65652
G1 X116.196 Y102.630 F7800.000
G1 X113.101 Y99.785 E6.91634 F600.000
