; generated by Slic3r 1.2.9 on 2016-03-11 at 01:32:05

; external perimeters extrusion width = 1.54mm
; perimeters extrusion width = 2.62mm
; infill extrusion width = 6.27mm
; solid infill extrusion width = 2.62mm
; top infill extrusion width = 2.62mm

M107
M104 S30 ; set temperature
G28 ; home all axes
G1 Z5 F5000 ; lift nozzle
M302
M92 E10000
M500
M501
G1 E100
M109 S30 ; wait for temperature to be reached
G21 ; set units to millimeters
G90 ; use absolute coordinates
M82 ; use absolute distances for extrusion
G92 E0
G1 Z0.300 F7800.000
G1 X104.389 Y102.819 F7800.000
G1 X104.389 Y92.577 E0.46346 F378.000
G1 X110.347 Y92.577 E0.73303
G1 X111.801 Y92.689 E0.79905
G1 X111.948 Y92.700 E0.80572 F378.000
G1 X113.275 Y93.064 E0.86798
G1 X114.339 Y93.663 E0.92322
G1 X115.114 Y94.467 E0.97374
G1 X115.578 Y95.456 E1.02319
G1 X115.735 Y96.650 E1.07767
G1 X115.632 Y97.552 E1.11877
G1 X115.325 Y98.339 E1.15695
G1 X114.815 Y99.016 E1.19532
G1 X114.112 Y99.561 E1.23555
G1 X113.226 Y99.946 E1.27929
G1 X112.107 Y100.177 E1.33100
G1 X112.083 Y100.600 E1.35013
G1 X112.936 Y100.878 E1.39074
G1 X113.607 Y101.267 E1.42580
G1 X114.142 Y101.779 E1.45931
G1 X114.533 Y102.398 E1.49244
G1 X114.769 Y103.110 E1.52639
G1 X114.846 Y103.901 E1.56237
G1 X114.284 Y105.853 E1.65427
G1 X112.604 Y107.019 E1.74678
G1 X109.691 Y107.423 E1.87988
G1 X104.389 Y107.423 E2.11977
G1 X104.389 Y103.050 E2.31762
G1 X106.010 Y99.729 F7800.000
G1 X106.010 Y93.786 E2.58654 F378.000
G1 X110.255 Y93.786 E2.77861 F378.000
G1 X111.430 Y93.866 E2.83191
G1 X112.398 Y94.113 E2.87711
G1 X113.148 Y94.537 E2.91609
G1 X113.678 Y95.139 E2.95240
G1 X113.993 Y95.902 E2.98976
G1 X114.098 Y96.831 E3.03203
G1 X113.644 Y98.445 E3.10791
G1 X112.273 Y99.420 E3.18404
G1 X110.100 Y99.729 E3.28334
G1 X106.241 Y99.729 E3.45795
G1 X106.241 Y100.895 F7800.000
G1 X109.713 Y100.895 E3.61504 F378.000
G1 X110.751 Y100.967 E3.66213
G1 X111.622 Y101.188 E3.70278
G1 X112.317 Y101.567 E3.73861
G1 X112.822 Y102.117 E3.77237
G1 X113.121 Y102.825 E3.80718
G1 X113.219 Y103.676 E3.84594
G1 X113.117 Y104.489 E3.88302
G1 X112.802 Y105.154 E3.91631
G1 X112.275 Y105.643 E3.94885
G1 X111.574 Y105.966 E3.98376
G1 X110.719 Y106.153 E4.02337
G1 X109.712 Y106.214 E4.06901
G1 X106.010 Y106.214 E4.23652
G1 X106.010 Y101.485 E4.45049
G1 X106.010 Y100.895 E4.47720 F378.000
G1 X111.873 Y100.912 F7800.000
G1 X112.601 Y101.227 E4.55500 F540.000
G1 X111.932 Y99.839 F7800.000
G1 X112.369 Y99.763 E4.59845 F540.000
G1 X112.790 Y99.589 E4.64306
G1 X112.994 Y99.394 F7800.000
G1 X113.297 Y99.697 E4.66264 F540.000
G1 X113.681 Y99.530 E4.68178
G1 X113.170 Y99.019 E4.71479
G1 X113.492 Y98.790 E4.73285
G1 X114.059 Y99.357 E4.76951
G1 X114.370 Y99.117 E4.78746
G1 X113.814 Y98.561 E4.82336
G1 X113.944 Y98.140 E4.84350
G1 X114.679 Y98.875 E4.89099
G1 X114.916 Y98.561 E4.90897
G1 X114.065 Y97.710 E4.96395
G1 X114.186 Y97.280 E4.98437
G1 X115.147 Y98.241 E5.04647
G1 X115.301 Y97.844 E5.06592
G1 X114.307 Y96.850 E5.13019
G1 X114.271 Y96.263 E5.15708
G1 X115.428 Y97.420 E5.23188
G1 X115.485 Y96.926 E5.25463
G1 X114.150 Y95.591 E5.34093
G1 X114.941 Y94.729 F7800.000
G1 X114.002 Y93.791 E5.40161 F540.000
G1 X112.875 Y93.214 F7800.000
G1 X115.372 Y95.711 E5.56306 F540.000
G1 X115.455 Y96.346 E5.59230
G1 X112.116 Y93.006 E5.80822
G1 X111.454 Y92.895 E5.83888
G1 X112.421 Y93.862 E5.90136
G1 X111.681 Y93.673 E5.93625
G1 X110.857 Y92.849 E5.98951
G1 X110.260 Y92.804 E6.01688
G1 X111.066 Y93.609 E6.06896
G1 X110.475 Y93.569 E6.09605
G1 X109.709 Y92.803 E6.14556
G1 X109.158 Y92.803 E6.17074
G1 X109.915 Y93.560 E6.21969
G1 X109.364 Y93.560 E6.24488
G1 X108.607 Y92.803 E6.29383
G1 X108.056 Y92.803 E6.31902
G1 X108.813 Y93.560 E6.36796
G1 X108.262 Y93.560 E6.39315
G1 X107.505 Y92.803 E6.44210
G1 X106.954 Y92.803 E6.46729
G1 X107.711 Y93.560 E6.51623
G1 X107.160 Y93.560 E6.54142
G1 X106.403 Y92.803 E6.59037
G1 X105.852 Y92.803 E6.61556
G1 X106.609 Y93.560 E6.66451
G1 X106.058 Y93.560 E6.68969
G1 X105.301 Y92.803 E6.73864
G1 X104.750 Y92.803 E6.76383
G1 X105.784 Y93.837 E6.83070
G1 X105.784 Y94.388 E6.85589
G1 X104.615 Y93.219 E6.93147
G1 X104.615 Y93.770 E6.95666
G1 X105.784 Y94.939 E7.03225
G1 X105.784 Y95.490 E7.05743
G1 X104.615 Y94.321 E7.13302
G1 X104.615 Y94.872 E7.15821
G1 X105.784 Y96.041 E7.23379
G1 X105.784 Y96.592 E7.25898
G1 X104.615 Y95.423 E7.33456
G1 X104.615 Y95.974 E7.35975
G1 X105.784 Y97.143 E7.43533
G1 X105.784 Y97.694 E7.46052
G1 X104.615 Y96.525 E7.53611
G1 X104.615 Y97.076 E7.56129
G1 X105.784 Y98.245 E7.63688
G1 X105.784 Y98.796 E7.66207
G1 X104.615 Y97.627 E7.73765
G1 X104.615 Y98.178 E7.76284
G1 X105.784 Y99.347 E7.83842
G1 X105.784 Y99.898 E7.86361
G1 X104.615 Y98.729 E7.93920
G1 X104.615 Y99.280 E7.96438
G1 X106.004 Y100.669 E8.05420
G1 X105.784 Y101.000 F7800.000
G1 X104.615 Y99.831 E8.12978 F540.000
G1 X104.615 Y100.382 E8.15497
G1 X105.784 Y101.551 E8.23055
G1 X105.784 Y102.102 E8.25574
G1 X104.615 Y100.933 E8.33133
G1 X104.615 Y101.484 E8.35651
G1 X105.784 Y102.653 E8.43210
G1 X105.784 Y103.204 E8.45729
G1 X104.615 Y102.035 E8.53287
G1 X104.615 Y102.586 E8.55806
G1 X105.784 Y103.755 E8.63364
G1 X105.784 Y104.306 E8.65883
G1 X104.615 Y103.137 E8.73442
G1 X104.615 Y103.688 E8.75960
G1 X105.784 Y104.857 E8.83519
G1 X105.784 Y105.408 E8.86038
G1 X104.615 Y104.239 E8.93596
G1 X104.615 Y104.790 E8.96115
G1 X105.784 Y105.959 E9.03673
G1 X105.715 Y106.440 E9.05896
G1 X106.472 Y107.197 E9.10791
G1 X107.023 Y107.197 E9.13310
G1 X106.266 Y106.440 E9.18205
G1 X105.784 Y106.510 E9.20428
G1 X104.615 Y105.341 E9.27986
G1 X104.615 Y105.892 E9.30505
G1 X105.921 Y107.197 E9.38946
G1 X105.370 Y107.197 E9.41464
G1 X104.615 Y106.442 E9.46343
G1 X104.615 Y106.993 E9.48861
G1 X104.819 Y107.197 E9.50178
G1 X106.817 Y106.440 F7800.000
G1 X107.574 Y107.197 E9.55072 F540.000
G1 X108.125 Y107.197 E9.57591
G1 X107.368 Y106.440 E9.62486
G1 X107.919 Y106.440 E9.65005
G1 X108.676 Y107.197 E9.69899
G1 X109.227 Y107.197 E9.72418
G1 X108.470 Y106.440 E9.77313
G1 X109.020 Y106.440 E9.79832
G1 X109.774 Y107.194 E9.84706
G1 X110.258 Y107.127 E9.86939
G1 X109.571 Y106.440 E9.91379
G1 X110.095 Y106.412 E9.93775
G1 X110.742 Y107.060 E9.97959
G1 X111.226 Y106.992 E10.00192
G1 X110.614 Y106.381 E10.04145
G1 X111.075 Y106.290 E10.06290
G1 X111.710 Y106.925 E10.10394
G1 X112.193 Y106.858 E10.12627
G1 X111.527 Y106.191 E10.16936
G1 X111.915 Y106.028 E10.18860
G1 X112.642 Y106.756 E10.23565
G1 X112.968 Y106.530 E10.25374
G1 X112.292 Y105.855 E10.29742
G1 X112.596 Y105.608 E10.31532
G1 X113.293 Y106.305 E10.36038
G1 X113.618 Y106.079 E10.37848
G1 X112.882 Y105.342 E10.42610
G1 X113.093 Y105.003 E10.44438
G1 X113.943 Y105.853 E10.49932
G1 X114.164 Y105.523 E10.51748
G1 X113.271 Y104.630 E10.57523
G1 X113.374 Y104.182 E10.59624
G1 X114.287 Y105.095 E10.65529
G1 X114.410 Y104.667 E10.67564
G1 X113.435 Y103.692 E10.73870
G1 X113.390 Y103.096 E10.76604
G1 X114.534 Y104.240 E10.84000
G1 X114.596 Y103.751 E10.86252
G1 X113.216 Y102.371 E10.95172
G1 X112.760 Y101.364 F7800.000
G1 X114.496 Y103.100 E11.06395 F540.000
G1 X111.685 Y100.840 F7800.000
G1 X110.705 Y99.860 E11.12731 F540.000
G1 X111.188 Y99.792 E11.14958
G1 X111.783 Y100.387 E11.18808
G1 X111.090 Y100.796 F7800.000
G1 X110.223 Y99.929 E11.24415 F540.000
G1 X109.698 Y99.955 E11.26818
G1 X110.457 Y100.714 E11.31725
G1 X109.865 Y100.673 E11.34437
G1 X109.147 Y99.955 E11.39081
G1 X108.596 Y99.955 E11.41600
G1 X109.310 Y100.669 E11.46216
G1 X108.759 Y100.669 E11.48735
G1 X108.045 Y99.955 E11.53352
G1 X107.494 Y99.955 E11.55871
G1 X108.208 Y100.669 E11.60488
G1 X107.657 Y100.669 E11.63006
G1 X106.943 Y99.955 E11.67623
G1 X106.392 Y99.955 E11.70142
G1 X107.106 Y100.669 E11.74759
G1 X106.555 Y100.669 E11.77277
G1 X105.841 Y99.955 E11.81894
G92 E0
G1 X104.164 Y107.648 F7800.000
G1 X97.416 Y108.648 F7800.000
G1 X94.074 Y108.371 F7800.000
G1 X90.975 Y106.738 F7800.000
G1 X91.009 Y101.645 F7800.000
G1 X87.945 Y103.280 F7800.000
G1 X90.118 Y100.299 E0.16693 F378.000
G1 X84.482 Y92.577 E0.59952
G1 X86.209 Y92.577 E0.67771
G1 X91.000 Y99.435 E1.05622
G1 X95.690 Y92.577 E1.43218 F378.000
G1 X97.426 Y92.577 E1.51069
G1 X91.923 Y100.376 E1.94260
G1 X96.977 Y107.423 E2.33502
G1 X95.246 Y107.423 E2.41336
G1 X91.011 Y101.251 E2.75205
G1 X86.654 Y107.423 E3.09390
G1 X84.925 Y107.423 E3.17214
G1 X87.809 Y103.467 E3.39368
G1 X85.671 Y107.197 F7800.000
G1 X85.474 Y106.999 E3.40651 F540.000
G1 X85.706 Y106.680 E3.42463
G1 X86.224 Y107.197 E3.45818
G1 X86.659 Y107.080 E3.47884
G1 X85.939 Y106.360 E3.52551
G1 X86.172 Y106.041 E3.54364
G1 X86.888 Y106.756 E3.59002
G1 X87.116 Y106.432 E3.60819
G1 X86.405 Y105.721 E3.65430
G1 X86.638 Y105.401 E3.67243
G1 X87.345 Y106.108 E3.71826
G1 X87.574 Y105.784 E3.73643
G1 X86.871 Y105.082 E3.78198
G1 X87.104 Y104.762 E3.80011
G1 X87.802 Y105.461 E3.84538
G1 X88.031 Y105.137 E3.86355
G1 X87.337 Y104.443 E3.90854
G1 X87.570 Y104.123 E3.92667
G1 X88.260 Y104.813 E3.97138
G1 X88.488 Y104.489 E3.98955
G1 X87.803 Y103.804 E4.03399
G1 X88.036 Y103.484 E4.05211
G1 X88.717 Y104.165 E4.09627
G1 X88.946 Y103.841 E4.11444
G1 X88.269 Y103.165 E4.15832
G1 X88.502 Y102.845 E4.17645
G1 X89.174 Y103.518 E4.22004
G1 X89.403 Y103.194 E4.23822
G1 X88.735 Y102.525 E4.28154
G1 X88.967 Y102.206 E4.29966
G1 X89.631 Y102.870 E4.34270
G1 X89.860 Y102.546 E4.36087
G1 X89.200 Y101.886 E4.40364
G1 X89.433 Y101.567 E4.42176
G1 X90.089 Y102.222 E4.46425
G1 X90.317 Y101.898 E4.48242
G1 X89.666 Y101.247 E4.52462
G1 X89.899 Y100.928 E4.54275
G1 X90.546 Y101.574 E4.58467
G1 X90.775 Y101.251 E4.60285
G1 X90.132 Y100.608 E4.64449
G1 X90.365 Y100.289 E4.66262
G1 X94.395 Y104.318 E4.92386
G1 X93.843 Y104.872 F7800.000
G1 X96.169 Y107.197 E5.07461 F540.000
G1 X95.616 Y107.197 E5.09994
G1 X95.051 Y106.632 E5.13657
G1 X95.797 Y106.273 F7800.000
G1 X92.635 Y103.111 E5.34152 F540.000
G1 X92.993 Y102.364 F7800.000
G1 X89.259 Y98.630 E5.58360 F540.000
G1 X89.445 Y97.711 F7800.000
G1 X86.272 Y94.538 E5.78929 F540.000
G1 X86.885 Y94.046 F7800.000
G1 X85.642 Y92.803 E5.86987 F540.000
G1 X85.089 Y92.803 E5.89520
G1 X88.165 Y95.878 E6.09457
G1 X87.765 Y96.584 F7800.000
G1 X91.633 Y100.451 E6.34527 F540.000
G1 X91.861 Y100.127 E6.36345
G1 X91.208 Y99.474 E6.40579
G1 X91.432 Y99.146 E6.42401
G1 X92.090 Y99.803 E6.46663
G1 X92.318 Y99.479 E6.48480
G1 X91.657 Y98.818 E6.52768
G1 X91.881 Y98.490 E6.54591
G1 X92.547 Y99.155 E6.58906
G1 X92.775 Y98.831 E6.60723
G1 X92.105 Y98.162 E6.65065
G1 X92.330 Y97.834 E6.66887
G1 X93.004 Y98.508 E6.71257
G1 X93.232 Y98.184 E6.73074
G1 X92.554 Y97.506 E6.77470
G1 X92.779 Y97.177 E6.79292
G1 X93.461 Y97.860 E6.83715
G1 X93.690 Y97.536 E6.85532
G1 X93.003 Y96.849 E6.89982
G1 X93.228 Y96.521 E6.91804
G1 X93.918 Y97.212 E6.96281
G1 X94.147 Y96.888 E6.98098
G1 X93.452 Y96.193 E7.02602
G1 X93.676 Y95.865 E7.04424
G1 X94.375 Y96.564 E7.08955
G1 X94.604 Y96.240 E7.10772
G1 X93.901 Y95.537 E7.15329
G1 X94.125 Y95.209 E7.17151
G1 X94.832 Y95.916 E7.21736
G1 X95.061 Y95.592 E7.23553
G1 X94.350 Y94.881 E7.28165
G1 X94.574 Y94.553 E7.29987
G1 X95.289 Y95.268 E7.34625
G1 X95.518 Y94.944 E7.36442
G1 X94.798 Y94.225 E7.41107
G1 X95.023 Y93.897 E7.42929
G1 X95.747 Y94.621 E7.47621
G1 X95.975 Y94.297 E7.49439
G1 X95.247 Y93.569 E7.54158
G1 X95.472 Y93.241 E7.55980
G1 X96.204 Y93.973 E7.60726
G1 X96.432 Y93.649 E7.62543
G1 X95.696 Y92.913 E7.67316
G1 X96.139 Y92.803 E7.69407
G1 X96.661 Y93.325 E7.72791
G1 X96.691 Y92.803 E7.75187
G1 X96.889 Y93.001 E7.76470
M106 S255
G92 E0
G1 Z0.600 F7800.000
G1 X106.038 Y103.801 F7800.000
G1 X105.200 Y99.504 E1.31181 F600.000
G1 X105.200 Y94.011 E2.95776
G1 X105.273 Y93.461 E3.12413
G1 X106.235 Y93.181 E3.42438
G1 X110.304 Y93.182 E4.64347
G1 X111.600 Y93.283 E5.03310
G1 X111.840 Y93.322 E5.10598
G1 X112.737 Y93.575 E5.38510
G1 X113.018 Y93.691 E5.47618
G1 X113.446 Y93.932 E5.62358
G1 X113.883 Y94.254 E5.78596
G1 X114.216 Y94.615 E5.93341
G1 X114.418 Y94.875 E6.03188
G1 X114.782 Y95.689 E6.29911
G1 X114.906 Y96.695 E6.60294
G1 X114.867 Y97.093 E6.72259
G1 X114.817 Y97.351 E6.80140
G1 X114.618 Y97.944 E6.98891
G1 X114.326 Y98.533 E7.18599
G1 X113.919 Y98.969 E7.36455
G1 X113.809 Y99.050 E7.40538
G1 X113.073 Y99.466 E7.65871
G1 X112.538 Y99.699 E7.83359
G1 X112.204 Y99.792 E7.93766
G1 X111.349 Y100.308 E8.23701
G1 X110.550 Y101.178 E8.59081
G92 E0
G1 X105.235 Y102.216 F7800.000
G1 X105.200 Y102.216 F7800.000
G1 X105.200 Y106.612 F7800.000
G1 X105.200 Y105.989 F7800.000
G1 X105.200 Y101.120 E1.45898 F600.000
G1 X105.357 Y100.312 E1.70565
G1 X110.201 Y100.324 E3.15700
G1 X110.777 Y100.303 E3.32960
G1 X111.333 Y100.326 E3.49644
G1 X111.706 Y100.739 E3.66337
G1 X111.840 Y100.848 E3.71500
G1 X112.127 Y101.022 E3.81568
G1 X112.683 Y101.282 E3.99935
G1 X113.256 Y101.734 E4.21806
G1 X113.607 Y102.215 E4.39679
G1 X113.856 Y102.718 E4.56463
G1 X113.980 Y103.277 E4.73631
G1 X114.021 Y103.825 E4.90112
G1 X113.873 Y104.547 E5.12192
G1 X113.786 Y104.847 E5.21530
G1 X113.593 Y105.357 E5.37884
G1 X113.254 Y105.704 E5.52413
G1 X112.754 Y106.106 E5.71635
G1 X112.348 Y106.363 E5.86023
G1 X111.677 Y106.549 E6.06904
G1 X110.856 Y106.696 E6.31901
G1 X109.705 Y106.815 E6.66553
G1 X106.235 Y106.818 E7.70531
G1 X105.273 Y106.539 E8.00556
G1 X105.200 Y105.989 E8.17193
G92 E0
G1 X104.164 Y92.352 F7800.000
G1 X100.881 Y93.635 F7800.000
G1 X100.695 Y94.352 F7800.000
G1 X97.860 Y92.352 F7800.000
G1 X96.710 Y92.352 F7800.000
G1 X91.721 Y99.533 E2.62027 F600.000
G1 X91.446 Y99.844 E2.74446
G1 X91.023 Y100.224 E2.91494
G1 X91.015 Y100.459 E2.98522
G1 X91.478 Y100.892 E3.17516
G1 X91.713 Y101.162 E3.28236
G1 X96.263 Y107.648 E5.65652
G1 X93.640 Y102.630 F7800.000
G1 X90.544 Y99.785 E6.91634 F600.000
G1 X90.310 Y99.520 E7.02241
G1 X85.191 Y92.352 E9.66157
G92 E0
G1 X85.633 Y107.648 F7800.000
G1 X90.299 Y101.144 E2.39857 F600.000
G1 X90.579 Y100.838 E2.52286
G1 X93.699 Y98.128 E3.76123
G92 E0
G1 Z0.900 F7800.000
G1 X106.038 Y103.801 F7800.000
G1 X105.200 Y99.504 E1.31181 F600.000
G1 X105.200 Y94.011 E2.95776
G1 X105.273 Y93.461 E3.12413
G1 X106.235 Y93.181 E3.42438
G1 X110.304 Y93.182 E4.64347
G1 X111.600 Y93.283 E5.03310
G1 X111.840 Y93.322 E5.10598
G1 X112.737 Y93.575 E5.38510
G1 X113.018 Y93.691 E5.47618
G1 X113.446 Y93.932 E5.62358
G1 X113.883 Y94.254 E5.78596
G1 X114.216 Y94.615 E5.93341
G1 X114.418 Y94.875 E6.03188
G1 X114.782 Y95.689 E6.29911
G1 X114.906 Y96.695 E6.60294
G1 X114.867 Y97.093 E6.72259
G1 X114.817 Y97.351 E6.80140
G1 X114.618 Y97.944 E6.98891
G1 X114.326 Y98.533 E7.18599
G1 X113.919 Y98.969 E7.36455
G1 X113.809 Y99.050 E7.40538
G1 X113.073 Y99.466 E7.65871
G1 X112.538 Y99.699 E7.83359
G1 X112.204 Y99.792 E7.93766
G1 X111.349 Y100.308 E8.23701
G1 X110.550 Y101.178 E8.59081
G92 E0
G1 X105.235 Y102.946 F7800.000
G1 X105.200 Y102.946 F7800.000
G1 X105.200 Y106.612 F7800.000
G1 X105.200 Y105.989 F7800.000
G1 X105.200 Y101.120 E1.45898 F600.000
G1 X105.357 Y100.312 E1.70565
G1 X110.201 Y100.324 E3.15700
G1 X110.777 Y100.303 E3.32960
G1 X111.333 Y100.326 E3.49644
G1 X111.706 Y100.739 E3.66337
G1 X111.840 Y100.848 E3.71500
G1 X112.127 Y101.022 E3.81568
G1 X112.683 Y101.282 E3.99935
G1 X113.256 Y101.734 E4.21806
G1 X113.607 Y102.215 E4.39679
G1 X113.856 Y102.718 E4.56463
G1 X113.980 Y103.277 E4.73631
G1 X114.021 Y103.825 E4.90112
G1 X113.873 Y104.547 E5.12192
G1 X113.786 Y104.847 E5.21530
G1 X113.593 Y105.357 E5.37884
G1 X113.254 Y105.704 E5.52413
G1 X112.754 Y106.106 E5.71635
G1 X112.348 Y106.363 E5.86023
G1 X111.677 Y106.549 E6.06904
G1 X110.856 Y106.696 E6.31901
G1 X109.705 Y106.815 E6.66553
G1 X106.235 Y106.818 E7.70531
G1 X105.273 Y106.539 E8.00556
G1 X105.200 Y105.989 E8.17193
G92 E0
G1 X104.164 Y92.352 F7800.000
G1 X100.881 Y93.635 F7800.000
G1 X100.695 Y94.352 F7800.000
G1 X97.860 Y92.352 F7800.000
G1 X96.710 Y92.352 F7800.000
G1 X91.721 Y99.533 E2.62027 F600.000
G1 X91.446 Y99.844 E2.74446
G1 X91.023 Y100.224 E2.91494
G1 X91.015 Y100.459 E2.98522
G1 X91.478 Y100.892 E3.17516
G1 X91.713 Y101.162 E3.28236
G1 X96.263 Y107.648 E5.65652
G1 X93.640 Y102.630 F7800.000
G1 X90.544 Y99.785 E6.91634 F600.000
G1 X90.310 Y99.520 E7.02241
G1 X85.191 Y92.352 E9.66157
G92 E0
G1 X85.633 Y107.648 F7800.000
