; generated by Slic3r 1.2.9 on 2016-03-11 at 01:32:10

; external perimeters extrusion width = 1.54mm
; perimeters extrusion width = 2.62mm
; infill extrusion width = 6.27mm
; solid infill extrusion width = 2.62mm
; top infill extrusion width = 2.62mm

M107
M104 S30 ; set temperature
G28 ; home all axes
G1 Z5 F5000 ; lift nozzle
M302
M92 E10000
M500
M501
G1 E100
M109 S30 ; wait for temperature to be reached
G21 ; set units to millimeters
G90 ; use absolute coordinates
M82 ; use absolute distances for extrusion
G92 E0
G1 Z0.300 F7800.000
G1 X111.761 Y92.518 F7800.000
G1 X112.725 Y92.681 E0.04428 F378.000
G1 X113.905 Y93.048 E0.10017
G1 X114.992 Y93.550 E0.15434
G1 X115.957 Y94.172 E0.20630
G1 X116.739 Y94.857 E0.25333
G1 X116.739 Y99.807 E0.47732
G1 X110.713 Y99.807 E0.74999
G1 X110.713 Y98.522 E0.80813
G1 X115.281 Y98.522 E1.01483
G1 X115.281 Y95.430 E1.15476
G1 X114.595 Y94.866 E1.19494
G1 X113.867 Y94.436 E1.23319
G1 X113.031 Y94.084 E1.27424
G1 X112.119 Y93.824 E1.31716
G1 X111.162 Y93.668 E1.36100
G1 X110.156 Y93.615 E1.40661
G1 X108.483 Y93.806 E1.48279
G1 X107.052 Y94.387 E1.55269
G1 X105.882 Y95.358 E1.62149
G1 X105.021 Y96.660 E1.69210
G1 X104.508 Y98.231 E1.76688
G1 X104.339 Y100.064 E1.85020
G1 X104.498 Y101.895 E1.93333
G1 X104.981 Y103.443 E2.00673
G1 X105.794 Y104.705 E2.07465
G1 X106.920 Y105.636 E2.14076
G1 X108.330 Y106.191 E2.20935
G1 X110.005 Y106.374 E2.28560
G1 X111.114 Y106.306 E2.33585
G1 X112.098 Y106.102 E2.38132
G1 X112.963 Y105.758 E2.42343
G1 X113.712 Y105.261 E2.46412
G1 X114.343 Y104.600 E2.50548
G1 X114.754 Y103.944 E2.54050
G1 X116.291 Y104.397 E2.61300
G1 X115.792 Y105.266 E2.65831
G1 X115.012 Y106.137 E2.71125
G1 X114.079 Y106.789 E2.76276
G1 X112.959 Y107.245 E2.81744
G1 X111.622 Y107.522 E2.87926
G1 X110.069 Y107.614 E2.94961
G1 X107.887 Y107.393 E3.04889
G1 X106.075 Y106.736 E3.13609
G1 X104.619 Y105.648 E3.21834
G1 X103.550 Y104.161 E3.30122
G1 X102.904 Y102.303 E3.39022
G1 X102.687 Y100.062 E3.49212
G1 X102.786 Y98.552 E3.56057
G1 X103.084 Y97.183 E3.62396
G1 X103.578 Y95.956 E3.68380
G1 X104.256 Y94.893 E3.74089
G1 X105.109 Y94.012 E3.79636
G1 X106.138 Y93.309 E3.85273
G1 X107.330 Y92.797 E3.91144
G1 X108.671 Y92.489 E3.97370
G1 X110.164 Y92.385 E4.04144
G1 X111.378 Y92.454 E4.09644
G1 X111.533 Y92.480 E4.10355 F378.000
G1 X111.353 Y92.694 F7800.000
G1 X112.264 Y93.604 E4.16222 F540.000
G1 X111.608 Y93.497 F7800.000
G1 X110.761 Y92.650 E4.21679 F540.000
G1 X110.179 Y92.617 E4.24334
G1 X110.990 Y93.428 E4.29558
G1 X110.410 Y93.398 E4.32200
G1 X109.654 Y92.642 E4.37072
G1 X109.141 Y92.677 E4.39418
G1 X109.890 Y93.427 E4.44248
G1 X109.398 Y93.483 E4.46508
G1 X108.628 Y92.714 E4.51466
G1 X108.182 Y92.817 E4.53553
G1 X108.905 Y93.540 E4.58212
G1 X108.428 Y93.612 E4.60410
G1 X107.735 Y92.919 E4.64871
G1 X107.297 Y93.030 E4.66933
G1 X108.037 Y93.770 E4.71705
G1 X107.647 Y93.929 E4.73625
G1 X106.912 Y93.195 E4.78356
G1 X106.528 Y93.359 E4.80261
G1 X107.256 Y94.087 E4.84951
G1 X106.890 Y94.271 E4.86814
G1 X106.153 Y93.534 E4.91565
G1 X105.827 Y93.756 E4.93366
G1 X106.590 Y94.520 E4.98285
G1 X106.290 Y94.769 E5.00062
G1 X105.501 Y93.979 E5.05150
G1 X105.197 Y94.224 E5.06929
G1 X105.990 Y95.018 E5.12041
G1 X105.701 Y95.278 E5.13813
G1 X104.922 Y94.499 E5.18834
G1 X104.648 Y94.774 E5.20603
G1 X105.483 Y95.609 E5.25984
G1 X105.264 Y95.939 E5.27790
G1 X104.382 Y95.058 E5.33470
G1 X104.169 Y95.393 E5.35282
G1 X105.045 Y96.270 E5.40933
G1 X104.827 Y96.600 E5.42738
G1 X103.955 Y95.728 E5.48359
G1 X103.749 Y96.071 E5.50182
G1 X104.690 Y97.013 E5.56250
G1 X104.555 Y97.427 E5.58235
G1 X103.591 Y96.463 E5.64448
G1 X103.433 Y96.854 E5.66371
G1 X104.420 Y97.841 E5.72730
G1 X104.286 Y98.256 E5.74718
G1 X103.284 Y97.254 E5.81177
G1 X103.186 Y97.705 E5.83280
G1 X104.240 Y98.759 E5.90072
G1 X104.193 Y99.261 E5.92373
G1 X103.087 Y98.156 E5.99498
G1 X103.003 Y98.620 E6.01648
G1 X104.147 Y99.764 E6.09021
G1 X104.124 Y100.291 E6.11423
G1 X102.969 Y99.135 E6.18869
G1 X102.935 Y99.650 E6.21221
G1 X104.177 Y100.892 E6.29223
G1 X104.229 Y101.494 E6.31974
G1 X102.935 Y100.200 E6.40310
G1 X102.994 Y100.808 E6.43094
G1 X104.301 Y102.114 E6.51511
G1 X104.549 Y102.912 E6.55318
G1 X103.053 Y101.416 E6.64958
G1 X103.112 Y102.024 E6.67741
G1 X104.847 Y103.759 E6.78922
G1 X103.647 Y103.657 F7800.000
G1 X106.664 Y106.675 E6.98364 F540.000
G1 X107.060 Y105.972 F7800.000
G1 X108.286 Y107.198 E7.06260 F540.000
G1 X108.897 Y107.260 E7.09058
G1 X107.966 Y106.329 E7.15054
G1 X108.649 Y106.463 E7.18224
G1 X109.508 Y107.322 E7.23758
G1 X110.119 Y107.383 E7.26556
G1 X109.265 Y106.530 E7.32057
G1 X109.881 Y106.597 E7.34881
G1 X110.643 Y107.358 E7.39788
G1 X111.161 Y107.328 E7.42154
G1 X110.404 Y106.571 E7.47029
G1 X110.922 Y106.539 E7.49391
G1 X111.677 Y107.295 E7.54258
G1 X112.132 Y107.201 E7.56376
G1 X111.395 Y106.463 E7.61126
G1 X111.850 Y106.369 E7.63243
G1 X112.587 Y107.106 E7.67994
G1 X113.029 Y106.999 E7.70067
G1 X112.278 Y106.248 E7.74911
G1 X112.671 Y106.091 E7.76838
G1 X113.420 Y106.840 E7.81664
G1 X113.810 Y106.681 E7.83584
G1 X113.057 Y105.929 E7.88433
G1 X113.387 Y105.710 E7.90237
G1 X114.168 Y106.490 E7.95268
G1 X114.491 Y106.265 E7.97064
G1 X113.717 Y105.490 E8.02053
G1 X114.006 Y105.230 E8.03824
G1 X114.811 Y106.036 E8.09012
G1 X115.086 Y105.761 E8.10781
G1 X114.275 Y104.950 E8.16009
G1 X114.535 Y104.661 E8.17780
G1 X115.348 Y105.474 E8.23016
G1 X115.607 Y105.184 E8.24788
G1 X114.747 Y104.323 E8.30334
G1 X115.357 Y104.385 E8.33131
G1 X115.811 Y104.839 E8.36055
G92 E0
G1 X115.099 Y104.854 F7800.000
G1 X115.099 Y104.854 F7800.000
G1 X110.939 Y98.868 F7800.000
G1 X111.651 Y99.581 E0.04592 F540.000
G1 X112.201 Y99.581 E0.07094
G1 X111.368 Y98.748 E0.12462
G1 X111.917 Y98.748 E0.14964
G1 X112.750 Y99.581 E0.20332
G1 X113.299 Y99.581 E0.22834
G1 X112.466 Y98.748 E0.28202
G1 X113.015 Y98.748 E0.30704
G1 X113.848 Y99.581 E0.36072
G1 X114.397 Y99.581 E0.38574
G1 X113.564 Y98.748 E0.43942
G1 X114.113 Y98.748 E0.46444
G1 X114.946 Y99.581 E0.51812
G1 X115.495 Y99.581 E0.54314
G1 X114.662 Y98.748 E0.59682
G1 X115.211 Y98.748 E0.62184
G1 X116.044 Y99.581 E0.67552
G1 X116.513 Y99.500 E0.69718
G1 X115.507 Y98.494 E0.76200
G1 X115.507 Y97.945 E0.78702
G1 X116.513 Y98.951 E0.85185
G1 X116.513 Y98.402 E0.87687
G1 X115.507 Y97.396 E0.94170
G1 X115.507 Y96.847 E0.96671
G1 X116.513 Y97.853 E1.03154
G1 X116.513 Y97.304 E1.05656
G1 X115.507 Y96.298 E1.12139
G1 X115.507 Y95.749 E1.14641
G1 X116.513 Y96.755 E1.21123
G1 X116.513 Y96.206 E1.23625
G1 X113.493 Y93.186 E1.43081
G1 X113.032 Y93.823 F7800.000
G1 X112.014 Y92.805 E1.49642 F540.000
G1 X112.696 Y92.937 E1.52806
G1 X113.938 Y94.180 E1.60810
G1 X114.453 Y93.597 F7800.000
G1 X116.513 Y95.656 E1.74083 F540.000
G1 X116.513 Y95.107 F7800.000
G1 X116.114 Y94.709 E1.76652 F540.000
G92 E0
G1 X115.099 Y104.854 F7800.000
G1 X115.099 Y104.854 F7800.000
G1 X115.102 Y104.863 F7800.000
G1 X115.048 Y104.936 F7800.000
G1 X107.526 Y106.987 F7800.000
G1 X103.355 Y102.816 E0.26878 F540.000
G1 X104.686 Y105.246 F7800.000
G1 X105.037 Y105.596 E0.29135 F540.000
G92 E0
G1 X103.348 Y104.265 F7800.000
G1 X99.678 Y105.541 F7800.000
G1 X99.591 Y105.369 F7800.000
G1 X96.413 Y107.648 F7800.000
G1 X93.053 Y105.688 F7800.000
G1 X90.009 Y101.251 E0.24348 F378.000
G1 X85.652 Y107.423 E0.58533
G1 X83.923 Y107.423 E0.66357
G1 X89.116 Y100.299 E1.06248
G1 X83.479 Y92.577 E1.49508
G1 X85.207 Y92.577 E1.57327
G1 X89.460 Y98.666 E1.90937
G1 X89.997 Y99.435 E1.95178 F378.000
G1 X94.688 Y92.577 E2.32773
G1 X96.423 Y92.577 E2.40625
G1 X90.920 Y100.376 E2.83816
G1 X95.975 Y107.423 E3.23058
G1 X94.244 Y107.423 E3.30891
G1 X93.184 Y105.878 E3.39368
G1 X92.841 Y104.872 F7800.000
G1 X95.166 Y107.197 E3.54443 F540.000
G1 X94.614 Y107.197 E3.56975
G1 X94.049 Y106.632 E3.60638
G1 X94.794 Y106.273 F7800.000
G1 X91.633 Y103.111 E3.81134 F540.000
G1 X91.990 Y102.364 F7800.000
G1 X88.256 Y98.630 E4.05341 F540.000
G1 X88.442 Y97.711 F7800.000
G1 X85.269 Y94.538 E4.25911 F540.000
G1 X85.882 Y94.046 F7800.000
G1 X84.639 Y92.803 E4.33969 F540.000
G1 X84.087 Y92.803 E4.36501
G1 X87.162 Y95.878 E4.56439
G1 X86.763 Y96.584 F7800.000
G1 X90.630 Y100.451 E4.81509 F540.000
G1 X90.859 Y100.127 E4.83326
G1 X90.205 Y99.474 E4.87561
G1 X90.430 Y99.146 E4.89383
G1 X91.087 Y99.803 E4.93644
G1 X91.316 Y99.479 E4.95462
G1 X90.654 Y98.818 E4.99750
G1 X90.879 Y98.490 E5.01572
G1 X91.544 Y99.155 E5.05887
G1 X91.773 Y98.831 E5.07705
G1 X91.103 Y98.162 E5.12047
G1 X91.327 Y97.834 E5.13869
G1 X92.001 Y98.508 E5.18238
G1 X92.230 Y98.184 E5.20055
G1 X91.552 Y97.506 E5.24451
G1 X91.776 Y97.177 E5.26274
G1 X92.458 Y97.860 E5.30696
G1 X92.687 Y97.536 E5.32514
G1 X92.001 Y96.849 E5.36964
G1 X92.225 Y96.521 E5.38786
G1 X92.916 Y97.212 E5.43262
G1 X93.144 Y96.888 E5.45080
G1 X92.449 Y96.193 E5.49583
G1 X92.674 Y95.865 E5.51406
G1 X93.373 Y96.564 E5.55936
G1 X93.601 Y96.240 E5.57753
G1 X92.898 Y95.537 E5.62311
G1 X93.123 Y95.209 E5.64133
G1 X93.830 Y95.916 E5.68717
G1 X94.058 Y95.592 E5.70535
G1 X93.347 Y94.881 E5.75146
G1 X93.571 Y94.553 E5.76968
G1 X94.287 Y95.268 E5.81606
G1 X94.515 Y94.944 E5.83424
G1 X93.796 Y94.225 E5.88089
G1 X94.020 Y93.897 E5.89911
G1 X94.744 Y94.621 E5.94603
G1 X94.973 Y94.297 E5.96420
G1 X94.245 Y93.569 E6.01139
G1 X94.469 Y93.241 E6.02961
G1 X95.201 Y93.973 E6.07707
G1 X95.430 Y93.649 E6.09525
G1 X94.693 Y92.913 E6.14297
G1 X95.136 Y92.803 E6.16389
G1 X95.658 Y93.325 E6.19772
G1 X95.689 Y92.803 E6.22169
G1 X95.887 Y93.001 E6.23452
G92 E0
G1 X93.392 Y104.318 F7800.000
G1 X89.363 Y100.289 E0.26124 F540.000
G1 X89.130 Y100.608 E0.27937
G1 X89.772 Y101.251 E0.32101
G1 X89.543 Y101.574 E0.33919
G1 X88.897 Y100.928 E0.38111
G1 X88.664 Y101.247 E0.39924
G1 X89.315 Y101.898 E0.44144
G1 X89.086 Y102.222 E0.45961
G1 X88.431 Y101.567 E0.50210
G1 X88.198 Y101.886 E0.52022
G1 X88.858 Y102.546 E0.56299
G1 X88.629 Y102.870 E0.58116
G1 X87.965 Y102.206 E0.62420
G1 X87.732 Y102.525 E0.64232
G1 X88.400 Y103.194 E0.68564
G1 X88.172 Y103.518 E0.70382
G1 X87.499 Y102.845 E0.74741
G1 X87.266 Y103.165 E0.76554
G1 X87.943 Y103.841 E0.80942
G1 X87.714 Y104.165 E0.82759
G1 X87.033 Y103.484 E0.87174
G1 X86.800 Y103.804 E0.88987
G1 X87.486 Y104.489 E0.93431
G1 X87.257 Y104.813 E0.95248
G1 X86.567 Y104.123 E0.99719
G1 X86.334 Y104.443 E1.01532
G1 X87.028 Y105.137 E1.06031
G1 X86.800 Y105.461 E1.07848
G1 X86.102 Y104.762 E1.12375
G1 X85.869 Y105.082 E1.14188
G1 X86.571 Y105.784 E1.18743
G1 X86.343 Y106.108 E1.20560
G1 X85.636 Y105.401 E1.25143
G1 X85.403 Y105.721 E1.26956
G1 X86.114 Y106.432 E1.31567
G1 X85.885 Y106.756 E1.33384
G1 X85.170 Y106.040 E1.38022
G1 X84.937 Y106.360 E1.39835
G1 X85.657 Y107.080 E1.44502
G1 X85.221 Y107.197 E1.46568
G1 X84.704 Y106.680 E1.49923
G1 X84.471 Y106.999 E1.51735
G1 X84.669 Y107.197 E1.53018
M106 S255
G92 E0
G1 Z0.600 F7800.000
G1 X115.749 Y104.003 F7800.000
G1 X114.878 Y105.144 E0.42996 F600.000
G1 X114.497 Y105.556 E0.59838
G1 X114.265 Y105.755 E0.68999
G1 X113.724 Y106.138 E0.88840
G1 X113.368 Y106.326 E1.00904
G1 X112.758 Y106.582 E1.20745
G1 X112.210 Y106.740 E1.37825
G1 X111.536 Y106.879 E1.58432
G1 X111.257 Y106.916 E1.66887
G1 X110.082 Y106.991 E2.02148
G1 X109.920 Y106.982 E2.07022
G1 X108.293 Y106.811 E2.56036
G1 X108.069 Y106.772 E2.62851
G1 X106.711 Y106.264 E3.06301
G1 X106.455 Y106.143 E3.14797
G1 X105.356 Y105.289 E3.56478
G1 X105.163 Y105.114 E3.64303
G1 X104.333 Y103.897 E4.08442
G1 X104.265 Y103.789 E4.12265
G1 X104.213 Y103.650 E4.16697
G1 X103.711 Y102.126 E4.64789
G1 X103.522 Y100.156 E5.24101
G1 X103.519 Y99.968 E5.29713
G1 X103.622 Y98.670 E5.68750
G1 X103.745 Y97.956 E5.90469
G1 X103.888 Y97.430 E6.06773
G1 X104.294 Y96.325 E6.42056
G1 X104.892 Y95.395 E6.75200
G1 X105.233 Y94.969 E6.91543
G1 X105.603 Y94.598 E7.07250
G1 X106.482 Y93.936 E7.40218
G1 X106.830 Y93.748 E7.52064
G1 X107.543 Y93.450 E7.75230
G1 X108.443 Y93.182 E8.03358
G1 X108.766 Y93.127 E8.13174
G1 X110.168 Y93.001 E8.55371
G1 X111.274 Y93.063 E8.88545
G1 X112.205 Y93.214 E9.16812
G1 X112.575 Y93.296 E9.28161
G1 X113.189 Y93.480 E9.47386
G1 X113.672 Y93.653 E9.62753
G1 X114.205 Y93.893 E9.80267
G1 X114.670 Y94.136 E9.95988
G1 X114.916 Y94.288 E10.04643
G1 X115.642 Y94.823 E10.31674
G1 X115.980 Y95.201 E10.46872
G1 X116.010 Y95.536 E10.56955
G1 X116.010 Y98.297 E11.39688
G1 X115.894 Y98.962 E11.59917
G1 X111.355 Y99.164 E12.96049
G1 X116.964 Y99.164 E14.64106
G92 E0
G1 X110.488 Y98.297 F7800.000
G1 X110.488 Y98.297 F7800.000
G1 X107.678 Y98.297 F7800.000
G1 X107.588 Y98.867 F7800.000
G1 X107.534 Y100.032 F7800.000
G1 X107.532 Y100.073 F7800.000
G1 X107.714 Y101.261 F7800.000
G1 X108.053 Y102.008 F7800.000
G1 X108.374 Y102.414 F7800.000
G1 X108.676 Y102.658 F7800.000
G1 X109.146 Y102.884 F7800.000
G1 X110.084 Y103.072 F7800.000
G1 X110.488 Y103.073 F7800.000
G1 X110.682 Y103.067 F7800.000
G1 X111.173 Y103.016 F7800.000
G1 X111.494 Y102.955 F7800.000
G1 X111.723 Y102.886 F7800.000
G1 X111.992 Y102.771 F7800.000
G1 X112.633 Y102.415 F7800.000
G1 X115.180 Y101.894 F7800.000
G1 X116.859 Y102.136 F7800.000
G1 X116.964 Y102.032 F7800.000
G1 X117.964 Y100.032 F7800.000
G1 X117.964 Y94.755 F7800.000
G1 X117.758 Y93.848 F7800.000
G1 X117.233 Y92.690 F7800.000
G1 X117.101 Y92.426 F7800.000
G1 X116.959 Y92.165 F7800.000
G1 X116.039 Y91.894 F7800.000
G1 X115.802 Y91.833 F7800.000
G1 X114.574 Y91.564 F7800.000
G1 X114.394 Y91.530 F7800.000
G1 X113.128 Y91.337 F7800.000
G1 X112.980 Y91.320 F7800.000
G1 X111.686 Y91.206 F7800.000
G1 X111.562 Y91.198 F7800.000
G1 X111.260 Y91.190 F7800.000
G1 X111.260 Y91.190 F7800.000
G1 X110.219 Y91.161 F7800.000
G1 X110.094 Y91.161 F7800.000
G1 X108.565 Y91.214 F7800.000
G1 X108.399 Y91.226 F7800.000
G1 X106.985 Y91.387 F7800.000
G1 X106.762 Y91.422 F7800.000
G1 X105.422 Y91.698 F7800.000
G1 X105.117 Y91.776 F7800.000
G1 X103.827 Y92.175 F7800.000
G1 X103.403 Y92.330 F7800.000
G1 X102.132 Y92.869 F7800.000
G1 X101.562 Y93.146 F7800.000
G1 X100.257 Y93.862 F7800.000
G1 X100.242 Y93.869 F7800.000
G1 X99.924 Y94.462 F7800.000
G1 X99.903 Y94.501 F7800.000
G1 X96.857 Y92.352 F7800.000
G1 X95.707 Y92.352 F7800.000
G1 X90.718 Y99.533 E2.62027 F600.000
G1 X90.443 Y99.844 E2.74446
G1 X90.020 Y100.224 E2.91494
G1 X90.013 Y100.459 E2.98522
G1 X90.475 Y100.892 E3.17516
G1 X90.710 Y101.162 E3.28236
G1 X95.261 Y107.648 E5.65652
G1 X92.638 Y102.630 F7800.000
G1 X89.542 Y99.785 E6.91634 F600.000
G1 X89.307 Y99.520 E7.02241
G1 X84.189 Y92.352 E9.66157
G92 E0
G1 X84.630 Y107.648 F7800.000
G1 X89.296 Y101.144 E2.39857 F600.000
G1 X89.576 Y100.838 E2.52286
G1 X92.697 Y98.128 E3.76123
G92 E0
G1 Z0.900 F7800.000
G1 X115.749 Y104.003 F7800.000
G1 X114.878 Y105.144 E0.42996 F600.000
G1 X114.497 Y105.556 E0.59838
G1 X114.265 Y105.755 E0.68999
G1 X113.724 Y106.138 E0.88840
G1 X113.368 Y106.326 E1.00904
G1 X112.758 Y106.582 E1.20745
G1 X112.210 Y106.740 E1.37825
G1 X111.536 Y106.879 E1.58432
G1 X111.257 Y106.916 E1.66887
G1 X110.082 Y106.991 E2.02148
G1 X109.920 Y106.982 E2.07022
G1 X108.293 Y106.811 E2.56036
G1 X108.069 Y106.772 E2.62851
G1 X106.711 Y106.264 E3.06301
G1 X106.455 Y106.143 E3.14797
G1 X105.356 Y105.289 E3.56478
G1 X105.163 Y105.114 E3.64303
G1 X104.333 Y103.897 E4.08442
G1 X104.265 Y103.789 E4.12265
G1 X104.213 Y103.650 E4.16697
G1 X103.711 Y102.126 E4.64789
G1 X103.522 Y100.156 E5.24101
G1 X103.519 Y99.968 E5.29713
G1 X103.622 Y98.670 E5.68750
G1 X103.745 Y97.956 E5.90469
G1 X103.888 Y97.430 E6.06773
G1 X104.294 Y96.325 E6.42056
G1 X104.892 Y95.395 E6.75200
G1 X105.233 Y94.969 E6.91543
G1 X105.603 Y94.598 E7.07251
G1 X106.482 Y93.936 E7.40218
G1 X106.830 Y93.748 E7.52064
G1 X107.543 Y93.450 E7.75230
G1 X108.443 Y93.182 E8.03358
G1 X108.766 Y93.127 E8.13174
G1 X110.168 Y93.001 E8.55371
G1 X111.274 Y93.063 E8.88545
G1 X112.205 Y93.214 E9.16812
G1 X112.575 Y93.296 E9.28161
G1 X113.189 Y93.480 E9.47386
G1 X113.672 Y93.653 E9.62753
G1 X114.205 Y93.893 E9.80267
G1 X114.670 Y94.136 E9.95988
G1 X114.916 Y94.288 E10.04643
G1 X115.642 Y94.823 E10.31674
G1 X115.980 Y95.201 E10.46872
G1 X116.010 Y95.536 E10.56955
G1 X116.010 Y98.297 E11.39688
G1 X115.894 Y98.962 E11.59917
G1 X111.355 Y99.164 E12.96049
