; generated by Slic3r 1.2.9 on 2016-03-11 at 01:32:11

; external perimeters extrusion width = 1.54mm
; perimeters extrusion width = 2.62mm
; infill extrusion width = 6.27mm
; solid infill extrusion width = 2.62mm
; top infill extrusion width = 2.62mm

M107
M104 S30 ; set temperature
G28 ; home all axes
G1 Z5 F5000 ; lift nozzle
M302
M92 E10000
M500
M501
G1 E100
M109 S30 ; wait for temperature to be reached
G21 ; set units to millimeters
G90 ; use absolute coordinates
M82 ; use absolute distances for extrusion
G92 E0
G1 Z0.300 F7800.000
G1 X116.054 Y98.231 F7800.000
G1 X116.054 Y107.423 E0.41593 F378.000
G1 X114.433 Y107.423 E0.48928
G1 X114.433 Y100.959 E0.78177
G1 X105.700 Y100.959 E1.17694
G1 X105.700 Y107.423 E1.46943
G1 X104.079 Y107.423 E1.54278
G1 X104.079 Y92.577 E2.21455
G1 X105.700 Y92.577 E2.28790
G1 X105.700 Y99.674 E2.60903
G1 X114.433 Y99.674 E3.00419 F378.000
G1 X114.433 Y92.577 E3.32533
G1 X116.054 Y92.577 E3.39868
G1 X116.054 Y98.000 E3.64406
G1 X114.659 Y99.601 F7800.000
G1 X115.828 Y100.770 E3.72014 F540.000
G1 X115.828 Y100.216 E3.74565
G1 X114.659 Y99.047 E3.82173
G1 X114.659 Y98.492 E3.84725
G1 X115.828 Y99.661 E3.92333
G1 X115.828 Y99.107 E3.94884
G1 X114.659 Y97.938 E4.02492
G1 X114.659 Y97.383 E4.05044
G1 X115.828 Y98.552 E4.12652
G1 X115.828 Y97.998 E4.15203
G1 X114.659 Y96.829 E4.22811
G1 X114.659 Y96.274 E4.25363
G1 X115.828 Y97.443 E4.32970
G1 X115.828 Y96.889 E4.35522
G1 X114.659 Y95.719 E4.43130
G1 X114.659 Y95.165 E4.45682
G1 X115.828 Y96.334 E4.53289
G1 X115.828 Y95.779 E4.55841
G1 X114.659 Y94.610 E4.63449
G1 X114.659 Y94.056 E4.66001
G1 X115.828 Y95.225 E4.73608
G1 X115.828 Y94.670 E4.76160
G1 X114.659 Y93.501 E4.83768
G1 X114.659 Y92.947 E4.86320
G1 X115.828 Y94.116 E4.93927
G1 X115.828 Y93.561 E4.96479
G1 X115.070 Y92.803 E5.01413
G1 X115.624 Y92.803 E5.03965
G1 X115.828 Y93.007 E5.05290
G1 X114.403 Y99.900 F7800.000
G1 X115.828 Y101.325 E5.14563 F540.000
G1 X115.828 Y101.880 E5.17115
G1 X113.848 Y99.900 E5.29997
G1 X113.294 Y99.900 E5.32549
G1 X114.127 Y100.733 E5.37970
G1 X113.572 Y100.733 E5.40522
G1 X112.739 Y99.900 E5.45943
G1 X112.185 Y99.900 E5.48495
G1 X113.018 Y100.733 E5.53916
G1 X112.463 Y100.733 E5.56468
G1 X111.630 Y99.900 E5.61889
G1 X111.075 Y99.900 E5.64441
G1 X111.908 Y100.733 E5.69862
G1 X111.354 Y100.733 E5.72414
G1 X110.521 Y99.900 E5.77835
G1 X109.966 Y99.900 E5.80387
G1 X110.799 Y100.733 E5.85808
G1 X110.245 Y100.733 E5.88360
G1 X109.412 Y99.900 E5.93781
G1 X108.857 Y99.900 E5.96333
G1 X109.690 Y100.733 E6.01754
G1 X109.136 Y100.733 E6.04306
G1 X108.303 Y99.900 E6.09727
G1 X107.748 Y99.900 E6.12279
G1 X108.581 Y100.733 E6.17700
G1 X108.027 Y100.733 E6.20252
G1 X107.193 Y99.900 E6.25673
G1 X106.639 Y99.900 E6.28225
G1 X107.472 Y100.733 E6.33646
G1 X106.917 Y100.733 E6.36198
G1 X106.084 Y99.900 E6.41619
G1 X105.530 Y99.900 E6.44171
G1 X106.363 Y100.733 E6.49592
G1 X105.808 Y100.733 E6.52144
G1 X104.305 Y99.230 E6.61928
G1 X104.305 Y99.784 E6.64480
G1 X105.474 Y100.953 E6.72087
G1 X105.474 Y101.508 E6.74639
G1 X104.305 Y100.339 E6.82247
G1 X104.305 Y100.893 E6.84799
G1 X105.474 Y102.062 E6.92406
G1 X105.474 Y102.617 E6.94958
G1 X104.305 Y101.448 E7.02566
G1 X104.305 Y102.002 E7.05118
G1 X105.474 Y103.171 E7.12725
G1 X105.474 Y103.726 E7.15277
G1 X104.305 Y102.557 E7.22885
G1 X104.305 Y103.112 E7.25437
G1 X105.474 Y104.281 E7.33044
G1 X105.474 Y104.835 E7.35596
G1 X104.305 Y103.666 E7.43204
G1 X104.305 Y104.221 E7.45755
G1 X105.474 Y105.390 E7.53363
G1 X105.474 Y105.944 E7.55915
G1 X104.305 Y104.775 E7.63523
G1 X104.305 Y105.330 E7.66074
G1 X105.474 Y106.499 E7.73682
G1 X105.474 Y107.053 E7.76234
G1 X104.305 Y105.884 E7.83842
G1 X104.305 Y106.439 E7.86393
G1 X105.063 Y107.197 E7.91327
G1 X104.508 Y107.197 E7.93879
G1 X104.305 Y106.993 E7.95203
G1 X105.474 Y99.844 F7800.000
G1 X104.305 Y98.675 E8.02811 F540.000
G1 X104.305 Y98.120 E8.05363
G1 X105.474 Y99.290 E8.12971
G1 X105.474 Y98.735 E8.15522
G1 X104.305 Y97.566 E8.23130
G1 X104.305 Y97.011 E8.25682
G1 X105.474 Y98.180 E8.33290
G1 X105.474 Y97.626 E8.35841
G1 X104.305 Y96.457 E8.43449
G1 X104.305 Y95.902 E8.46001
G1 X105.474 Y97.071 E8.53608
G1 X105.474 Y96.517 E8.56160
G1 X104.305 Y95.348 E8.63768
G1 X104.305 Y94.793 E8.66320
G1 X105.474 Y95.962 E8.73927
G1 X105.474 Y95.408 E8.76479
G1 X104.305 Y94.238 E8.84087
G1 X104.305 Y93.684 E8.86639
G1 X105.474 Y94.853 E8.94246
G1 X105.474 Y94.298 E8.96798
G1 X104.305 Y93.129 E9.04406
G1 X104.533 Y92.803 E9.06238
G1 X105.474 Y93.744 E9.12361
G1 X105.474 Y93.189 E9.14913
G1 X105.088 Y92.803 E9.17427
G92 E0
G1 X104.925 Y93.352 F7800.000
G1 X104.925 Y93.352 F7800.000
G1 X114.659 Y101.265 F7800.000
G1 X115.828 Y102.434 E0.07608 F540.000
G1 X115.828 Y102.989 E0.10159
G1 X114.659 Y101.820 E0.17767
G1 X114.659 Y102.374 E0.20319
G1 X115.828 Y103.543 E0.27927
G1 X115.828 Y104.098 E0.30478
G1 X114.659 Y102.929 E0.38086
G1 X114.659 Y103.483 E0.40638
G1 X115.828 Y104.652 E0.48246
G1 X115.828 Y105.207 E0.50797
G1 X114.659 Y104.038 E0.58405
G1 X114.659 Y104.592 E0.60957
G1 X115.828 Y105.762 E0.68565
G1 X115.828 Y106.316 E0.71116
G1 X114.659 Y105.147 E0.78724
G1 X114.659 Y105.702 E0.81276
G1 X115.828 Y106.871 E0.88884
G1 X115.600 Y107.197 E0.90716
G1 X114.659 Y106.256 E0.96839
G1 X114.659 Y106.811 E0.99390
G1 X115.045 Y107.197 E1.01904
G92 E0
G1 X114.208 Y101.184 F7800.000
G1 X110.066 Y105.507 F7800.000
G1 X105.925 Y108.648 F7800.000
G1 X101.854 Y107.648 F7800.000
G1 X98.478 Y100.349 F7800.000
G1 X100.380 Y94.355 F7800.000
G1 X97.542 Y92.352 F7800.000
G1 X95.170 Y95.324 F7800.000
G1 X91.605 Y100.376 E0.27977 F378.000
G1 X96.660 Y107.423 E0.67219
G1 X94.929 Y107.423 E0.75053
G1 X90.694 Y101.251 E1.08922
G1 X86.337 Y107.423 E1.43107
G1 X84.608 Y107.423 E1.50931
G1 X89.801 Y100.299 E1.90822
G1 X84.164 Y92.577 E2.34082
G1 X85.892 Y92.577 E2.41901
G1 X90.145 Y98.666 E2.75511
G1 X90.682 Y99.435 E2.79752 F378.000
G1 X95.373 Y92.577 E3.17347
G1 X97.108 Y92.577 E3.25199
G1 X95.303 Y95.135 E3.39368
G1 X96.572 Y93.001 F7800.000
G1 X96.374 Y92.803 E3.40651 F540.000
G1 X96.343 Y93.325 E3.43047
G1 X95.821 Y92.803 E3.46431
G1 X95.378 Y92.913 E3.48522
G1 X96.115 Y93.649 E3.53295
G1 X95.886 Y93.973 E3.55112
G1 X95.154 Y93.241 E3.59858
G1 X94.930 Y93.569 E3.61680
G1 X95.658 Y94.297 E3.66399
G1 X95.429 Y94.621 E3.68216
G1 X94.705 Y93.897 E3.72909
G1 X94.481 Y94.225 E3.74731
G1 X95.200 Y94.944 E3.79396
G1 X94.972 Y95.268 E3.81213
G1 X94.256 Y94.553 E3.85851
G1 X94.032 Y94.881 E3.87673
G1 X94.743 Y95.592 E3.92285
G1 X94.515 Y95.916 E3.94102
G1 X93.808 Y95.209 E3.98686
G1 X93.583 Y95.537 E4.00509
G1 X94.286 Y96.240 E4.05066
G1 X94.058 Y96.564 E4.06883
G1 X93.359 Y95.865 E4.11414
G1 X93.134 Y96.193 E4.13236
G1 X93.829 Y96.888 E4.17740
G1 X93.601 Y97.212 E4.19557
G1 X92.910 Y96.521 E4.24034
G1 X92.686 Y96.849 E4.25856
G1 X93.372 Y97.536 E4.30306
G1 X93.143 Y97.860 E4.32123
G1 X92.461 Y97.177 E4.36546
G1 X92.237 Y97.506 E4.38368
G1 X92.915 Y98.184 E4.42764
G1 X92.686 Y98.508 E4.44581
G1 X92.012 Y97.834 E4.48950
G1 X91.788 Y98.162 E4.50773
G1 X92.458 Y98.831 E4.55115
G1 X92.229 Y99.155 E4.56932
G1 X91.564 Y98.490 E4.61247
G1 X91.339 Y98.818 E4.63069
G1 X92.001 Y99.479 E4.67358
G1 X91.772 Y99.803 E4.69175
G1 X91.115 Y99.146 E4.73437
G1 X90.890 Y99.474 E4.75259
G1 X91.544 Y100.127 E4.79493
G1 X91.315 Y100.451 E4.81311
G1 X87.448 Y96.584 E5.06380
G1 X87.847 Y95.878 F7800.000
G1 X84.772 Y92.803 E5.26318 F540.000
G1 X85.324 Y92.803 E5.28851
G1 X86.567 Y94.046 E5.36909
G1 X85.954 Y94.538 F7800.000
G1 X89.127 Y97.711 E5.57478 F540.000
G1 X88.941 Y98.630 F7800.000
G1 X92.675 Y102.364 E5.81686 F540.000
G1 X92.318 Y103.111 F7800.000
G1 X95.479 Y106.273 E6.02181 F540.000
G1 X94.734 Y106.632 F7800.000
G1 X95.299 Y107.197 E6.05844 F540.000
G1 X95.851 Y107.197 E6.08377
G1 X93.526 Y104.872 E6.23452
G1 X94.077 Y104.318 F7800.000
G1 X90.048 Y100.289 E6.49576 F540.000
G1 X89.815 Y100.608 E6.51389
G1 X90.457 Y101.251 E6.55553
G1 X90.228 Y101.574 E6.57371
G1 X89.582 Y100.928 E6.61563
G1 X89.349 Y101.247 E6.63376
G1 X90.000 Y101.898 E6.67596
G1 X89.771 Y102.222 E6.69413
G1 X89.116 Y101.567 E6.73662
G1 X88.883 Y101.886 E6.75474
G1 X89.543 Y102.546 E6.79750
G1 X89.314 Y102.870 E6.81568
G1 X88.650 Y102.206 E6.85872
G1 X88.417 Y102.525 E6.87684
G1 X89.085 Y103.194 E6.92016
G1 X88.857 Y103.518 E6.93834
G1 X88.184 Y102.845 E6.98193
G1 X87.951 Y103.165 E7.00006
G1 X88.628 Y103.841 E7.04394
G1 X88.399 Y104.165 E7.06211
G1 X87.718 Y103.484 E7.10626
G1 X87.485 Y103.804 E7.12439
G1 X88.171 Y104.489 E7.16883
G1 X87.942 Y104.813 E7.18700
G1 X87.252 Y104.123 E7.23171
G1 X87.019 Y104.443 E7.24984
G1 X87.713 Y105.137 E7.29483
G1 X87.485 Y105.461 E7.31300
G1 X86.787 Y104.762 E7.35827
G1 X86.554 Y105.082 E7.37640
G1 X87.256 Y105.784 E7.42195
G1 X87.028 Y106.108 E7.44012
G1 X86.321 Y105.401 E7.48595
G1 X86.088 Y105.721 E7.50408
G1 X86.799 Y106.432 E7.55019
G1 X86.570 Y106.756 E7.56836
G1 X85.855 Y106.041 E7.61474
G1 X85.622 Y106.360 E7.63287
G1 X86.342 Y107.080 E7.67954
G1 X85.906 Y107.197 E7.70020
G1 X85.389 Y106.680 E7.73375
G1 X85.156 Y106.999 E7.75187
G1 X85.354 Y107.197 E7.76470
M106 S255
G92 E0
G1 Z0.600 F7800.000
G1 X104.889 Y92.352 F7800.000
G1 X104.889 Y99.449 E2.12659 F600.000
G1 X105.800 Y103.796 E3.45730
G92 E0
G1 X115.208 Y106.648 F7800.000
G1 X115.208 Y106.648 F7800.000
G1 X115.243 Y107.648 F7800.000
G1 X115.243 Y101.184 E1.93691 F600.000
G1 X115.062 Y100.316 E2.20250
G1 X115.243 Y99.449 E2.46808
G1 X115.243 Y92.352 E4.59467
G92 E0
G1 X104.925 Y93.352 F7800.000
G1 X104.889 Y93.387 F7800.000
G1 X104.889 Y106.612 F7800.000
G1 X104.925 Y106.648 F7800.000
G1 X104.889 Y107.648 F7800.000
G1 X104.889 Y101.184 E1.93691 F600.000
G1 X105.071 Y100.316 E2.20250
G1 X116.279 Y100.316 E5.56087
G92 E0
G1 X105.925 Y99.449 F7800.000
G1 X105.925 Y99.449 F7800.000
G1 X110.066 Y95.307 F7800.000
G1 X110.066 Y94.493 F7800.000
G1 X107.925 Y92.352 F7800.000
G1 X105.925 Y91.352 F7800.000
G1 X103.854 Y91.352 F7800.000
G1 X101.854 Y92.352 F7800.000
G1 X100.567 Y93.639 F7800.000
G1 X100.380 Y94.355 F7800.000
G1 X97.542 Y92.352 F7800.000
G1 X96.392 Y92.352 F7800.000
G1 X91.403 Y99.533 E2.62027 F600.000
G1 X91.128 Y99.844 E2.74446
G1 X90.705 Y100.224 E2.91494
G1 X90.698 Y100.459 E2.98522
G1 X91.160 Y100.892 E3.17516
G1 X91.395 Y101.162 E3.28236
G1 X95.946 Y107.648 E5.65652
G1 X93.323 Y102.630 F7800.000
G1 X90.227 Y99.785 E6.91634 F600.000
G1 X89.992 Y99.520 E7.02241
G1 X84.874 Y92.352 E9.66157
G92 E0
G1 X85.315 Y107.648 F7800.000
G1 X89.981 Y101.144 E2.39857 F600.000
G1 X90.261 Y100.838 E2.52286
G1 X93.382 Y98.128 E3.76123
G92 E0
G1 Z0.900 F7800.000
G1 X104.889 Y92.352 F7800.000
G1 X104.889 Y99.449 E2.12659 F600.000
G1 X105.800 Y103.796 E3.45730
G92 E0
G1 X115.208 Y106.648 F7800.000
G1 X115.208 Y106.648 F7800.000
G1 X115.243 Y107.648 F7800.000
G1 X115.243 Y101.184 E1.93691 F600.000
G1 X115.062 Y100.316 E2.20250
G1 X115.243 Y99.449 E2.46808
G1 X115.243 Y92.352 E4.59467
G92 E0
G1 X104.925 Y93.352 F7800.000
G1 X104.889 Y93.387 F7800.000
G1 X104.889 Y106.612 F7800.000
G1 X104.925 Y106.648 F7800.000
G1 X104.889 Y107.648 F7800.000
G1 X104.889 Y101.184 E1.93691 F600.000
G1 X105.071 Y100.316 E2.20250
G1 X116.279 Y100.316 E5.56087
G92 E0
G1 X105.925 Y99.449 F7800.000
G1 X105.925 Y99.449 F7800.000
G1 X110.066 Y95.307 F7800.000
G1 X110.066 Y94.493 F7800.000
G1 X107.925 Y92.352 F7800.000
G1 X105.925 Y91.352 F7800.000
G1 X103.854 Y91.352 F7800.000
G1 X101.854 Y92.352 F7800.000
G1 X100.567 Y93.639 F7800.000
G1 X100.380 Y94.355 F7800.000
G1 X97.542 Y92.352 F7800.000
G1 X96.392 Y92.352 F7800.000
G1 X91.403 Y99.533 E2.62027 F600.000
G1 X91.128 Y99.844 E2.74446
G1 X90.705 Y100.224 E2.91494
G1 X90.698 Y100.459 E2.98522
G1 X91.160 Y100.892 E3.17516
G1 X91.395 Y101.162 E3.28236
G1 X95.946 Y107.648 E5.65652
G1 X93.323 Y102.630 F7800.000
G1 X90.227 Y99.785 E6.91634 F600.000
G1 X89.992 Y99.520 E7.02241
G1 X84.874 Y92.352 E9.66157
G92 E0
G1 X85.315 Y107.648 F7800.000
G1 X89.981 Y101.144 E2.39857 F600.000
G1 X90.261 Y100.838 E2.52286
G1 X93.382 Y98.128 E3.76123
G92 E0
G1 Z1.200 F7800.000
G1 X104.889 Y92.352 F7800.000
G1 X104.889 Y99.449 E2.12659 F600.000
G1 X105.800 Y103.796 E3.45730
G92 E0
G1 X115.208 Y106.648 F7800.000
G1 X115.208 Y106.648 F7800.000
G1 X115.243 Y107.648 F7800.000
G1 X115.243 Y101.184 E1.93691 F600.000
G1 X115.062 Y100.316 E2.20250
G1 X115.243 Y99.449 E2.46808
G1 X115.243 Y92.352 E4.59467
G92 E0
G1 X104.925 Y93.352 F7800.000
G1 X104.889 Y93.387 F7800.000
G1 X104.889 Y106.612 F7800.000
G1 X104.925 Y106.648 F7800.000
G1 X104.889 Y107.648 F7800.000
G1 X104.889 Y101.184 E1.93691 F600.000
G1 X105.071 Y100.316 E2.20250
G1 X116.279 Y100.316 E5.56087
G92 E0
G1 X105.925 Y99.449 F7800.000
G1 X105.925 Y99.449 F7800.000
G1 X110.066 Y95.307 F7800.000
G1 X110.066 Y94.493 F7800.000
G1 X107.925 Y92.352 F7800.000
G1 X105.925 Y91.352 F7800.000
G1 X103.854 Y91.352 F7800.000
G1 X101.854 Y92.352 F7800.000
G1 X100.567 Y93.639 F7800.000
G1 X100.380 Y94.355 F7800.000
G1 X97.542 Y92.352 F7800.000
G1 X96.392 Y92.352 F7800.000
G1 X91.403 Y99.533 E2.62027 F600.000
G1 X91.128 Y99.844 E2.74446
G1 X90.705 Y100.224 E2.91494
G1 X90.698 Y100.459 E2.98522
G1 X91.160 Y100.892 E3.17516
G1 X91.395 Y101.162 E3.28236
G1 X95.946 Y107.648 E5.65652
G1 X93.323 Y102.630 F7800.000
G1 X90.227 Y99.785 E6.91634 F600.000
G1 X89.992 Y99.520 E7.02241
G1 X84.874 Y92.352 E9.66157
G92 E0
G1 X85.315 Y107.648 F7800.000
G1 X89.981 Y101.144 E2.39857 F600.000
G1 X90.261 Y100.838 E2.52286
G1 X93.382 Y98.128 E3.76123
G92 E0
G1 Z1.500 F7800.000
G1 X104.889 Y92.352 F7800.000
G1 X104.889 Y99.449 E2.12659 F600.000
G1 X105.800 Y103.796 E3.45730
G92 E0
G1 X115.208 Y106.648 F7800.000
G1 X115.208 Y106.648 F7800.000
G1 X115.243 Y107.648 F7800.000
G1 X115.243 Y101.184 E1.93691 F600.000
G1 X115.062 Y100.316 E2.20250
G1 X115.243 Y99.449 E2.46808
G1 X115.243 Y92.352 E4.59467
G92 E0
G1 X104.925 Y93.352 F7800.000
G1 X104.889 Y93.387 F7800.000
G1 X104.889 Y106.612 F7800.000
G1 X104.925 Y106.648 F7800.000
G1 X104.889 Y107.648 F7800.000
G1 X104.889 Y101.184 E1.93691 F600.000
G1 X105.071 Y100.316 E2.20250
G1 X116.279 Y100.316 E5.56087
G92 E0
G1 X105.925 Y99.449 F7800.000
G1 X105.925 Y99.449 F7800.000
G1 X110.066 Y95.307 F7800.000
G1 X110.066 Y94.493 F7800.000
G1 X107.925 Y92.352 F7800.000
G1 X105.925 Y91.352 F7800.000
G1 X103.854 Y91.352 F7800.000
G1 X101.854 Y92.352 F7800.000
G1 X100.567 Y93.639 F7800.000
G1 X100.380 Y94.355 F7800.000
G1 X97.542 Y92.352 F7800.000
G1 X96.392 Y92.352 F7800.000
G1 X91.403 Y99.533 E2.62027 F600.000
G1 X91.128 Y99.844 E2.74446
G1 X90.705 Y100.224 E2.91494
G1 X90.698 Y100.459 E2.98522
G1 X91.160 Y100.892 E3.17516
G1 X91.395 Y101.162 E3.28236
G1 X95.946 Y107.648 E5.65652
G1 X93.323 Y102.630 F7800.000
G1 X90.227 Y99.785 E6.91634 F600.000
G1 X89.992 Y99.520 E7.02241
G1 X84.874 Y92.352 E9.66157
G92 E0
G1 X85.315 Y107.648 F7800.000
G1 X89.981 Y101.144 E2.39857 F600.000
G1 X90.261 Y100.838 E2.52286
G1 X93.382 Y98.128 E3.76123
G92 E0
G1 Z1.800 F7800.000
G1 X104.889 Y92.352 F7800.000
G1 X104.889 Y99.449 E2.12659 F600.000
G1 X105.800 Y103.796 E3.45730
G92 E0
G1 X115.208 Y106.648 F7800.000
G1 X115.208 Y106.648 F7800.000
G1 X115.243 Y107.648 F7800.000
G1 X115.243 Y101.184 E1.93691 F600.000
G1 X115.062 Y100.316 E2.20250
G1 X115.243 Y99.449 E2.46808
G1 X115.243 Y92.352 E4.59467
G92 E0
G1 X104.925 Y93.352 F7800.000
G1 X104.889 Y93.387 F7800.000
G1 X104.889 Y106.612 F7800.000
G1 X104.925 Y106.648 F7800.000
G1 X104.889 Y107.648 F7800.000
G1 X104.889 Y101.184 E1.93691 F600.000
G1 X105.071 Y100.316 E2.20250
G1 X116.279 Y100.316 E5.56087
G92 E0
G1 X105.925 Y99.449 F7800.000
G1 X105.925 Y99.449 F7800.000
G1 X110.066 Y95.307 F7800.000
G1 X110.066 Y94.493 F7800.000
G1 X107.925 Y92.352 F7800.000
G1 X105.925 Y91.352 F7800.000
G1 X103.854 Y91.352 F7800.000
G1 X101.854 Y92.352 F7800.000
G1 X100.567 Y93.639 F7800.000
G1 X100.380 Y94.355 F7800.000
G1 X97.542 Y92.352 F7800.000
G1 X96.392 Y92.352 F7800.000
G1 X91.403 Y99.533 E2.62027 F600.000
G1 X91.128 Y99.844 E2.74446
G1 X90.705 Y100.224 E2.91494
G1 X90.698 Y100.459 E2.98522
G1 X91.160 Y100.892 E3.17516
G1 X91.395 Y101.162 E3.28236
G1 X95.946 Y107.648 E5.65652
