; generated by Slic3r 1.2.9 on 2016-03-11 at 01:32:12

; external perimeters extrusion width = 1.54mm
; perimeters extrusion width = 2.62mm
; infill extrusion width = 6.27mm
; solid infill extrusion width = 2.62mm
; top infill extrusion width = 2.62mm

M107
M104 S30 ; set temperature
G28 ; home all axes
G1 Z5 F5000 ; lift nozzle
M302
M92 E10000
M500
M501
G1 E100
M109 S30 ; wait for temperature to be reached
G21 ; set units to millimeters
G90 ; use absolute coordinates
M82 ; use absolute distances for extrusion
G92 E0
G1 Z0.300 F7800.000
G1 X110.985 Y100.227 F7800.000
G1 X110.985 Y107.423 E0.32560 F378.000
G1 X109.363 Y107.423 E0.39899 F378.000
G1 X109.363 Y92.577 E1.07076
G1 X110.985 Y92.577 E1.14416
G1 X110.985 Y99.996 E1.47988
G1 X110.759 Y93.007 F7800.000
G1 X110.556 Y92.803 E1.49329 F540.000
G1 X109.994 Y92.803 E1.51944
G1 X110.759 Y93.568 E1.56983
G1 X110.759 Y94.129 E1.59598
G1 X109.589 Y92.959 E1.67305
G1 X109.589 Y93.521 E1.69920
G1 X110.759 Y94.691 E1.77628
G1 X110.759 Y95.252 E1.80242
G1 X109.589 Y94.082 E1.87950
G1 X109.589 Y94.643 E1.90565
G1 X110.759 Y95.813 E1.98273
G1 X110.759 Y96.375 E2.00887
G1 X109.589 Y95.205 E2.08595
G1 X109.589 Y95.766 E2.11210
G1 X110.759 Y96.936 E2.18917
G1 X110.759 Y97.498 E2.21532
G1 X109.589 Y96.327 E2.29240
G1 X109.589 Y96.889 E2.31855
G1 X110.759 Y98.059 E2.39562
G1 X110.759 Y98.620 E2.42177
G1 X109.589 Y97.450 E2.49885
G1 X109.589 Y98.012 E2.52499
G1 X110.759 Y99.182 E2.60207
G1 X110.759 Y99.743 E2.62822
G1 X109.589 Y98.573 E2.70530
G1 X109.589 Y99.134 E2.73144
G1 X110.759 Y100.304 E2.80852
G1 X110.759 Y100.866 E2.83467
G1 X109.589 Y99.696 E2.91174
G1 X109.589 Y100.257 E2.93789
G1 X110.759 Y101.427 E3.01497
G1 X110.759 Y101.988 E3.04112
G1 X109.589 Y100.818 E3.11819
G1 X109.589 Y101.380 E3.14434
G1 X110.759 Y102.550 E3.22142
G1 X110.759 Y103.111 E3.24756
G1 X109.589 Y101.941 E3.32464
G1 X109.589 Y102.502 E3.35079
G1 X110.759 Y103.673 E3.42787
G1 X110.759 Y104.234 E3.45401
G1 X109.589 Y103.064 E3.53109
G1 X109.589 Y103.625 E3.55724
G1 X110.759 Y104.795 E3.63431
G1 X110.759 Y105.357 E3.66046
G1 X109.589 Y104.187 E3.73754
G1 X109.589 Y104.748 E3.76369
G1 X110.759 Y105.918 E3.84076
G1 X110.759 Y106.479 E3.86691
G1 X109.589 Y105.309 E3.94399
G1 X109.589 Y105.871 E3.97013
G1 X110.759 Y107.041 E4.04721
G1 X110.354 Y107.197 E4.06744
G1 X109.589 Y106.432 E4.11783
G1 X109.589 Y106.993 E4.14397
G1 X109.793 Y107.197 E4.15738
G92 E0
G1 X109.138 Y107.648 F7800.000
G1 X105.447 Y105.957 F7800.000
G1 X103.666 Y100.349 F7800.000
G1 X96.950 Y100.375 F7800.000
G1 X91.390 Y95.533 F7800.000
G1 X89.233 Y92.577 E0.16562 F378.000
G1 X90.960 Y92.577 E0.24380
G1 X95.214 Y98.666 E0.57990
G1 X95.751 Y99.435 E0.62232 F378.000
G1 X100.441 Y92.577 E0.99827
G1 X102.177 Y92.577 E1.07678
G1 X96.674 Y100.376 E1.50869
G1 X101.728 Y107.423 E1.90111
G1 X99.997 Y107.423 E1.97945
G1 X95.762 Y101.251 E2.31814
G1 X91.405 Y107.423 E2.66000
G1 X89.676 Y107.423 E2.73823
G1 X94.869 Y100.299 E3.13715
G1 X91.527 Y95.720 E3.39368
G1 X91.023 Y94.538 F7800.000
G1 X94.196 Y97.711 E3.59937 F540.000
G1 X94.010 Y98.630 F7800.000
G1 X97.744 Y102.364 E3.84145 F540.000
G1 X97.386 Y103.111 F7800.000
G1 X100.548 Y106.273 E4.04640 F540.000
G1 X99.802 Y106.632 F7800.000
G1 X100.367 Y107.197 E4.08303 F540.000
G1 X100.920 Y107.197 E4.10836
G1 X98.594 Y104.872 E4.25911
G1 X99.146 Y104.318 F7800.000
G1 X95.116 Y100.289 E4.52035 F540.000
G1 X94.883 Y100.608 E4.53848
G1 X95.526 Y101.251 E4.58012
G1 X95.297 Y101.574 E4.59829
G1 X94.650 Y100.928 E4.64022
G1 X94.417 Y101.247 E4.65835
G1 X95.068 Y101.898 E4.70055
G1 X94.840 Y102.222 E4.71872
G1 X94.184 Y101.567 E4.76120
G1 X93.951 Y101.886 E4.77933
G1 X94.611 Y102.546 E4.82209
G1 X94.382 Y102.870 E4.84027
G1 X93.718 Y102.206 E4.88331
G1 X93.486 Y102.525 E4.90143
G1 X94.154 Y103.194 E4.94475
G1 X93.925 Y103.518 E4.96292
G1 X93.253 Y102.845 E5.00652
G1 X93.020 Y103.165 E5.02465
G1 X93.697 Y103.841 E5.06852
G1 X93.468 Y104.165 E5.08670
G1 X92.787 Y103.484 E5.13085
G1 X92.554 Y103.804 E5.14898
G1 X93.239 Y104.489 E5.19341
G1 X93.011 Y104.813 E5.21159
G1 X92.321 Y104.123 E5.25630
G1 X92.088 Y104.443 E5.27443
G1 X92.782 Y105.137 E5.31942
G1 X92.553 Y105.461 E5.33759
G1 X91.855 Y104.762 E5.38286
G1 X91.622 Y105.082 E5.40099
G1 X92.325 Y105.784 E5.44654
G1 X92.096 Y106.108 E5.46471
G1 X91.389 Y105.401 E5.51054
G1 X91.156 Y105.721 E5.52867
G1 X91.867 Y106.432 E5.57477
G1 X91.639 Y106.756 E5.59295
G1 X90.923 Y106.041 E5.63933
G1 X90.690 Y106.360 E5.65746
G1 X91.410 Y107.080 E5.70412
G1 X90.975 Y107.197 E5.72479
G1 X90.457 Y106.680 E5.75834
G1 X90.225 Y106.999 E5.77646
G1 X90.422 Y107.197 E5.78929
G92 E0
G1 X92.516 Y96.584 F7800.000
G1 X96.383 Y100.451 E0.25070 F540.000
G1 X96.612 Y100.127 E0.26887
G1 X95.959 Y99.474 E0.31122
G1 X96.183 Y99.146 E0.32944
G1 X96.841 Y99.803 E0.37205
G1 X97.069 Y99.479 E0.39023
G1 X96.408 Y98.818 E0.43311
G1 X96.632 Y98.490 E0.45133
G1 X97.298 Y99.155 E0.49448
G1 X97.526 Y98.831 E0.51266
G1 X96.856 Y98.162 E0.55608
G1 X97.081 Y97.834 E0.57430
G1 X97.755 Y98.508 E0.61799
G1 X97.983 Y98.184 E0.63616
G1 X97.305 Y97.506 E0.68012
G1 X97.530 Y97.177 E0.69834
G1 X98.212 Y97.860 E0.74257
G1 X98.441 Y97.536 E0.76075
G1 X97.754 Y96.849 E0.80525
G1 X97.979 Y96.521 E0.82347
G1 X98.669 Y97.212 E0.86823
G1 X98.898 Y96.888 E0.88641
G1 X98.203 Y96.193 E0.93144
G1 X98.427 Y95.865 E0.94966
G1 X99.126 Y96.564 E0.99497
G1 X99.355 Y96.240 E1.01314
G1 X98.652 Y95.537 E1.05872
G1 X98.876 Y95.209 E1.07694
G1 X99.583 Y95.916 E1.12278
G1 X99.812 Y95.592 E1.14096
G1 X99.101 Y94.881 E1.18707
G1 X99.325 Y94.553 E1.20529
G1 X100.040 Y95.268 E1.25167
G1 X100.269 Y94.944 E1.26985
G1 X99.549 Y94.225 E1.31650
G1 X99.774 Y93.897 E1.33472
G1 X100.498 Y94.621 E1.38164
G1 X100.726 Y94.297 E1.39981
G1 X99.998 Y93.569 E1.44700
G1 X100.223 Y93.241 E1.46522
G1 X100.955 Y93.973 E1.51268
G1 X101.183 Y93.649 E1.53086
G1 X100.447 Y92.913 E1.57858
G1 X100.890 Y92.803 E1.59950
G1 X101.412 Y93.325 E1.63333
G1 X101.442 Y92.803 E1.65730
G1 X101.640 Y93.001 E1.67013
G92 E0
G1 X92.916 Y95.878 F7800.000
G1 X89.840 Y92.803 E0.19938 F540.000
G1 X90.393 Y92.803 E0.22471
G1 X91.636 Y94.046 E0.30528
M106 S255
G92 E0
G1 Z0.600 F7800.000
G1 X110.174 Y107.648 F7800.000
G1 X110.174 Y92.352 E4.58339 F600.000
G92 E0
G1 X107.138 Y92.352 F7800.000
G1 X105.546 Y94.423 F7800.000
G1 X102.611 Y92.352 F7800.000
G1 X101.461 Y92.352 F7800.000
G1 X96.472 Y99.533 E2.62027 F600.000
G1 X96.197 Y99.844 E2.74446
G1 X95.774 Y100.224 E2.91494
G1 X95.766 Y100.459 E2.98522
G1 X96.229 Y100.892 E3.17516
G1 X96.464 Y101.162 E3.28236
G1 X101.014 Y107.648 E5.65652
G1 X98.391 Y102.630 F7800.000
G1 X95.295 Y99.785 E6.91634 F600.000
G1 X95.061 Y99.520 E7.02241
G1 X89.942 Y92.352 E9.66157
G92 E0
G1 X90.384 Y107.648 F7800.000
G1 X95.050 Y101.144 E2.39857 F600.000
G1 X95.330 Y100.838 E2.52286
G1 X98.450 Y98.128 E3.76123
G92 E0
G1 Z0.900 F7800.000
G1 X110.174 Y107.648 F7800.000
G1 X110.174 Y92.352 E4.58339 F600.000
G92 E0
G1 X107.138 Y92.352 F7800.000
G1 X105.546 Y94.423 F7800.000
G1 X102.611 Y92.352 F7800.000
G1 X101.461 Y92.352 F7800.000
G1 X96.472 Y99.533 E2.62027 F600.000
G1 X96.197 Y99.844 E2.74446
G1 X95.774 Y100.224 E2.91494
G1 X95.766 Y100.459 E2.98522
G1 X96.229 Y100.892 E3.17516
G1 X96.464 Y101.162 E3.28236
G1 X101.014 Y107.648 E5.65652
G1 X98.391 Y102.630 F7800.000
G1 X95.295 Y99.785 E6.91634 F600.000
G1 X95.061 Y99.520 E7.02241
G1 X89.942 Y92.352 E9.66157
G92 E0
G1 X90.384 Y107.648 F7800.000
G1 X95.050 Y101.144 E2.39857 F600.000
G1 X95.330 Y100.838 E2.52286
G1 X98.450 Y98.128 E3.76123
G92 E0
G1 Z1.200 F7800.000
G1 X110.174 Y107.648 F7800.000
G1 X110.174 Y92.352 E4.58339 F600.000
G92 E0
G1 X107.138 Y92.352 F7800.000
G1 X105.546 Y94.423 F7800.000
G1 X102.611 Y92.352 F7800.000
G1 X101.461 Y92.352 F7800.000
G1 X96.472 Y99.533 E2.62027 F600.000
G1 X96.197 Y99.844 E2.74446
G1 X95.774 Y100.224 E2.91494
G1 X95.766 Y100.459 E2.98522
G1 X96.229 Y100.892 E3.17516
G1 X96.464 Y101.162 E3.28236
G1 X101.014 Y107.648 E5.65652
G1 X98.391 Y102.630 F7800.000
G1 X95.295 Y99.785 E6.91634 F600.000
G1 X95.061 Y99.520 E7.02241
G1 X89.942 Y92.352 E9.66157
G92 E0
G1 X90.384 Y107.648 F7800.000
G1 X95.050 Y101.144 E2.39857 F600.000
G1 X95.330 Y100.838 E2.52286
G1 X98.450 Y98.128 E3.76123
G92 E0
G1 Z1.500 F7800.000
G1 X110.174 Y107.648 F7800.000
G1 X110.174 Y92.352 E4.58339 F600.000
G92 E0
G1 X107.138 Y92.352 F7800.000
G1 X105.546 Y94.423 F7800.000
G1 X102.611 Y92.352 F7800.000
G1 X101.461 Y92.352 F7800.000
G1 X96.472 Y99.533 E2.62027 F600.000
G1 X96.197 Y99.844 E2.74446
G1 X95.774 Y100.224 E2.91494
G1 X95.766 Y100.459 E2.98522
G1 X96.229 Y100.892 E3.17516
G1 X96.464 Y101.162 E3.28236
G1 X101.014 Y107.648 E5.65652
G1 X98.391 Y102.630 F7800.000
G1 X95.295 Y99.785 E6.91634 F600.000
G1 X95.061 Y99.520 E7.02241
G1 X89.942 Y92.352 E9.66157
G92 E0
G1 X90.384 Y107.648 F7800.000
G1 X95.050 Y101.144 E2.39857 F600.000
G1 X95.330 Y100.838 E2.52286
G1 X98.450 Y98.128 E3.76123
G92 E0
G1 Z1.800 F7800.000
G1 X110.174 Y107.648 F7800.000
G1 X110.174 Y92.352 E4.58339 F600.000
G92 E0
G1 X107.138 Y92.352 F7800.000
G1 X105.546 Y94.423 F7800.000
G1 X102.611 Y92.352 F7800.000
G1 X101.461 Y92.352 F7800.000
G1 X96.472 Y99.533 E2.62027 F600.000
G1 X96.197 Y99.844 E2.74446
G1 X95.774 Y100.224 E2.91494
G1 X95.766 Y100.459 E2.98522
G1 X96.229 Y100.892 E3.17516
G1 X96.464 Y101.162 E3.28236
G1 X101.014 Y107.648 E5.65652
G1 X98.391 Y102.630 F7800.000
G1 X95.295 Y99.785 E6.91634 F600.000
G1 X95.061 Y99.520 E7.02241
G1 X89.942 Y92.352 E9.66157
G92 E0
G1 X90.384 Y107.648 F7800.000
G1 X95.050 Y101.144 E2.39857 F600.000
G1 X95.330 Y100.838 E2.52286
G1 X98.450 Y98.128 E3.76123
G92 E0
G1 Z2.100 F7800.000
G1 X110.174 Y107.648 F7800.000
G1 X110.174 Y92.352 E4.58339 F600.000
G92 E0
G1 X107.138 Y92.352 F7800.000
G1 X105.546 Y94.423 F7800.000
G1 X102.611 Y92.352 F7800.000
G1 X101.461 Y92.352 F7800.000
G1 X96.472 Y99.533 E2.62027 F600.000
G1 X96.197 Y99.844 E2.74446
G1 X95.774 Y100.224 E2.91494
G1 X95.766 Y100.459 E2.98522
G1 X96.229 Y100.892 E3.17516
G1 X96.464 Y101.162 E3.28236
G1 X101.014 Y107.648 E5.65652
G92 E0
G1 X98.391 Y102.630 F7800.000
G1 X95.295 Y99.785 E1.25982 F600.000
G1 X95.061 Y99.520 E1.36589
G1 X89.942 Y92.352 E4.00505
G92 E0
G1 X90.384 Y107.648 F7800.000
G1 X95.050 Y101.144 E2.39857 F600.000
G1 X95.330 Y100.838 E2.52286
G1 X98.450 Y98.128 E3.76123
G92 E0
M107
M104 S0 ; turn off temperature
G28 X0  ; home X axis
M84     ; disable motors

; filament used = 120.0mm (0.9cm3)

; avoid_crossing_perimeters = 1
; bed_shape = 0x0,250x0,250x250,0x250
; bed_temperature = 0
; before_layer_gcode = 
; bridge_acceleration = 0
; bridge_fan_speed = 100
; brim_width = 0
; complete_objects = 0
; cooling = 1
; default_acceleration = 0
; disable_fan_first_layers = 1
; duplicate_distance = 6
; end_gcode = M104 S0 ; turn off temperature\nG28 X0  ; home X axis\nM84     ; disable motors\n
; extruder_clearance_height = 20
; extruder_clearance_radius = 20
; extruder_offset = 0x0
; extrusion_axis = E
; extrusion_multiplier = 3
; fan_always_on = 0
; fan_below_layer_time = 60
; filament_colour = #FFFFFF
; filament_diameter = 3.125
; first_layer_acceleration = 0
; first_layer_bed_temperature = 0
; first_layer_extrusion_width = 150%
; first_layer_speed = 90%
; first_layer_temperature = 30
; gcode_arcs = 0
; gcode_comments = 0
; gcode_flavor = reprap
; infill_acceleration = 0
; infill_first = 0
; layer_gcode = 
; max_fan_speed = 100
; max_print_speed = 80
; max_volumetric_speed = 0
; min_fan_speed = 35
; min_print_speed = 10
; min_skirt_length = 0
; notes = 
; nozzle_diameter = 1.54
; only_retract_when_crossing_perimeters = 1
; ooze_prevention = 0
; output_filename_format = [input_filename_base].gcode
; perimeter_acceleration = 0
; post_process = 
; pressure_advance = 0
; resolution = 0
; retract_before_travel = 2
; retract_layer_change = 1
; retract_length = 0
; retract_length_toolchange = 10
; retract_lift = 0
; retract_restart_extra = 0
; retract_restart_extra_toolchange = 0
; retract_speed = 0
; skirt_distance = 6
; skirt_height = 1
; skirts = 0
; slowdown_below_layer_time = 30
; spiral_vase = 0
; standby_temperature_delta = -5
; start_gcode = G28 ; home all axes\nG1 Z5 F5000 ; lift nozzle\nM302\nM92 E10000\nM500\nM501\nG1 E100
; temperature = 30
; threads = 2
; toolchange_gcode = 
; travel_speed = 130
; use_firmware_retraction = 0
; use_relative_e_distances = 0
; use_volumetric_e = 0
; vibration_limit = 0
; wipe = 0
; z_offset = 0
; dont_support_bridges = 1
; extrusion_width = 0
; first_layer_height = 100%
; infill_only_where_needed = 0
; interface_shells = 0
; layer_height = 0.3
; raft_layers = 0
; seam_position = random
; support_material = 0
; support_material_angle = 0
; support_material_contact_distance = 0.2
; support_material_enforce_layers = 0
; support_material_extruder = 1
; support_material_extrusion_width = 0
; support_material_interface_extruder = 1
; support_material_interface_layers = 3
; support_material_interface_spacing = 0
; support_material_interface_speed = 100%
; support_material_pattern = pillars
; support_material_spacing = 2.5
; support_material_speed = 7
; support_material_threshold = 0
; xy_size_compensation = 0
; bottom_solid_layers = 3
; bridge_flow_ratio = 1
; bridge_speed = 10
; external_fill_pattern = rectilinear
; external_perimeter_extrusion_width = 0
; external_perimeter_speed = 70%
; external_perimeters_first = 1
; extra_perimeters = 1
; fill_angle = 45
; fill_density = 60%
; fill_pattern = rectilinear
; gap_fill_speed = 10
; infill_every_layers = 1
; infill_extruder = 1
; infill_extrusion_width = 0
; infill_overlap = 15%
; infill_speed = 10
; overhangs = 1
; perimeter_extruder = 1
; perimeter_extrusion_width = 0
; perimeter_speed = 10
; perimeters = 1
; small_perimeter_speed = 70%
; solid_infill_below_area = 70
; solid_infill_every_layers = 0
; solid_infill_extruder = 1
; solid_infill_extrusion_width = 0
; solid_infill_speed = 10
; thin_walls = 1
; top_infill_extrusion_width = 0
; top_solid_infill_speed = 10
; top_solid_layers = 3
