; generated by Slic3r 1.2.9 on 2016-03-11 at 01:32:13

; external perimeters extrusion width = 1.54mm
; perimeters extrusion width = 2.62mm
; infill extrusion width = 6.27mm
; solid infill extrusion width = 2.62mm
; top infill extrusion width = 2.62mm

M107
M104 S30 ; set temperature
G28 ; home all axes
G1 Z5 F5000 ; lift nozzle
M302
M92 E10000
M500
M501
G1 E100
M109 S30 ; wait for temperature to be reached
G21 ; set units to millimeters
G90 ; use absolute coordinates
M82 ; use absolute distances for extrusion
G92 E0
G1 Z0.300 F7800.000
G1 X113.670 Y100.397 F7800.000
G1 X113.670 Y107.519 E0.32229 F378.000
G1 X109.107 Y107.519 E0.52876
G1 X109.107 Y106.277 E0.58496
G1 X112.059 Y106.277 E0.71853
G1 X112.059 Y96.973 E1.13953
G1 X111.984 Y96.025 E1.18257
G1 X111.751 Y95.217 E1.22059
G1 X111.355 Y94.566 E1.25512
G1 X110.813 Y94.089 E1.28776
G1 X110.155 Y93.804 E1.32021
G1 X109.394 Y93.710 E1.35493
G1 X108.684 Y93.796 E1.38726
G1 X108.052 Y94.055 E1.41816
G1 X107.508 Y94.484 E1.44953
G1 X107.073 Y95.060 E1.48219
G1 X106.759 Y95.757 E1.51679
G1 X106.618 Y96.352 E1.54444
G1 X105.067 Y96.095 E1.61557
G1 X105.788 Y94.173 E1.70843
G1 X107.241 Y92.911 E1.79551
G1 X109.392 Y92.483 E1.89476
G1 X110.561 Y92.611 E1.94794
G1 X110.629 Y92.618 E1.95105 F378.000
G1 X111.672 Y93.020 E2.00163
G1 X112.523 Y93.686 E2.05053
G1 X113.156 Y94.587 E2.10038
G1 X113.540 Y95.697 E2.15352
G1 X113.670 Y97.036 E2.21439
G1 X113.670 Y100.166 E2.35600
G1 X112.052 Y95.351 F7800.000
G1 X113.402 Y96.701 E2.44410 F540.000
G1 X113.444 Y97.299 E2.47177
G1 X112.222 Y96.076 E2.55155
G1 X112.270 Y96.680 E2.57950
G1 X113.444 Y97.855 E2.65616
G1 X113.444 Y98.411 E2.68181
G1 X112.285 Y97.252 E2.75744
G1 X112.285 Y97.808 E2.78310
G1 X113.444 Y98.967 E2.85873
G1 X113.444 Y99.523 E2.88438
G1 X112.285 Y98.364 E2.96001
G1 X112.285 Y98.920 E2.98567
G1 X113.444 Y100.080 E3.06129
G1 X113.444 Y100.636 E3.08695
G1 X112.285 Y99.476 E3.16258
G1 X112.285 Y100.033 E3.18823
G1 X113.444 Y101.192 E3.26386
G1 X113.444 Y101.748 E3.28952
G1 X112.285 Y100.589 E3.36514
G1 X112.285 Y101.145 E3.39080
G1 X113.444 Y102.304 E3.46643
G1 X113.444 Y102.860 E3.49208
G1 X112.285 Y101.701 E3.56771
G1 X112.285 Y102.257 E3.59337
G1 X113.444 Y103.416 E3.66899
G1 X113.444 Y103.972 E3.69465
G1 X112.285 Y102.813 E3.77028
G1 X112.285 Y103.369 E3.79593
G1 X113.444 Y104.528 E3.87156
G1 X113.444 Y105.084 E3.89722
G1 X112.285 Y103.925 E3.97284
G1 X112.285 Y104.481 E3.99850
G1 X113.444 Y105.640 E4.07413
G1 X113.444 Y106.196 E4.09978
G1 X112.285 Y105.037 E4.17541
G1 X112.285 Y105.593 E4.20107
G1 X113.444 Y106.752 E4.27669
G1 X113.417 Y107.281 E4.30111
G1 X112.285 Y106.149 E4.37494
G1 X112.083 Y106.503 F7800.000
G1 X112.873 Y107.293 E4.42649 F540.000
G1 X112.317 Y107.293 E4.45215
G1 X111.527 Y106.503 E4.50370
G1 X110.971 Y106.503 E4.52935
G1 X111.761 Y107.293 E4.58091
G1 X111.205 Y107.293 E4.60656
G1 X110.415 Y106.503 E4.65811
G1 X109.859 Y106.503 E4.68377
G1 X110.649 Y107.293 E4.73532
G1 X110.093 Y107.293 E4.76097
G1 X109.333 Y106.533 E4.81054
G1 X109.333 Y107.089 E4.83619
G1 X109.537 Y107.293 E4.84948
G92 E0
G1 X112.834 Y96.942 F7800.000
G1 X112.765 Y95.884 F7800.000
G1 X112.762 Y95.867 F7800.000
G1 X112.577 Y95.283 F7800.000
G1 X106.041 Y96.012 F7800.000
G1 X105.513 Y95.484 E0.03447 F540.000
G1 X105.664 Y95.080 E0.05439
G1 X106.505 Y95.921 E0.10927
G1 X106.651 Y95.511 E0.12936
G1 X105.816 Y94.675 E0.18385
G1 X105.983 Y94.286 E0.20340
G1 X106.824 Y95.127 E0.25826
G1 X107.038 Y94.785 E0.27687
G1 X106.266 Y94.013 E0.32725
G1 X106.563 Y93.755 E0.34543
G1 X107.278 Y94.469 E0.39203
G1 X107.561 Y94.197 E0.41018
G1 X106.861 Y93.496 E0.45587
G1 X107.159 Y93.238 E0.47406
G1 X107.872 Y93.951 E0.52062
G1 X108.238 Y93.761 E0.53964
G1 X107.544 Y93.067 E0.58496
G1 X108.008 Y92.975 E0.60677
G1 X108.633 Y93.600 E0.64756
G1 X109.115 Y93.526 E0.67006
G1 X108.471 Y92.882 E0.71203
G1 X108.935 Y92.790 E0.73385
G1 X109.648 Y93.503 E0.78039
G1 X110.282 Y93.581 E0.80985
G1 X109.425 Y92.724 E0.86579
G1 X110.049 Y92.791 E0.89475
G1 X113.342 Y96.085 E1.10964
G1 X113.140 Y95.326 E1.14586
G1 X110.762 Y92.949 E1.30101
G1 X112.085 Y93.715 F7800.000
G1 X112.447 Y94.078 E1.32467 F540.000
G92 E0
G1 X107.138 Y92.702 F7800.000
G1 X102.771 Y93.199 F7800.000
G1 X99.926 Y91.352 F7800.000
G1 X93.036 Y93.475 F7800.000
G1 X93.060 Y98.391 F7800.000
G1 X92.713 Y98.633 F7800.000
G1 X89.706 Y94.720 F7800.000
G1 X92.529 Y98.762 E0.22309 F378.000
G1 X93.066 Y99.531 E0.26550 F378.000
G1 X97.756 Y92.673 E0.64146
G1 X99.492 Y92.673 E0.71997
G1 X93.989 Y100.472 E1.15188
G1 X99.043 Y107.519 E1.54430
G1 X97.312 Y107.519 E1.62263
G1 X93.077 Y101.347 E1.96133
G1 X88.720 Y107.519 E2.30318
G1 X86.991 Y107.519 E2.38142
G1 X92.184 Y100.395 E2.78033
G1 X86.548 Y92.673 E3.21293
G1 X88.275 Y92.673 E3.29112
G1 X89.573 Y94.531 E3.39368
G1 X88.951 Y94.142 F7800.000
G1 X87.708 Y92.899 E3.47425 F540.000
G1 X87.155 Y92.899 E3.49958
G1 X90.231 Y95.974 E3.69896
G1 X89.831 Y96.680 F7800.000
G1 X93.699 Y100.547 E3.94966 F540.000
G1 X93.927 Y100.223 E3.96783
G1 X93.274 Y99.570 E4.01018
G1 X93.498 Y99.242 E4.02840
G1 X94.156 Y99.899 E4.07101
G1 X94.384 Y99.575 E4.08918
G1 X93.723 Y98.914 E4.13207
G1 X93.947 Y98.586 E4.15029
G1 X94.613 Y99.251 E4.19344
G1 X94.841 Y98.927 E4.21161
G1 X94.171 Y98.258 E4.25504
G1 X94.396 Y97.930 E4.27326
G1 X95.070 Y98.604 E4.31695
G1 X95.298 Y98.280 E4.33512
G1 X94.620 Y97.602 E4.37908
G1 X94.845 Y97.273 E4.39730
G1 X95.527 Y97.956 E4.44153
G1 X95.756 Y97.632 E4.45971
G1 X95.069 Y96.945 E4.50420
G1 X95.294 Y96.617 E4.52242
G1 X95.984 Y97.308 E4.56719
G1 X96.213 Y96.984 E4.58537
G1 X95.518 Y96.289 E4.63040
G1 X95.742 Y95.961 E4.64862
G1 X96.441 Y96.660 E4.69393
G1 X96.670 Y96.336 E4.71210
G1 X95.967 Y95.633 E4.75768
G1 X96.191 Y95.305 E4.77590
G1 X96.898 Y96.012 E4.82174
G1 X97.127 Y95.688 E4.83992
G1 X96.416 Y94.977 E4.88603
G1 X96.640 Y94.649 E4.90425
G1 X97.355 Y95.364 E4.95063
G1 X97.584 Y95.040 E4.96880
G1 X96.864 Y94.321 E5.01546
G1 X97.089 Y93.993 E5.03368
G1 X97.813 Y94.717 E5.08060
G1 X98.041 Y94.393 E5.09877
G1 X97.313 Y93.665 E5.14596
G1 X97.538 Y93.337 E5.16418
G1 X98.270 Y94.069 E5.21164
G1 X98.498 Y93.745 E5.22981
G1 X97.762 Y93.009 E5.27754
G1 X98.205 Y92.899 E5.29846
G1 X98.727 Y93.421 E5.33229
G1 X98.757 Y92.899 E5.35625
G1 X98.955 Y93.097 E5.36909
G92 E0
G1 X91.511 Y97.807 F7800.000
G1 X88.338 Y94.634 E0.20570 F540.000
G1 X91.325 Y98.726 F7800.000
G1 X95.059 Y102.460 E0.44777 F540.000
G1 X94.701 Y103.207 F7800.000
G1 X97.863 Y106.369 E0.65272 F540.000
G1 X97.117 Y106.728 F7800.000
G1 X97.682 Y107.293 E0.68935 F540.000
G1 X98.235 Y107.293 E0.71468
G1 X95.909 Y104.968 E0.86543
G1 X96.461 Y104.414 F7800.000
G1 X92.431 Y100.385 E1.12667 F540.000
G1 X92.198 Y100.704 E1.14480
G1 X92.841 Y101.347 E1.18645
G1 X92.612 Y101.670 E1.20462
G1 X91.965 Y101.024 E1.24654
G1 X91.732 Y101.343 E1.26467
G1 X92.383 Y101.994 E1.30688
G1 X92.155 Y102.318 E1.32505
G1 X91.499 Y101.663 E1.36753
G1 X91.266 Y101.982 E1.38566
G1 X91.926 Y102.642 E1.42842
G1 X91.697 Y102.966 E1.44659
G1 X91.033 Y102.302 E1.48963
G1 X90.801 Y102.621 E1.50776
G1 X91.469 Y103.290 E1.55108
G1 X91.240 Y103.614 E1.56925
G1 X90.568 Y102.941 E1.61285
G1 X90.335 Y103.261 E1.63097
G1 X91.012 Y103.937 E1.67485
G1 X90.783 Y104.261 E1.69302
G1 X90.102 Y103.580 E1.73718
G1 X89.869 Y103.900 E1.75530
G1 X90.554 Y104.585 E1.79974
G1 X90.326 Y104.909 E1.81791
G1 X89.636 Y104.219 E1.86262
G1 X89.403 Y104.539 E1.88075
G1 X90.097 Y105.233 E1.92574
G1 X89.868 Y105.557 E1.94392
G1 X89.170 Y104.858 E1.98919
G1 X88.937 Y105.178 E2.00731
G1 X89.640 Y105.880 E2.05286
G1 X89.411 Y106.204 E2.07104
G1 X88.704 Y105.497 E2.11686
G1 X88.471 Y105.817 E2.13499
G1 X89.182 Y106.528 E2.18110
G1 X88.954 Y106.852 E2.19927
G1 X88.238 Y106.136 E2.24566
G1 X88.005 Y106.456 E2.26378
G1 X88.725 Y107.176 E2.31045
G1 X88.290 Y107.293 E2.33111
G1 X87.772 Y106.776 E2.36466
G1 X87.540 Y107.095 E2.38279
G1 X87.737 Y107.293 E2.39562
M106 S255
G92 E0
G1 Z0.600 F7800.000
G1 X105.691 Y96.426 F7800.000
G1 X106.440 Y94.626 E0.58425 F600.000
G1 X107.108 Y93.931 E0.87317
G1 X107.558 Y93.558 E1.04831
G1 X107.838 Y93.448 E1.13847
G1 X108.646 Y93.220 E1.38994
G1 X109.419 Y93.101 E1.62452
G1 X110.198 Y93.189 E1.85918
G1 X110.477 Y93.245 E1.94450
G1 X111.040 Y93.476 E2.12695
G1 X111.329 Y93.625 E2.22431
G1 X111.795 Y94.013 E2.40604
G1 X111.986 Y94.195 E2.48521
G1 X112.381 Y94.799 E2.70122
G1 X112.466 Y94.940 E2.75056
G1 X112.736 Y95.785 E3.01629
G1 X112.774 Y95.985 E3.07740
G1 X112.865 Y97.075 E3.40517
G1 X112.865 Y106.052 E6.09506
G1 X112.783 Y106.632 E6.27054
G1 X111.834 Y106.898 E6.56584
G1 X108.882 Y106.898 E7.45040
G92 E0
G1 X103.578 Y102.529 F7800.000
G1 X101.832 Y95.173 F7800.000
G1 X102.363 Y94.168 F7800.000
G1 X99.926 Y92.448 F7800.000
G1 X98.776 Y92.448 F7800.000
G1 X93.787 Y99.629 E2.62027 F600.000
G1 X93.512 Y99.940 E2.74446
G1 X93.089 Y100.320 E2.91494
G1 X93.081 Y100.555 E2.98522
G1 X93.544 Y100.988 E3.17516
G1 X93.779 Y101.258 E3.28236
G1 X98.329 Y107.744 E5.65652
G1 X95.706 Y102.726 F7800.000
G1 X92.610 Y99.881 E6.91634 F600.000
G1 X92.376 Y99.616 E7.02241
G1 X87.257 Y92.448 E9.66157
G92 E0
G1 X87.699 Y107.744 F7800.000
G1 X92.365 Y101.240 E2.39857 F600.000
G1 X92.645 Y100.934 E2.52286
G1 X95.765 Y98.224 E3.76123
G92 E0
G1 Z0.900 F7800.000
G1 X105.691 Y96.426 F7800.000
G1 X106.440 Y94.626 E0.58425 F600.000
G1 X107.108 Y93.931 E0.87317
G1 X107.558 Y93.558 E1.04831
G1 X107.838 Y93.448 E1.13847
G1 X108.646 Y93.220 E1.38994
G1 X109.419 Y93.101 E1.62452
G1 X110.198 Y93.189 E1.85918
G1 X110.477 Y93.245 E1.94450
G1 X111.040 Y93.476 E2.12695
G1 X111.329 Y93.625 E2.22431
G1 X111.795 Y94.013 E2.40604
G1 X111.986 Y94.195 E2.48521
G1 X112.381 Y94.799 E2.70122
G1 X112.466 Y94.940 E2.75056
G1 X112.736 Y95.785 E3.01629
G1 X112.774 Y95.985 E3.07740
G1 X112.865 Y97.075 E3.40517
G1 X112.865 Y106.052 E6.09506
G1 X112.783 Y106.632 E6.27054
G1 X111.834 Y106.898 E6.56585
G1 X108.882 Y106.898 E7.45040
G92 E0
G1 X103.578 Y102.529 F7800.000
G1 X101.832 Y95.173 F7800.000
G1 X102.363 Y94.168 F7800.000
G1 X99.926 Y92.448 F7800.000
G1 X98.776 Y92.448 F7800.000
G1 X93.787 Y99.629 E2.62027 F600.000
G1 X93.512 Y99.940 E2.74446
G1 X93.089 Y100.320 E2.91494
G1 X93.081 Y100.555 E2.98522
G1 X93.544 Y100.988 E3.17516
G1 X93.779 Y101.258 E3.28236
G1 X98.329 Y107.744 E5.65652
G1 X95.706 Y102.726 F7800.000
G1 X92.610 Y99.881 E6.91634 F600.000
G1 X92.376 Y99.616 E7.02241
G1 X87.257 Y92.448 E9.66157
G92 E0
G1 X87.699 Y107.744 F7800.000
G1 X92.365 Y101.240 E2.39857 F600.000
G1 X92.645 Y100.934 E2.52286
G1 X95.765 Y98.224 E3.76123
G92 E0
G1 Z1.200 F7800.000
G1 X105.691 Y96.426 F7800.000
G1 X106.440 Y94.626 E0.58425 F600.000
G1 X107.108 Y93.931 E0.87317
G1 X107.558 Y93.558 E1.04831
G1 X107.838 Y93.448 E1.13847
G1 X108.646 Y93.220 E1.38994
G1 X109.419 Y93.101 E1.62452
G1 X110.198 Y93.189 E1.85918
G1 X110.477 Y93.245 E1.94450
G1 X111.040 Y93.476 E2.12695
G1 X111.329 Y93.625 E2.22431
G1 X111.795 Y94.013 E2.40604
G1 X111.986 Y94.195 E2.48521
G1 X112.381 Y94.799 E2.70122
G1 X112.466 Y94.940 E2.75056
G1 X112.736 Y95.785 E3.01629
G1 X112.774 Y95.985 E3.07740
G1 X112.865 Y97.075 E3.40517
G1 X112.865 Y106.052 E6.09506
G1 X112.783 Y106.632 E6.27054
G1 X111.834 Y106.898 E6.56584
G1 X108.882 Y106.898 E7.45040
G92 E0
G1 X103.578 Y102.529 F7800.000
G1 X101.832 Y95.173 F7800.000
G1 X102.363 Y94.168 F7800.000
G1 X99.926 Y92.448 F7800.000
G1 X98.776 Y92.448 F7800.000
G1 X93.787 Y99.629 E2.62027 F600.000
G1 X93.512 Y99.940 E2.74446
G1 X93.089 Y100.320 E2.91494
G1 X93.081 Y100.555 E2.98522
G1 X93.544 Y100.988 E3.17516
G1 X93.779 Y101.258 E3.28236
G1 X98.329 Y107.744 E5.65652
G1 X95.706 Y102.726 F7800.000
G1 X92.610 Y99.881 E6.91634 F600.000
G1 X92.376 Y99.616 E7.02241
G1 X87.257 Y92.448 E9.66157
G92 E0
G1 X87.699 Y107.744 F7800.000
G1 X92.365 Y101.240 E2.39857 F600.000
G1 X92.645 Y100.934 E2.52286
G1 X95.765 Y98.224 E3.76123
G92 E0
G1 Z1.500 F7800.000
G1 X105.691 Y96.426 F7800.000
G1 X106.440 Y94.626 E0.58425 F600.000
G1 X107.108 Y93.931 E0.87317
G1 X107.558 Y93.558 E1.04831
G1 X107.838 Y93.448 E1.13847
G1 X108.646 Y93.220 E1.38994
G1 X109.419 Y93.101 E1.62452
G1 X110.198 Y93.189 E1.85918
G1 X110.477 Y93.245 E1.94450
G1 X111.040 Y93.476 E2.12695
G1 X111.329 Y93.625 E2.22431
G1 X111.795 Y94.013 E2.40604
G1 X111.986 Y94.195 E2.48521
G1 X112.381 Y94.799 E2.70122
G1 X112.466 Y94.940 E2.75056
G1 X112.736 Y95.785 E3.01629
G1 X112.774 Y95.985 E3.07740
G1 X112.865 Y97.075 E3.40517
G1 X112.865 Y106.052 E6.09506
G1 X112.783 Y106.632 E6.27054
G1 X111.834 Y106.898 E6.56585
G1 X108.882 Y106.898 E7.45040
G92 E0
G1 X103.578 Y102.529 F7800.000
G1 X101.832 Y95.173 F7800.000
G1 X102.363 Y94.168 F7800.000
G1 X99.926 Y92.448 F7800.000
G1 X98.776 Y92.448 F7800.000
G1 X93.787 Y99.629 E2.62027 F600.000
G1 X93.512 Y99.940 E2.74446
G1 X93.089 Y100.320 E2.91494
G1 X93.081 Y100.555 E2.98522
G1 X93.544 Y100.988 E3.17516
G1 X93.779 Y101.258 E3.28236
G1 X98.329 Y107.744 E5.65652
G1 X95.706 Y102.726 F7800.000
G1 X92.610 Y99.881 E6.91634 F600.000
G1 X92.376 Y99.616 E7.02241
G1 X87.257 Y92.448 E9.66157
G92 E0
G1 X87.699 Y107.744 F7800.000
G1 X92.365 Y101.240 E2.39857 F600.000
G1 X92.645 Y100.934 E2.52286
G1 X95.765 Y98.224 E3.76123
G92 E0
G1 Z1.800 F7800.000
G1 X105.691 Y96.426 F7800.000
G1 X106.440 Y94.626 E0.58425 F600.000
G1 X107.108 Y93.931 E0.87317
G1 X107.558 Y93.558 E1.04831
G1 X107.838 Y93.448 E1.13847
G1 X108.646 Y93.220 E1.38994
G1 X109.419 Y93.101 E1.62452
G1 X110.198 Y93.189 E1.85918
G1 X110.477 Y93.245 E1.94450
G1 X111.040 Y93.476 E2.12695
G1 X111.329 Y93.625 E2.22431
G1 X111.795 Y94.013 E2.40604
G1 X111.986 Y94.195 E2.48521
G1 X112.381 Y94.799 E2.70122
G1 X112.466 Y94.940 E2.75056
G1 X112.736 Y95.785 E3.01629
G1 X112.774 Y95.985 E3.07740
G1 X112.865 Y97.075 E3.40517
G1 X112.865 Y106.052 E6.09506
G1 X112.783 Y106.632 E6.27054
G1 X111.834 Y106.898 E6.56584
G1 X108.882 Y106.898 E7.45040
G92 E0
G1 X103.578 Y102.529 F7800.000
G1 X101.832 Y95.173 F7800.000
G1 X102.363 Y94.168 F7800.000
G1 X99.926 Y92.448 F7800.000
G1 X98.776 Y92.448 F7800.000
G1 X93.787 Y99.629 E2.62027 F600.000
G1 X93.512 Y99.940 E2.74446
G1 X93.089 Y100.320 E2.91494
G1 X93.081 Y100.555 E2.98522
G1 X93.544 Y100.988 E3.17516
G1 X93.779 Y101.258 E3.28236
G1 X98.329 Y107.744 E5.65652
G1 X95.706 Y102.726 F7800.000
G1 X92.610 Y99.881 E6.91634 F600.000
G1 X92.376 Y99.616 E7.02241
G1 X87.257 Y92.448 E9.66157
G92 E0
G1 X87.699 Y107.744 F7800.000
G1 X92.365 Y101.240 E2.39857 F600.000
G1 X92.645 Y100.934 E2.52286
G1 X95.765 Y98.224 E3.76123
G92 E0
G1 Z2.100 F7800.000
G1 X105.691 Y96.426 F7800.000
G1 X106.440 Y94.626 E0.58425 F600.000
G1 X107.108 Y93.931 E0.87317
G1 X107.556 Y93.559 E1.04769
G1 X107.838 Y93.449 E1.13845
G1 X108.493 Y93.253 E1.34307
G1 X109.450 Y93.104 E1.63343
G1 X110.198 Y93.189 E1.85888
G1 X110.477 Y93.245 E1.94421
G1 X111.040 Y93.476 E2.12665
G1 X111.329 Y93.625 E2.22401
G1 X111.795 Y94.013 E2.40574
G1 X111.986 Y94.195 E2.48491
G1 X112.381 Y94.799 E2.70092
G1 X112.466 Y94.940 E2.75026
G1 X112.736 Y95.785 E3.01599
G1 X112.774 Y95.985 E3.07710
G1 X112.865 Y97.075 E3.40488
G1 X112.865 Y106.052 E6.09476
G1 X112.783 Y106.632 E6.27024
G1 X111.834 Y106.898 E6.56555
G1 X108.882 Y106.898 E7.45010
G92 E0
G1 X103.578 Y102.529 F7800.000
G1 X101.832 Y95.173 F7800.000
G1 X102.363 Y94.168 F7800.000
G1 X99.926 Y92.448 F7800.000
G1 X98.776 Y92.448 F7800.000
G1 X93.787 Y99.629 E2.62027 F600.000
G1 X93.512 Y99.940 E2.74446
G1 X93.089 Y100.320 E2.91494
G1 X93.081 Y100.555 E2.98522
G1 X93.544 Y100.988 E3.17516
G1 X93.779 Y101.258 E3.28236
G1 X98.329 Y107.744 E5.65652
G92 E0
G1 X95.706 Y102.726 F7800.000
G1 X92.610 Y99.881 E1.25982 F600.000
G1 X92.376 Y99.616 E1.36589
G1 X87.257 Y92.448 E4.00505
G92 E0
G1 X87.699 Y107.744 F7800.000
G1 X92.365 Y101.240 E2.39857 F600.000
G1 X92.645 Y100.934 E2.52286
G1 X95.765 Y98.224 E3.76123
G92 E0
M107
M104 S0 ; turn off temperature
G28 X0  ; home X axis
M84     ; disable motors

; filament used = 139.2mm (1.1cm3)

; avoid_crossing_perimeters = 1
; bed_shape = 0x0,250x0,250x250,0x250
; bed_temperature = 0
; before_layer_gcode = 
; bridge_acceleration = 0
; bridge_fan_speed = 100
; brim_width = 0
