; generated by Slic3r 1.2.9 on 2016-03-11 at 01:32:20

; external perimeters extrusion width = 1.54mm
; perimeters extrusion width = 2.62mm
; infill extrusion width = 6.27mm
; solid infill extrusion width = 2.62mm
; top infill extrusion width = 2.62mm

M107
M104 S30 ; set temperature
G28 ; home all axes
G1 Z5 F5000 ; lift nozzle
M302
M92 E10000
M500
M501
G1 E100
M109 S30 ; wait for temperature to be reached
G21 ; set units to millimeters
G90 ; use absolute coordinates
M82 ; use absolute distances for extrusion
G92 E0
G1 Z0.300 F7800.000
G1 X103.950 Y107.188 F7800.000
G1 X103.191 Y106.131 E0.05890 F378.000
G1 X102.542 Y104.276 E0.14781
G1 X102.323 Y102.055 E0.24881
G1 X102.412 Y100.611 E0.31427
G1 X102.678 Y99.290 E0.37526
G1 X103.121 Y98.094 E0.43293
G1 X103.728 Y97.048 E0.48769
G1 X104.491 Y96.169 E0.54033
G1 X105.412 Y95.456 E0.59304
G1 X106.478 Y94.918 E0.64707
G1 X107.676 Y94.566 E0.70356
G1 X109.159 Y94.383 E0.77120
G1 X109.692 Y92.960 E0.83995
G1 X110.249 Y91.961 E0.89170
G1 X110.876 Y91.243 E0.93481
G1 X111.597 Y90.760 E0.97408
G1 X112.443 Y90.468 E1.01458
G1 X113.429 Y90.369 E1.05940
G1 X113.982 Y90.393 E1.08445
G1 X114.655 Y90.473 E1.11512 F378.000
G1 X115.128 Y90.567 E1.13696
G1 X115.128 Y91.566 E1.18215
G1 X114.558 Y91.490 E1.20818
G1 X114.099 Y91.470 E1.22897
G1 X113.363 Y91.541 E1.26242
G1 X112.703 Y91.762 E1.29392
G1 X112.131 Y92.132 E1.32475
G1 X111.645 Y92.661 E1.35725
G1 X111.236 Y93.357 E1.39378
G1 X110.808 Y94.442 E1.44657
G1 X112.819 Y94.939 E1.54034
G1 X114.275 Y95.730 E1.61529
G1 X115.457 Y96.886 E1.69012
G1 X116.332 Y98.354 E1.76742
G1 X116.859 Y100.076 E1.84895
G1 X117.037 Y102.063 E1.93918
G1 X116.938 Y103.562 E2.00718
G1 X116.644 Y104.919 E2.06998
G1 X116.155 Y106.130 E2.12911
G1 X115.485 Y107.179 E2.18541
G1 X114.644 Y108.044 E2.24001
G1 X113.628 Y108.730 E2.29548
G1 X112.456 Y109.229 E2.35314
G1 X111.144 Y109.530 E2.41405
G1 X109.694 Y109.630 E2.47980
G1 X107.530 Y109.406 E2.57823
G1 X105.726 Y108.738 E2.66527
G1 X104.267 Y107.631 E2.74814
G1 X104.084 Y107.376 E2.76235
G1 X105.354 Y106.543 F7800.000
G1 X104.633 Y105.443 E2.82188 F378.000
G1 X104.138 Y103.890 E2.89562
G1 X103.975 Y102.059 E2.97882
G1 X104.140 Y100.230 E3.06190
G1 X104.639 Y98.659 E3.13652
G1 X105.478 Y97.350 E3.20685
G1 X106.620 Y96.369 E3.27499
G1 X108.022 Y95.781 E3.34378
G1 X109.524 Y95.604 E3.41220
G1 X109.669 Y95.587 E3.41880 F378.000
G1 X111.353 Y95.774 E3.49547
G1 X112.769 Y96.343 E3.56452
G1 X113.904 Y97.295 E3.63155
G1 X114.725 Y98.588 E3.70087
G1 X115.213 Y100.178 E3.77613
G1 X115.374 Y102.059 E3.86158
G1 X115.212 Y103.869 E3.94378
G1 X114.719 Y105.414 E4.01716
G1 X113.892 Y106.688 E4.08591
G1 X112.757 Y107.636 E4.15282
G1 X111.352 Y108.203 E4.22137
G1 X109.692 Y108.390 E4.29698
G1 X108.019 Y108.206 E4.37314
G1 X106.605 Y107.647 E4.44192
G1 X105.488 Y106.730 E4.50732
G1 X104.691 Y107.586 F7800.000
G1 X104.336 Y107.231 E4.53012 F540.000
G1 X104.484 Y105.735 F7800.000
G1 X102.750 Y104.001 E4.64164 F540.000
G1 X102.996 Y104.795 E4.67947
G1 X107.212 Y109.011 E4.95067
G1 X107.964 Y109.214 E4.98606
G1 X106.725 Y107.976 E5.06572
G1 X106.343 Y108.690 F7800.000
G1 X103.292 Y105.639 E5.26196 F540.000
G1 X104.190 Y104.893 F7800.000
G1 X102.690 Y103.393 E5.35845 F540.000
G1 X102.630 Y102.785 E5.38624
G1 X103.935 Y104.089 E5.47013
G1 X103.867 Y103.473 E5.49830
G1 X102.570 Y102.177 E5.58169
G1 X102.571 Y101.629 E5.60661
G1 X103.813 Y102.871 E5.68654
G1 X103.760 Y102.270 E5.71401
G1 X102.603 Y101.112 E5.78845
G1 X102.634 Y100.596 E5.81198
G1 X103.784 Y101.746 E5.88591
G1 X103.829 Y101.243 E5.90888
G1 X102.723 Y100.137 E5.98002
G1 X102.815 Y99.681 E6.00118
G1 X103.875 Y100.740 E6.06932
G1 X103.922 Y100.240 E6.09218
G1 X102.915 Y99.233 E6.15694
G1 X103.063 Y98.833 E6.17635
G1 X104.054 Y99.824 E6.24008
G1 X104.186 Y99.407 E6.25994
G1 X103.212 Y98.433 E6.32265
G1 X103.374 Y98.047 E6.34167
G1 X104.319 Y98.991 E6.40240
G1 X104.457 Y98.582 E6.42206
G1 X103.576 Y97.700 E6.47876
G1 X103.777 Y97.354 E6.49701
G1 X104.671 Y98.248 E6.55453
G1 X104.885 Y97.914 E6.57257
G1 X104.000 Y97.028 E6.62953
G1 X104.255 Y96.735 E6.64720
G1 X105.099 Y97.579 E6.70154
G1 X105.313 Y97.245 E6.71958
G1 X104.515 Y96.447 E6.77092
G1 X104.795 Y96.178 E6.78855
G1 X105.604 Y96.988 E6.84061
G1 X105.899 Y96.735 E6.85829
G1 X105.103 Y95.939 E6.90944
G1 X105.412 Y95.700 E6.92721
G1 X106.194 Y96.481 E6.97747
G1 X106.489 Y96.228 E6.99515
G1 X105.762 Y95.501 E7.04190
G1 X106.126 Y95.317 E7.06046
G1 X106.859 Y96.051 E7.10762
G1 X107.246 Y95.889 E7.12667
G1 X106.490 Y95.133 E7.17524
G1 X106.911 Y95.006 E7.19523
G1 X107.632 Y95.727 E7.24159
G1 X108.018 Y95.565 E7.26064
G1 X107.334 Y94.881 E7.30460
G1 X107.773 Y94.772 E7.32518
G1 X108.506 Y95.505 E7.37232
G1 X108.997 Y95.447 E7.39478
G1 X108.261 Y94.712 E7.44208
G1 X108.749 Y94.651 E7.46444
G1 X109.487 Y95.389 E7.51191
G1 X110.036 Y95.391 E7.53688
G1 X109.237 Y94.591 E7.58830
G1 X109.430 Y94.236 E7.60668
G1 X110.653 Y95.459 E7.68535
G1 X111.270 Y95.528 E7.71358
G1 X110.318 Y94.576 E7.77479
G1 X110.631 Y94.340 E7.79259
G1 X109.729 Y93.439 E7.85059
G1 X109.878 Y93.040 E7.86996
G1 X110.786 Y93.947 E7.92832
G1 X110.941 Y93.554 E7.94754
G1 X110.071 Y92.684 E8.00350
G1 X110.267 Y92.332 E8.02183
G1 X111.113 Y93.179 E8.07627
G1 X111.317 Y92.834 E8.09448
G1 X110.476 Y91.993 E8.14853
G1 X110.732 Y91.701 E8.16619
G1 X111.532 Y92.501 E8.21764
G1 X111.794 Y92.215 E8.23529
G1 X110.988 Y91.408 E8.28716
G1 X111.312 Y91.185 E8.30509
G1 X112.068 Y91.941 E8.35370
G1 X112.401 Y91.725 E8.37173
G1 X111.640 Y90.965 E8.42065
G1 X112.045 Y90.821 E8.44017
G1 X112.753 Y91.530 E8.48573
G1 X113.164 Y91.392 E8.50544
G1 X112.458 Y90.686 E8.55086
G1 X112.956 Y90.636 E8.57363
G1 X113.617 Y91.297 E8.61614
G1 X114.117 Y91.248 E8.63896
G1 X113.469 Y90.601 E8.68061
G1 X114.056 Y90.640 E8.70736
G1 X114.683 Y91.267 E8.74771
G1 X114.693 Y90.729 E8.77219
G1 X114.902 Y90.938 E8.78564
G92 E0
G1 X110.910 Y92.382 F7800.000
G1 X110.510 Y93.085 F7800.000
G1 X113.625 Y95.690 F7800.000
G1 X115.591 Y97.656 E0.12645 F540.000
G1 X114.421 Y97.583 F7800.000
G1 X116.453 Y99.614 E0.25714 F540.000
G1 X116.211 Y98.824 F7800.000
G1 X112.503 Y95.116 E0.49567 F540.000
G1 X111.775 Y94.936 E0.52978
G1 X112.986 Y96.147 E0.60770
G1 X112.070 Y95.779 F7800.000
G1 X111.046 Y94.756 E0.67352 F540.000
G1 X110.476 Y94.734 E0.69951
G1 X109.580 Y93.838 E0.75714
G92 E0
G1 X109.821 Y94.824 F7800.000
G1 X109.821 Y94.824 F7800.000
G1 X109.823 Y94.823 F7800.000
G1 X109.824 Y94.824 F7800.000
G1 X115.040 Y98.750 F7800.000
G1 X116.650 Y100.360 E0.10358 F540.000
G1 X116.704 Y100.962 E0.13106
G1 X115.283 Y99.541 E0.22249
G1 X115.454 Y100.260 E0.25613
G1 X116.758 Y101.564 E0.33998
G1 X116.809 Y102.163 E0.36733
G1 X115.506 Y100.860 E0.45117
G1 X115.557 Y101.459 E0.47853
G1 X116.775 Y102.677 E0.55689
G1 X116.741 Y103.192 E0.58033
G1 X115.595 Y102.046 E0.65405
G1 X115.550 Y102.549 E0.67702
G1 X116.694 Y103.693 E0.75062
G1 X116.597 Y104.143 E0.77158
G1 X115.505 Y103.052 E0.84181
G1 X115.460 Y103.555 E0.86478
G1 X116.499 Y104.594 E0.93162
G1 X116.383 Y105.026 E0.95199
G1 X115.378 Y104.021 E1.01664
G1 X115.246 Y104.437 E1.03648
G1 X116.226 Y105.417 E1.09953
G1 X116.068 Y105.808 E1.11869
G1 X115.113 Y104.853 E1.18013
G1 X114.981 Y105.268 E1.19997
G1 X115.893 Y106.180 E1.25862
G1 X115.679 Y106.514 E1.27667
G1 X114.804 Y105.640 E1.33291
G1 X114.588 Y105.972 E1.35093
G1 X115.465 Y106.849 E1.40731
G1 X115.228 Y107.160 E1.42510
G1 X114.373 Y106.305 E1.48010
G1 X114.157 Y106.637 E1.49812
G1 X114.954 Y107.434 E1.54938
G1 X114.680 Y107.708 E1.56701
G1 X113.902 Y106.930 E1.61704
G1 X113.603 Y107.180 E1.63474
G1 X114.399 Y107.975 E1.68591
G1 X114.072 Y108.196 E1.70387
G1 X113.305 Y107.429 E1.75321
G1 X113.006 Y107.679 E1.77091
G1 X113.745 Y108.417 E1.81841
G1 X113.392 Y108.613 E1.83675
G1 X112.668 Y107.889 E1.88331
G1 X112.278 Y108.047 E1.90247
G1 X113.007 Y108.777 E1.94941
G1 X112.623 Y108.940 E1.96842
G1 X111.887 Y108.204 E2.01575
G1 X111.497 Y108.362 E2.03490
G1 X112.206 Y109.071 E2.08051
G1 X111.760 Y109.173 E2.10132
G1 X111.043 Y108.457 E2.14742
G1 X110.551 Y108.512 E2.16997
G1 X111.314 Y109.276 E2.21906
G1 X110.821 Y109.331 E2.24161
G1 X110.058 Y108.568 E2.29070
G1 X109.554 Y108.612 E2.31371
G1 X110.308 Y109.367 E2.36224
G1 X109.796 Y109.402 E2.38562
G1 X108.938 Y108.544 E2.44080
G1 X108.322 Y108.476 E2.46899
G1 X109.187 Y109.341 E2.52464
G1 X108.575 Y109.278 E2.55261
G1 X107.632 Y108.335 E2.61328
G92 E0
G1 X102.097 Y102.059 F7800.000
G1 X99.563 Y96.488 F7800.000
G1 X96.559 Y91.256 F7800.000
G1 X89.656 Y92.824 F7800.000
G1 X89.693 Y100.311 F7800.000
G1 X89.697 Y101.055 F7800.000
G1 X86.272 Y96.545 F7800.000
G1 X89.162 Y100.682 E0.22834 F378.000
G1 X89.699 Y101.451 E0.27075 F378.000
G1 X94.389 Y94.593 E0.64670
G1 X96.125 Y94.593 E0.72522
G1 X90.622 Y102.392 E1.15713
G1 X95.676 Y109.439 E1.54955
G1 X93.945 Y109.439 E1.62788
G1 X89.710 Y103.267 E1.96658
G1 X85.353 Y109.439 E2.30843
G1 X83.624 Y109.439 E2.38667
G1 X88.817 Y102.315 E2.78558
G1 X83.181 Y94.593 E3.21818
G1 X84.908 Y94.593 E3.29637
G1 X86.140 Y96.356 E3.39368
G1 X85.584 Y96.062 F7800.000
G1 X84.341 Y94.819 E3.47425 F540.000
G1 X83.788 Y94.819 E3.49958
G1 X86.864 Y97.894 E3.69896
G1 X86.464 Y98.600 F7800.000
G1 X90.332 Y102.467 E3.94966 F540.000
G1 X90.560 Y102.143 E3.96783
G1 X89.907 Y101.490 E4.01018
G1 X90.131 Y101.162 E4.02840
G1 X90.789 Y101.819 E4.07101
G1 X91.017 Y101.495 E4.08918
G1 X90.356 Y100.834 E4.13207
G1 X90.580 Y100.506 E4.15029
G1 X91.246 Y101.171 E4.19344
G1 X91.474 Y100.847 E4.21161
G1 X90.804 Y100.178 E4.25504
G1 X91.029 Y99.850 E4.27326
G1 X91.703 Y100.524 E4.31695
G1 X91.931 Y100.200 E4.33512
G1 X91.253 Y99.522 E4.37908
G1 X91.478 Y99.193 E4.39730
G1 X92.160 Y99.876 E4.44153
G1 X92.389 Y99.552 E4.45971
G1 X91.702 Y98.865 E4.50420
G1 X91.927 Y98.537 E4.52242
G1 X92.617 Y99.228 E4.56719
G1 X92.846 Y98.904 E4.58537
G1 X92.151 Y98.209 E4.63040
G1 X92.375 Y97.881 E4.64862
G1 X93.074 Y98.580 E4.69393
G1 X93.303 Y98.256 E4.71210
G1 X92.600 Y97.553 E4.75768
G1 X92.824 Y97.225 E4.77590
G1 X93.531 Y97.932 E4.82174
G1 X93.760 Y97.608 E4.83992
G1 X93.049 Y96.897 E4.88603
G1 X93.273 Y96.569 E4.90425
G1 X93.988 Y97.284 E4.95063
G1 X94.217 Y96.960 E4.96880
G1 X93.497 Y96.241 E5.01546
G1 X93.722 Y95.913 E5.03368
G1 X94.446 Y96.637 E5.08060
G1 X94.674 Y96.313 E5.09877
G1 X93.946 Y95.585 E5.14596
G1 X94.171 Y95.257 E5.16418
G1 X94.903 Y95.989 E5.21164
G1 X95.131 Y95.665 E5.22981
G1 X94.395 Y94.929 E5.27754
G1 X94.838 Y94.819 E5.29846
G1 X95.360 Y95.341 E5.33229
G1 X95.390 Y94.819 E5.35625
G1 X95.588 Y95.017 E5.36909
G92 E0
G1 X88.144 Y99.727 F7800.000
G1 X84.971 Y96.554 E0.20570 F540.000
G1 X87.958 Y100.646 F7800.000
G1 X91.692 Y104.380 E0.44777 F540.000
G1 X91.334 Y105.127 F7800.000
G1 X94.496 Y108.289 E0.65272 F540.000
G1 X93.750 Y108.648 F7800.000
G1 X94.315 Y109.213 E0.68935 F540.000
G1 X94.868 Y109.213 E0.71468
G1 X92.542 Y106.888 E0.86543
G1 X93.094 Y106.334 F7800.000
G1 X89.064 Y102.305 E1.12667 F540.000
G1 X88.831 Y102.624 E1.14480
G1 X89.474 Y103.267 E1.18645
G1 X89.245 Y103.590 E1.20462
G1 X88.598 Y102.944 E1.24654
G1 X88.365 Y103.263 E1.26467
G1 X89.016 Y103.914 E1.30687
G1 X88.788 Y104.238 E1.32505
G1 X88.132 Y103.583 E1.36753
G1 X87.899 Y103.902 E1.38565
G1 X88.559 Y104.562 E1.42842
G1 X88.330 Y104.886 E1.44659
G1 X87.666 Y104.222 E1.48963
G1 X87.434 Y104.541 E1.50776
G1 X88.102 Y105.210 E1.55107
G1 X87.873 Y105.534 E1.56925
G1 X87.201 Y104.861 E1.61284
G1 X86.968 Y105.181 E1.63097
G1 X87.645 Y105.857 E1.67485
G1 X87.416 Y106.181 E1.69302
G1 X86.735 Y105.500 E1.73718
G1 X86.502 Y105.820 E1.75530
G1 X87.187 Y106.505 E1.79974
G1 X86.959 Y106.829 E1.81791
G1 X86.269 Y106.139 E1.86262
G1 X86.036 Y106.459 E1.88075
G1 X86.730 Y107.153 E1.92574
G1 X86.501 Y107.477 E1.94391
G1 X85.803 Y106.778 E1.98918
G1 X85.570 Y107.098 E2.00731
G1 X86.273 Y107.800 E2.05286
G1 X86.044 Y108.124 E2.07103
G1 X85.337 Y107.417 E2.11686
G1 X85.104 Y107.737 E2.13499
G1 X85.815 Y108.448 E2.18110
G1 X85.587 Y108.772 E2.19927
G1 X84.871 Y108.056 E2.24566
G1 X84.638 Y108.376 E2.26378
G1 X85.358 Y109.096 E2.31045
G1 X84.923 Y109.213 E2.33111
G1 X84.405 Y108.696 E2.36466
G1 X84.173 Y109.015 E2.38278
G1 X84.370 Y109.213 E2.39561
M106 S255
G92 E0
G1 Z0.600 F7800.000
G1 X108.945 Y94.182 F7800.000
G1 X110.909 Y95.103 E0.65005 F600.000
G1 X111.600 Y95.241 E0.86102
G1 X112.579 Y95.558 E1.16951
G1 X112.971 Y95.742 E1.29934
G1 X113.207 Y95.877 E1.38056
G1 X113.845 Y96.312 E1.61210
G1 X114.321 Y96.743 E1.80457
G1 X114.515 Y96.948 E1.88904
G1 X114.852 Y97.363 E2.04931
G1 X115.342 Y98.160 E2.32964
G1 X115.593 Y98.681 E2.50305
G1 X115.973 Y99.920 E2.89116
G1 X116.046 Y100.236 E2.98830
G1 X116.204 Y102.072 E3.54073
G1 X116.099 Y103.444 E3.95299
G1 X115.980 Y104.140 E4.16440
G1 X115.838 Y104.671 E4.32910
G1 X115.440 Y105.761 E4.67707
G1 X114.854 Y106.678 E5.00311
G1 X114.541 Y107.070 E5.15316
G1 X114.154 Y107.459 E5.31762
G1 X113.290 Y108.109 E5.64159
G1 X112.976 Y108.275 E5.74797
G1 X112.245 Y108.578 E5.98535
G1 X111.616 Y108.776 E6.18267
G1 X111.048 Y108.888 E6.35614
G1 X109.705 Y109.008 E6.76036
G1 X107.981 Y108.827 E7.27987
G1 X107.679 Y108.769 E7.37203
G1 X106.394 Y108.277 E7.78427
G1 X106.068 Y108.115 E7.89326
G1 X105.029 Y107.296 E8.28978
G1 X104.815 Y107.098 E8.37708
G1 X103.904 Y105.760 E8.86223
G1 X103.347 Y104.098 E9.38730
G1 X103.151 Y102.040 E10.00690
G1 X103.250 Y100.721 E10.40330
G1 X103.373 Y99.961 E10.63391
G1 X103.487 Y99.519 E10.77062
G1 X103.857 Y98.441 E11.11219
G1 X103.982 Y98.202 E11.19289
G1 X104.396 Y97.525 E11.43075
G1 X104.815 Y96.965 E11.64044
G1 X105.004 Y96.747 E11.72669
G1 X105.810 Y96.086 E12.03908
G1 X106.141 Y95.865 E12.15842
G1 X106.389 Y95.726 E12.24362
G1 X106.735 Y95.567 E12.35759
G1 X107.805 Y95.188 E12.69775
G1 X109.211 Y95.005 E13.12285
G1 X109.562 Y94.900 E13.23237
G1 X110.030 Y94.691 E13.38608
G1 X110.037 Y94.566 E13.42365
G1 X110.172 Y93.914 E13.62304
G1 X110.411 Y93.293 E13.82264
G1 X110.580 Y92.950 E13.93706
G1 X110.889 Y92.411 E14.12317
G1 X111.104 Y92.132 E14.22869
G1 X111.384 Y91.820 E14.35432
G1 X111.765 Y91.513 E14.50103
G1 X111.920 Y91.410 E14.55676
G1 X112.523 Y91.132 E14.75570
G1 X113.332 Y90.962 E15.00354
G1 X114.134 Y90.945 E15.24390
G1 X114.578 Y90.978 E15.37716
G1 X115.353 Y91.099 E15.61233
G92 E0
G1 X109.488 Y92.865 F7800.000
G1 X109.488 Y92.865 F7800.000
G1 X106.756 Y91.342 F7800.000
G1 X106.742 Y91.325 F7800.000
G1 X106.730 Y91.310 F7800.000
G1 X105.450 Y91.494 F7800.000
G1 X104.832 Y91.612 F7800.000
G1 X103.596 Y91.906 F7800.000
G1 X102.856 Y92.121 F7800.000
G1 X101.647 Y92.534 F7800.000
G1 X100.949 Y92.804 F7800.000
G1 X100.903 Y93.022 F7800.000
G1 X100.539 Y94.305 F7800.000
G1 X100.278 Y95.021 F7800.000
G1 X99.750 Y96.161 F7800.000
G1 X99.563 Y96.488 F7800.000
G1 X96.559 Y94.368 F7800.000
G1 X95.409 Y94.368 F7800.000
G1 X90.420 Y101.549 E2.62027 F600.000
G1 X90.145 Y101.860 E2.74446
G1 X89.722 Y102.240 E2.91494
G1 X89.714 Y102.475 E2.98522
G1 X90.177 Y102.908 E3.17516
G1 X90.412 Y103.178 E3.28236
G1 X94.962 Y109.664 E5.65652
G1 X92.339 Y104.646 F7800.000
G1 X89.243 Y101.801 E6.91634 F600.000
G1 X89.009 Y101.536 E7.02241
G1 X83.890 Y94.368 E9.66157
G92 E0
G1 X84.332 Y109.664 F7800.000
G1 X88.998 Y103.160 E2.39857 F600.000
G1 X89.278 Y102.854 E2.52286
G1 X92.398 Y100.144 E3.76123
G92 E0
G1 Z0.900 F7800.000
G1 X108.945 Y94.182 F7800.000
G1 X110.909 Y95.103 E0.65005 F600.000
G1 X111.600 Y95.241 E0.86102
G1 X112.579 Y95.558 E1.16951
G1 X112.971 Y95.742 E1.29934
G1 X113.207 Y95.877 E1.38056
G1 X113.845 Y96.312 E1.61210
G1 X114.321 Y96.743 E1.80458
G1 X114.515 Y96.948 E1.88904
G1 X114.852 Y97.363 E2.04931
G1 X115.342 Y98.160 E2.32964
G1 X115.593 Y98.681 E2.50305
G1 X115.973 Y99.920 E2.89116
G1 X116.046 Y100.236 E2.98831
G1 X116.204 Y102.072 E3.54074
G1 X116.099 Y103.444 E3.95299
G1 X115.980 Y104.140 E4.16440
G1 X115.838 Y104.671 E4.32910
G1 X115.440 Y105.761 E4.67707
G1 X114.854 Y106.678 E5.00311
G1 X114.541 Y107.070 E5.15316
G1 X114.154 Y107.459 E5.31762
G1 X113.290 Y108.109 E5.64159
G1 X112.976 Y108.275 E5.74797
G1 X112.245 Y108.578 E5.98535
G1 X111.616 Y108.776 E6.18268
G1 X111.048 Y108.888 E6.35614
