; generated by Slic3r 1.2.9 on 2016-03-11 at 01:32:23

; external perimeters extrusion width = 1.54mm
; perimeters extrusion width = 2.62mm
; infill extrusion width = 6.27mm
; solid infill extrusion width = 2.62mm
; top infill extrusion width = 2.62mm

M107
M104 S30 ; set temperature
G28 ; home all axes
G1 Z5 F5000 ; lift nozzle
M302
M92 E10000
M500
M501
G1 E100
M109 S30 ; wait for temperature to be reached
G21 ; set units to millimeters
G90 ; use absolute coordinates
M82 ; use absolute distances for extrusion
G92 E0
G1 Z0.300 F7800.000
G1 X103.350 Y106.181 F7800.000
G1 X108.598 Y106.181 E0.23747 F378.000
G1 X108.598 Y92.577 E0.85304
G1 X110.209 Y92.577 E0.92594
G1 X110.209 Y106.181 E1.54151
G1 X115.458 Y106.181 E1.77902 F378.000
G1 X115.458 Y107.423 E1.83522
G1 X103.349 Y107.423 E2.38314
G1 X103.349 Y106.411 E2.42894
G1 X103.778 Y107.197 F7800.000
G1 X103.575 Y106.993 E2.44210 F540.000
G1 X103.575 Y106.442 E2.46731
G1 X104.330 Y107.197 E2.51613
G1 X104.881 Y107.197 E2.54135
G1 X104.091 Y106.407 E2.59245
G1 X104.642 Y106.407 E2.61766
G1 X105.432 Y107.197 E2.66876
G1 X105.983 Y107.197 E2.69397
G1 X105.193 Y106.407 E2.74508
G1 X105.744 Y106.407 E2.77029
G1 X106.534 Y107.197 E2.82139
G1 X107.086 Y107.197 E2.84660
G1 X106.296 Y106.407 E2.89771
G1 X106.847 Y106.407 E2.92292
G1 X107.637 Y107.197 E2.97402
G1 X108.188 Y107.197 E2.99923
G1 X107.398 Y106.407 E3.05033
G1 X107.949 Y106.407 E3.07554
G1 X108.739 Y107.197 E3.12665
G1 X109.290 Y107.197 E3.15186
G1 X108.500 Y106.407 E3.20296
G1 X108.824 Y106.179 F7800.000
G1 X109.842 Y107.197 E3.26880 F540.000
G1 X114.564 Y106.407 F7800.000
G1 X115.232 Y107.075 E3.31201 F540.000
G1 X114.803 Y107.197 E3.33242
G1 X114.013 Y106.407 E3.38353
G1 X113.461 Y106.407 E3.40874
G1 X114.251 Y107.197 E3.45984
G1 X113.700 Y107.197 E3.48505
G1 X112.910 Y106.407 E3.53615
G1 X112.359 Y106.407 E3.56136
G1 X113.149 Y107.197 E3.61247
G1 X112.598 Y107.197 E3.63768
G1 X111.808 Y106.407 E3.68878
G1 X111.256 Y106.407 E3.71399
G1 X112.047 Y107.197 E3.76510
G1 X111.495 Y107.197 E3.79031
G1 X110.705 Y106.407 E3.84141
G1 X110.154 Y106.407 E3.86662
G1 X110.944 Y107.197 E3.91772
G1 X110.393 Y107.197 E3.94294
G1 X108.824 Y105.628 E4.04443
G1 X108.824 Y105.077 E4.06964
G1 X109.983 Y106.236 E4.14461
G1 X109.983 Y105.685 E4.16982
G1 X108.824 Y104.525 E4.24479
G1 X108.824 Y103.974 E4.27000
G1 X109.983 Y105.133 E4.34498
G1 X109.983 Y104.582 E4.37019
G1 X108.824 Y103.423 E4.44516
G1 X108.824 Y102.872 E4.47037
G1 X109.983 Y104.031 E4.54534
G1 X109.983 Y103.480 E4.57055
G1 X108.824 Y102.321 E4.64552
G1 X108.824 Y101.769 E4.67073
G1 X109.983 Y102.928 E4.74570
G1 X109.983 Y102.377 E4.77091
G1 X108.824 Y101.218 E4.84588
G1 X108.824 Y100.667 E4.87109
G1 X109.983 Y101.826 E4.94606
G1 X109.983 Y101.275 E4.97127
G1 X108.824 Y100.116 E5.04625
G1 X108.824 Y99.564 E5.07146
G1 X109.983 Y100.724 E5.14643
G1 X109.983 Y100.172 E5.17164
G1 X108.824 Y99.013 E5.24661
G1 X108.824 Y98.462 E5.27182
G1 X109.983 Y99.621 E5.34679
G1 X109.983 Y99.070 E5.37200
G1 X108.824 Y97.911 E5.44697
G1 X108.824 Y97.360 E5.47218
G1 X109.983 Y98.519 E5.54715
G1 X109.983 Y97.968 E5.57236
G1 X108.824 Y96.808 E5.64733
G1 X108.824 Y96.257 E5.67255
G1 X109.983 Y97.416 E5.74752
G1 X109.983 Y96.865 E5.77273
G1 X108.824 Y95.706 E5.84770
G1 X108.824 Y95.155 E5.87291
G1 X109.983 Y96.314 E5.94788
G1 X109.983 Y95.763 E5.97309
G1 X108.824 Y94.604 E6.04806
G1 X108.824 Y94.052 E6.07327
G1 X109.983 Y95.211 E6.14824
G1 X109.983 Y94.660 E6.17345
G1 X108.824 Y93.501 E6.24842
G1 X108.824 Y92.950 E6.27363
G1 X109.983 Y94.109 E6.34861
G1 X109.983 Y93.558 E6.37382
G1 X109.228 Y92.803 E6.42264
G1 X109.779 Y92.803 E6.44785
G1 X109.983 Y93.007 E6.46102
G92 E0
G1 X108.373 Y92.352 F7800.000
G1 X102.561 Y96.163 F7800.000
G1 X100.227 Y100.345 F7800.000
G1 X92.477 Y100.375 F7800.000
G1 X88.073 Y97.116 F7800.000
G1 X84.760 Y92.577 E0.25428 F378.000
G1 X86.488 Y92.577 E0.33247
G1 X90.741 Y98.666 E0.66857
G1 X91.278 Y99.435 E0.71098 F378.000
G1 X95.969 Y92.577 E1.08694
G1 X97.704 Y92.577 E1.16545
G1 X92.201 Y100.376 E1.59736
G1 X97.256 Y107.423 E1.98978
G1 X95.525 Y107.423 E2.06812
G1 X91.290 Y101.251 E2.40681
G1 X86.933 Y107.423 E2.74866
G1 X85.204 Y107.423 E2.82690
G1 X90.397 Y100.299 E3.22581
G1 X88.209 Y97.303 E3.39368
G1 X88.044 Y96.584 F7800.000
G1 X91.911 Y100.451 E3.64437 F540.000
G1 X92.140 Y100.127 E3.66255
G1 X91.486 Y99.474 E3.70489
G1 X91.711 Y99.146 E3.72311
G1 X92.368 Y99.803 E3.76573
G1 X92.597 Y99.479 E3.78390
G1 X91.935 Y98.818 E3.82679
G1 X92.160 Y98.490 E3.84501
G1 X92.825 Y99.155 E3.88816
G1 X93.054 Y98.831 E3.90633
G1 X92.384 Y98.162 E3.94975
G1 X92.608 Y97.834 E3.96798
G1 X93.282 Y98.508 E4.01167
G1 X93.511 Y98.184 E4.02984
G1 X92.833 Y97.506 E4.07380
G1 X93.057 Y97.177 E4.09202
G1 X93.739 Y97.860 E4.13625
G1 X93.968 Y97.536 E4.15442
G1 X93.282 Y96.849 E4.19892
G1 X93.506 Y96.521 E4.21714
G1 X94.197 Y97.212 E4.26191
G1 X94.425 Y96.888 E4.28008
G1 X93.730 Y96.193 E4.32512
G1 X93.955 Y95.865 E4.34334
G1 X94.654 Y96.564 E4.38865
G1 X94.882 Y96.240 E4.40682
G1 X94.179 Y95.537 E4.45240
G1 X94.404 Y95.209 E4.47062
G1 X95.111 Y95.916 E4.51646
G1 X95.339 Y95.592 E4.53463
G1 X94.628 Y94.881 E4.58075
G1 X94.852 Y94.553 E4.59897
G1 X95.568 Y95.268 E4.64535
G1 X95.796 Y94.944 E4.66352
G1 X95.077 Y94.225 E4.71017
G1 X95.301 Y93.897 E4.72840
G1 X96.025 Y94.621 E4.77532
G1 X96.254 Y94.297 E4.79349
G1 X95.526 Y93.569 E4.84068
G1 X95.750 Y93.241 E4.85890
G1 X96.482 Y93.973 E4.90636
G1 X96.711 Y93.649 E4.92453
G1 X95.974 Y92.913 E4.97226
G1 X96.417 Y92.803 E4.99317
G1 X96.939 Y93.325 E5.02701
G1 X96.970 Y92.803 E5.05097
G1 X97.168 Y93.001 E5.06381
G92 E0
G1 X89.723 Y97.711 F7800.000
G1 X86.550 Y94.538 E0.20570 F540.000
G1 X87.163 Y94.046 F7800.000
G1 X85.920 Y92.803 E0.28627 F540.000
G1 X85.368 Y92.803 E0.31160
G1 X88.443 Y95.878 E0.51098
G1 X89.537 Y98.630 F7800.000
G1 X93.271 Y102.364 E0.75305 F540.000
G1 X92.914 Y103.111 F7800.000
G1 X96.075 Y106.273 E0.95801 F540.000
G1 X95.330 Y106.632 F7800.000
G1 X95.895 Y107.197 E0.99464 F540.000
G1 X96.447 Y107.197 E1.01996
G1 X94.122 Y104.872 E1.17072
G1 X94.673 Y104.318 F7800.000
G1 X90.644 Y100.289 E1.43196 F540.000
G1 X90.411 Y100.608 E1.45008
G1 X91.053 Y101.251 E1.49173
G1 X90.824 Y101.574 E1.50990
G1 X90.178 Y100.928 E1.55183
G1 X89.945 Y101.247 E1.56995
G1 X90.596 Y101.898 E1.61216
G1 X90.367 Y102.222 E1.63033
G1 X89.712 Y101.567 E1.67281
G1 X89.479 Y101.886 E1.69094
G1 X90.139 Y102.546 E1.73370
G1 X89.910 Y102.870 E1.75187
G1 X89.246 Y102.206 E1.79491
G1 X89.013 Y102.525 E1.81304
G1 X89.681 Y103.194 E1.85636
G1 X89.453 Y103.518 E1.87453
G1 X88.780 Y102.845 E1.91813
G1 X88.547 Y103.165 E1.93626
G1 X89.224 Y103.841 E1.98013
G1 X88.995 Y104.165 E1.99830
G1 X88.314 Y103.484 E2.04246
G1 X88.081 Y103.804 E2.06059
G1 X88.767 Y104.489 E2.10502
G1 X88.538 Y104.813 E2.12319
G1 X87.848 Y104.123 E2.16791
G1 X87.615 Y104.443 E2.18603
G1 X88.309 Y105.137 E2.23103
G1 X88.081 Y105.461 E2.24920
G1 X87.383 Y104.762 E2.29447
G1 X87.150 Y105.082 E2.31260
G1 X87.852 Y105.784 E2.35815
G1 X87.624 Y106.108 E2.37632
G1 X86.917 Y105.401 E2.42215
G1 X86.684 Y105.721 E2.44027
G1 X87.395 Y106.432 E2.48638
G1 X87.166 Y106.756 E2.50455
G1 X86.451 Y106.041 E2.55094
G1 X86.218 Y106.360 E2.56907
G1 X86.938 Y107.080 E2.61573
G1 X86.502 Y107.197 E2.63640
G1 X85.985 Y106.680 E2.66994
G1 X85.752 Y106.999 E2.68807
G1 X85.950 Y107.197 E2.70090
M106 S255
G92 E0
G1 Z0.600 F7800.000
G1 X111.151 Y105.956 F7800.000
G1 X108.373 Y106.802 E0.87020 F600.000
G1 X103.124 Y106.802 E2.44304
G1 X115.683 Y106.802 F7800.000
G1 X110.434 Y106.802 E4.01588 F600.000
G1 X109.403 Y106.488 E4.33867
G1 X109.403 Y92.352 E8.57453
G92 E0
G1 X106.373 Y92.352 F7800.000
G1 X101.997 Y95.075 F7800.000
G1 X98.138 Y92.352 F7800.000
G1 X96.988 Y92.352 F7800.000
G1 X91.999 Y99.533 E2.62027 F600.000
G1 X91.724 Y99.844 E2.74446
G1 X91.301 Y100.224 E2.91494
G1 X91.294 Y100.459 E2.98522
G1 X91.756 Y100.892 E3.17516
G1 X91.991 Y101.162 E3.28236
G1 X96.542 Y107.648 E5.65652
G1 X93.919 Y102.630 F7800.000
G1 X90.823 Y99.785 E6.91634 F600.000
G1 X90.588 Y99.520 E7.02241
G1 X85.470 Y92.352 E9.66157
G92 E0
G1 X85.911 Y107.648 F7800.000
G1 X90.577 Y101.144 E2.39857 F600.000
G1 X90.857 Y100.838 E2.52286
G1 X93.978 Y98.128 E3.76123
G92 E0
G1 Z0.900 F7800.000
G1 X111.151 Y105.956 F7800.000
G1 X108.373 Y106.802 E0.87020 F600.000
G1 X103.124 Y106.802 E2.44304
G1 X115.683 Y106.802 F7800.000
G1 X110.434 Y106.802 E4.01588 F600.000
G1 X109.403 Y106.488 E4.33867
G1 X109.403 Y92.352 E8.57453
G92 E0
G1 X106.373 Y92.352 F7800.000
G1 X101.997 Y95.075 F7800.000
G1 X98.138 Y92.352 F7800.000
G1 X96.988 Y92.352 F7800.000
G1 X91.999 Y99.533 E2.62027 F600.000
G1 X91.724 Y99.844 E2.74446
G1 X91.301 Y100.224 E2.91494
G1 X91.294 Y100.459 E2.98522
G1 X91.756 Y100.892 E3.17516
G1 X91.991 Y101.162 E3.28236
G1 X96.542 Y107.648 E5.65652
G1 X93.919 Y102.630 F7800.000
G1 X90.823 Y99.785 E6.91634 F600.000
G1 X90.588 Y99.520 E7.02241
G1 X85.470 Y92.352 E9.66157
G92 E0
G1 X85.911 Y107.648 F7800.000
G1 X90.577 Y101.144 E2.39857 F600.000
G1 X90.857 Y100.838 E2.52286
G1 X93.978 Y98.128 E3.76123
G92 E0
G1 Z1.200 F7800.000
G1 X111.151 Y105.956 F7800.000
G1 X108.373 Y106.802 E0.87020 F600.000
G1 X103.124 Y106.802 E2.44304
G92 E0
G1 X115.683 Y106.802 F7800.000
G1 X110.434 Y106.802 E1.57284 F600.000
G1 X109.403 Y106.488 E1.89563
G1 X109.403 Y92.352 E6.13148
G92 E0
G1 X106.373 Y92.352 F7800.000
G1 X101.997 Y95.075 F7800.000
G1 X98.138 Y92.352 F7800.000
G1 X96.988 Y92.352 F7800.000
G1 X91.999 Y99.533 E2.62027 F600.000
G1 X91.724 Y99.844 E2.74446
G1 X91.301 Y100.224 E2.91494
G1 X91.294 Y100.459 E2.98522
G1 X91.756 Y100.892 E3.17516
G1 X91.991 Y101.162 E3.28236
G1 X96.542 Y107.648 E5.65652
G1 X93.919 Y102.630 F7800.000
G1 X90.823 Y99.785 E6.91634 F600.000
G1 X90.588 Y99.520 E7.02241
G1 X85.470 Y92.352 E9.66157
G92 E0
G1 X85.911 Y107.648 F7800.000
G1 X90.577 Y101.144 E2.39857 F600.000
G1 X90.857 Y100.838 E2.52286
G1 X93.978 Y98.128 E3.76123
G92 E0
G1 Z1.500 F7800.000
G1 X111.151 Y105.956 F7800.000
G1 X108.373 Y106.802 E0.87020 F600.000
G1 X103.124 Y106.802 E2.44304
G1 X115.683 Y106.802 F7800.000
G1 X110.434 Y106.802 E4.01588 F600.000
G1 X109.403 Y106.488 E4.33867
G1 X109.403 Y92.352 E8.57453
G92 E0
G1 X106.373 Y92.352 F7800.000
G1 X101.997 Y95.075 F7800.000
G1 X98.138 Y92.352 F7800.000
G1 X96.988 Y92.352 F7800.000
G1 X91.999 Y99.533 E2.62027 F600.000
G1 X91.724 Y99.844 E2.74446
G1 X91.301 Y100.224 E2.91494
G1 X91.294 Y100.459 E2.98522
G1 X91.756 Y100.892 E3.17516
G1 X91.991 Y101.162 E3.28236
G1 X96.542 Y107.648 E5.65652
G1 X93.919 Y102.630 F7800.000
G1 X90.823 Y99.785 E6.91634 F600.000
G1 X90.588 Y99.520 E7.02241
G1 X85.470 Y92.352 E9.66157
G92 E0
G1 X85.911 Y107.648 F7800.000
G1 X90.577 Y101.144 E2.39857 F600.000
G1 X90.857 Y100.838 E2.52286
G1 X93.978 Y98.128 E3.76123
G92 E0
G1 Z1.800 F7800.000
G1 X111.151 Y105.956 F7800.000
G1 X108.373 Y106.802 E0.87020 F600.000
G1 X103.124 Y106.802 E2.44304
G1 X115.683 Y106.802 F7800.000
G1 X110.434 Y106.802 E4.01588 F600.000
G1 X109.403 Y106.488 E4.33867
G1 X109.403 Y92.352 E8.57453
G92 E0
G1 X106.373 Y92.352 F7800.000
G1 X101.997 Y95.075 F7800.000
G1 X98.138 Y92.352 F7800.000
G1 X96.988 Y92.352 F7800.000
G1 X91.999 Y99.533 E2.62027 F600.000
G1 X91.724 Y99.844 E2.74446
G1 X91.301 Y100.224 E2.91494
G1 X91.294 Y100.459 E2.98522
G1 X91.756 Y100.892 E3.17516
G1 X91.991 Y101.162 E3.28236
G1 X96.542 Y107.648 E5.65652
G1 X93.919 Y102.630 F7800.000
G1 X90.823 Y99.785 E6.91634 F600.000
G1 X90.588 Y99.520 E7.02241
G1 X85.470 Y92.352 E9.66157
G92 E0
G1 X85.911 Y107.648 F7800.000
G1 X90.577 Y101.144 E2.39857 F600.000
G1 X90.857 Y100.838 E2.52286
G1 X93.978 Y98.128 E3.76123
G92 E0
G1 Z2.100 F7800.000
G1 X111.151 Y105.956 F7800.000
G1 X108.373 Y106.802 E0.87020 F600.000
G1 X103.124 Y106.802 E2.44304
G92 E0
G1 X115.683 Y106.802 F7800.000
G1 X110.434 Y106.802 E1.57284 F600.000
G1 X109.403 Y106.488 E1.89563
G1 X109.403 Y92.352 E6.13148
G92 E0
G1 X106.373 Y92.352 F7800.000
G1 X101.997 Y95.075 F7800.000
G1 X98.138 Y92.352 F7800.000
G1 X96.988 Y92.352 F7800.000
G1 X91.999 Y99.533 E2.62027 F600.000
G1 X91.724 Y99.844 E2.74446
G1 X91.301 Y100.224 E2.91494
G1 X91.294 Y100.459 E2.98522
G1 X91.756 Y100.892 E3.17516
G1 X91.991 Y101.162 E3.28236
G1 X96.542 Y107.648 E5.65652
G92 E0
G1 X93.919 Y102.630 F7800.000
G1 X90.823 Y99.785 E1.25982 F600.000
G1 X90.588 Y99.520 E1.36589
G1 X85.470 Y92.352 E4.00505
G92 E0
G1 X85.911 Y107.648 F7800.000
G1 X90.577 Y101.144 E2.39857 F600.000
G1 X90.857 Y100.838 E2.52286
G1 X93.978 Y98.128 E3.76123
G92 E0
M107
M104 S0 ; turn off temperature
G28 X0  ; home X axis
M84     ; disable motors

; filament used = 146.2mm (1.1cm3)

; avoid_crossing_perimeters = 1
; bed_shape = 0x0,250x0,250x250,0x250
; bed_temperature = 0
; before_layer_gcode = 
; bridge_acceleration = 0
; bridge_fan_speed = 100
; brim_width = 0
; complete_objects = 0
; cooling = 1
; default_acceleration = 0
; disable_fan_first_layers = 1
; duplicate_distance = 6
; end_gcode = M104 S0 ; turn off temperature\nG28 X0  ; home X axis\nM84     ; disable motors\n
; extruder_clearance_height = 20
; extruder_clearance_radius = 20
; extruder_offset = 0x0
; extrusion_axis = E
; extrusion_multiplier = 3
; fan_always_on = 0
; fan_below_layer_time = 60
; filament_colour = #FFFFFF
; filament_diameter = 3.125
; first_layer_acceleration = 0
; first_layer_bed_temperature = 0
; first_layer_extrusion_width = 150%
; first_layer_speed = 90%
; first_layer_temperature = 30
; gcode_arcs = 0
; gcode_comments = 0
; gcode_flavor = reprap
; infill_acceleration = 0
; infill_first = 0
; layer_gcode = 
; max_fan_speed = 100
; max_print_speed = 80
; max_volumetric_speed = 0
; min_fan_speed = 35
; min_print_speed = 10
; min_skirt_length = 0
; notes = 
; nozzle_diameter = 1.54
; only_retract_when_crossing_perimeters = 1
; ooze_prevention = 0
; output_filename_format = [input_filename_base].gcode
; perimeter_acceleration = 0
; post_process = 
; pressure_advance = 0
; resolution = 0
; retract_before_travel = 2
; retract_layer_change = 1
; retract_length = 0
; retract_length_toolchange = 10
; retract_lift = 0
; retract_restart_extra = 0
; retract_restart_extra_toolchange = 0
; retract_speed = 0
; skirt_distance = 6
; skirt_height = 1
; skirts = 0
; slowdown_below_layer_time = 30
; spiral_vase = 0
; standby_temperature_delta = -5
; start_gcode = G28 ; home all axes\nG1 Z5 F5000 ; lift nozzle\nM302\nM92 E10000\nM500\nM501\nG1 E100
; temperature = 30
; threads = 2
; toolchange_gcode = 
; travel_speed = 130
; use_firmware_retraction = 0
; use_relative_e_distances = 0
; use_volumetric_e = 0
; vibration_limit = 0
; wipe = 0
; z_offset = 0
; dont_support_bridges = 1
; extrusion_width = 0
; first_layer_height = 100%
; infill_only_where_needed = 0
; interface_shells = 0
; layer_height = 0.3
; raft_layers = 0
; seam_position = random
; support_material = 0
; support_material_angle = 0
; support_material_contact_distance = 0.2
; support_material_enforce_layers = 0
; support_material_extruder = 1
; support_material_extrusion_width = 0
; support_material_interface_extruder = 1
; support_material_interface_layers = 3
; support_material_interface_spacing = 0
; support_material_interface_speed = 100%
; support_material_pattern = pillars
; support_material_spacing = 2.5
; support_material_speed = 7
; support_material_threshold = 0
; xy_size_compensation = 0
; bottom_solid_layers = 3
; bridge_flow_ratio = 1
; bridge_speed = 10
; external_fill_pattern = rectilinear
; external_perimeter_extrusion_width = 0
; external_perimeter_speed = 70%
; external_perimeters_first = 1
; extra_perimeters = 1
; fill_angle = 45
; fill_density = 60%
; fill_pattern = rectilinear
; gap_fill_speed = 10
; infill_every_layers = 1
; infill_extruder = 1
; infill_extrusion_width = 0
; infill_overlap = 15%
; infill_speed = 10
; overhangs = 1
; perimeter_extruder = 1
; perimeter_extrusion_width = 0
; perimeter_speed = 10
; perimeters = 1
; small_perimeter_speed = 70%
; solid_infill_below_area = 70
; solid_infill_every_layers = 0
; solid_infill_extruder = 1
; solid_infill_extrusion_width = 0
; solid_infill_speed = 10
