; generated by Slic3r 1.2.9 on 2016-03-11 at 01:32:26

; external perimeters extrusion width = 1.54mm
; perimeters extrusion width = 2.62mm
; infill extrusion width = 6.27mm
; solid infill extrusion width = 2.62mm
; top infill extrusion width = 2.62mm

M107
M104 S30 ; set temperature
G28 ; home all axes
G1 Z5 F5000 ; lift nozzle
M302
M92 E10000
M500
M501
G1 E100
M109 S30 ; wait for temperature to be reached
G21 ; set units to millimeters
G90 ; use absolute coordinates
M82 ; use absolute distances for extrusion
G92 E0
G1 Z0.300 F7800.000
G1 X108.392 Y107.423 F7800.000
G1 X105.911 Y98.555 E0.41667 F378.000
G1 X105.425 Y96.725 E0.50236
G1 X104.823 Y94.129 E0.62296
G1 X104.385 Y94.129 E0.64276
G1 X103.801 Y96.649 E0.75984
G1 X103.485 Y97.872 E0.81699
G1 X100.782 Y107.423 E1.26613
G1 X99.095 Y107.423 E1.34246
G1 X103.471 Y92.577 E2.04281
G1 X105.603 Y92.577 E2.13930
G1 X107.001 Y97.654 E2.37758
G1 X108.522 Y103.285 E2.64152 F378.000
G1 X108.999 Y105.383 E2.73884
G1 X109.438 Y105.381 E2.75874
G1 X109.998 Y102.891 E2.87420
G1 X110.197 Y102.128 E2.90991
G1 X112.804 Y92.577 E3.35789
G1 X114.936 Y92.577 E3.45435
G1 X119.311 Y107.423 E4.15469
G1 X117.625 Y107.423 E4.23099
G1 X115.038 Y98.109 E4.66837
G1 X114.618 Y96.535 E4.74210
G1 X114.043 Y94.108 E4.85495
G1 X113.608 Y94.115 E4.87463
G1 X113.026 Y96.596 E4.98995
G1 X112.650 Y98.068 E5.05868
G1 X110.034 Y107.423 E5.49823
G1 X108.623 Y107.423 E5.56211
G1 X109.048 Y107.197 F7800.000
G1 X108.411 Y106.559 E5.60354 F540.000
G1 X108.195 Y105.791 F7800.000
G1 X109.602 Y107.197 E5.69494 F540.000
G1 X109.942 Y106.983 E5.71339
G1 X107.980 Y105.022 E5.84085
G1 X108.703 Y105.190 F7800.000
G1 X107.765 Y104.253 E5.90175 F540.000
G1 X108.377 Y103.757 F7800.000
G1 X107.335 Y102.715 E5.96945 F540.000
G1 X107.986 Y102.259 F7800.000
G1 X106.905 Y101.178 E6.03968 F540.000
G1 X106.690 Y100.409 E6.07636
G1 X107.781 Y101.500 E6.14725
G1 X107.576 Y100.741 E6.18336
G1 X106.475 Y99.640 E6.25491
G1 X106.260 Y98.871 E6.29159
G1 X107.371 Y99.983 E6.36379
G1 X107.166 Y99.224 E6.39990
G1 X106.051 Y98.108 E6.47240
G1 X105.851 Y97.355 E6.50822
G1 X106.961 Y98.465 E6.58040
G1 X106.756 Y97.706 E6.61655
G1 X105.651 Y96.601 E6.68834
G1 X106.545 Y96.942 F7800.000
G1 X105.482 Y95.878 E6.75744 F540.000
G1 X105.315 Y95.157 E6.79145
G1 X106.335 Y96.178 E6.85775
G1 X106.124 Y95.413 E6.89416
G1 X105.147 Y94.436 E6.95766
G1 X104.614 Y93.903 F7800.000
G1 X103.595 Y92.884 E7.02383 F540.000
G1 X103.469 Y93.312 E7.04431
G1 X104.192 Y94.034 E7.09125
G1 X104.088 Y94.484 E7.11246
G1 X103.343 Y93.740 E7.16082
G1 X103.217 Y94.167 E7.18130
G1 X103.983 Y94.934 E7.23108
G1 X103.879 Y95.383 E7.25229
G1 X103.091 Y94.595 E7.30349
G1 X102.965 Y95.023 E7.32397
G1 X103.775 Y95.833 E7.37660
G1 X103.671 Y96.282 E7.39780
G1 X102.839 Y95.450 E7.45184
G1 X102.713 Y95.878 E7.47233
G1 X103.565 Y96.730 E7.52769
G1 X103.451 Y97.170 E7.54857
G1 X102.587 Y96.306 E7.60473
G1 X102.461 Y96.733 E7.62522
G1 X103.337 Y97.610 E7.68218
G1 X103.220 Y98.047 E7.70295
G1 X102.335 Y97.161 E7.76050
G1 X102.209 Y97.589 E7.78098
G1 X103.098 Y98.478 E7.83879
G1 X102.976 Y98.910 E7.85939
G1 X102.083 Y98.016 E7.91745
G1 X101.956 Y98.444 E7.93794
G1 X102.854 Y99.341 E7.99625
G1 X102.732 Y99.773 E8.01685
G1 X101.830 Y98.872 E8.07542
G1 X101.704 Y99.299 E8.09591
G1 X102.610 Y100.205 E8.15473
G1 X102.487 Y100.636 E8.17533
G1 X101.578 Y99.727 E8.23441
G1 X101.452 Y100.155 E8.25490
G1 X102.365 Y101.068 E8.31423
G1 X102.243 Y101.499 E8.33484
G1 X101.326 Y100.582 E8.39442
G1 X101.200 Y101.010 E8.41491
G1 X102.121 Y101.931 E8.47475
G1 X101.999 Y102.363 E8.49536
G1 X101.074 Y101.438 E8.55545
G1 X100.948 Y101.865 E8.57594
G1 X101.877 Y102.794 E8.63629
G1 X101.755 Y103.226 E8.65690
G1 X100.822 Y102.293 E8.71750
G1 X100.696 Y102.721 E8.73799
G1 X101.632 Y103.657 E8.79885
G1 X101.510 Y104.089 E8.81946
G1 X100.570 Y103.148 E8.88057
G1 X100.444 Y103.576 E8.90106
G1 X101.388 Y104.521 E8.96243
G1 X101.266 Y104.952 E8.98304
G1 X100.318 Y104.004 E9.04466
G1 X100.192 Y104.431 E9.06515
G1 X101.144 Y105.384 E9.12703
G1 X101.022 Y105.815 E9.14764
G1 X100.065 Y104.859 E9.20977
G1 X99.939 Y105.287 E9.23026
G1 X100.900 Y106.247 E9.29265
G1 X100.777 Y106.679 E9.31326
G1 X99.813 Y105.714 E9.37590
G1 X99.687 Y106.142 E9.39639
G1 X100.655 Y107.110 E9.45929
G1 X100.189 Y107.197 E9.48111
G1 X99.561 Y106.570 E9.52187
G1 X99.435 Y106.997 E9.54235
G1 X99.635 Y107.197 E9.55533
G92 E0
G1 X100.196 Y106.648 F7800.000
G1 X100.196 Y106.648 F7800.000
G1 X107.550 Y103.484 F7800.000
G1 X108.540 Y104.474 E0.06430 F540.000
G1 X109.120 Y105.608 F7800.000
G1 X110.063 Y106.551 E0.12557 F540.000
G1 X110.184 Y106.118 E0.14621
G1 X109.616 Y105.550 E0.18314
G1 X109.717 Y105.097 E0.20443
G1 X110.305 Y105.685 E0.24263
G1 X110.426 Y105.253 E0.26327
G1 X109.819 Y104.645 E0.30272
G1 X110.547 Y104.820 F7800.000
G1 X109.921 Y104.193 E0.34344 F540.000
G1 X110.022 Y103.741 E0.36473
G1 X110.668 Y104.387 E0.40671
G1 X110.789 Y103.954 E0.42735
G1 X110.124 Y103.289 E0.47059
G1 X110.227 Y102.838 E0.49184
G1 X110.910 Y103.522 E0.53625
G1 X111.031 Y103.089 E0.55690
G1 X110.341 Y102.399 E0.60173
G1 X110.458 Y101.961 E0.62253
G1 X111.152 Y102.656 E0.66767
G1 X111.273 Y102.224 E0.68831
G1 X110.576 Y101.526 E0.73361
G1 X110.695 Y101.091 E0.75433
G1 X111.394 Y101.791 E0.79977
G1 X111.515 Y101.358 E0.82041
G1 X110.814 Y100.656 E0.86601
G1 X110.932 Y100.221 E0.88672
G1 X111.636 Y100.925 E0.93247
G1 X111.757 Y100.493 E0.95311
G1 X111.051 Y99.786 E0.99900
G1 X111.170 Y99.351 E1.01972
G1 X111.878 Y100.060 E1.06576
G1 X111.999 Y99.627 E1.08641
G1 X111.289 Y98.916 E1.13260
G1 X111.407 Y98.481 E1.15332
G1 X112.120 Y99.195 E1.19966
G1 X112.241 Y98.762 E1.22030
G1 X111.526 Y98.046 E1.26679
G1 X111.645 Y97.611 E1.28751
G1 X112.362 Y98.329 E1.33415
G1 X112.480 Y97.893 E1.35491
G1 X111.763 Y97.176 E1.40147
G1 X111.882 Y96.741 E1.42219
G1 X112.593 Y97.452 E1.46835
G1 X112.705 Y97.010 E1.48927
G1 X112.001 Y96.306 E1.53503
G1 X112.120 Y95.871 E1.55575
G1 X112.817 Y96.569 E1.60107
G1 X112.922 Y96.120 E1.62223
G1 X112.238 Y95.436 E1.66667
G1 X112.357 Y95.001 E1.68739
G1 X113.028 Y95.672 E1.73096
G1 X113.133 Y95.223 E1.75213
G1 X112.476 Y94.566 E1.79482
G1 X112.594 Y94.131 E1.81554
G1 X113.238 Y94.775 E1.85736
G1 X113.343 Y94.326 E1.87853
G1 X112.713 Y93.696 E1.91948
G1 X112.832 Y93.261 E1.94020
G1 X113.463 Y93.892 E1.98122
G1 X114.009 Y93.884 E2.00628
G1 X112.951 Y92.826 E2.07503
G1 X113.481 Y92.803 E2.09943
G1 X115.265 Y94.586 E2.21531
G1 X115.033 Y93.801 F7800.000
G1 X114.035 Y92.803 E2.28017 F540.000
G1 X114.589 Y92.803 E2.30562
G1 X114.802 Y93.016 E2.31947
G1 X114.317 Y94.192 F7800.000
G1 X115.496 Y95.371 E2.39610 F540.000
G1 X115.727 Y96.157 E2.43371
G1 X114.489 Y94.918 E2.51420
G1 X114.661 Y95.644 E2.54847
G1 X115.959 Y96.942 E2.63282
G1 X116.190 Y97.727 E2.67042
G1 X114.833 Y96.369 E2.75863
G1 X115.034 Y97.124 E2.79454
G1 X116.422 Y98.512 E2.88470
G1 X116.653 Y99.297 E2.92230
G1 X115.236 Y97.880 E3.01439
G1 X115.448 Y98.646 E3.05089
G1 X116.884 Y100.082 E3.14424
G1 X117.116 Y100.867 E3.18184
G1 X115.661 Y99.412 E3.27639
G1 X115.873 Y100.179 E3.31295
G1 X117.347 Y101.652 E3.40870
G1 X117.578 Y102.438 E3.44631
G1 X116.086 Y100.945 E3.54327
G1 X116.299 Y101.712 E3.57982
G1 X117.810 Y103.223 E3.67798
G1 X118.041 Y104.008 E3.71559
G1 X116.512 Y102.479 E3.81495
G1 X116.725 Y103.245 E3.85150
G1 X118.273 Y104.793 E3.95206
G1 X118.504 Y105.578 E3.98967
G1 X116.938 Y104.012 E4.09143
G1 X117.151 Y104.779 E4.12799
G1 X118.735 Y106.363 E4.23095
G1 X118.967 Y107.148 E4.26856
G1 X117.364 Y105.545 E4.37272
G1 X117.577 Y106.312 E4.40928
G1 X118.462 Y107.197 E4.46680
G92 E0
G1 X109.584 Y106.156 F7800.000
G1 X109.260 Y106.402 F7800.000
G1 X109.164 Y106.402 F7800.000
G1 X108.840 Y106.158 F7800.000
G1 X108.191 Y103.017 F7800.000
G1 X107.120 Y101.947 E0.06957 F540.000
G1 X105.914 Y94.649 F7800.000
G1 X104.068 Y92.803 E0.18954 F540.000
G1 X104.621 Y92.803 E0.21498
G1 X105.704 Y93.885 E0.28530
G1 X105.493 Y93.121 E0.32172
G1 X105.175 Y92.803 E0.34239
G92 E0
G1 X105.207 Y96.779 F7800.000
G1 X104.591 Y102.822 F7800.000
G1 X100.952 Y108.648 F7800.000
G1 X96.280 Y107.068 F7800.000
G1 X93.765 Y108.648 F7800.000
G1 X93.765 Y107.648 F7800.000
G1 X90.356 Y105.616 F7800.000
G1 X87.361 Y101.251 E0.23955 F378.000
G1 X83.004 Y107.423 E0.58140
G1 X81.275 Y107.423 E0.65964
G1 X86.468 Y100.299 E1.05855
G1 X80.831 Y92.577 E1.49115
G1 X82.559 Y92.577 E1.56934
G1 X86.812 Y98.666 E1.90544
G1 X87.349 Y99.435 E1.94785 F378.000
G1 X92.040 Y92.577 E2.32380
G1 X93.775 Y92.577 E2.40232
G1 X88.272 Y100.376 E2.83423
G1 X93.327 Y107.423 E3.22665
G1 X91.596 Y107.423 E3.30498
G1 X90.487 Y105.807 E3.39368
G1 X90.193 Y104.872 F7800.000
G1 X92.518 Y107.197 E3.54443 F540.000
G1 X91.966 Y107.197 E3.56975
G1 X91.401 Y106.632 E3.60639
G1 X92.146 Y106.273 F7800.000
G1 X88.985 Y103.111 E3.81134 F540.000
G1 X89.342 Y102.364 F7800.000
G1 X85.608 Y98.630 E4.05341 F540.000
G1 X85.794 Y97.711 F7800.000
G1 X82.621 Y94.538 E4.25911 F540.000
G1 X83.234 Y94.046 F7800.000
G1 X81.991 Y92.803 E4.33969 F540.000
G1 X81.439 Y92.803 E4.36501
G1 X84.514 Y95.878 E4.56439
G1 X84.115 Y96.584 F7800.000
G1 X87.982 Y100.451 E4.81509 F540.000
G1 X88.211 Y100.127 E4.83326
G1 X87.557 Y99.474 E4.87561
G1 X87.782 Y99.146 E4.89383
G1 X88.439 Y99.803 E4.93644
G1 X88.668 Y99.479 E4.95462
G1 X88.006 Y98.818 E4.99750
G1 X88.231 Y98.490 E5.01572
G1 X88.896 Y99.155 E5.05888
G1 X89.125 Y98.831 E5.07705
G1 X88.455 Y98.162 E5.12047
G1 X88.679 Y97.834 E5.13869
G1 X89.353 Y98.508 E5.18238
G1 X89.582 Y98.184 E5.20056
G1 X88.904 Y97.506 E5.24452
G1 X89.128 Y97.177 E5.26274
G1 X89.810 Y97.860 E5.30697
G1 X90.039 Y97.536 E5.32514
G1 X89.353 Y96.849 E5.36964
G1 X89.577 Y96.521 E5.38786
G1 X90.268 Y97.212 E5.43263
G1 X90.496 Y96.888 E5.45080
G1 X89.801 Y96.193 E5.49584
G1 X90.026 Y95.865 E5.51406
G1 X90.725 Y96.564 E5.55936
G1 X90.953 Y96.240 E5.57754
G1 X90.250 Y95.537 E5.62311
G1 X90.475 Y95.209 E5.64133
G1 X91.182 Y95.916 E5.68718
G1 X91.410 Y95.592 E5.70535
G1 X90.699 Y94.881 E5.75146
G1 X90.923 Y94.553 E5.76968
G1 X91.639 Y95.268 E5.81607
G1 X91.867 Y94.944 E5.83424
G1 X91.148 Y94.225 E5.88089
G1 X91.372 Y93.897 E5.89911
G1 X92.096 Y94.621 E5.94603
G1 X92.325 Y94.297 E5.96421
G1 X91.597 Y93.569 E6.01139
G1 X91.821 Y93.241 E6.02962
G1 X92.553 Y93.973 E6.07707
G1 X92.782 Y93.649 E6.09525
G1 X92.045 Y92.913 E6.14298
G1 X92.488 Y92.803 E6.16389
G1 X93.010 Y93.325 E6.19772
G1 X93.041 Y92.803 E6.22169
G1 X93.239 Y93.001 E6.23452
G92 E0
G1 X90.744 Y104.318 F7800.000
G1 X86.715 Y100.289 E0.26124 F540.000
G1 X86.482 Y100.608 E0.27937
G1 X87.124 Y101.251 E0.32101
G1 X86.895 Y101.574 E0.33919
G1 X86.249 Y100.928 E0.38111
G1 X86.016 Y101.247 E0.39924
G1 X86.667 Y101.898 E0.44144
G1 X86.438 Y102.222 E0.45961
G1 X85.783 Y101.567 E0.50210
G1 X85.550 Y101.886 E0.52022
G1 X86.210 Y102.546 E0.56298
G1 X85.981 Y102.870 E0.58116
G1 X85.317 Y102.206 E0.62420
G1 X85.084 Y102.525 E0.64232
G1 X85.752 Y103.194 E0.68564
G1 X85.524 Y103.518 E0.70382
G1 X84.851 Y102.845 E0.74741
G1 X84.618 Y103.165 E0.76554
G1 X85.295 Y103.841 E0.80942
G1 X85.066 Y104.165 E0.82759
G1 X84.385 Y103.484 E0.87174
G1 X84.152 Y103.804 E0.88987
G1 X84.838 Y104.489 E0.93431
G1 X84.609 Y104.813 E0.95248
G1 X83.919 Y104.123 E0.99719
G1 X83.686 Y104.443 E1.01532
G1 X84.380 Y105.137 E1.06031
G1 X84.152 Y105.461 E1.07848
G1 X83.454 Y104.762 E1.12375
G1 X83.221 Y105.082 E1.14188
G1 X83.923 Y105.784 E1.18743
G1 X83.695 Y106.108 E1.20560
G1 X82.988 Y105.401 E1.25143
G1 X82.755 Y105.721 E1.26956
G1 X83.466 Y106.432 E1.31567
G1 X83.237 Y106.756 E1.33384
G1 X82.522 Y106.041 E1.38022
G1 X82.289 Y106.360 E1.39835
G1 X83.009 Y107.080 E1.44502
G1 X82.573 Y107.197 E1.46568
G1 X82.056 Y106.680 E1.49923
G1 X81.823 Y106.999 E1.51735
G1 X82.021 Y107.197 E1.53018
M106 S255
G92 E0
G1 Z0.600 F7800.000
G1 X118.530 Y107.648 F7800.000
G1 X115.745 Y97.917 E3.03301 F600.000
G1 X115.308 Y96.361 E3.51720
G1 X114.717 Y94.134 E4.20759
G1 X114.323 Y93.397 E4.45821
G1 X113.850 Y93.344 E4.60061
G1 X113.416 Y93.379 E4.73109
G1 X112.990 Y94.150 E4.99505
G1 X112.024 Y97.900 E6.15551
G1 X110.608 Y103.040 E7.75283
G1 X110.031 Y105.330 E8.46066
G1 X109.260 Y106.402 E8.85636
G1 X109.166 Y106.402 E8.88451
G1 X108.401 Y105.333 E9.27839
G1 X107.920 Y103.435 E9.86514
G1 X106.043 Y96.571 E11.99747
G1 X105.434 Y94.170 E12.73966
G1 X104.990 Y93.383 E13.01064
G1 X104.563 Y93.353 E13.13864
G1 X104.093 Y93.408 E13.28069
G1 X103.698 Y94.153 E13.53320
G1 X102.756 Y97.675 E14.62565
G1 X99.874 Y107.648 E17.73628
G92 E0
G1 X102.464 Y108.076 F7800.000
G1 X98.794 Y108.648 F7800.000
G1 X96.193 Y105.907 F7800.000
G1 X97.870 Y94.935 F7800.000
G1 X94.209 Y92.352 F7800.000
G1 X93.059 Y92.352 F7800.000
G1 X88.070 Y99.533 E2.62027 F600.000
G1 X87.795 Y99.844 E2.74446
G1 X87.372 Y100.224 E2.91494
G1 X87.365 Y100.459 E2.98522
G1 X87.827 Y100.892 E3.17516
G1 X88.062 Y101.162 E3.28236
G1 X92.613 Y107.648 E5.65652
G1 X89.990 Y102.630 F7800.000
G1 X86.894 Y99.785 E6.91634 F600.000
G1 X86.659 Y99.520 E7.02241
G1 X81.541 Y92.352 E9.66157
G92 E0
G1 X81.982 Y107.648 F7800.000
G1 X86.648 Y101.144 E2.39857 F600.000
G1 X86.928 Y100.838 E2.52286
G1 X90.049 Y98.128 E3.76123
G92 E0
G1 Z0.900 F7800.000
G1 X118.530 Y107.648 F7800.000
G1 X115.745 Y97.917 E3.03301 F600.000
G1 X115.308 Y96.361 E3.51720
G1 X114.717 Y94.134 E4.20759
G1 X114.323 Y93.397 E4.45821
G1 X113.850 Y93.344 E4.60061
G1 X113.416 Y93.379 E4.73109
G1 X112.990 Y94.150 E4.99505
G1 X112.024 Y97.900 E6.15551
G1 X110.608 Y103.040 E7.75283
G1 X110.031 Y105.330 E8.46066
G1 X109.260 Y106.402 E8.85636
G1 X109.166 Y106.402 E8.88451
G1 X108.401 Y105.333 E9.27839
G1 X107.919 Y103.432 E9.86607
G1 X106.043 Y96.571 E11.99747
G1 X105.434 Y94.170 E12.73967
G1 X104.990 Y93.383 E13.01064
G1 X104.563 Y93.353 E13.13864
G1 X104.093 Y93.408 E13.28069
G1 X103.698 Y94.153 E13.53320
G1 X102.756 Y97.675 E14.62566
G1 X99.874 Y107.648 E17.73628
G92 E0
G1 X102.464 Y108.076 F7800.000
G1 X98.794 Y108.648 F7800.000
G1 X96.193 Y105.907 F7800.000
G1 X97.870 Y94.935 F7800.000
G1 X94.209 Y92.352 F7800.000
G1 X93.059 Y92.352 F7800.000
G1 X88.070 Y99.533 E2.62027 F600.000
G1 X87.795 Y99.844 E2.74446
G1 X87.372 Y100.224 E2.91494
G1 X87.365 Y100.459 E2.98522
G1 X87.827 Y100.892 E3.17516
G1 X88.062 Y101.162 E3.28236
G1 X92.613 Y107.648 E5.65652
G1 X89.990 Y102.630 F7800.000
G1 X86.894 Y99.785 E6.91634 F600.000
G1 X86.659 Y99.520 E7.02241
G1 X81.541 Y92.352 E9.66157
G92 E0
G1 X81.982 Y107.648 F7800.000
G1 X86.648 Y101.144 E2.39857 F600.000
G1 X86.928 Y100.838 E2.52286
G1 X90.049 Y98.128 E3.76123
G92 E0
G1 Z1.200 F7800.000
G1 X118.530 Y107.648 F7800.000
G1 X115.745 Y97.917 E3.03301 F600.000
G1 X115.308 Y96.361 E3.51720
G1 X114.717 Y94.134 E4.20759
G1 X114.323 Y93.397 E4.45821
G1 X113.850 Y93.344 E4.60061
G1 X113.416 Y93.379 E4.73109
G1 X112.990 Y94.150 E4.99505
G1 X112.024 Y97.900 E6.15551
G1 X110.608 Y103.040 E7.75283
G1 X110.031 Y105.330 E8.46066
G1 X109.260 Y106.402 E8.85636
G1 X109.166 Y106.402 E8.88451
G1 X108.401 Y105.333 E9.27839
G1 X107.919 Y103.432 E9.86607
G1 X106.042 Y96.571 E11.99748
G1 X105.434 Y94.170 E12.73967
G1 X104.990 Y93.383 E13.01065
G1 X104.563 Y93.353 E13.13864
G1 X104.093 Y93.408 E13.28069
G1 X103.698 Y94.153 E13.53320
G1 X102.756 Y97.675 E14.62566
G1 X99.874 Y107.648 E17.73628
G92 E0
G1 X102.464 Y108.076 F7800.000
G1 X98.794 Y108.648 F7800.000
G1 X96.193 Y105.907 F7800.000
G1 X97.870 Y94.935 F7800.000
G1 X94.209 Y92.352 F7800.000
G1 X93.059 Y92.352 F7800.000
G1 X88.070 Y99.533 E2.62027 F600.000
G1 X87.795 Y99.844 E2.74446
G1 X87.372 Y100.224 E2.91494
G1 X87.365 Y100.459 E2.98522
G1 X87.827 Y100.892 E3.17516
G1 X88.062 Y101.162 E3.28236
G1 X92.613 Y107.648 E5.65652
G1 X89.990 Y102.630 F7800.000
G1 X86.894 Y99.785 E6.91634 F600.000
G1 X86.659 Y99.520 E7.02241
G1 X81.541 Y92.352 E9.66157
G92 E0
G1 X81.982 Y107.648 F7800.000
G1 X86.648 Y101.144 E2.39857 F600.000
G1 X86.928 Y100.838 E2.52286
G1 X90.049 Y98.128 E3.76123
G92 E0
G1 Z1.500 F7800.000
G1 X118.530 Y107.648 F7800.000
G1 X115.745 Y97.917 E3.03301 F600.000
G1 X115.308 Y96.361 E3.51720
G1 X114.717 Y94.134 E4.20759
G1 X114.323 Y93.397 E4.45821
