; generated by Slic3r 1.2.9 on 2016-03-11 at 01:32:28

; external perimeters extrusion width = 1.54mm
; perimeters extrusion width = 2.62mm
; infill extrusion width = 6.27mm
; solid infill extrusion width = 2.62mm
; top infill extrusion width = 2.62mm

M107
M104 S30 ; set temperature
G28 ; home all axes
G1 Z5 F5000 ; lift nozzle
M302
M92 E10000
M500
M501
G1 E100
M109 S30 ; wait for temperature to be reached
G21 ; set units to millimeters
G90 ; use absolute coordinates
M82 ; use absolute distances for extrusion
G92 E0
G1 Z0.300 F7800.000
G1 X110.194 Y97.239 F7800.000
G1 X110.194 Y98.759 E0.06877 F378.000
G1 X115.885 Y107.423 E0.53781 F378.000
G1 X114.148 Y107.423 E0.61641
G1 X109.411 Y99.942 E1.01707
G1 X104.646 Y107.423 E1.41841
G1 X102.909 Y107.423 E1.49701
G1 X108.583 Y98.759 E1.96565
G1 X108.583 Y92.577 E2.24539
G1 X110.194 Y92.577 E2.31829
G1 X110.194 Y97.008 E2.51881
G1 X110.314 Y99.459 F7800.000
G1 X108.809 Y97.955 E2.61683 F540.000
G1 X108.809 Y97.399 E2.64241
G1 X109.968 Y98.558 E2.71792
G1 X109.968 Y98.003 E2.74349
G1 X108.809 Y96.844 E2.81900
G1 X108.809 Y96.289 E2.84458
G1 X109.968 Y97.448 E2.92009
G1 X109.968 Y96.893 E2.94567
G1 X108.809 Y95.734 E3.02118
G1 X108.809 Y95.179 E3.04675
G1 X109.968 Y96.338 E3.12226
G1 X109.968 Y95.782 E3.14784
G1 X108.809 Y94.623 E3.22335
G1 X108.809 Y94.068 E3.24892
G1 X109.968 Y95.227 E3.32444
G1 X109.968 Y94.672 E3.35001
G1 X108.809 Y93.513 E3.42552
G1 X108.809 Y92.958 E3.45110
G1 X109.968 Y94.117 E3.52661
G1 X109.968 Y93.562 E3.55218
G1 X109.210 Y92.803 E3.60162
G1 X109.765 Y92.803 E3.62719
G1 X109.968 Y93.007 E3.64045
G1 X109.846 Y100.102 F7800.000
G1 X112.440 Y102.695 E3.80941 F540.000
G1 X111.763 Y103.129 F7800.000
G1 X114.565 Y105.931 E3.99195 F540.000
G1 X113.681 Y106.157 F7800.000
G1 X114.721 Y107.197 E4.05968 F540.000
G1 X115.276 Y107.197 E4.08526
G1 X112.722 Y104.643 E4.25162
G1 X113.502 Y104.313 F7800.000
G1 X110.805 Y101.616 E4.42737 F540.000
G1 X111.377 Y101.077 F7800.000
G1 X108.809 Y98.510 E4.59463 F540.000
G1 X108.692 Y98.948 E4.61552
G1 X109.377 Y99.633 E4.66014
G1 X109.161 Y99.972 E4.67866
G1 X108.472 Y99.283 E4.72352
G1 X108.253 Y99.619 E4.74199
G1 X108.945 Y100.311 E4.78709
G1 X108.729 Y100.650 E4.80562
G1 X108.033 Y99.954 E4.85095
G1 X107.813 Y100.290 E4.86943
G1 X108.513 Y100.989 E4.91501
G1 X108.297 Y101.329 E4.93353
G1 X107.594 Y100.625 E4.97935
G1 X107.374 Y100.961 E4.99782
G1 X108.081 Y101.668 E5.04388
G1 X107.865 Y102.007 E5.06241
G1 X107.154 Y101.296 E5.10871
G1 X106.934 Y101.632 E5.12718
G1 X107.649 Y102.346 E5.17372
G1 X107.433 Y102.685 E5.19224
G1 X106.715 Y101.967 E5.23902
G1 X106.495 Y102.303 E5.25750
G1 X107.217 Y103.024 E5.30452
G1 X107.001 Y103.363 E5.32304
G1 X106.275 Y102.638 E5.37030
G1 X106.056 Y102.973 E5.38878
G1 X106.785 Y103.703 E5.43628
G1 X106.569 Y104.042 E5.45480
G1 X105.836 Y103.309 E5.50254
G1 X105.616 Y103.644 E5.52102
G1 X106.353 Y104.381 E5.56900
G1 X106.137 Y104.720 E5.58752
G1 X105.396 Y103.980 E5.63575
G1 X105.177 Y104.315 E5.65422
G1 X105.921 Y105.059 E5.70268
G1 X105.705 Y105.398 E5.72121
G1 X104.957 Y104.651 E5.76991
G1 X104.737 Y104.986 E5.78838
G1 X105.488 Y105.738 E5.83733
G1 X105.272 Y106.077 E5.85585
G1 X104.517 Y105.322 E5.90504
G1 X104.298 Y105.657 E5.92351
G1 X105.056 Y106.416 E5.97293
G1 X104.840 Y106.755 E5.99146
G1 X104.078 Y105.993 E6.04112
G1 X103.858 Y106.328 E6.05960
G1 X104.624 Y107.094 E6.10950
G1 X104.172 Y107.197 E6.13087
G1 X103.639 Y106.664 E6.16562
G1 X103.419 Y106.999 E6.18410
G1 X103.617 Y107.197 E6.19700
G92 E0
G1 X102.492 Y107.648 F7800.000
G1 X97.075 Y108.648 F7800.000
G1 X93.733 Y108.371 F7800.000
G1 X90.634 Y106.738 F7800.000
G1 X90.668 Y101.645 F7800.000
G1 X87.230 Y103.794 F7800.000
G1 X89.777 Y100.299 E0.19569 F378.000
G1 X84.141 Y92.577 E0.62829
G1 X85.868 Y92.577 E0.70648
G1 X90.122 Y98.666 E1.04258
G1 X90.659 Y99.435 E1.08499 F378.000
G1 X95.349 Y92.577 E1.46094
G1 X97.085 Y92.577 E1.53946
G1 X91.582 Y100.376 E1.97137
G1 X96.636 Y107.423 E2.36379
G1 X94.905 Y107.423 E2.44212
G1 X90.670 Y101.251 E2.78081
G1 X86.313 Y107.423 E3.12267
G1 X84.584 Y107.423 E3.20091
G1 X87.094 Y103.980 E3.39368
G1 X85.330 Y107.197 F7800.000
G1 X85.133 Y106.999 E3.40651 F540.000
G1 X85.365 Y106.680 E3.42463
G1 X85.883 Y107.197 E3.45818
G1 X86.318 Y107.080 E3.47884
G1 X85.598 Y106.360 E3.52551
G1 X85.831 Y106.041 E3.54364
G1 X86.547 Y106.756 E3.59002
G1 X86.775 Y106.432 E3.60819
G1 X86.064 Y105.721 E3.65430
G1 X86.297 Y105.401 E3.67243
G1 X87.004 Y106.108 E3.71826
G1 X87.233 Y105.784 E3.73643
G1 X86.530 Y105.082 E3.78198
G1 X86.763 Y104.762 E3.80011
G1 X87.461 Y105.461 E3.84538
G1 X87.690 Y105.137 E3.86355
G1 X86.996 Y104.443 E3.90854
G1 X87.229 Y104.123 E3.92667
G1 X87.919 Y104.813 E3.97138
G1 X88.147 Y104.489 E3.98955
G1 X87.462 Y103.804 E4.03399
G1 X87.695 Y103.484 E4.05211
G1 X88.376 Y104.165 E4.09627
G1 X88.605 Y103.841 E4.11444
G1 X87.928 Y103.165 E4.15832
G1 X88.161 Y102.845 E4.17645
G1 X88.833 Y103.518 E4.22004
G1 X89.062 Y103.194 E4.23822
G1 X88.394 Y102.525 E4.28153
G1 X88.626 Y102.206 E4.29966
G1 X89.290 Y102.870 E4.34270
G1 X89.519 Y102.546 E4.36087
G1 X88.859 Y101.886 E4.40364
G1 X89.092 Y101.567 E4.42176
G1 X89.748 Y102.222 E4.46424
G1 X89.976 Y101.898 E4.48242
G1 X89.325 Y101.247 E4.52462
G1 X89.558 Y100.928 E4.54275
G1 X90.205 Y101.574 E4.58467
G1 X90.434 Y101.251 E4.60284
G1 X89.791 Y100.608 E4.64449
G1 X90.024 Y100.289 E4.66262
G1 X94.054 Y104.318 E4.92386
G1 X93.502 Y104.872 F7800.000
G1 X95.828 Y107.197 E5.07461 F540.000
G1 X95.275 Y107.197 E5.09994
G1 X94.710 Y106.632 E5.13657
G1 X95.456 Y106.273 F7800.000
G1 X92.294 Y103.111 E5.34152 F540.000
G1 X92.652 Y102.364 F7800.000
G1 X88.918 Y98.630 E5.58360 F540.000
G1 X89.104 Y97.711 F7800.000
G1 X85.931 Y94.538 E5.78929 F540.000
G1 X86.544 Y94.046 F7800.000
G1 X85.301 Y92.803 E5.86987 F540.000
G1 X84.748 Y92.803 E5.89520
G1 X87.824 Y95.878 E6.09457
G1 X87.424 Y96.584 F7800.000
G1 X91.292 Y100.451 E6.34527 F540.000
G1 X91.520 Y100.127 E6.36345
G1 X90.867 Y99.474 E6.40579
G1 X91.091 Y99.146 E6.42401
G1 X91.749 Y99.803 E6.46663
G1 X91.977 Y99.479 E6.48480
G1 X91.316 Y98.818 E6.52768
G1 X91.540 Y98.490 E6.54591
G1 X92.206 Y99.155 E6.58906
G1 X92.434 Y98.831 E6.60723
G1 X91.764 Y98.162 E6.65065
G1 X91.989 Y97.834 E6.66887
G1 X92.663 Y98.508 E6.71257
G1 X92.891 Y98.184 E6.73074
G1 X92.213 Y97.506 E6.77470
G1 X92.438 Y97.177 E6.79292
G1 X93.120 Y97.860 E6.83715
G1 X93.349 Y97.536 E6.85532
G1 X92.662 Y96.849 E6.89982
G1 X92.887 Y96.521 E6.91804
G1 X93.577 Y97.212 E6.96281
G1 X93.806 Y96.888 E6.98098
G1 X93.111 Y96.193 E7.02602
G1 X93.335 Y95.865 E7.04424
G1 X94.034 Y96.564 E7.08955
G1 X94.263 Y96.240 E7.10772
G1 X93.560 Y95.537 E7.15329
G1 X93.784 Y95.209 E7.17152
G1 X94.491 Y95.916 E7.21736
G1 X94.720 Y95.592 E7.23553
G1 X94.009 Y94.881 E7.28165
G1 X94.233 Y94.553 E7.29987
G1 X94.948 Y95.268 E7.34625
G1 X95.177 Y94.944 E7.36442
G1 X94.457 Y94.225 E7.41107
G1 X94.682 Y93.897 E7.42929
G1 X95.406 Y94.621 E7.47622
G1 X95.634 Y94.297 E7.49439
G1 X94.906 Y93.569 E7.54158
G1 X95.131 Y93.241 E7.55980
G1 X95.863 Y93.973 E7.60726
G1 X96.091 Y93.649 E7.62543
G1 X95.355 Y92.913 E7.67316
G1 X95.798 Y92.803 E7.69407
G1 X96.320 Y93.325 E7.72791
G1 X96.350 Y92.803 E7.75187
G1 X96.548 Y93.001 E7.76470
M106 S255
G92 E0
G1 Z0.600 F7800.000
G1 X109.389 Y92.352 F7800.000
G1 X109.389 Y99.209 E2.05473 F600.000
G1 X109.515 Y99.286 E2.09907
G1 X110.154 Y99.891 E2.36271
G1 X115.157 Y107.648 E5.12860
G1 X109.358 Y98.582 F7800.000
G1 X109.358 Y98.582 F7800.000
G1 X103.635 Y107.648 F7800.000
G1 X108.653 Y99.880 E7.89969 F600.000
G1 X109.266 Y99.287 E8.15525
G1 X110.419 Y98.560 E8.56368
G92 E0
G1 X108.358 Y92.352 F7800.000
G1 X108.358 Y92.352 F7800.000
G1 X106.358 Y92.352 F7800.000
G1 X102.148 Y96.562 F7800.000
G1 X101.378 Y95.075 F7800.000
G1 X97.519 Y92.352 F7800.000
G1 X96.369 Y92.352 F7800.000
G1 X91.380 Y99.533 E2.62027 F600.000
G1 X91.105 Y99.844 E2.74446
G1 X90.682 Y100.224 E2.91494
G1 X90.674 Y100.459 E2.98522
G1 X91.137 Y100.892 E3.17516
G1 X91.372 Y101.162 E3.28236
G1 X95.922 Y107.648 E5.65652
G1 X93.299 Y102.630 F7800.000
G1 X90.203 Y99.785 E6.91634 F600.000
G1 X89.969 Y99.520 E7.02241
G1 X84.850 Y92.352 E9.66157
G92 E0
G1 X85.292 Y107.648 F7800.000
G1 X89.958 Y101.144 E2.39857 F600.000
G1 X90.238 Y100.838 E2.52286
G1 X93.358 Y98.128 E3.76123
G92 E0
G1 Z0.900 F7800.000
G1 X109.389 Y92.352 F7800.000
G1 X109.389 Y99.209 E2.05473 F600.000
G1 X109.515 Y99.286 E2.09907
G1 X110.154 Y99.891 E2.36271
G1 X115.157 Y107.648 E5.12860
G1 X109.358 Y98.582 F7800.000
G1 X109.358 Y98.582 F7800.000
G1 X103.635 Y107.648 F7800.000
G1 X108.653 Y99.880 E7.89969 F600.000
G1 X109.266 Y99.287 E8.15525
G1 X110.419 Y98.560 E8.56368
G92 E0
G1 X108.358 Y92.352 F7800.000
G1 X108.358 Y92.352 F7800.000
G1 X106.358 Y92.352 F7800.000
G1 X102.148 Y96.562 F7800.000
G1 X101.378 Y95.075 F7800.000
G1 X97.519 Y92.352 F7800.000
G1 X96.369 Y92.352 F7800.000
G1 X91.380 Y99.533 E2.62027 F600.000
G1 X91.105 Y99.844 E2.74446
G1 X90.682 Y100.224 E2.91494
G1 X90.674 Y100.459 E2.98522
G1 X91.137 Y100.892 E3.17516
G1 X91.372 Y101.162 E3.28236
G1 X95.922 Y107.648 E5.65652
G1 X93.299 Y102.630 F7800.000
G1 X90.203 Y99.785 E6.91634 F600.000
G1 X89.969 Y99.520 E7.02241
G1 X84.850 Y92.352 E9.66157
G92 E0
G1 X85.292 Y107.648 F7800.000
G1 X89.958 Y101.144 E2.39857 F600.000
G1 X90.238 Y100.838 E2.52286
G1 X93.358 Y98.128 E3.76123
G92 E0
G1 Z1.200 F7800.000
G1 X109.389 Y92.352 F7800.000
G1 X109.389 Y99.209 E2.05473 F600.000
G1 X109.515 Y99.286 E2.09907
G1 X110.154 Y99.891 E2.36271
G1 X115.157 Y107.648 E5.12860
G1 X109.358 Y98.582 F7800.000
G1 X109.358 Y98.582 F7800.000
G1 X103.635 Y107.648 F7800.000
G1 X108.653 Y99.880 E7.89969 F600.000
G1 X109.266 Y99.287 E8.15525
G1 X110.419 Y98.560 E8.56368
G92 E0
G1 X108.358 Y92.352 F7800.000
G1 X108.358 Y92.352 F7800.000
G1 X106.358 Y92.352 F7800.000
G1 X102.148 Y96.562 F7800.000
G1 X101.378 Y95.075 F7800.000
G1 X97.519 Y92.352 F7800.000
G1 X96.369 Y92.352 F7800.000
G1 X91.380 Y99.533 E2.62027 F600.000
G1 X91.105 Y99.844 E2.74446
G1 X90.682 Y100.224 E2.91494
G1 X90.674 Y100.459 E2.98522
G1 X91.137 Y100.892 E3.17516
G1 X91.372 Y101.162 E3.28236
G1 X95.922 Y107.648 E5.65652
G1 X93.299 Y102.630 F7800.000
G1 X90.203 Y99.785 E6.91634 F600.000
G1 X89.969 Y99.520 E7.02241
G1 X84.850 Y92.352 E9.66157
G92 E0
G1 X85.292 Y107.648 F7800.000
G1 X89.958 Y101.144 E2.39857 F600.000
G1 X90.238 Y100.838 E2.52286
G1 X93.358 Y98.128 E3.76123
G92 E0
G1 Z1.500 F7800.000
G1 X109.389 Y92.352 F7800.000
G1 X109.389 Y99.209 E2.05473 F600.000
G1 X109.515 Y99.286 E2.09907
G1 X110.154 Y99.891 E2.36271
G1 X115.157 Y107.648 E5.12860
G1 X109.358 Y98.582 F7800.000
G1 X109.358 Y98.582 F7800.000
G1 X103.635 Y107.648 F7800.000
G1 X108.653 Y99.880 E7.89969 F600.000
G1 X109.266 Y99.287 E8.15525
G1 X110.419 Y98.560 E8.56368
G92 E0
G1 X108.358 Y92.352 F7800.000
G1 X108.358 Y92.352 F7800.000
G1 X106.358 Y92.352 F7800.000
G1 X102.148 Y96.562 F7800.000
G1 X101.378 Y95.075 F7800.000
G1 X97.519 Y92.352 F7800.000
G1 X96.369 Y92.352 F7800.000
G1 X91.380 Y99.533 E2.62027 F600.000
G1 X91.105 Y99.844 E2.74446
G1 X90.682 Y100.224 E2.91494
G1 X90.674 Y100.459 E2.98522
G1 X91.137 Y100.892 E3.17516
G1 X91.372 Y101.162 E3.28236
G1 X95.922 Y107.648 E5.65652
G1 X93.299 Y102.630 F7800.000
G1 X90.203 Y99.785 E6.91634 F600.000
G1 X89.969 Y99.520 E7.02241
G1 X84.850 Y92.352 E9.66157
G92 E0
G1 X85.292 Y107.648 F7800.000
G1 X89.958 Y101.144 E2.39857 F600.000
G1 X90.238 Y100.838 E2.52286
G1 X93.358 Y98.128 E3.76123
G92 E0
G1 Z1.800 F7800.000
G1 X109.389 Y92.352 F7800.000
G1 X109.389 Y99.209 E2.05473 F600.000
G1 X109.515 Y99.286 E2.09907
G1 X110.154 Y99.891 E2.36271
G1 X115.157 Y107.648 E5.12860
G1 X109.358 Y98.582 F7800.000
G1 X109.358 Y98.582 F7800.000
G1 X103.635 Y107.648 F7800.000
G1 X108.653 Y99.880 E7.89969 F600.000
G1 X109.266 Y99.287 E8.15525
G1 X110.419 Y98.560 E8.56368
G92 E0
G1 X108.358 Y92.352 F7800.000
G1 X108.358 Y92.352 F7800.000
G1 X106.358 Y92.352 F7800.000
G1 X102.148 Y96.562 F7800.000
G1 X101.378 Y95.075 F7800.000
G1 X97.519 Y92.352 F7800.000
G1 X96.369 Y92.352 F7800.000
G1 X91.380 Y99.533 E2.62027 F600.000
G1 X91.105 Y99.844 E2.74446
G1 X90.682 Y100.224 E2.91494
G1 X90.674 Y100.459 E2.98522
G1 X91.137 Y100.892 E3.17516
G1 X91.372 Y101.162 E3.28236
G1 X95.922 Y107.648 E5.65652
G1 X93.299 Y102.630 F7800.000
G1 X90.203 Y99.785 E6.91634 F600.000
G1 X89.969 Y99.520 E7.02241
G1 X84.850 Y92.352 E9.66157
G92 E0
G1 X85.292 Y107.648 F7800.000
G1 X89.958 Y101.144 E2.39857 F600.000
G1 X90.238 Y100.838 E2.52286
G1 X93.358 Y98.128 E3.76123
G92 E0
G1 Z2.100 F7800.000
G1 X109.389 Y92.352 F7800.000
G1 X109.389 Y99.209 E2.05473 F600.000
G1 X109.515 Y99.286 E2.09907
G1 X110.154 Y99.891 E2.36271
G1 X115.157 Y107.648 E5.12860
G92 E0
G1 X109.358 Y98.582 F7800.000
G1 X109.358 Y98.582 F7800.000
G1 X103.635 Y107.648 F7800.000
G1 X108.653 Y99.880 E2.77109 F600.000
G1 X109.266 Y99.287 E3.02666
G1 X110.419 Y98.560 E3.43508
G92 E0
G1 X108.358 Y92.352 F7800.000
G1 X108.358 Y92.352 F7800.000
G1 X106.358 Y92.352 F7800.000
G1 X102.148 Y96.562 F7800.000
G1 X101.378 Y95.075 F7800.000
G1 X97.519 Y92.352 F7800.000
G1 X96.369 Y92.352 F7800.000
G1 X91.380 Y99.533 E2.62027 F600.000
G1 X91.105 Y99.844 E2.74446
G1 X90.682 Y100.224 E2.91494
G1 X90.674 Y100.459 E2.98522
G1 X91.137 Y100.892 E3.17516
G1 X91.372 Y101.162 E3.28236
G1 X95.922 Y107.648 E5.65652
G92 E0
G1 X93.299 Y102.630 F7800.000
G1 X90.203 Y99.785 E1.25982 F600.000
G1 X89.969 Y99.520 E1.36589
G1 X84.850 Y92.352 E4.00505
G92 E0
G1 X85.292 Y107.648 F7800.000
G1 X89.958 Y101.144 E2.39857 F600.000
G1 X90.238 Y100.838 E2.52286
G1 X93.358 Y98.128 E3.76123
G92 E0
M107
M104 S0 ; turn off temperature
G28 X0  ; home X axis
M84     ; disable motors

; filament used = 145.9mm (1.1cm3)

; avoid_crossing_perimeters = 1
; bed_shape = 0x0,250x0,250x250,0x250
; bed_temperature = 0
; before_layer_gcode = 
; bridge_acceleration = 0
; bridge_fan_speed = 100
; brim_width = 0
; complete_objects = 0
; cooling = 1
; default_acceleration = 0
; disable_fan_first_layers = 1
; duplicate_distance = 6
; end_gcode = M104 S0 ; turn off temperature\nG28 X0  ; home X axis\nM84     ; disable motors\n
; extruder_clearance_height = 20
; extruder_clearance_radius = 20
; extruder_offset = 0x0
; extrusion_axis = E
; extrusion_multiplier = 3
; fan_always_on = 0
; fan_below_layer_time = 60
; filament_colour = #FFFFFF
; filament_diameter = 3.125
; first_layer_acceleration = 0
; first_layer_bed_temperature = 0
; first_layer_extrusion_width = 150%
; first_layer_speed = 90%
; first_layer_temperature = 30
; gcode_arcs = 0
; gcode_comments = 0
; gcode_flavor = reprap
; infill_acceleration = 0
; infill_first = 0
; layer_gcode = 
; max_fan_speed = 100
; max_print_speed = 80
; max_volumetric_speed = 0
; min_fan_speed = 35
; min_print_speed = 10
; min_skirt_length = 0
; notes = 
; nozzle_diameter = 1.54
; only_retract_when_crossing_perimeters = 1
; ooze_prevention = 0
; output_filename_format = [input_filename_base].gcode
; perimeter_acceleration = 0
; post_process = 
; pressure_advance = 0
; resolution = 0
; retract_before_travel = 2
; retract_layer_change = 1
; retract_length = 0
; retract_length_toolchange = 10
; retract_lift = 0
; retract_restart_extra = 0
; retract_restart_extra_toolchange = 0
; retract_speed = 0
; skirt_distance = 6
; skirt_height = 1
; skirts = 0
; slowdown_below_layer_time = 30
; spiral_vase = 0
; standby_temperature_delta = -5
; start_gcode = G28 ; home all axes\nG1 Z5 F5000 ; lift nozzle\nM302\nM92 E10000\nM500\nM501\nG1 E100
; temperature = 30
; threads = 2
; toolchange_gcode = 
; travel_speed = 130
; use_firmware_retraction = 0
; use_relative_e_distances = 0
; use_volumetric_e = 0
; vibration_limit = 0
; wipe = 0
; z_offset = 0
; dont_support_bridges = 1
; extrusion_width = 0
; first_layer_height = 100%
; infill_only_where_needed = 0
; interface_shells = 0
; layer_height = 0.3
; raft_layers = 0
; seam_position = random
; support_material = 0
; support_material_angle = 0
; support_material_contact_distance = 0.2
; support_material_enforce_layers = 0
; support_material_extruder = 1
