; generated by Slic3r 1.2.9 on 2016-03-11 at 01:32:28

; external perimeters extrusion width = 1.54mm
; perimeters extrusion width = 2.62mm
; infill extrusion width = 6.27mm
; solid infill extrusion width = 2.62mm
; top infill extrusion width = 2.62mm

M107
M104 S30 ; set temperature
G28 ; home all axes
G1 Z5 F5000 ; lift nozzle
M302
M92 E10000
M500
M501
G1 E100
M109 S30 ; wait for temperature to be reached
G21 ; set units to millimeters
G90 ; use absolute coordinates
M82 ; use absolute distances for extrusion
G92 E0
G1 Z0.300 F7800.000
G1 X110.918 Y106.181 F7800.000
G1 X113.186 Y106.181 E0.10263 F378.000
G1 X103.647 Y93.826 E0.80892
G1 X103.647 Y92.577 E0.86544
G1 X115.366 Y92.577 E1.39572
G1 X115.366 Y93.819 E1.45192
G1 X105.318 Y93.819 E1.90658 F378.000
G1 X114.856 Y106.218 E2.61441
G1 X114.856 Y107.423 E2.66895
G1 X104.439 Y107.423 E3.14031
G1 X104.439 Y106.181 E3.19651
G1 X110.687 Y106.181 E3.47922
G92 E0
G1 X112.528 Y104.849 F7800.000
G1 X114.630 Y106.951 E0.13714 F540.000
G1 X114.601 Y106.367 E0.16413
G1 X110.644 Y102.410 E0.42227
G1 X110.894 Y101.547 F7800.000
G1 X106.878 Y97.531 E0.68428 F540.000
G1 X107.186 Y96.728 F7800.000
G1 X103.873 Y93.415 E0.90045 F540.000
G1 X103.873 Y92.859 E0.92609
G1 X105.333 Y94.318 E1.02133
G1 X105.163 Y93.593 F7800.000
G1 X104.373 Y92.803 E1.07287 F540.000
G1 X104.929 Y92.803 E1.09852
G1 X105.719 Y93.593 E1.15006
G1 X106.275 Y93.593 E1.17571
G1 X105.485 Y92.803 E1.22725
G1 X106.041 Y92.803 E1.25289
G1 X106.831 Y93.593 E1.30444
G1 X107.387 Y93.593 E1.33008
G1 X106.597 Y92.803 E1.38163
G1 X107.153 Y92.803 E1.40727
G1 X107.943 Y93.593 E1.45881
G1 X108.499 Y93.593 E1.48446
G1 X107.709 Y92.803 E1.53600
G1 X108.265 Y92.803 E1.56165
G1 X109.055 Y93.593 E1.61319
G1 X109.611 Y93.593 E1.63883
G1 X108.821 Y92.803 E1.69038
G1 X109.377 Y92.803 E1.71602
G1 X110.167 Y93.593 E1.76757
G1 X110.723 Y93.593 E1.79321
G1 X109.933 Y92.803 E1.84475
G1 X110.489 Y92.803 E1.87040
G1 X111.279 Y93.593 E1.92194
G1 X111.835 Y93.593 E1.94759
G1 X111.045 Y92.803 E1.99913
G1 X111.601 Y92.803 E2.02478
G1 X112.391 Y93.593 E2.07632
G1 X112.947 Y93.593 E2.10196
G1 X112.156 Y92.803 E2.15351
G1 X112.712 Y92.803 E2.17915
G1 X113.503 Y93.593 E2.23069
G1 X114.058 Y93.593 E2.25634
G1 X113.268 Y92.803 E2.30788
G1 X113.824 Y92.803 E2.33353
G1 X114.614 Y93.593 E2.38507
G1 X115.140 Y93.563 E2.40935
G1 X114.380 Y92.803 E2.45890
G1 X114.936 Y92.803 E2.48455
G1 X115.140 Y93.007 E2.49783
G92 E0
G1 X109.040 Y99.138 F7800.000
G1 X104.994 Y95.092 E0.26394 F540.000
G1 X108.761 Y99.971 F7800.000
G1 X112.748 Y103.957 E0.52402 F540.000
G1 X113.529 Y106.407 F7800.000
G1 X114.320 Y107.197 E0.57556 F540.000
G1 X113.764 Y107.197 E0.60120
G1 X112.974 Y106.407 E0.65275
G1 X112.418 Y106.407 E0.67839
G1 X113.208 Y107.197 E0.72994
G1 X112.652 Y107.197 E0.75558
G1 X111.862 Y106.407 E0.80712
G1 X111.306 Y106.407 E0.83277
G1 X112.096 Y107.197 E0.88431
G1 X111.540 Y107.197 E0.90996
G1 X110.750 Y106.407 E0.96150
G1 X110.194 Y106.407 E0.98715
G1 X110.984 Y107.197 E1.03869
G1 X110.428 Y107.197 E1.06434
G1 X109.638 Y106.407 E1.11588
G1 X109.082 Y106.407 E1.14152
G1 X109.872 Y107.197 E1.19307
G1 X109.316 Y107.197 E1.21871
G1 X108.526 Y106.407 E1.27026
G1 X107.970 Y106.407 E1.29590
G1 X108.760 Y107.197 E1.34744
G1 X108.204 Y107.197 E1.37309
G1 X107.414 Y106.407 E1.42463
G1 X106.858 Y106.407 E1.45028
G1 X107.648 Y107.197 E1.50182
G1 X107.092 Y107.197 E1.52747
G1 X106.302 Y106.407 E1.57901
G1 X105.746 Y106.407 E1.60466
G1 X106.536 Y107.197 E1.65620
G1 X105.980 Y107.197 E1.68184
G1 X105.190 Y106.407 E1.73339
G1 X105.424 Y107.197 F7800.000
G1 X104.665 Y106.438 E1.78294 F540.000
G1 X104.665 Y106.993 E1.80858
G1 X104.868 Y107.197 E1.82186
G92 E0
G1 X104.214 Y105.956 F7800.000
G1 X100.777 Y105.956 F7800.000
G1 X100.677 Y105.575 F7800.000
G1 X97.786 Y107.648 F7800.000
G1 X94.293 Y105.494 F7800.000
G1 X91.382 Y101.251 E0.23286 F378.000
G1 X87.025 Y107.423 E0.57471
G1 X85.296 Y107.423 E0.65295
G1 X90.489 Y100.299 E1.05186
G1 X84.852 Y92.577 E1.48446
G1 X86.580 Y92.577 E1.56265
G1 X90.833 Y98.666 E1.89875
G1 X91.370 Y99.435 E1.94116 F378.000
G1 X96.061 Y92.577 E2.31712
G1 X97.796 Y92.577 E2.39563
G1 X92.293 Y100.376 E2.82754
G1 X97.348 Y107.423 E3.21996
G1 X95.617 Y107.423 E3.29829
G1 X94.424 Y105.685 E3.39368
G1 X94.214 Y104.872 F7800.000
G1 X96.539 Y107.197 E3.54443 F540.000
G1 X95.987 Y107.197 E3.56975
G1 X95.422 Y106.632 E3.60638
G1 X96.167 Y106.273 F7800.000
G1 X93.006 Y103.111 E3.81134 F540.000
G1 X93.363 Y102.364 F7800.000
G1 X89.629 Y98.630 E4.05341 F540.000
G1 X89.815 Y97.711 F7800.000
G1 X86.642 Y94.538 E4.25911 F540.000
G1 X87.255 Y94.046 F7800.000
G1 X86.012 Y92.803 E4.33968 F540.000
G1 X85.460 Y92.803 E4.36501
G1 X88.535 Y95.878 E4.56439
G1 X88.136 Y96.584 F7800.000
G1 X92.003 Y100.451 E4.81509 F540.000
G1 X92.232 Y100.127 E4.83326
G1 X91.578 Y99.474 E4.87561
G1 X91.803 Y99.146 E4.89383
G1 X92.460 Y99.803 E4.93644
G1 X92.689 Y99.479 E4.95462
G1 X92.027 Y98.818 E4.99750
G1 X92.252 Y98.490 E5.01572
G1 X92.917 Y99.155 E5.05887
G1 X93.146 Y98.831 E5.07705
G1 X92.476 Y98.162 E5.12047
G1 X92.700 Y97.834 E5.13869
G1 X93.374 Y98.508 E5.18238
G1 X93.603 Y98.184 E5.20055
G1 X92.925 Y97.506 E5.24451
G1 X93.149 Y97.177 E5.26273
G1 X93.831 Y97.860 E5.30696
G1 X94.060 Y97.536 E5.32514
G1 X93.374 Y96.849 E5.36964
G1 X93.598 Y96.521 E5.38786
G1 X94.289 Y97.212 E5.43262
G1 X94.517 Y96.888 E5.45080
G1 X93.822 Y96.193 E5.49583
G1 X94.047 Y95.865 E5.51405
G1 X94.746 Y96.564 E5.55936
G1 X94.974 Y96.240 E5.57753
G1 X94.271 Y95.537 E5.62311
G1 X94.496 Y95.209 E5.64133
G1 X95.203 Y95.916 E5.68717
G1 X95.431 Y95.592 E5.70535
G1 X94.720 Y94.881 E5.75146
G1 X94.944 Y94.553 E5.76968
G1 X95.660 Y95.268 E5.81606
G1 X95.888 Y94.944 E5.83424
G1 X95.169 Y94.225 E5.88089
G1 X95.393 Y93.897 E5.89911
G1 X96.117 Y94.621 E5.94603
G1 X96.346 Y94.297 E5.96420
G1 X95.618 Y93.569 E6.01139
G1 X95.842 Y93.241 E6.02961
G1 X96.574 Y93.973 E6.07707
G1 X96.803 Y93.649 E6.09525
G1 X96.066 Y92.913 E6.14297
G1 X96.509 Y92.803 E6.16389
G1 X97.031 Y93.325 E6.19772
G1 X97.062 Y92.803 E6.22169
G1 X97.260 Y93.001 E6.23452
G92 E0
G1 X94.765 Y104.318 F7800.000
G1 X90.736 Y100.289 E0.26124 F540.000
G1 X90.503 Y100.608 E0.27937
G1 X91.145 Y101.251 E0.32101
G1 X90.916 Y101.574 E0.33919
G1 X90.270 Y100.928 E0.38111
G1 X90.037 Y101.247 E0.39924
G1 X90.688 Y101.898 E0.44144
G1 X90.459 Y102.222 E0.45961
G1 X89.804 Y101.567 E0.50210
G1 X89.571 Y101.886 E0.52022
G1 X90.231 Y102.546 E0.56299
G1 X90.002 Y102.870 E0.58116
G1 X89.338 Y102.206 E0.62420
G1 X89.105 Y102.525 E0.64232
G1 X89.773 Y103.194 E0.68564
G1 X89.545 Y103.518 E0.70382
G1 X88.872 Y102.845 E0.74741
G1 X88.639 Y103.165 E0.76554
G1 X89.316 Y103.841 E0.80942
G1 X89.087 Y104.165 E0.82759
G1 X88.406 Y103.484 E0.87174
G1 X88.173 Y103.804 E0.88987
G1 X88.859 Y104.489 E0.93431
G1 X88.630 Y104.813 E0.95248
G1 X87.940 Y104.123 E0.99719
G1 X87.707 Y104.443 E1.01532
G1 X88.401 Y105.137 E1.06031
G1 X88.173 Y105.461 E1.07848
G1 X87.475 Y104.762 E1.12375
G1 X87.242 Y105.082 E1.14188
G1 X87.944 Y105.784 E1.18743
G1 X87.716 Y106.108 E1.20560
G1 X87.009 Y105.401 E1.25143
G1 X86.776 Y105.721 E1.26956
G1 X87.487 Y106.432 E1.31567
G1 X87.258 Y106.756 E1.33384
G1 X86.543 Y106.041 E1.38022
G1 X86.310 Y106.360 E1.39835
G1 X87.030 Y107.080 E1.44502
G1 X86.594 Y107.197 E1.46568
G1 X86.077 Y106.680 E1.49923
G1 X85.844 Y106.999 E1.51735
G1 X86.042 Y107.197 E1.53018
M106 S255
G92 E0
G1 Z0.600 F7800.000
G1 X115.591 Y93.198 F7800.000
G1 X105.775 Y93.198 E2.94133 F600.000
G1 X104.675 Y93.556 E3.28802
G1 X105.071 Y94.586 E3.61865
G1 X113.421 Y105.421 E7.71765
G1 X113.814 Y106.453 E8.04874
G1 X112.728 Y106.802 E8.39055
G1 X104.214 Y106.802 E10.94174
G92 E0
G1 X100.631 Y100.699 F7800.000
G1 X100.281 Y96.328 F7800.000
G1 X100.565 Y94.000 F7800.000
G1 X98.230 Y92.352 F7800.000
G1 X97.080 Y92.352 F7800.000
G1 X92.091 Y99.533 E2.62027 F600.000
G1 X91.816 Y99.844 E2.74446
G1 X91.393 Y100.224 E2.91494
G1 X91.386 Y100.459 E2.98522
G1 X91.848 Y100.892 E3.17516
G1 X92.083 Y101.162 E3.28236
G1 X96.634 Y107.648 E5.65652
G1 X94.011 Y102.630 F7800.000
G1 X90.915 Y99.785 E6.91634 F600.000
G1 X90.680 Y99.520 E7.02241
G1 X85.562 Y92.352 E9.66157
G92 E0
G1 X86.003 Y107.648 F7800.000
G1 X90.669 Y101.144 E2.39857 F600.000
G1 X90.949 Y100.838 E2.52286
G1 X94.070 Y98.128 E3.76123
G92 E0
G1 Z0.900 F7800.000
G1 X115.591 Y93.198 F7800.000
G1 X105.775 Y93.198 E2.94133 F600.000
G1 X104.675 Y93.556 E3.28802
G1 X105.071 Y94.586 E3.61865
G1 X113.421 Y105.421 E7.71765
G1 X113.814 Y106.453 E8.04874
G1 X112.728 Y106.802 E8.39055
G1 X104.214 Y106.802 E10.94174
G92 E0
G1 X100.631 Y100.699 F7800.000
G1 X100.281 Y96.328 F7800.000
G1 X100.565 Y94.000 F7800.000
G1 X98.230 Y92.352 F7800.000
G1 X97.080 Y92.352 F7800.000
G1 X92.091 Y99.533 E2.62027 F600.000
G1 X91.816 Y99.844 E2.74446
G1 X91.393 Y100.224 E2.91494
G1 X91.386 Y100.459 E2.98522
G1 X91.848 Y100.892 E3.17516
G1 X92.083 Y101.162 E3.28236
G1 X96.634 Y107.648 E5.65652
G1 X94.011 Y102.630 F7800.000
G1 X90.915 Y99.785 E6.91634 F600.000
G1 X90.680 Y99.520 E7.02241
G1 X85.562 Y92.352 E9.66157
G92 E0
G1 X86.003 Y107.648 F7800.000
G1 X90.669 Y101.144 E2.39857 F600.000
G1 X90.949 Y100.838 E2.52286
G1 X94.070 Y98.128 E3.76123
G92 E0
G1 Z1.200 F7800.000
G1 X115.591 Y93.198 F7800.000
G1 X105.775 Y93.198 E2.94133 F600.000
G1 X104.675 Y93.556 E3.28802
G1 X105.071 Y94.586 E3.61865
G1 X113.421 Y105.421 E7.71765
G1 X113.814 Y106.453 E8.04874
G1 X112.728 Y106.802 E8.39055
G1 X104.214 Y106.802 E10.94174
G92 E0
G1 X100.631 Y100.699 F7800.000
G1 X100.281 Y96.328 F7800.000
G1 X100.565 Y94.000 F7800.000
G1 X98.230 Y92.352 F7800.000
G1 X97.080 Y92.352 F7800.000
G1 X92.091 Y99.533 E2.62027 F600.000
G1 X91.816 Y99.844 E2.74446
G1 X91.393 Y100.224 E2.91494
G1 X91.386 Y100.459 E2.98522
G1 X91.848 Y100.892 E3.17516
G1 X92.083 Y101.162 E3.28236
G1 X96.634 Y107.648 E5.65652
G1 X94.011 Y102.630 F7800.000
G1 X90.915 Y99.785 E6.91634 F600.000
G1 X90.680 Y99.520 E7.02241
G1 X85.562 Y92.352 E9.66157
G92 E0
G1 X86.003 Y107.648 F7800.000
G1 X90.669 Y101.144 E2.39857 F600.000
G1 X90.949 Y100.838 E2.52286
G1 X94.070 Y98.128 E3.76123
G92 E0
G1 Z1.500 F7800.000
G1 X115.591 Y93.198 F7800.000
G1 X105.775 Y93.198 E2.94133 F600.000
G1 X104.675 Y93.556 E3.28802
G1 X105.071 Y94.586 E3.61865
G1 X113.421 Y105.421 E7.71765
G1 X113.814 Y106.453 E8.04874
G1 X112.728 Y106.802 E8.39055
G1 X104.214 Y106.802 E10.94174
G92 E0
G1 X100.631 Y100.699 F7800.000
G1 X100.281 Y96.328 F7800.000
G1 X100.565 Y94.000 F7800.000
G1 X98.230 Y92.352 F7800.000
G1 X97.080 Y92.352 F7800.000
G1 X92.091 Y99.533 E2.62027 F600.000
G1 X91.816 Y99.844 E2.74446
G1 X91.393 Y100.224 E2.91494
G1 X91.386 Y100.459 E2.98522
G1 X91.848 Y100.892 E3.17516
G1 X92.083 Y101.162 E3.28236
G1 X96.634 Y107.648 E5.65652
G1 X94.011 Y102.630 F7800.000
G1 X90.915 Y99.785 E6.91634 F600.000
G1 X90.680 Y99.520 E7.02241
G1 X85.562 Y92.352 E9.66157
G92 E0
G1 X86.003 Y107.648 F7800.000
G1 X90.669 Y101.144 E2.39857 F600.000
G1 X90.949 Y100.838 E2.52286
G1 X94.070 Y98.128 E3.76123
G92 E0
G1 Z1.800 F7800.000
G1 X115.591 Y93.198 F7800.000
G1 X105.775 Y93.198 E2.94133 F600.000
G1 X104.675 Y93.556 E3.28802
G1 X105.071 Y94.586 E3.61865
G1 X113.421 Y105.421 E7.71765
G1 X113.814 Y106.453 E8.04874
G1 X112.728 Y106.802 E8.39055
G1 X104.214 Y106.802 E10.94174
G92 E0
G1 X100.631 Y100.699 F7800.000
G1 X100.281 Y96.328 F7800.000
G1 X100.565 Y94.000 F7800.000
G1 X98.230 Y92.352 F7800.000
G1 X97.080 Y92.352 F7800.000
G1 X92.091 Y99.533 E2.62027 F600.000
G1 X91.816 Y99.844 E2.74446
G1 X91.393 Y100.224 E2.91494
G1 X91.386 Y100.459 E2.98522
G1 X91.848 Y100.892 E3.17516
G1 X92.083 Y101.162 E3.28236
G1 X96.634 Y107.648 E5.65652
G1 X94.011 Y102.630 F7800.000
G1 X90.915 Y99.785 E6.91634 F600.000
G1 X90.680 Y99.520 E7.02241
G1 X85.562 Y92.352 E9.66157
G92 E0
G1 X86.003 Y107.648 F7800.000
G1 X90.669 Y101.144 E2.39857 F600.000
G1 X90.949 Y100.838 E2.52286
G1 X94.070 Y98.128 E3.76123
G92 E0
G1 Z2.100 F7800.000
G1 X115.591 Y93.198 F7800.000
G1 X105.775 Y93.198 E2.94133 F600.000
G1 X104.675 Y93.556 E3.28802
G1 X105.071 Y94.586 E3.61865
G1 X113.421 Y105.421 E7.71765
G1 X113.814 Y106.453 E8.04874
G1 X112.728 Y106.802 E8.39055
G1 X104.214 Y106.802 E10.94174
G92 E0
G1 X100.631 Y100.699 F7800.000
G1 X100.281 Y96.328 F7800.000
G1 X100.565 Y94.000 F7800.000
G1 X98.230 Y92.352 F7800.000
G1 X97.080 Y92.352 F7800.000
G1 X92.091 Y99.533 E2.62027 F600.000
G1 X91.816 Y99.844 E2.74446
G1 X91.393 Y100.224 E2.91494
G1 X91.386 Y100.459 E2.98522
G1 X91.848 Y100.892 E3.17516
G1 X92.083 Y101.162 E3.28236
G1 X96.634 Y107.648 E5.65652
G92 E0
G1 X94.011 Y102.630 F7800.000
G1 X90.915 Y99.785 E1.25982 F600.000
G1 X90.680 Y99.520 E1.36589
G1 X85.562 Y92.352 E4.00505
G92 E0
G1 X86.003 Y107.648 F7800.000
G1 X90.669 Y101.144 E2.39857 F600.000
G1 X90.949 Y100.838 E2.52286
G1 X94.070 Y98.128 E3.76123
G92 E0
M107
M104 S0 ; turn off temperature
G28 X0  ; home X axis
M84     ; disable motors

; filament used = 161.8mm (1.2cm3)

; avoid_crossing_perimeters = 1
; bed_shape = 0x0,250x0,250x250,0x250
; bed_temperature = 0
; before_layer_gcode = 
; bridge_acceleration = 0
; bridge_fan_speed = 100
; brim_width = 0
; complete_objects = 0
; cooling = 1
; default_acceleration = 0
; disable_fan_first_layers = 1
; duplicate_distance = 6
; end_gcode = M104 S0 ; turn off temperature\nG28 X0  ; home X axis\nM84     ; disable motors\n
; extruder_clearance_height = 20
; extruder_clearance_radius = 20
; extruder_offset = 0x0
; extrusion_axis = E
; extrusion_multiplier = 3
; fan_always_on = 0
; fan_below_layer_time = 60
; filament_colour = #FFFFFF
; filament_diameter = 3.125
; first_layer_acceleration = 0
; first_layer_bed_temperature = 0
; first_layer_extrusion_width = 150%
; first_layer_speed = 90%
; first_layer_temperature = 30
; gcode_arcs = 0
; gcode_comments = 0
; gcode_flavor = reprap
; infill_acceleration = 0
; infill_first = 0
; layer_gcode = 
; max_fan_speed = 100
; max_print_speed = 80
; max_volumetric_speed = 0
; min_fan_speed = 35
; min_print_speed = 10
; min_skirt_length = 0
; notes = 
; nozzle_diameter = 1.54
; only_retract_when_crossing_perimeters = 1
; ooze_prevention = 0
; output_filename_format = [input_filename_base].gcode
; perimeter_acceleration = 0
; post_process = 
; pressure_advance = 0
; resolution = 0
; retract_before_travel = 2
; retract_layer_change = 1
; retract_length = 0
; retract_length_toolchange = 10
; retract_lift = 0
; retract_restart_extra = 0
; retract_restart_extra_toolchange = 0
; retract_speed = 0
; skirt_distance = 6
; skirt_height = 1
; skirts = 0
; slowdown_below_layer_time = 30
; spiral_vase = 0
; standby_temperature_delta = -5
; start_gcode = G28 ; home all axes\nG1 Z5 F5000 ; lift nozzle\nM302\nM92 E10000\nM500\nM501\nG1 E100
; temperature = 30
; threads = 2
; toolchange_gcode = 
; travel_speed = 130
; use_firmware_retraction = 0
; use_relative_e_distances = 0
; use_volumetric_e = 0
; vibration_limit = 0
; wipe = 0
; z_offset = 0
; dont_support_bridges = 1
; extrusion_width = 0
; first_layer_height = 100%
; infill_only_where_needed = 0
; interface_shells = 0
; layer_height = 0.3
; raft_layers = 0
; seam_position = random
; support_material = 0
; support_material_angle = 0
; support_material_contact_distance = 0.2
; support_material_enforce_layers = 0
; support_material_extruder = 1
; support_material_extrusion_width = 0
; support_material_interface_extruder = 1
; support_material_interface_layers = 3
; support_material_interface_spacing = 0
; support_material_interface_speed = 100%
; support_material_pattern = pillars
; support_material_spacing = 2.5
; support_material_speed = 7
; support_material_threshold = 0
; xy_size_compensation = 0
; bottom_solid_layers = 3
; bridge_flow_ratio = 1
; bridge_speed = 10
; external_fill_pattern = rectilinear
; external_perimeter_extrusion_width = 0
; external_perimeter_speed = 70%
; external_perimeters_first = 1
; extra_perimeters = 1
; fill_angle = 45
; fill_density = 60%
; fill_pattern = rectilinear
; gap_fill_speed = 10
; infill_every_layers = 1
; infill_extruder = 1
; infill_extrusion_width = 0
; infill_overlap = 15%
; infill_speed = 10
