; generated by Slic3r 1.2.9 on 2016-03-10 at 20:37:44

; external perimeters extrusion width = 1.54mm
; perimeters extrusion width = 2.62mm
; infill extrusion width = 6.27mm
; solid infill extrusion width = 2.62mm
; top infill extrusion width = 2.62mm

M107
M104 S30 ; set temperature
G28 ; home all axes
G1 Z5 F5000 ; lift nozzle
M302
M92 E10000
M500
M501
G1 E100
M109 S30 ; wait for temperature to be reached
G21 ; set units to millimeters
G90 ; use absolute coordinates
M82 ; use absolute distances for extrusion
G92 E0
G1 Z0.300 F7800.000
G1 X124.186 Y120.763 F7800.000
G1 X124.186 Y117.577 E0.14418 F600.000
G1 X125.797 Y117.577 E0.21708
G1 X125.797 Y123.759 E0.49682
G1 X131.488 Y132.423 E0.96586 F600.000
G1 X129.751 Y132.423 E1.04447
G1 X125.014 Y124.942 E1.44513
G1 X120.249 Y132.423 E1.84646
G1 X118.511 Y132.423 E1.92507
G1 X124.186 Y123.759 E2.39371
G1 X124.186 Y120.994 E2.51881
G1 X125.571 Y118.007 F7800.000
G1 X125.367 Y117.803 E2.53207 F600.000
G1 X124.812 Y117.803 E2.55765
G1 X125.571 Y118.562 E2.60708
G1 X125.571 Y119.117 E2.63266
G1 X124.412 Y117.958 E2.70817
G1 X124.412 Y118.513 E2.73374
G1 X125.571 Y119.672 E2.80925
G1 X125.571 Y120.227 E2.83483
G1 X124.412 Y119.068 E2.91034
G1 X124.412 Y119.623 E2.93592
G1 X125.571 Y120.782 E3.01143
G1 X125.571 Y121.338 E3.03700
G1 X124.412 Y120.179 E3.11251
G1 X124.412 Y120.734 E3.13809
G1 X125.571 Y121.893 E3.21360
G1 X125.571 Y122.448 E3.23917
G1 X124.412 Y121.289 E3.31468
G1 X124.412 Y121.844 E3.34026
G1 X125.571 Y123.003 E3.41577
G1 X125.571 Y123.558 E3.44135
G1 X124.412 Y122.399 E3.51686
G1 X124.412 Y122.955 E3.54243
G1 X125.917 Y124.459 E3.64045
G1 X125.449 Y125.102 F7800.000
G1 X128.042 Y127.695 E3.80941 F600.000
G1 X127.366 Y128.129 F7800.000
G1 X130.168 Y130.931 E3.99195 F600.000
G1 X129.284 Y131.157 F7800.000
G1 X130.323 Y132.197 E4.05968 F600.000
G1 X130.879 Y132.197 E4.08526
G1 X128.325 Y129.643 E4.25162
G1 X129.105 Y129.313 F7800.000
G1 X126.407 Y126.616 E4.42737 F600.000
G1 X126.979 Y126.077 F7800.000
G1 X124.412 Y123.510 E4.59463 F600.000
G1 X124.295 Y123.948 E4.61552
G1 X124.980 Y124.633 E4.66014
G1 X124.764 Y124.972 E4.67866
G1 X124.075 Y124.283 E4.72352
G1 X123.855 Y124.619 E4.74199
G1 X124.548 Y125.311 E4.78709
G1 X124.332 Y125.650 E4.80562
G1 X123.636 Y124.954 E4.85095
G1 X123.416 Y125.290 E4.86943
G1 X124.116 Y125.989 E4.91501
G1 X123.900 Y126.329 E4.93353
G1 X123.196 Y125.625 E4.97935
G1 X122.977 Y125.961 E4.99782
G1 X123.684 Y126.668 E5.04388
G1 X123.468 Y127.007 E5.06241
G1 X122.757 Y126.296 E5.10871
G1 X122.537 Y126.632 E5.12718
G1 X123.252 Y127.346 E5.17372
G1 X123.035 Y127.685 E5.19224
G1 X122.317 Y126.967 E5.23902
G1 X122.098 Y127.303 E5.25750
G1 X122.819 Y128.024 E5.30452
G1 X122.603 Y128.363 E5.32304
G1 X121.878 Y127.638 E5.37030
G1 X121.658 Y127.973 E5.38878
G1 X122.387 Y128.703 E5.43628
G1 X122.171 Y129.042 E5.45480
G1 X121.439 Y128.309 E5.50254
G1 X121.219 Y128.644 E5.52102
G1 X121.955 Y129.381 E5.56900
G1 X121.739 Y129.720 E5.58752
G1 X120.999 Y128.980 E5.63575
G1 X120.779 Y129.315 E5.65422
G1 X121.523 Y130.059 E5.70268
G1 X121.307 Y130.398 E5.72121
G1 X120.560 Y129.651 E5.76991
G1 X120.340 Y129.986 E5.78838
G1 X121.091 Y130.738 E5.83733
G1 X120.875 Y131.077 E5.85585
G1 X120.120 Y130.322 E5.90504
G1 X119.900 Y130.657 E5.92351
G1 X120.659 Y131.416 E5.97293
G1 X120.443 Y131.755 E5.99146
G1 X119.681 Y130.993 E6.04112
G1 X119.461 Y131.328 E6.05960
G1 X120.227 Y132.094 E6.10950
G1 X119.775 Y132.197 E6.13087
G1 X119.241 Y131.664 E6.16562
G1 X119.022 Y131.999 E6.18410
G1 X119.220 Y132.197 E6.19700
M106 S255
G92 E0
G1 Z0.600 F7800.000
G1 X124.991 Y117.352 F7800.000
G1 X124.991 Y124.209 E2.05473 F600.000
G1 X125.118 Y124.286 E2.09907
G1 X125.757 Y124.891 E2.36271
G1 X130.760 Y132.648 E5.12860
G1 X124.961 Y123.582 F7800.000
G1 X124.961 Y123.582 F7800.000
G1 X119.238 Y132.648 F7800.000
G1 X124.256 Y124.880 E7.89969 F600.000
G1 X124.869 Y124.287 E8.15525
G1 X126.022 Y123.560 E8.56368
G92 E0
G1 Z0.900 F7800.000
G1 X124.991 Y117.352 F7800.000
G1 X124.991 Y124.209 E2.05473 F600.000
G1 X125.118 Y124.286 E2.09907
G1 X125.757 Y124.891 E2.36271
G1 X130.760 Y132.648 E5.12860
G1 X124.961 Y123.582 F7800.000
G1 X124.961 Y123.582 F7800.000
G1 X119.238 Y132.648 F7800.000
G1 X124.256 Y124.880 E7.89969 F600.000
G1 X124.869 Y124.287 E8.15525
G1 X126.022 Y123.560 E8.56368
G92 E0
G1 Z1.200 F7800.000
G1 X124.991 Y117.352 F7800.000
G1 X124.991 Y124.209 E2.05473 F600.000
G1 X125.118 Y124.286 E2.09907
G1 X125.757 Y124.891 E2.36271
G1 X130.760 Y132.648 E5.12860
G1 X124.961 Y123.582 F7800.000
G1 X124.961 Y123.582 F7800.000
G1 X119.238 Y132.648 F7800.000
G1 X124.256 Y124.880 E7.89969 F600.000
G1 X124.869 Y124.287 E8.15525
G1 X126.022 Y123.560 E8.56368
G92 E0
G1 Z1.500 F7800.000
G1 X124.991 Y117.352 F7800.000
G1 X124.991 Y124.209 E2.05473 F600.000
G1 X125.118 Y124.286 E2.09907
G1 X125.757 Y124.891 E2.36271
G1 X130.760 Y132.648 E5.12860
G1 X124.961 Y123.582 F7800.000
G1 X124.961 Y123.582 F7800.000
G1 X119.238 Y132.648 F7800.000
G1 X124.256 Y124.880 E7.89969 F600.000
G1 X124.869 Y124.287 E8.15525
G1 X126.022 Y123.560 E8.56368
G92 E0
G1 Z1.800 F7800.000
G1 X124.991 Y117.352 F7800.000
G1 X124.991 Y124.209 E2.05473 F600.000
G1 X125.118 Y124.286 E2.09907
G1 X125.757 Y124.891 E2.36271
G1 X130.760 Y132.648 E5.12860
G1 X124.961 Y123.582 F7800.000
G1 X124.961 Y123.582 F7800.000
G1 X119.238 Y132.648 F7800.000
G1 X124.256 Y124.880 E7.89969 F600.000
G1 X124.869 Y124.287 E8.15525
G1 X126.022 Y123.560 E8.56368
G92 E0
G1 Z2.100 F7800.000
G1 X124.991 Y117.352 F7800.000
G1 X124.991 Y124.209 E2.05473 F600.000
G1 X125.118 Y124.286 E2.09907
G1 X125.757 Y124.891 E2.36271
G1 X130.760 Y132.648 E5.12860
G92 E0
G1 X124.961 Y123.582 F7800.000
G1 X124.961 Y123.582 F7800.000
G1 X119.238 Y132.648 F7800.000
G1 X124.256 Y124.880 E2.77109 F600.000
G1 X124.869 Y124.287 E3.02666
G1 X126.022 Y123.560 E3.43508
G92 E0
M107
M104 S0 ; turn off temperature
G28 X0  ; home X axis
M84     ; disable motors

; filament used = 57.6mm (0.4cm3)

; avoid_crossing_perimeters = 1
; bed_shape = 0x0,250x0,250x250,0x250
; bed_temperature = 0
; before_layer_gcode = 
; bridge_acceleration = 0
; bridge_fan_speed = 100
; brim_width = 0
; complete_objects = 0
; cooling = 1
; default_acceleration = 0
; disable_fan_first_layers = 1
; duplicate_distance = 6
; end_gcode = M104 S0 ; turn off temperature\nG28 X0  ; home X axis\nM84     ; disable motors\n
; extruder_clearance_height = 20
; extruder_clearance_radius = 20
; extruder_offset = 0x0
; extrusion_axis = E
; extrusion_multiplier = 3
; fan_always_on = 0
; fan_below_layer_time = 60
; filament_colour = #FFFFFF
; filament_diameter = 3.125
; first_layer_acceleration = 0
; first_layer_bed_temperature = 0
; first_layer_extrusion_width = 150%
; first_layer_speed = 90%
; first_layer_temperature = 30
; gcode_arcs = 0
; gcode_comments = 0
; gcode_flavor = reprap
; infill_acceleration = 0
; infill_first = 0
; layer_gcode = 
; max_fan_speed = 100
; max_print_speed = 80
; max_volumetric_speed = 0
; min_fan_speed = 35
; min_print_speed = 10
; min_skirt_length = 0
; notes = 
; nozzle_diameter = 1.54
; only_retract_when_crossing_perimeters = 1
; ooze_prevention = 0
; output_filename_format = [input_filename_base].gcode
; perimeter_acceleration = 0
; post_process = 
; pressure_advance = 0
; resolution = 0
; retract_before_travel = 2
; retract_layer_change = 1
; retract_length = 0
; retract_length_toolchange = 10
; retract_lift = 0
; retract_restart_extra = 0
; retract_restart_extra_toolchange = 0
; retract_speed = 0
; skirt_distance = 6
; skirt_height = 1
; skirts = 0
; slowdown_below_layer_time = 30
; spiral_vase = 0
; standby_temperature_delta = -5
; start_gcode = G28 ; home all axes\nG1 Z5 F5000 ; lift nozzle\nM302\nM92 E10000\nM500\nM501\nG1 E100
; temperature = 30
; threads = 2
; toolchange_gcode = 
; travel_speed = 130
; use_firmware_retraction = 0
; use_relative_e_distances = 0
; use_volumetric_e = 0
; vibration_limit = 0
; wipe = 0
; z_offset = 0
; dont_support_bridges = 1
; extrusion_width = 0
; first_layer_height = 100%
; infill_only_where_needed = 0
; interface_shells = 0
; layer_height = 0.3
; raft_layers = 0
; seam_position = random
; support_material = 0
; support_material_angle = 0
; support_material_contact_distance = 0.2
; support_material_enforce_layers = 0
; support_material_extruder = 1
; support_material_extrusion_width = 0
; support_material_interface_extruder = 1
; support_material_interface_layers = 3
; support_material_interface_spacing = 0
; support_material_interface_speed = 100%
; support_material_pattern = pillars
; support_material_spacing = 2.5
; support_material_speed = 7
; support_material_threshold = 0
; xy_size_compensation = 0
; bottom_solid_layers = 3
; bridge_flow_ratio = 1
; bridge_speed = 10
; external_fill_pattern = rectilinear
; external_perimeter_extrusion_width = 0
; external_perimeter_speed = 70%
; external_perimeters_first = 1
; extra_perimeters = 1
; fill_angle = 45
; fill_density = 60%
; fill_pattern = rectilinear
; gap_fill_speed = 10
; infill_every_layers = 1
; infill_extruder = 1
; infill_extrusion_width = 0
; infill_overlap = 15%
; infill_speed = 10
; overhangs = 1
; perimeter_extruder = 1
; perimeter_extrusion_width = 0
; perimeter_speed = 10
; perimeters = 1
; small_perimeter_speed = 70%
; solid_infill_below_area = 70
; solid_infill_every_layers = 0
; solid_infill_extruder = 1
; solid_infill_extrusion_width = 0
; solid_infill_speed = 10
; thin_walls = 1
; top_infill_extrusion_width = 0
; top_solid_infill_speed = 10
; top_solid_layers = 3
