; generated by Slic3r 1.2.9 on 2016-03-11 at 01:32:30

; external perimeters extrusion width = 1.54mm
; perimeters extrusion width = 2.62mm
; infill extrusion width = 6.27mm
; solid infill extrusion width = 2.62mm
; top infill extrusion width = 2.62mm

M107
M104 S30 ; set temperature
G28 ; home all axes
G1 Z5 F5000 ; lift nozzle
M302
M92 E10000
M500
M501
G1 E100
M109 S30 ; wait for temperature to be reached
G21 ; set units to millimeters
G90 ; use absolute coordinates
M82 ; use absolute distances for extrusion
G92 E0
G1 Z0.300 F7800.000
G1 X114.401 Y102.180 F7800.000
G1 X114.538 Y102.398 E0.01164 F378.000
G1 X114.774 Y103.110 E0.04559
G1 X114.852 Y103.901 E0.08156
G1 X114.289 Y105.853 E0.17347
G1 X112.610 Y107.019 E0.26598
G1 X109.696 Y107.423 E0.39908
G1 X104.395 Y107.423 E0.63897
G1 X104.395 Y92.577 E1.31074
G1 X110.352 Y92.577 E1.58030
G1 X111.807 Y92.689 E1.64632
G1 X111.954 Y92.700 E1.65299 F378.000
G1 X113.281 Y93.064 E1.71525
G1 X114.345 Y93.663 E1.77049
G1 X115.120 Y94.467 E1.82101
G1 X115.583 Y95.456 E1.87046
G1 X115.740 Y96.650 E1.92494
G1 X115.637 Y97.552 E1.96605
G1 X115.331 Y98.339 E2.00423
G1 X114.820 Y99.016 E2.04259
G1 X114.118 Y99.561 E2.08283
G1 X113.231 Y99.946 E2.12657
G1 X112.112 Y100.177 E2.17827
G1 X112.089 Y100.600 E2.19740
G1 X112.942 Y100.878 E2.23802
G1 X113.612 Y101.267 E2.27307
G1 X114.147 Y101.779 E2.30658
G1 X114.278 Y101.985 E2.31762
G92 E0
G1 X113.930 Y103.026 F7800.000
G1 X113.930 Y103.026 F7800.000
G1 X112.395 Y99.337 F7800.000
G1 X112.278 Y99.420 E0.00646 F378.000
G1 X110.106 Y99.729 E0.10576
G1 X106.016 Y99.729 E0.29083
G1 X106.016 Y93.786 E0.55974
G1 X110.260 Y93.786 E0.75181 F378.000
G1 X111.436 Y93.866 E0.80511
G1 X112.404 Y94.113 E0.85031
G1 X113.154 Y94.537 E0.88929
G1 X113.684 Y95.139 E0.92561
G1 X113.999 Y95.902 E0.96297
G1 X114.103 Y96.831 E1.00523
G1 X113.649 Y98.445 E1.08112
G1 X112.583 Y99.203 E1.14033
G1 X111.627 Y101.188 F7800.000
G1 X112.322 Y101.567 E1.17616 F378.000
G1 X112.827 Y102.117 E1.20992
G1 X113.127 Y102.825 E1.24473
G1 X113.224 Y103.676 E1.28349
G1 X113.123 Y104.489 E1.32057
G1 X112.807 Y105.154 E1.35386
G1 X112.281 Y105.643 E1.38639
G1 X111.579 Y105.966 E1.42131
G1 X110.724 Y106.153 E1.46092
G1 X109.718 Y106.214 E1.50656
G1 X106.016 Y106.214 E1.67406
G1 X106.016 Y100.895 E1.91474 F378.000
G1 X109.719 Y100.895 E2.08229
G1 X110.757 Y100.967 E2.12937
G1 X111.404 Y101.131 E2.15957
G1 X111.878 Y100.912 F7800.000
G1 X112.607 Y101.227 E2.23738 F540.000
G1 X111.938 Y99.839 F7800.000
G1 X112.374 Y99.763 E2.28082 F540.000
G1 X112.795 Y99.589 E2.32544
G1 X113.000 Y99.394 F7800.000
G1 X113.302 Y99.697 E2.34502 F540.000
G1 X113.686 Y99.530 E2.36416
G1 X113.176 Y99.019 E2.39717
G1 X113.498 Y98.790 E2.41523
G1 X114.065 Y99.357 E2.45189
G1 X114.375 Y99.117 E2.46984
G1 X113.820 Y98.561 E2.50574
G1 X113.950 Y98.140 E2.52588
G1 X114.684 Y98.875 E2.57336
G1 X114.921 Y98.561 E2.59135
G1 X114.071 Y97.710 E2.64633
G1 X114.192 Y97.280 E2.66675
G1 X115.152 Y98.241 E2.72885
G1 X115.307 Y97.844 E2.74830
G1 X114.313 Y96.850 E2.81256
G1 X114.277 Y96.263 E2.83945
G1 X115.434 Y97.420 E2.91426
G1 X115.490 Y96.926 E2.93701
G1 X114.155 Y95.591 E3.02331
G1 X114.946 Y94.729 F7800.000
G1 X114.008 Y93.791 E3.08399 F540.000
G1 X112.880 Y93.214 F7800.000
G1 X115.378 Y95.711 E3.24544 F540.000
G1 X115.461 Y96.346 E3.27468
G1 X112.121 Y93.006 E3.49059
G1 X111.460 Y92.895 E3.52126
G1 X112.426 Y93.862 E3.58374
G1 X111.687 Y93.673 E3.61863
G1 X110.863 Y92.849 E3.67189
G1 X110.266 Y92.804 E3.69926
G1 X111.071 Y93.609 E3.75134
G1 X110.480 Y93.569 E3.77843
G1 X109.714 Y92.803 E3.82793
G1 X109.163 Y92.803 E3.85312
G1 X109.920 Y93.560 E3.90207
G1 X109.369 Y93.560 E3.92726
G1 X108.612 Y92.803 E3.97621
G1 X108.061 Y92.803 E4.00139
G1 X108.818 Y93.560 E4.05034
G1 X108.267 Y93.560 E4.07553
G1 X107.510 Y92.803 E4.12448
G1 X106.959 Y92.803 E4.14966
G1 X107.716 Y93.560 E4.19861
G1 X107.166 Y93.560 E4.22380
G1 X106.408 Y92.803 E4.27275
G1 X105.857 Y92.803 E4.29794
G1 X106.615 Y93.560 E4.34688
G1 X106.064 Y93.560 E4.37207
G1 X105.306 Y92.803 E4.42102
G1 X104.756 Y92.803 E4.44621
G1 X105.790 Y93.837 E4.51308
G1 X105.790 Y94.388 E4.53827
G1 X104.621 Y93.219 E4.61385
G1 X104.621 Y93.770 E4.63904
G1 X105.790 Y94.939 E4.71462
G1 X105.790 Y95.490 E4.73981
G1 X104.621 Y94.321 E4.81540
G1 X104.621 Y94.872 E4.84058
G1 X105.790 Y96.041 E4.91617
G1 X105.790 Y96.592 E4.94136
G1 X104.621 Y95.423 E5.01694
G1 X104.621 Y95.974 E5.04213
G1 X105.790 Y97.143 E5.11771
G1 X105.790 Y97.694 E5.14290
G1 X104.621 Y96.525 E5.21848
G1 X104.621 Y97.076 E5.24367
G1 X105.790 Y98.245 E5.31926
G1 X105.790 Y98.796 E5.34445
G1 X104.621 Y97.627 E5.42003
G1 X104.621 Y98.178 E5.44522
G1 X105.790 Y99.347 E5.52080
G1 X105.790 Y99.898 E5.54599
G1 X104.621 Y98.729 E5.62157
G1 X104.621 Y99.280 E5.64676
G1 X106.010 Y100.669 E5.73658
G1 X105.790 Y101.000 F7800.000
G1 X104.621 Y99.831 E5.81216 F540.000
G1 X104.621 Y100.382 E5.83735
G1 X105.790 Y101.551 E5.91293
G1 X105.790 Y102.102 E5.93812
G1 X104.621 Y100.933 E6.01370
G1 X104.621 Y101.484 E6.03889
G1 X105.790 Y102.653 E6.11448
G1 X105.790 Y103.204 E6.13966
G1 X104.621 Y102.035 E6.21525
G1 X104.621 Y102.586 E6.24044
G1 X105.790 Y103.755 E6.31602
G1 X105.790 Y104.306 E6.34121
G1 X104.621 Y103.137 E6.41679
G1 X104.621 Y103.688 E6.44198
G1 X105.790 Y104.857 E6.51757
G1 X105.790 Y105.408 E6.54275
G1 X104.621 Y104.239 E6.61834
G1 X104.621 Y104.790 E6.64353
G1 X105.790 Y105.959 E6.71911
G1 X105.720 Y106.440 E6.74134
G1 X106.477 Y107.197 E6.79029
G1 X107.028 Y107.197 E6.81548
G1 X106.271 Y106.440 E6.86442
G1 X105.790 Y106.510 E6.88666
G1 X104.621 Y105.341 E6.96224
G1 X104.621 Y105.892 E6.98743
G1 X105.926 Y107.197 E7.07183
G1 X105.375 Y107.197 E7.09702
G1 X104.621 Y106.442 E7.14580
G1 X104.621 Y106.993 E7.17099
G1 X104.824 Y107.197 E7.18415
G1 X106.822 Y106.440 F7800.000
G1 X107.579 Y107.197 E7.23310 F540.000
G1 X108.130 Y107.197 E7.25829
G1 X107.373 Y106.440 E7.30724
G1 X107.924 Y106.440 E7.33243
G1 X108.681 Y107.197 E7.38137
G1 X109.232 Y107.197 E7.40656
G1 X108.475 Y106.440 E7.45551
G1 X109.026 Y106.440 E7.48070
G1 X109.780 Y107.194 E7.52944
G1 X110.264 Y107.127 E7.55177
G1 X109.577 Y106.440 E7.59617
G1 X110.100 Y106.412 E7.62013
G1 X110.747 Y107.060 E7.66196
G1 X111.231 Y106.992 E7.68429
G1 X110.620 Y106.381 E7.72382
G1 X111.080 Y106.290 E7.74528
G1 X111.715 Y106.925 E7.78632
G1 X112.199 Y106.858 E7.80865
G1 X111.532 Y106.191 E7.85174
G1 X111.920 Y106.028 E7.87098
G1 X112.648 Y106.756 E7.91802
G1 X112.973 Y106.530 E7.93612
G1 X112.298 Y105.855 E7.97979
G1 X112.601 Y105.608 E7.99770
G1 X113.298 Y106.305 E8.04276
G1 X113.624 Y106.079 E8.06086
G1 X112.887 Y105.342 E8.10848
G1 X113.099 Y105.003 E8.12676
G1 X113.949 Y105.853 E8.18170
G1 X114.169 Y105.523 E8.19986
G1 X113.276 Y104.630 E8.25761
G1 X113.379 Y104.182 E8.27862
G1 X114.293 Y105.095 E8.33767
G1 X114.416 Y104.667 E8.35802
G1 X113.441 Y103.692 E8.42108
G1 X113.395 Y103.096 E8.44842
G1 X114.539 Y104.240 E8.52238
G1 X114.602 Y103.751 E8.54490
G1 X113.222 Y102.371 E8.63410
G1 X112.765 Y101.364 F7800.000
G1 X114.501 Y103.100 E8.74633 F540.000
G1 X111.691 Y100.840 F7800.000
G1 X110.711 Y99.860 E8.80969 F540.000
G1 X111.193 Y99.792 E8.83196
G1 X111.789 Y100.387 E8.87046
G1 X111.096 Y100.796 F7800.000
G1 X110.229 Y99.929 E8.92653 F540.000
G1 X109.704 Y99.955 E8.95056
G1 X110.463 Y100.714 E8.99963
G1 X109.871 Y100.673 E9.02675
G1 X109.153 Y99.955 E9.07319
G1 X108.602 Y99.955 E9.09837
G1 X109.316 Y100.669 E9.14454
G1 X108.765 Y100.669 E9.16973
G1 X108.051 Y99.955 E9.21590
G1 X107.500 Y99.955 E9.24109
G1 X108.214 Y100.669 E9.28725
G1 X107.663 Y100.669 E9.31244
G1 X106.949 Y99.955 E9.35861
G1 X106.398 Y99.955 E9.38380
G1 X107.112 Y100.669 E9.42996
G1 X106.561 Y100.669 E9.45515
G1 X105.847 Y99.955 E9.50132
G92 E0
G1 X104.170 Y107.648 F7800.000
G1 X97.843 Y108.648 F7800.000
G1 X94.464 Y108.345 F7800.000
G1 X90.943 Y106.407 F7800.000
G1 X90.951 Y100.362 F7800.000
G1 X86.868 Y106.353 F7800.000
G1 X86.187 Y107.423 E0.05741 F378.000
G1 X84.450 Y107.423 E0.13601
G1 X90.124 Y98.759 E0.60465
G1 X90.124 Y92.577 E0.88439
G1 X91.735 Y92.577 E0.95729
G1 X91.735 Y98.759 E1.23703
G1 X97.426 Y107.423 E1.70607 F378.000
G1 X95.689 Y107.423 E1.78468
G1 X90.952 Y99.942 E2.18534
G1 X86.992 Y106.158 E2.51881
G1 X85.158 Y107.197 F7800.000
G1 X84.960 Y106.999 E2.53171 F540.000
G1 X85.179 Y106.664 E2.55018
G1 X85.713 Y107.197 E2.58494
G1 X86.165 Y107.094 E2.60631
G1 X85.399 Y106.328 E2.65621
G1 X85.619 Y105.993 E2.67469
G1 X86.381 Y106.755 E2.72435
G1 X86.597 Y106.416 E2.74287
G1 X85.839 Y105.657 E2.79230
G1 X86.058 Y105.322 E2.81077
G1 X86.813 Y106.077 E2.85996
G1 X87.029 Y105.738 E2.87848
G1 X86.278 Y104.986 E2.92743
G1 X86.498 Y104.651 E2.94590
G1 X87.245 Y105.398 E2.99460
G1 X87.461 Y105.059 E3.01313
G1 X86.718 Y104.315 E3.06159
G1 X86.937 Y103.980 E3.08006
G1 X87.677 Y104.720 E3.12829
G1 X87.894 Y104.381 E3.14681
G1 X87.157 Y103.644 E3.19479
G1 X87.377 Y103.309 E3.21326
G1 X88.110 Y104.042 E3.26101
G1 X88.326 Y103.703 E3.27953
G1 X87.596 Y102.973 E3.32703
G1 X87.816 Y102.638 E3.34551
G1 X88.542 Y103.363 E3.39277
G1 X88.758 Y103.024 E3.41129
G1 X88.036 Y102.303 E3.45831
G1 X88.256 Y101.967 E3.47678
G1 X88.974 Y102.685 E3.52357
G1 X89.190 Y102.346 E3.54209
G1 X88.475 Y101.632 E3.58863
G1 X88.695 Y101.296 E3.60710
G1 X89.406 Y102.007 E3.65340
G1 X89.622 Y101.668 E3.67193
G1 X88.915 Y100.961 E3.71799
G1 X89.134 Y100.625 E3.73646
G1 X89.838 Y101.329 E3.78228
G1 X90.054 Y100.989 E3.80080
G1 X89.354 Y100.290 E3.84638
G1 X89.574 Y99.954 E3.86485
G1 X90.270 Y100.650 E3.91019
G1 X90.486 Y100.311 E3.92872
G1 X89.794 Y99.619 E3.97381
G1 X90.013 Y99.283 E3.99229
G1 X90.702 Y99.972 E4.03714
G1 X90.918 Y99.633 E4.05567
G1 X90.233 Y98.948 E4.10029
G1 X90.350 Y98.510 E4.12118
G1 X92.918 Y101.077 E4.28844
G1 X92.346 Y101.616 F7800.000
G1 X95.043 Y104.313 E4.46419 F540.000
G1 X94.263 Y104.643 F7800.000
G1 X96.817 Y107.197 E4.63055 F540.000
G1 X96.262 Y107.197 E4.65612
G1 X95.222 Y106.157 E4.72386
G1 X96.106 Y105.931 F7800.000
G1 X93.304 Y103.129 E4.90639 F540.000
G1 X93.981 Y102.695 F7800.000
G1 X91.387 Y100.102 E5.07535 F540.000
G1 X91.855 Y99.459 F7800.000
G1 X90.350 Y97.955 E5.17338 F540.000
G1 X90.350 Y97.399 E5.19895
G1 X91.509 Y98.558 E5.27446
G1 X91.509 Y98.003 E5.30004
G1 X90.350 Y96.844 E5.37555
G1 X90.350 Y96.289 E5.40112
G1 X91.509 Y97.448 E5.47663
G1 X91.509 Y96.893 E5.50221
G1 X90.350 Y95.734 E5.57772
G1 X90.350 Y95.179 E5.60330
G1 X91.509 Y96.338 E5.67881
G1 X91.509 Y95.782 E5.70438
G1 X90.350 Y94.623 E5.77989
G1 X90.350 Y94.068 E5.80547
G1 X91.509 Y95.227 E5.88098
G1 X91.509 Y94.672 E5.90655
G1 X90.350 Y93.513 E5.98206
G1 X90.350 Y92.958 E6.00764
G1 X91.509 Y94.117 E6.08315
G1 X91.509 Y93.562 E6.10873
G1 X90.750 Y92.803 E6.15816
G1 X91.306 Y92.803 E6.18373
G1 X91.509 Y93.007 E6.19700
M106 S255
G92 E0
G1 Z0.600 F7800.000
G1 X106.044 Y103.801 F7800.000
G1 X105.205 Y99.504 E1.31181 F600.000
G1 X105.205 Y94.011 E2.95776
G1 X105.278 Y93.461 E3.12413
G1 X106.241 Y93.181 E3.42438
G1 X110.309 Y93.182 E4.64347
G1 X111.606 Y93.283 E5.03310
G1 X111.846 Y93.322 E5.10598
G1 X112.742 Y93.575 E5.38510
G1 X113.023 Y93.691 E5.47618
G1 X113.452 Y93.932 E5.62358
G1 X113.888 Y94.254 E5.78596
G1 X114.222 Y94.615 E5.93341
G1 X114.423 Y94.875 E6.03188
G1 X114.788 Y95.689 E6.29911
G1 X114.911 Y96.695 E6.60294
G1 X114.873 Y97.093 E6.72259
G1 X114.822 Y97.351 E6.80140
G1 X114.623 Y97.944 E6.98891
G1 X114.331 Y98.533 E7.18599
G1 X113.924 Y98.969 E7.36455
G1 X113.815 Y99.050 E7.40538
G1 X113.079 Y99.466 E7.65871
G1 X112.544 Y99.699 E7.83359
G1 X112.209 Y99.792 E7.93766
G1 X111.354 Y100.308 E8.23701
G1 X110.556 Y101.178 E8.59081
G92 E0
G1 X105.363 Y100.312 F7800.000
G1 X110.206 Y100.324 E1.45135 F600.000
G1 X110.782 Y100.303 E1.62395
G1 X111.338 Y100.326 E1.79078
G1 X111.712 Y100.739 E1.95772
G1 X111.846 Y100.848 E2.00934
G1 X112.133 Y101.022 E2.11002
G1 X112.688 Y101.282 E2.29370
G1 X113.261 Y101.734 E2.51240
G1 X113.613 Y102.215 E2.69113
G1 X113.861 Y102.718 E2.85898
G1 X113.985 Y103.277 E3.03066
G1 X114.026 Y103.825 E3.19546
G1 X113.878 Y104.547 E3.41627
G1 X113.791 Y104.847 E3.50965
G1 X113.598 Y105.357 E3.67318
G1 X113.259 Y105.704 E3.81848
G1 X112.759 Y106.106 E4.01069
G1 X112.354 Y106.363 E4.15458
G1 X111.682 Y106.549 E4.36338
G1 X110.861 Y106.696 E4.61335
G1 X109.654 Y106.818 E4.97678
G1 X106.241 Y106.818 E5.99968
G1 X105.278 Y106.539 E6.29994
G1 X105.205 Y105.989 E6.46630
G1 X105.205 Y101.120 E7.92528
G1 X105.363 Y100.312 E8.17196
G92 E0
G1 X104.170 Y92.352 F7800.000
G1 X98.065 Y96.457 F7800.000
G1 X93.960 Y92.352 F7800.000
G1 X91.960 Y92.352 F7800.000
G1 X90.930 Y92.352 F7800.000
G1 X90.930 Y99.209 E2.05473 F600.000
G1 X91.056 Y99.286 E2.09907
G1 X91.695 Y99.891 E2.36271
G1 X96.698 Y107.648 E5.12860
G1 X90.899 Y98.582 F7800.000
G1 X90.899 Y98.582 F7800.000
G1 X85.176 Y107.648 F7800.000
G1 X90.194 Y99.880 E7.89969 F600.000
G1 X90.807 Y99.287 E8.15525
G1 X91.960 Y98.560 E8.56368
G92 E0
G1 Z0.900 F7800.000
G1 X106.044 Y103.801 F7800.000
G1 X105.205 Y99.504 E1.31181 F600.000
G1 X105.205 Y94.011 E2.95776
G1 X105.278 Y93.461 E3.12413
G1 X106.241 Y93.181 E3.42438
G1 X110.309 Y93.182 E4.64347
G1 X111.606 Y93.283 E5.03310
G1 X111.846 Y93.322 E5.10598
G1 X112.742 Y93.575 E5.38510
G1 X113.023 Y93.691 E5.47618
G1 X113.452 Y93.932 E5.62358
G1 X113.888 Y94.254 E5.78596
G1 X114.222 Y94.615 E5.93341
G1 X114.423 Y94.875 E6.03188
G1 X114.788 Y95.689 E6.29911
G1 X114.911 Y96.695 E6.60294
G1 X114.873 Y97.093 E6.72259
G1 X114.822 Y97.351 E6.80140
G1 X114.623 Y97.944 E6.98891
G1 X114.331 Y98.533 E7.18599
G1 X113.924 Y98.969 E7.36455
G1 X113.815 Y99.050 E7.40538
G1 X113.079 Y99.466 E7.65871
G1 X112.544 Y99.699 E7.83359
G1 X112.209 Y99.792 E7.93766
G1 X111.354 Y100.308 E8.23701
G1 X110.556 Y101.178 E8.59081
G92 E0
G1 X105.363 Y100.312 F7800.000
G1 X110.206 Y100.324 E1.45135 F600.000
G1 X110.782 Y100.303 E1.62395
G1 X111.338 Y100.326 E1.79078
G1 X111.712 Y100.739 E1.95772
G1 X111.846 Y100.848 E2.00934
G1 X112.133 Y101.022 E2.11002
G1 X112.688 Y101.282 E2.29370
G1 X113.261 Y101.734 E2.51240
G1 X113.613 Y102.215 E2.69113
G1 X113.861 Y102.718 E2.85898
G1 X113.985 Y103.277 E3.03066
G1 X114.026 Y103.825 E3.19546
G1 X113.878 Y104.547 E3.41627
G1 X113.791 Y104.847 E3.50965
G1 X113.598 Y105.357 E3.67318
G1 X113.259 Y105.704 E3.81848
G1 X112.759 Y106.106 E4.01069
G1 X112.354 Y106.363 E4.15458
G1 X111.682 Y106.549 E4.36338
G1 X110.861 Y106.696 E4.61335
G1 X109.654 Y106.818 E4.97678
G1 X106.241 Y106.818 E5.99968
G1 X105.278 Y106.539 E6.29994
G1 X105.205 Y105.989 E6.46630
G1 X105.205 Y101.120 E7.92528
G1 X105.363 Y100.312 E8.17196
G92 E0
G1 X104.170 Y92.352 F7800.000
G1 X98.065 Y96.457 F7800.000
G1 X93.960 Y92.352 F7800.000
G1 X91.960 Y92.352 F7800.000
G1 X90.930 Y92.352 F7800.000
G1 X90.930 Y99.209 E2.05473 F600.000
G1 X91.056 Y99.286 E2.09907
G1 X91.695 Y99.891 E2.36271
G1 X96.698 Y107.648 E5.12860
G1 X90.899 Y98.582 F7800.000
G1 X90.899 Y98.582 F7800.000
G1 X85.176 Y107.648 F7800.000
G1 X90.194 Y99.880 E7.89969 F600.000
G1 X90.807 Y99.287 E8.15525
G1 X91.960 Y98.560 E8.56368
G92 E0
G1 Z1.200 F7800.000
G1 X106.044 Y103.801 F7800.000
G1 X105.205 Y99.504 E1.31181 F600.000
G1 X105.205 Y94.011 E2.95776
G1 X105.278 Y93.461 E3.12413
G1 X106.241 Y93.181 E3.42438
G1 X110.309 Y93.182 E4.64347
G1 X111.606 Y93.283 E5.03310
G1 X111.846 Y93.322 E5.10598
G1 X112.742 Y93.575 E5.38510
G1 X113.023 Y93.691 E5.47618
G1 X113.452 Y93.932 E5.62358
G1 X113.888 Y94.254 E5.78596
G1 X114.222 Y94.615 E5.93341
G1 X114.423 Y94.875 E6.03188
G1 X114.788 Y95.689 E6.29911
G1 X114.911 Y96.695 E6.60294
G1 X114.873 Y97.093 E6.72259
G1 X114.822 Y97.351 E6.80140
G1 X114.623 Y97.944 E6.98891
G1 X114.331 Y98.533 E7.18599
G1 X113.924 Y98.969 E7.36455
G1 X113.815 Y99.050 E7.40538
G1 X113.079 Y99.466 E7.65871
G1 X112.544 Y99.699 E7.83359
G1 X112.209 Y99.792 E7.93766
G1 X111.354 Y100.308 E8.23701
G1 X110.556 Y101.178 E8.59081
G92 E0
G1 X105.363 Y100.312 F7800.000
G1 X110.206 Y100.324 E1.45135 F600.000
G1 X110.782 Y100.303 E1.62395
G1 X111.338 Y100.326 E1.79078
G1 X111.712 Y100.739 E1.95772
G1 X111.846 Y100.848 E2.00934
G1 X112.133 Y101.022 E2.11002
