; generated by Slic3r 1.2.9 on 2016-03-11 at 01:32:31

; external perimeters extrusion width = 1.54mm
; perimeters extrusion width = 2.62mm
; infill extrusion width = 6.27mm
; solid infill extrusion width = 2.62mm
; top infill extrusion width = 2.62mm

M107
M104 S30 ; set temperature
G28 ; home all axes
G1 Z5 F5000 ; lift nozzle
M302
M92 E10000
M500
M501
G1 E100
M109 S30 ; wait for temperature to be reached
G21 ; set units to millimeters
G90 ; use absolute coordinates
M82 ; use absolute distances for extrusion
G92 E0
G1 Z0.300 F7800.000
G1 X104.202 Y104.740 F7800.000
G1 X103.762 Y104.118 E0.03448 F378.000
G1 X103.122 Y102.270 E0.12295
G1 X102.906 Y100.061 E0.22339
G1 X103.003 Y98.546 E0.29208
G1 X103.290 Y97.176 E0.35543
G1 X103.768 Y95.954 E0.41479
G1 X104.424 Y94.896 E0.47114
G1 X105.251 Y94.017 E0.52574
G1 X106.251 Y93.314 E0.58107
G1 X107.408 Y92.799 E0.63833
G1 X108.704 Y92.489 E0.69864
G1 X110.142 Y92.386 E0.76388
G1 X111.416 Y92.486 E0.82170
G1 X111.550 Y92.497 E0.82781 F378.000
G1 X112.834 Y92.829 E0.88779
G1 X113.995 Y93.381 E0.94597
G1 X115.014 Y94.143 E1.00355
G1 X115.870 Y95.107 E1.06190
G1 X116.451 Y96.088 E1.11346
G1 X115.147 Y96.737 E1.17937
G1 X113.977 Y95.102 E1.27033
G1 X112.292 Y94.000 E1.36147
G1 X110.246 Y93.635 E1.45549
G1 X108.622 Y93.832 E1.52951
G1 X107.233 Y94.425 E1.59789
G1 X106.085 Y95.414 E1.66645
G1 X105.233 Y96.722 E1.73707
G1 X104.726 Y98.274 E1.81096
G1 X104.558 Y100.064 E1.89227
G1 X104.719 Y101.863 E1.97400
G1 X105.206 Y103.401 E2.04701
G1 X106.026 Y104.672 E2.11546
G1 X107.146 Y105.620 E2.18186
G1 X108.526 Y106.187 E2.24938
G1 X110.148 Y106.374 E2.32326
G1 X111.220 Y106.293 E2.37189
G1 X112.192 Y106.050 E2.41724
G1 X113.068 Y105.642 E2.46096
G1 X113.821 Y105.077 E2.50358
G1 X114.424 Y104.364 E2.54583
G1 X114.774 Y103.697 E2.57989
G1 X116.302 Y104.202 E2.65270
G1 X115.829 Y105.088 E2.69814
G1 X115.058 Y105.989 E2.75181
G1 X114.102 Y106.694 E2.80559
G1 X112.961 Y107.204 E2.86211
G1 X111.638 Y107.511 E2.92356
G1 X110.136 Y107.614 E2.99170
G1 X108.022 Y107.390 E3.08791
G1 X106.255 Y106.723 E3.17333
G1 X104.822 Y105.616 E3.25528
G1 X104.335 Y104.929 E3.29341
G1 X104.896 Y105.222 F7800.000
G1 X105.254 Y105.580 E3.31634 F540.000
G1 X105.156 Y103.845 F7800.000
G1 X103.333 Y102.022 E3.43303 F540.000
G1 X103.584 Y102.819 E3.47082
G1 X107.789 Y107.024 E3.74005
G1 X108.517 Y107.206 E3.77400
G1 X107.264 Y105.953 E3.85422
G1 X106.913 Y106.693 F7800.000
G1 X103.873 Y103.653 E4.04884 F540.000
G1 X104.792 Y102.936 F7800.000
G1 X103.274 Y101.418 E4.14602 F540.000
G1 X103.215 Y100.813 E4.17352
G1 X104.539 Y102.137 E4.25826
G1 X104.452 Y101.505 E4.28714
G1 X103.156 Y100.209 E4.37012
G1 X103.153 Y99.660 E4.39495
G1 X104.399 Y100.906 E4.47468
G1 X104.345 Y100.306 E4.50191
G1 X103.186 Y99.147 E4.57613
G1 X103.218 Y98.634 E4.59940
G1 X104.365 Y99.780 E4.67279
G1 X104.412 Y99.282 E4.69547
G1 X103.298 Y98.168 E4.76678
G1 X103.392 Y97.717 E4.78763
G1 X104.458 Y98.783 E4.85588
G1 X104.507 Y98.286 E4.87849
G1 X103.487 Y97.266 E4.94377
G1 X103.629 Y96.863 E4.96312
G1 X104.641 Y97.875 E5.02789
G1 X104.776 Y97.463 E5.04747
G1 X103.783 Y96.471 E5.11104
G1 X103.936 Y96.078 E5.13010
G1 X104.910 Y97.052 E5.19247
G1 X105.050 Y96.647 E5.21189
G1 X104.135 Y95.732 E5.27046
G1 X104.344 Y95.395 E5.28840
G1 X105.265 Y96.316 E5.34737
G1 X105.480 Y95.986 E5.36522
G1 X104.553 Y95.059 E5.42459
G1 X104.808 Y94.768 E5.44209
G1 X105.696 Y95.656 E5.49888
G1 X105.911 Y95.325 E5.51673
G1 X105.078 Y94.492 E5.57007
G1 X105.350 Y94.219 E5.58753
G1 X106.196 Y95.065 E5.64166
G1 X106.489 Y94.812 E5.65917
G1 X105.650 Y93.973 E5.71286
G1 X105.971 Y93.748 E5.73059
G1 X106.782 Y94.560 E5.78254
G1 X107.075 Y94.307 E5.80005
G1 X106.291 Y93.523 E5.85026
G1 X106.663 Y93.349 E5.86884
G1 X107.435 Y94.121 E5.91825
G1 X107.817 Y93.958 E5.93707
G1 X107.040 Y93.181 E5.98677
G1 X107.418 Y93.013 E6.00548
G1 X108.199 Y93.794 E6.05548
G1 X108.581 Y93.631 E6.07430
G1 X107.857 Y92.907 E6.12066
G1 X108.298 Y92.802 E6.14116
G1 X109.057 Y93.561 E6.18974
G1 X109.543 Y93.502 E6.21193
G1 X108.749 Y92.707 E6.26279
G1 X109.257 Y92.670 E6.28589
G1 X110.030 Y93.443 E6.33533
G1 X110.582 Y93.449 E6.36032
G1 X109.766 Y92.634 E6.41252
G1 X110.311 Y92.632 E6.43716
G1 X111.246 Y93.568 E6.49704
G1 X111.910 Y93.686 E6.52759
G1 X110.903 Y92.679 E6.59207
G1 X111.514 Y92.745 E6.61990
G1 X112.691 Y93.922 E6.69525
G1 X113.126 Y93.266 F7800.000
G1 X115.968 Y96.107 E6.87715 F540.000
G1 X115.603 Y96.288 E6.89557
G1 X114.120 Y94.805 E6.99055
G1 X114.267 Y94.952 F7800.000
G1 X112.250 Y92.935 E7.11968 F540.000
G1 X114.610 Y94.204 F7800.000
G1 X115.110 Y94.704 E7.15165 F540.000
G92 E0
G1 X115.155 Y104.639 F7800.000
G1 X115.155 Y104.639 F7800.000
G1 X115.257 Y104.126 F7800.000
G1 X115.819 Y104.688 E0.03597 F540.000
G1 X115.621 Y105.035 E0.05407
G1 X114.751 Y104.166 E0.10974
G1 X114.552 Y104.511 E0.12782
G1 X115.369 Y105.329 E0.18017
G1 X115.118 Y105.623 E0.19769
G1 X114.302 Y104.807 E0.24995
G1 X114.052 Y105.103 E0.26747
G1 X114.847 Y105.898 E0.31838
G1 X114.537 Y106.133 E0.33600
G1 X113.764 Y105.361 E0.38545
G1 X113.453 Y105.595 E0.40309
G1 X114.223 Y106.365 E0.45238
G1 X113.885 Y106.573 E0.47034
G1 X113.140 Y105.828 E0.51800
G1 X112.768 Y106.001 E0.53659
G1 X113.508 Y106.741 E0.58394
G1 X113.130 Y106.909 E0.60264
G1 X112.396 Y106.175 E0.64966
G1 X111.991 Y106.315 E0.66907
G1 X112.720 Y107.044 E0.71575
G1 X112.277 Y107.147 E0.73632
G1 X111.554 Y106.424 E0.78261
G1 X111.107 Y106.522 E0.80336
G1 X111.835 Y107.250 E0.84996
G1 X111.349 Y107.310 E0.87213
G1 X110.599 Y106.561 E0.92010
G1 X110.092 Y106.599 E0.94313
G1 X110.838 Y107.345 E0.99090
G1 X110.328 Y107.380 E1.01406
G1 X109.482 Y106.535 E1.06818
G1 X108.866 Y106.464 E1.09627
G1 X109.737 Y107.335 E1.15208
G1 X109.127 Y107.271 E1.17987
G1 X108.190 Y106.334 E1.23987
G92 E0
G1 X102.900 Y102.319 F7800.000
G1 X97.758 Y99.753 F7800.000
G1 X97.149 Y97.333 F7800.000
G1 X97.072 Y96.924 F7800.000
G1 X91.159 Y98.692 F7800.000
G1 X87.392 Y101.708 F7800.000
G1 X89.323 Y98.759 E0.15950 F378.000
G1 X89.323 Y92.577 E0.43924
G1 X90.934 Y92.577 E0.51213
G1 X90.934 Y98.759 E0.79188
G1 X96.625 Y107.423 E1.26092 F378.000
G1 X94.888 Y107.423 E1.33952
G1 X90.151 Y99.942 E1.74018
G1 X85.386 Y107.423 E2.14152
G1 X83.649 Y107.423 E2.22012
G1 X87.265 Y101.901 E2.51881
G1 X90.586 Y100.102 F7800.000
G1 X93.180 Y102.695 E2.68777 F540.000
G1 X92.503 Y103.129 F7800.000
G1 X95.305 Y105.931 E2.87030 F540.000
G1 X94.421 Y106.157 F7800.000
G1 X95.461 Y107.197 E2.93804 F540.000
G1 X96.016 Y107.197 E2.96362
G1 X93.462 Y104.643 E3.12998
G1 X94.242 Y104.313 F7800.000
G1 X91.545 Y101.616 E3.30572 F540.000
G1 X92.117 Y101.077 F7800.000
G1 X89.549 Y98.510 E3.47299 F540.000
G1 X89.432 Y98.948 E3.49388
G1 X90.117 Y99.633 E3.53850
G1 X89.901 Y99.972 E3.55702
G1 X89.212 Y99.283 E3.60188
G1 X88.993 Y99.619 E3.62035
G1 X89.685 Y100.311 E3.66545
G1 X89.469 Y100.650 E3.68397
G1 X88.773 Y99.954 E3.72931
G1 X88.553 Y100.290 E3.74778
G1 X89.253 Y100.989 E3.79336
G1 X89.037 Y101.328 E3.81189
G1 X88.333 Y100.625 E3.85771
G1 X88.114 Y100.961 E3.87618
G1 X88.821 Y101.668 E3.92224
G1 X88.605 Y102.007 E3.94076
G1 X87.894 Y101.296 E3.98706
G1 X87.674 Y101.632 E4.00553
G1 X88.389 Y102.346 E4.05207
G1 X88.173 Y102.685 E4.07060
G1 X87.455 Y101.967 E4.11738
G1 X87.235 Y102.302 E4.13585
G1 X87.957 Y103.024 E4.18287
G1 X87.741 Y103.363 E4.20140
G1 X87.015 Y102.638 E4.24866
G1 X86.795 Y102.973 E4.26713
G1 X87.525 Y103.703 E4.31463
G1 X87.309 Y104.042 E4.33316
G1 X86.576 Y103.309 E4.38090
G1 X86.356 Y103.644 E4.39937
G1 X87.093 Y104.381 E4.44736
G1 X86.876 Y104.720 E4.46588
G1 X86.136 Y103.980 E4.51410
G1 X85.917 Y104.315 E4.53258
G1 X86.660 Y105.059 E4.58104
G1 X86.444 Y105.398 E4.59956
G1 X85.697 Y104.651 E4.64827
G1 X85.477 Y104.986 E4.66674
G1 X86.228 Y105.738 E4.71568
G1 X86.012 Y106.077 E4.73421
G1 X85.257 Y105.322 E4.78339
G1 X85.038 Y105.657 E4.80186
G1 X85.796 Y106.416 E4.85129
G1 X85.580 Y106.755 E4.86981
G1 X84.818 Y105.993 E4.91948
G1 X84.598 Y106.328 E4.93795
G1 X85.364 Y107.094 E4.98786
G1 X84.912 Y107.197 E5.00922
G1 X84.378 Y106.664 E5.04398
G1 X84.159 Y106.999 E5.06245
G1 X84.357 Y107.197 E5.07535
G1 X90.098 Y98.582 F7800.000
G1 X90.098 Y98.582 F7800.000
G1 X91.054 Y99.459 F7800.000
G1 X89.549 Y97.955 E5.17338 F540.000
G1 X89.549 Y97.399 E5.19895
G1 X90.708 Y98.558 E5.27446
G1 X90.708 Y98.003 E5.30004
G1 X89.549 Y96.844 E5.37555
G1 X89.549 Y96.289 E5.40112
G1 X90.708 Y97.448 E5.47663
G1 X90.708 Y96.893 E5.50221
G1 X89.549 Y95.734 E5.57772
G1 X89.549 Y95.179 E5.60329
G1 X90.708 Y96.338 E5.67881
G1 X90.708 Y95.782 E5.70438
G1 X89.549 Y94.623 E5.77989
G1 X89.549 Y94.068 E5.80547
G1 X90.708 Y95.227 E5.88098
G1 X90.708 Y94.672 E5.90655
G1 X89.549 Y93.513 E5.98206
G1 X89.549 Y92.958 E6.00764
G1 X90.708 Y94.117 E6.08315
G1 X90.708 Y93.562 E6.10872
G1 X89.949 Y92.803 E6.15816
G1 X90.505 Y92.803 E6.18373
G1 X90.708 Y93.007 E6.19700
M106 S255
G92 E0
G1 Z0.600 F7800.000
G1 X115.753 Y103.783 F7800.000
G1 X114.996 Y104.879 E0.39909 F600.000
G1 X114.532 Y105.424 E0.61329
G1 X114.408 Y105.540 E0.66423
G1 X113.731 Y106.059 E0.91981
G1 X113.339 Y106.278 E1.05466
G1 X112.742 Y106.551 E1.25121
G1 X112.329 Y106.685 E1.38131
G1 X111.543 Y106.874 E1.62348
G1 X111.248 Y106.915 E1.71288
G1 X110.148 Y106.992 E2.04329
G1 X108.486 Y106.811 E2.54418
G1 X108.174 Y106.749 E2.63946
G1 X106.923 Y106.256 E3.04241
G1 X106.606 Y106.095 E3.14887
G1 X105.573 Y105.260 E3.54707
G1 X105.380 Y105.081 E3.62575
G1 X104.553 Y103.857 E4.06831
G1 X104.484 Y103.747 E4.10739
G1 X104.434 Y103.614 E4.14996
G1 X103.931 Y102.094 E4.62983
G1 X103.734 Y100.047 E5.24586
G1 X103.841 Y98.660 E5.66271
G1 X103.955 Y97.996 E5.86470
G1 X104.109 Y97.420 E6.04323
G1 X104.510 Y96.325 E6.39259
G1 X105.091 Y95.408 E6.71790
G1 X105.404 Y95.010 E6.86980
G1 X105.778 Y94.624 E7.03067
G1 X106.621 Y93.966 E7.35122
G1 X106.987 Y93.761 E7.47683
G1 X107.637 Y93.477 E7.68949
G1 X108.337 Y93.246 E7.91035
G1 X108.805 Y93.144 E8.05387
G1 X110.140 Y93.015 E8.45568
G1 X110.389 Y93.029 E8.53032
G1 X111.439 Y93.164 E8.84758
G1 X112.359 Y93.364 E9.12967
G1 X112.612 Y93.440 E9.20885
G1 X113.619 Y94.003 E9.55476
G1 X114.323 Y94.496 E9.81219
G1 X114.532 Y94.666 E9.89305
G1 X115.248 Y95.561 E10.23634
G1 X115.926 Y96.600 E10.60818
G92 E0
G1 X110.143 Y92.160 F7800.000
G1 X110.143 Y92.160 F7800.000
G1 X110.071 Y91.161 F7800.000
G1 X108.594 Y91.215 F7800.000
G1 X108.421 Y91.228 F7800.000
G1 X107.049 Y91.389 F7800.000
G1 X106.820 Y91.427 F7800.000
G1 X105.512 Y91.705 F7800.000
G1 X105.204 Y91.787 F7800.000
G1 X103.936 Y92.188 F7800.000
G1 X103.510 Y92.347 F7800.000
G1 X102.258 Y92.889 F7800.000
G1 X101.687 Y93.171 F7800.000
G1 X100.399 Y93.888 F7800.000
G1 X99.678 Y94.334 F7800.000
G1 X98.326 Y95.257 F7800.000
G1 X97.431 Y95.926 F7800.000
G1 X97.152 Y96.153 F7800.000
G1 X93.351 Y92.352 F7800.000
G1 X91.159 Y92.352 F7800.000
G1 X90.129 Y92.352 F7800.000
G1 X90.129 Y99.209 E2.05473 F600.000
G1 X90.255 Y99.286 E2.09907
G1 X90.894 Y99.891 E2.36271
G1 X95.897 Y107.648 E5.12860
G1 X90.098 Y98.582 F7800.000
G1 X90.098 Y98.582 F7800.000
G1 X84.375 Y107.648 F7800.000
G1 X89.393 Y99.880 E7.89969 F600.000
G1 X90.006 Y99.287 E8.15525
G1 X91.159 Y98.560 E8.56368
G92 E0
G1 Z0.900 F7800.000
G1 X115.753 Y103.783 F7800.000
G1 X114.996 Y104.879 E0.39909 F600.000
G1 X114.532 Y105.424 E0.61329
G1 X114.408 Y105.540 E0.66423
G1 X113.731 Y106.059 E0.91981
G1 X113.339 Y106.278 E1.05466
G1 X112.742 Y106.551 E1.25121
G1 X112.329 Y106.685 E1.38131
G1 X111.543 Y106.874 E1.62348
G1 X111.248 Y106.915 E1.71288
G1 X110.148 Y106.992 E2.04329
G1 X108.486 Y106.811 E2.54418
G1 X108.174 Y106.749 E2.63946
G1 X106.923 Y106.256 E3.04241
G1 X106.606 Y106.095 E3.14887
G1 X105.573 Y105.260 E3.54707
G1 X105.380 Y105.081 E3.62575
G1 X104.553 Y103.857 E4.06831
G1 X104.484 Y103.747 E4.10739
G1 X104.434 Y103.614 E4.14997
G1 X103.931 Y102.094 E4.62983
G1 X103.734 Y100.047 E5.24586
G1 X103.841 Y98.660 E5.66271
G1 X103.955 Y97.996 E5.86470
G1 X104.109 Y97.420 E6.04323
G1 X104.510 Y96.325 E6.39259
G1 X105.091 Y95.408 E6.71790
G1 X105.404 Y95.010 E6.86980
G1 X105.778 Y94.624 E7.03067
G1 X106.621 Y93.966 E7.35122
G1 X106.987 Y93.761 E7.47683
G1 X107.637 Y93.477 E7.68949
G1 X108.337 Y93.246 E7.91035
G1 X108.805 Y93.144 E8.05387
G1 X110.140 Y93.015 E8.45568
G1 X110.389 Y93.029 E8.53032
G1 X111.439 Y93.164 E8.84758
G1 X112.359 Y93.364 E9.12967
G1 X112.612 Y93.440 E9.20885
G1 X113.619 Y94.003 E9.55476
G1 X114.323 Y94.496 E9.81219
G1 X114.532 Y94.666 E9.89305
G1 X115.248 Y95.561 E10.23634
G1 X115.926 Y96.600 E10.60818
G92 E0
G1 X110.143 Y92.160 F7800.000
G1 X110.143 Y92.160 F7800.000
G1 X110.071 Y91.161 F7800.000
G1 X108.594 Y91.215 F7800.000
G1 X108.421 Y91.228 F7800.000
G1 X107.049 Y91.389 F7800.000
G1 X106.820 Y91.427 F7800.000
G1 X105.512 Y91.705 F7800.000
G1 X105.204 Y91.787 F7800.000
G1 X103.936 Y92.188 F7800.000
G1 X103.510 Y92.347 F7800.000
G1 X102.258 Y92.889 F7800.000
G1 X101.687 Y93.171 F7800.000
G1 X100.399 Y93.888 F7800.000
G1 X99.678 Y94.334 F7800.000
G1 X98.326 Y95.257 F7800.000
G1 X97.431 Y95.926 F7800.000
G1 X97.152 Y96.153 F7800.000
G1 X93.351 Y92.352 F7800.000
G1 X91.159 Y92.352 F7800.000
G1 X90.129 Y92.352 F7800.000
G1 X90.129 Y99.209 E2.05473 F600.000
G1 X90.255 Y99.286 E2.09907
G1 X90.894 Y99.891 E2.36271
G1 X95.897 Y107.648 E5.12860
G1 X90.098 Y98.582 F7800.000
G1 X90.098 Y98.582 F7800.000
G1 X84.375 Y107.648 F7800.000
G1 X89.393 Y99.880 E7.89969 F600.000
G1 X90.006 Y99.287 E8.15525
G1 X91.159 Y98.560 E8.56368
G92 E0
G1 Z1.200 F7800.000
G1 X115.753 Y103.783 F7800.000
G1 X114.996 Y104.879 E0.39909 F600.000
G1 X114.532 Y105.424 E0.61329
G1 X114.408 Y105.540 E0.66423
G1 X113.731 Y106.059 E0.91981
G1 X113.339 Y106.278 E1.05466
G1 X112.742 Y106.551 E1.25121
G1 X112.329 Y106.685 E1.38131
G1 X111.543 Y106.874 E1.62348
G1 X111.248 Y106.915 E1.71288
G1 X110.148 Y106.992 E2.04329
G1 X108.486 Y106.811 E2.54418
G1 X108.174 Y106.749 E2.63946
G1 X106.923 Y106.256 E3.04241
G1 X106.606 Y106.095 E3.14887
G1 X105.573 Y105.260 E3.54707
G1 X105.380 Y105.081 E3.62575
G1 X104.553 Y103.857 E4.06831
G1 X104.484 Y103.747 E4.10739
G1 X104.434 Y103.614 E4.14997
G1 X103.931 Y102.094 E4.62983
G1 X103.734 Y100.047 E5.24587
G1 X103.841 Y98.660 E5.66271
G1 X103.955 Y97.996 E5.86470
G1 X104.109 Y97.420 E6.04323
G1 X104.510 Y96.325 E6.39259
G1 X105.091 Y95.408 E6.71791
G1 X105.404 Y95.010 E6.86980
G1 X105.778 Y94.624 E7.03067
G1 X106.621 Y93.966 E7.35122
G1 X106.987 Y93.761 E7.47684
G1 X107.637 Y93.477 E7.68949
G1 X108.337 Y93.246 E7.91035
G1 X108.805 Y93.144 E8.05388
G1 X110.140 Y93.015 E8.45568
G1 X110.389 Y93.029 E8.53033
G1 X111.439 Y93.164 E8.84759
G1 X112.359 Y93.364 E9.12967
G1 X112.612 Y93.440 E9.20885
G1 X113.619 Y94.003 E9.55476
G1 X114.323 Y94.496 E9.81219
G1 X114.532 Y94.666 E9.89305
G1 X115.248 Y95.561 E10.23634
G1 X115.926 Y96.600 E10.60818
G92 E0
G1 X110.143 Y92.160 F7800.000
G1 X110.143 Y92.160 F7800.000
G1 X110.071 Y91.161 F7800.000
G1 X108.594 Y91.215 F7800.000
G1 X108.421 Y91.228 F7800.000
G1 X107.049 Y91.389 F7800.000
G1 X106.820 Y91.427 F7800.000
G1 X105.512 Y91.705 F7800.000
G1 X105.204 Y91.787 F7800.000
G1 X103.936 Y92.188 F7800.000
G1 X103.510 Y92.347 F7800.000
G1 X102.258 Y92.889 F7800.000
G1 X101.687 Y93.171 F7800.000
G1 X100.399 Y93.888 F7800.000
G1 X99.678 Y94.334 F7800.000
G1 X98.326 Y95.257 F7800.000
G1 X97.431 Y95.926 F7800.000
G1 X97.152 Y96.153 F7800.000
G1 X93.351 Y92.352 F7800.000
G1 X91.159 Y92.352 F7800.000
G1 X90.129 Y92.352 F7800.000
G1 X90.129 Y99.209 E2.05473 F600.000
G1 X90.255 Y99.286 E2.09907
G1 X90.894 Y99.891 E2.36271
G1 X95.897 Y107.648 E5.12860
G1 X90.098 Y98.582 F7800.000
G1 X90.098 Y98.582 F7800.000
G1 X84.375 Y107.648 F7800.000
G1 X89.393 Y99.880 E7.89969 F600.000
G1 X90.006 Y99.287 E8.15525
G1 X91.159 Y98.560 E8.56368
G92 E0
G1 Z1.500 F7800.000
G1 X115.753 Y103.783 F7800.000
G1 X114.996 Y104.879 E0.39909 F600.000
G1 X114.532 Y105.424 E0.61329
G1 X114.408 Y105.540 E0.66423
G1 X113.731 Y106.059 E0.91981
G1 X113.339 Y106.278 E1.05466
G1 X112.742 Y106.551 E1.25121
G1 X112.329 Y106.685 E1.38131
G1 X111.543 Y106.874 E1.62348
G1 X111.248 Y106.915 E1.71288
