; generated by Slic3r 1.2.9 on 2016-03-11 at 01:32:35

; external perimeters extrusion width = 1.54mm
; perimeters extrusion width = 2.62mm
; infill extrusion width = 6.27mm
; solid infill extrusion width = 2.62mm
; top infill extrusion width = 2.62mm

M107
M104 S30 ; set temperature
G28 ; home all axes
G1 Z5 F5000 ; lift nozzle
M302
M92 E10000
M500
M501
G1 E100
M109 S30 ; wait for temperature to be reached
G21 ; set units to millimeters
G90 ; use absolute coordinates
M82 ; use absolute distances for extrusion
G92 E0
G1 Z0.300 F7800.000
G1 X110.547 Y106.341 F7800.000
G1 X111.119 Y106.306 E0.02595 F378.000
G1 X112.103 Y106.102 E0.07142
G1 X112.968 Y105.758 E0.11353
G1 X113.717 Y105.261 E0.15422
G1 X114.349 Y104.600 E0.19558
G1 X114.759 Y103.944 E0.23059
G1 X116.296 Y104.397 E0.30309
G1 X115.798 Y105.266 E0.34841
G1 X115.017 Y106.137 E0.40135
G1 X114.084 Y106.789 E0.45286
G1 X112.965 Y107.245 E0.50754
G1 X111.627 Y107.522 E0.56936
G1 X110.075 Y107.614 E0.63971
G1 X107.892 Y107.393 E0.73899
G1 X106.081 Y106.736 E0.82619
G1 X104.625 Y105.648 E0.90844
G1 X103.555 Y104.161 E0.99132
G1 X102.909 Y102.303 E1.08032
G1 X102.692 Y100.062 E1.18221
G1 X102.791 Y98.552 E1.25067
G1 X103.089 Y97.183 E1.31406
G1 X103.583 Y95.956 E1.37390
G1 X104.262 Y94.893 E1.43098
G1 X105.114 Y94.012 E1.48646
G1 X106.143 Y93.309 E1.54283
G1 X107.335 Y92.797 E1.60154
G1 X108.676 Y92.489 E1.66380
G1 X110.170 Y92.385 E1.73154
G1 X111.383 Y92.454 E1.78654
G1 X112.731 Y92.681 E1.84838 F378.000
G1 X113.910 Y93.048 E1.90428
G1 X114.997 Y93.550 E1.95845
G1 X115.963 Y94.172 E2.01041
G1 X116.744 Y94.857 E2.05744
G1 X116.744 Y99.807 E2.28142
G1 X110.718 Y99.807 E2.55409
G1 X110.718 Y98.522 E2.61224
G1 X115.286 Y98.522 E2.81894
G1 X115.286 Y95.430 E2.95886
G1 X114.600 Y94.866 E2.99904
G1 X113.872 Y94.436 E3.03729
G1 X113.036 Y94.084 E3.07834
G1 X112.124 Y93.824 E3.12126
G1 X111.168 Y93.668 E3.16510
G1 X110.161 Y93.615 E3.21071
G1 X108.489 Y93.806 E3.28689
G1 X107.057 Y94.387 E3.35680
G1 X105.887 Y95.358 E3.42559
G1 X105.026 Y96.660 E3.49620
G1 X104.514 Y98.231 E3.57099
G1 X104.344 Y100.064 E3.65430
G1 X104.504 Y101.895 E3.73743
G1 X104.986 Y103.443 E3.81083
G1 X105.799 Y104.705 E3.87875
G1 X106.925 Y105.636 E3.94487
G1 X108.336 Y106.191 E4.01346
G1 X110.011 Y106.374 E4.08970
G1 X110.316 Y106.355 E4.10355
G1 X107.531 Y106.987 F7800.000
G1 X103.360 Y102.816 E4.37233 F540.000
G1 X103.653 Y103.657 F7800.000
G1 X106.670 Y106.675 E4.56675 F540.000
G1 X107.066 Y105.972 F7800.000
G1 X108.291 Y107.198 E4.64570 F540.000
G1 X108.902 Y107.260 E4.67369
G1 X107.972 Y106.329 E4.73365
G1 X108.654 Y106.463 E4.76534
G1 X109.513 Y107.322 E4.82069
G1 X110.124 Y107.383 E4.84867
G1 X109.271 Y106.530 E4.90368
G1 X109.887 Y106.597 E4.93192
G1 X110.648 Y107.358 E4.98099
G1 X111.167 Y107.328 E5.00464
G1 X110.410 Y106.571 E5.05340
G1 X110.927 Y106.539 E5.07702
G1 X111.683 Y107.295 E5.12569
G1 X112.138 Y107.201 E5.14686
G1 X111.401 Y106.463 E5.19437
G1 X111.855 Y106.369 E5.21553
G1 X112.593 Y107.106 E5.26305
G1 X113.035 Y106.999 E5.28377
G1 X112.283 Y106.248 E5.33222
G1 X112.676 Y106.091 E5.35148
G1 X113.425 Y106.840 E5.39975
G1 X113.815 Y106.681 E5.41894
G1 X113.063 Y105.929 E5.46743
G1 X113.393 Y105.710 E5.48548
G1 X114.173 Y106.490 E5.53578
G1 X114.497 Y106.265 E5.55375
G1 X113.722 Y105.490 E5.60363
G1 X114.012 Y105.230 E5.62135
G1 X114.817 Y106.036 E5.67323
G1 X115.091 Y105.761 E5.69092
G1 X114.280 Y104.950 E5.74319
G1 X114.541 Y104.661 E5.76091
G1 X115.353 Y105.474 E5.81327
G1 X115.613 Y105.184 E5.83099
G1 X114.752 Y104.323 E5.88645
G1 X115.363 Y104.385 E5.91442
G1 X115.817 Y104.839 E5.94366
G92 E0
G1 X115.104 Y104.854 F7800.000
G1 X115.104 Y104.854 F7800.000
G1 X110.944 Y98.868 F7800.000
G1 X111.657 Y99.581 E0.04592 F540.000
G1 X112.206 Y99.581 E0.07094
G1 X111.373 Y98.748 E0.12462
G1 X111.922 Y98.748 E0.14964
G1 X112.755 Y99.581 E0.20332
G1 X113.304 Y99.581 E0.22834
G1 X112.471 Y98.748 E0.28202
G1 X113.020 Y98.748 E0.30704
G1 X113.853 Y99.581 E0.36072
G1 X114.403 Y99.581 E0.38574
G1 X113.569 Y98.748 E0.43942
G1 X114.119 Y98.748 E0.46444
G1 X114.952 Y99.581 E0.51812
G1 X115.501 Y99.581 E0.54314
G1 X114.668 Y98.748 E0.59682
G1 X115.217 Y98.748 E0.62184
G1 X116.050 Y99.581 E0.67552
G1 X116.518 Y99.500 E0.69717
G1 X115.512 Y98.494 E0.76200
G1 X115.512 Y97.945 E0.78702
G1 X116.518 Y98.951 E0.85185
G1 X116.518 Y98.402 E0.87687
G1 X115.512 Y97.396 E0.94169
G1 X115.512 Y96.847 E0.96671
G1 X116.518 Y97.853 E1.03154
G1 X116.518 Y97.304 E1.05656
G1 X115.512 Y96.298 E1.12139
G1 X115.512 Y95.749 E1.14641
G1 X116.518 Y96.755 E1.21123
G1 X116.518 Y96.206 E1.23625
G1 X113.499 Y93.186 E1.43081
G1 X113.038 Y93.823 F7800.000
G1 X112.019 Y92.805 E1.49642 F540.000
G1 X112.701 Y92.937 E1.52806
G1 X113.943 Y94.180 E1.60810
G1 X114.458 Y93.597 F7800.000
G1 X116.518 Y95.656 E1.74083 F540.000
G1 X116.518 Y95.107 F7800.000
G1 X116.120 Y94.709 E1.76652 F540.000
G1 X112.269 Y93.604 F7800.000
G1 X111.359 Y92.694 E1.82518 F540.000
G1 X111.613 Y93.497 F7800.000
G1 X110.766 Y92.650 E1.87975 F540.000
G1 X110.184 Y92.617 E1.90631
G1 X110.995 Y93.428 E1.95854
G1 X110.416 Y93.398 E1.98497
G1 X109.660 Y92.642 E2.03369
G1 X109.146 Y92.677 E2.05714
G1 X109.896 Y93.427 E2.10545
G1 X109.403 Y93.483 E2.12805
G1 X108.634 Y92.714 E2.17763
G1 X108.187 Y92.817 E2.19850
G1 X108.910 Y93.540 E2.24508
G1 X108.433 Y93.612 E2.26707
G1 X107.741 Y92.919 E2.31168
G1 X107.302 Y93.030 E2.33229
G1 X108.043 Y93.770 E2.38001
G1 X107.652 Y93.929 E2.39922
G1 X106.918 Y93.195 E2.44653
G1 X106.534 Y93.359 E2.46558
G1 X107.261 Y94.087 E2.51247
G1 X106.896 Y94.271 E2.53111
G1 X106.159 Y93.534 E2.57862
G1 X105.832 Y93.756 E2.59662
G1 X106.596 Y94.520 E2.64582
G1 X106.296 Y94.769 E2.66359
G1 X105.506 Y93.979 E2.71447
G1 X105.202 Y94.224 E2.73226
G1 X105.996 Y95.018 E2.78338
G1 X105.707 Y95.278 E2.80110
G1 X104.928 Y94.499 E2.85130
G1 X104.653 Y94.774 E2.86900
G1 X105.488 Y95.609 E2.92281
G1 X105.270 Y95.939 E2.94086
G1 X104.388 Y95.058 E2.99767
G1 X104.174 Y95.393 E3.01579
G1 X105.051 Y96.270 E3.07230
G1 X104.832 Y96.600 E3.09035
G1 X103.960 Y95.728 E3.14656
G1 X103.754 Y96.071 E3.16479
G1 X104.696 Y97.013 E3.22547
G1 X104.561 Y97.427 E3.24532
G1 X103.596 Y96.463 E3.30745
G1 X103.439 Y96.854 E3.32668
G1 X104.426 Y97.841 E3.39027
G1 X104.292 Y98.256 E3.41015
G1 X103.289 Y97.254 E3.47474
G1 X103.191 Y97.705 E3.49577
G1 X104.245 Y98.759 E3.56369
G1 X104.199 Y99.261 E3.58669
G1 X103.093 Y98.156 E3.65795
G1 X103.008 Y98.620 E3.67945
G1 X104.152 Y99.764 E3.75318
G1 X104.130 Y100.291 E3.77719
G1 X102.974 Y99.135 E3.85166
G1 X102.940 Y99.650 E3.87518
G1 X104.182 Y100.892 E3.95520
G1 X104.235 Y101.494 E3.98271
G1 X102.941 Y100.200 E4.06607
G1 X103.000 Y100.808 E4.09391
G1 X104.306 Y102.114 E4.17808
G1 X104.555 Y102.912 E4.21615
G1 X103.059 Y101.416 E4.31254
G1 X103.118 Y102.024 E4.34038
G1 X104.853 Y103.759 E4.45219
G1 X104.692 Y105.246 F7800.000
G1 X105.042 Y105.596 E4.47476 F540.000
G92 E0
G1 X102.466 Y100.065 F7800.000
G1 X97.130 Y98.162 F7800.000
G1 X96.867 Y96.925 F7800.000
G1 X90.958 Y98.692 F7800.000
G1 X90.733 Y96.662 F7800.000
G1 X90.733 Y98.759 E0.09491 F378.000
G1 X96.424 Y107.423 E0.56395 F378.000
G1 X94.687 Y107.423 E0.64256
G1 X89.949 Y99.942 E1.04322
G1 X85.184 Y107.423 E1.44455
G1 X83.447 Y107.423 E1.52316
G1 X89.122 Y98.759 E1.99180
G1 X89.122 Y92.577 E2.27153
G1 X90.733 Y92.577 E2.34443
G1 X90.733 Y96.431 E2.51881
G1 X90.852 Y99.459 F7800.000
G1 X89.348 Y97.955 E2.61683 F540.000
G1 X89.348 Y97.399 E2.64241
G1 X90.507 Y98.558 E2.71792
G1 X90.507 Y98.003 E2.74349
G1 X89.348 Y96.844 E2.81900
G1 X89.348 Y96.289 E2.84458
G1 X90.507 Y97.448 E2.92009
G1 X90.507 Y96.893 E2.94566
G1 X89.348 Y95.734 E3.02118
G1 X89.348 Y95.179 E3.04675
G1 X90.507 Y96.338 E3.12226
G1 X90.507 Y95.782 E3.14784
G1 X89.348 Y94.623 E3.22335
G1 X89.348 Y94.068 E3.24892
G1 X90.507 Y95.227 E3.32443
G1 X90.507 Y94.672 E3.35001
G1 X89.348 Y93.513 E3.42552
G1 X89.348 Y92.958 E3.45109
G1 X90.507 Y94.117 E3.52661
G1 X90.507 Y93.562 E3.55218
G1 X89.748 Y92.803 E3.60161
G1 X90.303 Y92.803 E3.62719
G1 X90.507 Y93.007 E3.64045
G1 X90.384 Y100.102 F7800.000
G1 X92.978 Y102.695 E3.80941 F540.000
G1 X92.302 Y103.129 F7800.000
G1 X95.104 Y105.931 E3.99194 F540.000
G1 X94.219 Y106.157 F7800.000
G1 X95.259 Y107.197 E4.05968 F540.000
G1 X95.814 Y107.197 E4.08526
G1 X93.261 Y104.643 E4.25162
G1 X94.041 Y104.313 F7800.000
G1 X91.343 Y101.616 E4.42737 F540.000
G1 X91.915 Y101.077 F7800.000
G1 X89.348 Y98.510 E4.59463 F540.000
G1 X89.231 Y98.948 E4.61552
G1 X89.915 Y99.633 E4.66014
G1 X89.699 Y99.972 E4.67866
G1 X89.011 Y99.283 E4.72352
G1 X88.791 Y99.619 E4.74199
G1 X89.483 Y100.311 E4.78709
G1 X89.267 Y100.650 E4.80561
G1 X88.571 Y99.954 E4.85095
G1 X88.352 Y100.290 E4.86943
G1 X89.051 Y100.989 E4.91500
G1 X88.835 Y101.328 E4.93353
G1 X88.132 Y100.625 E4.97935
G1 X87.912 Y100.961 E4.99782
G1 X88.619 Y101.668 E5.04388
G1 X88.403 Y102.007 E5.06240
G1 X87.693 Y101.296 E5.10870
G1 X87.473 Y101.632 E5.12718
G1 X88.187 Y102.346 E5.17372
G1 X87.971 Y102.685 E5.19224
G1 X87.253 Y101.967 E5.23902
G1 X87.033 Y102.302 E5.25749
G1 X87.755 Y103.024 E5.30452
G1 X87.539 Y103.363 E5.32304
G1 X86.814 Y102.638 E5.37030
G1 X86.594 Y102.973 E5.38877
G1 X87.323 Y103.703 E5.43628
G1 X87.107 Y104.042 E5.45480
G1 X86.374 Y103.309 E5.50254
G1 X86.154 Y103.644 E5.52102
G1 X86.891 Y104.381 E5.56900
G1 X86.675 Y104.720 E5.58752
G1 X85.935 Y103.980 E5.63574
G1 X85.715 Y104.315 E5.65422
G1 X86.459 Y105.059 E5.70268
G1 X86.243 Y105.398 E5.72120
G1 X85.495 Y104.651 E5.76991
G1 X85.276 Y104.986 E5.78838
G1 X86.027 Y105.738 E5.83733
G1 X85.811 Y106.077 E5.85585
G1 X85.056 Y105.322 E5.90503
G1 X84.836 Y105.657 E5.92351
G1 X85.595 Y106.416 E5.97293
G1 X85.379 Y106.755 E5.99146
G1 X84.616 Y105.993 E6.04112
G1 X84.397 Y106.328 E6.05959
G1 X85.163 Y107.094 E6.10950
G1 X84.710 Y107.197 E6.13087
G1 X84.177 Y106.664 E6.16562
G1 X83.957 Y106.999 E6.18410
G1 X84.155 Y107.197 E6.19700
M106 S255
G92 E0
G1 Z0.600 F7800.000
G1 X115.755 Y104.003 F7800.000
G1 X115.013 Y104.989 E0.36957 F600.000
G1 X114.502 Y105.556 E0.59839
G1 X114.101 Y105.884 E0.75356
G1 X113.730 Y106.138 E0.88842
G1 X113.200 Y106.406 E1.06625
G1 X112.763 Y106.582 E1.20747
G1 X112.215 Y106.740 E1.37827
G1 X111.542 Y106.879 E1.58435
G1 X111.262 Y106.916 E1.66890
G1 X110.068 Y106.991 E2.02749
G1 X108.299 Y106.811 E2.56033
G1 X108.036 Y106.763 E2.64033
G1 X106.717 Y106.264 E3.06305
G1 X106.415 Y106.117 E3.16361
G1 X105.362 Y105.289 E3.56494
G1 X105.168 Y105.114 E3.64319
G1 X104.270 Y103.789 E4.12279
G1 X103.728 Y102.162 E4.63678
G1 X103.691 Y101.941 E4.70387
G1 X103.520 Y100.049 E5.27318
G1 X103.628 Y98.670 E5.68762
G1 X103.703 Y98.181 E5.83570
G1 X103.893 Y97.430 E6.06785
G1 X104.254 Y96.440 E6.38377
G1 X104.378 Y96.194 E6.46616
G1 X104.897 Y95.395 E6.75190
G1 X105.239 Y94.969 E6.91533
G1 X105.609 Y94.598 E7.07241
G1 X106.587 Y93.875 E7.43686
G1 X106.835 Y93.748 E7.52046
G1 X107.549 Y93.450 E7.75213
G1 X108.224 Y93.237 E7.96441
G1 X108.771 Y93.127 E8.13160
G1 X110.174 Y93.001 E8.55356
G1 X111.187 Y93.056 E8.85770
G1 X112.210 Y93.214 E9.16790
G1 X112.580 Y93.296 E9.28139
G1 X113.292 Y93.512 E9.50421
G1 X113.678 Y93.653 E9.62731
G1 X114.106 Y93.842 E9.76761
G1 X114.675 Y94.136 E9.95966
G1 X115.035 Y94.364 E10.08735
G1 X115.647 Y94.823 E10.31655
G1 X115.986 Y95.201 E10.46853
G1 X116.015 Y95.536 E10.56936
G1 X116.015 Y98.297 E11.39669
G1 X115.899 Y98.962 E11.59898
G1 X115.061 Y99.164 E11.85733
G1 X110.493 Y99.164 E13.22611
G92 E0
G1 X107.720 Y101.261 F7800.000
G1 X112.639 Y102.415 F7800.000
G1 X117.969 Y100.032 F7800.000
G1 X117.107 Y92.425 F7800.000
G1 X108.404 Y91.226 F7800.000
G1 X101.567 Y93.146 F7800.000
G1 X97.267 Y95.897 F7800.000
G1 X93.150 Y92.352 F7800.000
G1 X90.958 Y92.352 F7800.000
G1 X89.927 Y92.352 F7800.000
G1 X89.927 Y99.209 E2.05473 F600.000
G1 X90.054 Y99.286 E2.09907
G1 X90.692 Y99.891 E2.36271
G1 X95.696 Y107.648 E5.12860
G1 X89.897 Y98.582 F7800.000
G1 X89.897 Y98.582 F7800.000
G1 X84.174 Y107.648 F7800.000
G1 X89.192 Y99.880 E7.89969 F600.000
G1 X89.804 Y99.287 E8.15525
G1 X90.958 Y98.560 E8.56368
G92 E0
G1 Z0.900 F7800.000
G1 X115.755 Y104.003 F7800.000
G1 X115.013 Y104.989 E0.36957 F600.000
G1 X114.502 Y105.556 E0.59839
G1 X114.101 Y105.884 E0.75356
G1 X113.730 Y106.138 E0.88842
G1 X113.200 Y106.406 E1.06625
G1 X112.763 Y106.582 E1.20747
G1 X112.215 Y106.740 E1.37827
G1 X111.542 Y106.879 E1.58435
G1 X111.262 Y106.916 E1.66889
G1 X110.068 Y106.991 E2.02749
G1 X108.299 Y106.811 E2.56033
G1 X108.036 Y106.763 E2.64033
G1 X106.717 Y106.264 E3.06305
G1 X106.415 Y106.117 E3.16361
G1 X105.362 Y105.289 E3.56494
G1 X105.168 Y105.114 E3.64319
G1 X104.270 Y103.789 E4.12279
G1 X103.728 Y102.162 E4.63678
G1 X103.691 Y101.941 E4.70387
G1 X103.520 Y100.049 E5.27317
G1 X103.628 Y98.670 E5.68762
G1 X103.703 Y98.181 E5.83570
G1 X103.893 Y97.430 E6.06785
G1 X104.254 Y96.440 E6.38377
G1 X104.378 Y96.194 E6.46616
G1 X104.897 Y95.395 E6.75190
G1 X105.239 Y94.969 E6.91533
G1 X105.609 Y94.598 E7.07241
G1 X106.587 Y93.875 E7.43686
G1 X106.835 Y93.748 E7.52046
G1 X107.549 Y93.450 E7.75213
G1 X108.224 Y93.237 E7.96441
G1 X108.771 Y93.127 E8.13160
G1 X110.174 Y93.001 E8.55356
G1 X111.187 Y93.056 E8.85770
G1 X112.210 Y93.214 E9.16790
G1 X112.580 Y93.296 E9.28139
G1 X113.292 Y93.512 E9.50421
G1 X113.678 Y93.653 E9.62731
G1 X114.106 Y93.842 E9.76761
G1 X114.675 Y94.136 E9.95966
G1 X115.035 Y94.364 E10.08735
G1 X115.647 Y94.823 E10.31655
G1 X115.986 Y95.201 E10.46853
G1 X116.015 Y95.536 E10.56936
G1 X116.015 Y98.297 E11.39669
G1 X115.899 Y98.962 E11.59898
G1 X115.061 Y99.164 E11.85733
G1 X110.493 Y99.164 E13.22611
G92 E0
G1 X107.720 Y101.261 F7800.000
G1 X112.639 Y102.415 F7800.000
G1 X117.969 Y100.032 F7800.000
G1 X117.107 Y92.425 F7800.000
G1 X108.404 Y91.226 F7800.000
G1 X101.567 Y93.146 F7800.000
G1 X97.267 Y95.897 F7800.000
G1 X93.150 Y92.352 F7800.000
G1 X90.958 Y92.352 F7800.000
G1 X89.927 Y92.352 F7800.000
G1 X89.927 Y99.209 E2.05473 F600.000
G1 X90.054 Y99.286 E2.09907
G1 X90.692 Y99.891 E2.36271
G1 X95.696 Y107.648 E5.12860
G1 X89.897 Y98.582 F7800.000
G1 X89.897 Y98.582 F7800.000
G1 X84.174 Y107.648 F7800.000
G1 X89.192 Y99.880 E7.89969 F600.000
G1 X89.804 Y99.287 E8.15525
G1 X90.958 Y98.560 E8.56368
G92 E0
G1 Z1.200 F7800.000
G1 X115.755 Y104.003 F7800.000
G1 X115.013 Y104.989 E0.36957 F600.000
G1 X114.502 Y105.556 E0.59839
G1 X114.101 Y105.884 E0.75356
G1 X113.730 Y106.138 E0.88842
G1 X113.200 Y106.406 E1.06625
G1 X112.763 Y106.582 E1.20747
G1 X112.215 Y106.740 E1.37827
G1 X111.542 Y106.879 E1.58435
G1 X111.262 Y106.916 E1.66890
G1 X110.068 Y106.991 E2.02749
G1 X108.299 Y106.811 E2.56033
G1 X108.036 Y106.763 E2.64033
G1 X106.717 Y106.264 E3.06305
G1 X106.415 Y106.117 E3.16361
G1 X105.362 Y105.289 E3.56494
G1 X105.168 Y105.114 E3.64319
G1 X104.270 Y103.789 E4.12279
G1 X103.728 Y102.162 E4.63678
G1 X103.691 Y101.941 E4.70387
G1 X103.520 Y100.049 E5.27317
G1 X103.628 Y98.670 E5.68762
G1 X103.703 Y98.181 E5.83570
G1 X103.893 Y97.430 E6.06785
G1 X104.254 Y96.440 E6.38377
G1 X104.378 Y96.194 E6.46616
G1 X104.897 Y95.395 E6.75190
G1 X105.239 Y94.969 E6.91533
G1 X105.609 Y94.598 E7.07241
G1 X106.587 Y93.875 E7.43686
G1 X106.835 Y93.748 E7.52046
G1 X107.549 Y93.450 E7.75213
G1 X108.224 Y93.237 E7.96441
G1 X108.771 Y93.127 E8.13160
G1 X110.174 Y93.001 E8.55356
G1 X111.187 Y93.056 E8.85770
G1 X112.210 Y93.214 E9.16790
G1 X112.580 Y93.296 E9.28139
G1 X113.292 Y93.512 E9.50421
G1 X113.678 Y93.653 E9.62731
G1 X114.106 Y93.842 E9.76761
G1 X114.675 Y94.136 E9.95966
G1 X115.035 Y94.364 E10.08735
G1 X115.647 Y94.823 E10.31655
G1 X115.986 Y95.201 E10.46853
G1 X116.015 Y95.536 E10.56936
G1 X116.015 Y98.297 E11.39669
G1 X115.899 Y98.962 E11.59898
G1 X115.061 Y99.164 E11.85733
G1 X110.493 Y99.164 E13.22611
G92 E0
G1 X107.720 Y101.261 F7800.000
G1 X112.639 Y102.415 F7800.000
G1 X117.969 Y100.032 F7800.000
G1 X117.107 Y92.426 F7800.000
G1 X108.404 Y91.226 F7800.000
G1 X101.567 Y93.146 F7800.000
G1 X97.267 Y95.897 F7800.000
G1 X93.150 Y92.352 F7800.000
G1 X90.958 Y92.352 F7800.000
G1 X89.927 Y92.352 F7800.000
G1 X89.927 Y99.209 E2.05473 F600.000
G1 X90.054 Y99.286 E2.09907
