; generated by Slic3r 1.2.9 on 2016-03-11 at 01:32:37

; external perimeters extrusion width = 1.54mm
; perimeters extrusion width = 2.62mm
; infill extrusion width = 6.27mm
; solid infill extrusion width = 2.62mm
; top infill extrusion width = 2.62mm

M107
M104 S30 ; set temperature
G28 ; home all axes
G1 Z5 F5000 ; lift nozzle
M302
M92 E10000
M500
M501
G1 E100
M109 S30 ; wait for temperature to be reached
G21 ; set units to millimeters
G90 ; use absolute coordinates
M82 ; use absolute distances for extrusion
G92 E0
G1 Z0.300 F7800.000
G1 X109.369 Y100.790 F7800.000
G1 X109.369 Y92.577 E0.37163 F600.000
G1 X110.991 Y92.577 E0.44502
G1 X110.991 Y107.423 E1.11679
G1 X109.369 Y107.423 E1.19019 F600.000
G1 X109.369 Y101.021 E1.47988
G1 X109.798 Y107.197 F7800.000
G1 X109.595 Y106.993 E1.49329 F600.000
G1 X109.595 Y106.432 E1.51944
G1 X110.360 Y107.197 E1.56982
G1 X110.765 Y107.041 E1.59005
G1 X109.595 Y105.871 E1.66713
G1 X109.595 Y105.309 E1.69327
G1 X110.765 Y106.479 E1.77035
G1 X110.765 Y105.918 E1.79650
G1 X109.595 Y104.748 E1.87357
G1 X109.595 Y104.187 E1.89972
G1 X110.765 Y105.357 E1.97680
G1 X110.765 Y104.795 E2.00295
G1 X109.595 Y103.625 E2.08002
G1 X109.595 Y103.064 E2.10617
G1 X110.765 Y104.234 E2.18325
G1 X110.765 Y103.673 E2.20939
G1 X109.595 Y102.502 E2.28647
G1 X109.595 Y101.941 E2.31262
G1 X110.765 Y103.111 E2.38970
G1 X110.765 Y102.550 E2.41584
G1 X109.595 Y101.380 E2.49292
G1 X109.595 Y100.818 E2.51907
G1 X110.765 Y101.988 E2.59614
G1 X110.765 Y101.427 E2.62229
G1 X109.595 Y100.257 E2.69937
G1 X109.595 Y99.696 E2.72552
G1 X110.765 Y100.866 E2.80259
G1 X110.765 Y100.304 E2.82874
G1 X109.595 Y99.134 E2.90582
G1 X109.595 Y98.573 E2.93196
G1 X110.765 Y99.743 E3.00904
G1 X110.765 Y99.182 E3.03519
G1 X109.595 Y98.012 E3.11226
G1 X109.595 Y97.450 E3.13841
G1 X110.765 Y98.620 E3.21549
G1 X110.765 Y98.059 E3.24164
G1 X109.595 Y96.889 E3.31871
G1 X109.595 Y96.327 E3.34486
G1 X110.765 Y97.498 E3.42194
G1 X110.765 Y96.936 E3.44808
G1 X109.595 Y95.766 E3.52516
G1 X109.595 Y95.205 E3.55131
G1 X110.765 Y96.375 E3.62838
G1 X110.765 Y95.813 E3.65453
G1 X109.595 Y94.643 E3.73161
G1 X109.595 Y94.082 E3.75776
G1 X110.765 Y95.252 E3.83483
G1 X110.765 Y94.691 E3.86098
G1 X109.595 Y93.521 E3.93806
G1 X109.595 Y92.959 E3.96420
G1 X110.765 Y94.129 E4.04128
G1 X110.765 Y93.568 E4.06743
G1 X110.000 Y92.803 E4.11782
G1 X110.561 Y92.803 E4.14397
G1 X110.765 Y93.007 E4.15738
G92 E0
G1 X109.144 Y92.352 F7800.000
G1 X107.144 Y92.352 F7800.000
G1 X102.927 Y96.833 F7800.000
G1 X96.711 Y98.692 F7800.000
G1 X91.666 Y106.279 F7800.000
G1 X90.938 Y107.423 E0.06137 F600.000
G1 X89.201 Y107.423 E0.13998
G1 X94.875 Y98.759 E0.60862
G1 X94.875 Y92.577 E0.88836
G1 X96.486 Y92.577 E0.96125
G1 X96.486 Y98.759 E1.24100
G1 X102.177 Y107.423 E1.71004 F600.000
G1 X100.440 Y107.423 E1.78864
G1 X95.703 Y99.942 E2.18930
G1 X91.791 Y106.084 E2.51881
G1 X89.909 Y107.197 F7800.000
G1 X89.711 Y106.999 E2.53171 F600.000
G1 X89.930 Y106.664 E2.55018
G1 X90.464 Y107.197 E2.58494
G1 X90.916 Y107.094 E2.60631
G1 X90.150 Y106.328 E2.65621
G1 X90.370 Y105.993 E2.67469
G1 X91.132 Y106.755 E2.72435
G1 X91.348 Y106.416 E2.74287
G1 X90.590 Y105.657 E2.79230
G1 X90.809 Y105.322 E2.81077
G1 X91.564 Y106.077 E2.85996
G1 X91.780 Y105.738 E2.87848
G1 X91.029 Y104.986 E2.92742
G1 X91.249 Y104.651 E2.94590
G1 X91.996 Y105.398 E2.99460
G1 X92.212 Y105.059 E3.01313
G1 X91.469 Y104.315 E3.06159
G1 X91.688 Y103.980 E3.08006
G1 X92.428 Y104.720 E3.12828
G1 X92.645 Y104.381 E3.14681
G1 X91.908 Y103.644 E3.19479
G1 X92.128 Y103.309 E3.21326
G1 X92.861 Y104.042 E3.26101
G1 X93.077 Y103.703 E3.27953
G1 X92.347 Y102.973 E3.32703
G1 X92.567 Y102.638 E3.34551
G1 X93.293 Y103.363 E3.39277
G1 X93.509 Y103.024 E3.41129
G1 X92.787 Y102.303 E3.45831
G1 X93.007 Y101.967 E3.47678
G1 X93.725 Y102.685 E3.52357
G1 X93.941 Y102.346 E3.54209
G1 X93.226 Y101.632 E3.58863
G1 X93.446 Y101.296 E3.60710
G1 X94.157 Y102.007 E3.65340
G1 X94.373 Y101.668 E3.67193
G1 X93.666 Y100.961 E3.71799
G1 X93.885 Y100.625 E3.73646
G1 X94.589 Y101.329 E3.78228
G1 X94.805 Y100.989 E3.80080
G1 X94.105 Y100.290 E3.84638
G1 X94.325 Y99.954 E3.86485
G1 X95.021 Y100.650 E3.91019
G1 X95.237 Y100.311 E3.92872
G1 X94.545 Y99.619 E3.97381
G1 X94.764 Y99.283 E3.99229
G1 X95.453 Y99.972 E4.03714
G1 X95.669 Y99.633 E4.05567
G1 X94.984 Y98.948 E4.10029
G1 X95.101 Y98.510 E4.12118
G1 X97.669 Y101.077 E4.28844
G1 X97.097 Y101.616 F7800.000
G1 X99.794 Y104.313 E4.46419 F600.000
G1 X99.014 Y104.643 F7800.000
G1 X101.568 Y107.197 E4.63055 F600.000
G1 X101.013 Y107.197 E4.65612
G1 X99.973 Y106.157 E4.72386
G1 X100.857 Y105.931 F7800.000
G1 X98.055 Y103.129 E4.90639 F600.000
G1 X98.732 Y102.695 F7800.000
G1 X96.138 Y100.102 E5.07535 F600.000
G1 X96.606 Y99.459 F7800.000
G1 X95.101 Y97.955 E5.17338 F600.000
G1 X95.101 Y97.399 E5.19895
G1 X96.260 Y98.558 E5.27446
G1 X96.260 Y98.003 E5.30004
G1 X95.101 Y96.844 E5.37555
G1 X95.101 Y96.289 E5.40112
G1 X96.260 Y97.448 E5.47663
G1 X96.260 Y96.893 E5.50221
G1 X95.101 Y95.734 E5.57772
G1 X95.101 Y95.179 E5.60330
G1 X96.260 Y96.338 E5.67881
G1 X96.260 Y95.782 E5.70438
G1 X95.101 Y94.623 E5.77989
G1 X95.101 Y94.068 E5.80547
G1 X96.260 Y95.227 E5.88098
G1 X96.260 Y94.672 E5.90655
G1 X95.101 Y93.513 E5.98206
G1 X95.101 Y92.958 E6.00764
G1 X96.260 Y94.117 E6.08315
G1 X96.260 Y93.562 E6.10873
G1 X95.501 Y92.803 E6.15816
G1 X96.057 Y92.803 E6.18373
G1 X96.260 Y93.007 E6.19700
M106 S255
G92 E0
G1 Z0.600 F7800.000
G1 X110.180 Y107.648 F7800.000
G1 X110.180 Y92.352 E4.58339 F600.000
G92 E0
G1 X107.144 Y92.352 F7800.000
G1 X98.711 Y92.352 F7800.000
G1 X96.711 Y92.352 F7800.000
G1 X95.681 Y92.352 F7800.000
G1 X95.681 Y99.209 E2.05473 F600.000
G1 X95.807 Y99.286 E2.09907
G1 X96.446 Y99.891 E2.36271
G1 X101.449 Y107.648 E5.12860
G1 X95.650 Y98.582 F7800.000
G1 X95.650 Y98.582 F7800.000
G1 X89.927 Y107.648 F7800.000
G1 X94.945 Y99.880 E7.89969 F600.000
G1 X95.558 Y99.287 E8.15525
G1 X96.711 Y98.560 E8.56368
G92 E0
G1 Z0.900 F7800.000
G1 X110.180 Y107.648 F7800.000
G1 X110.180 Y92.352 E4.58339 F600.000
G92 E0
G1 X107.144 Y92.352 F7800.000
G1 X98.711 Y92.352 F7800.000
G1 X96.711 Y92.352 F7800.000
G1 X95.681 Y92.352 F7800.000
G1 X95.681 Y99.209 E2.05473 F600.000
G1 X95.807 Y99.286 E2.09907
G1 X96.446 Y99.891 E2.36271
G1 X101.449 Y107.648 E5.12860
G1 X95.650 Y98.582 F7800.000
G1 X95.650 Y98.582 F7800.000
G1 X89.927 Y107.648 F7800.000
G1 X94.945 Y99.880 E7.89969 F600.000
G1 X95.558 Y99.287 E8.15525
G1 X96.711 Y98.560 E8.56368
G92 E0
G1 Z1.200 F7800.000
G1 X110.180 Y107.648 F7800.000
G1 X110.180 Y92.352 E4.58339 F600.000
G92 E0
G1 X107.144 Y92.352 F7800.000
G1 X98.711 Y92.352 F7800.000
G1 X96.711 Y92.352 F7800.000
G1 X95.681 Y92.352 F7800.000
G1 X95.681 Y99.209 E2.05473 F600.000
G1 X95.807 Y99.286 E2.09907
G1 X96.446 Y99.891 E2.36271
G1 X101.449 Y107.648 E5.12860
G1 X95.650 Y98.582 F7800.000
G1 X95.650 Y98.582 F7800.000
G1 X89.927 Y107.648 F7800.000
G1 X94.945 Y99.880 E7.89969 F600.000
G1 X95.558 Y99.287 E8.15525
G1 X96.711 Y98.560 E8.56368
G92 E0
G1 Z1.500 F7800.000
G1 X110.180 Y107.648 F7800.000
G1 X110.180 Y92.352 E4.58339 F600.000
G92 E0
G1 X107.144 Y92.352 F7800.000
G1 X98.711 Y92.352 F7800.000
G1 X96.711 Y92.352 F7800.000
G1 X95.681 Y92.352 F7800.000
G1 X95.681 Y99.209 E2.05473 F600.000
G1 X95.807 Y99.286 E2.09907
G1 X96.446 Y99.891 E2.36271
G1 X101.449 Y107.648 E5.12860
G1 X95.650 Y98.582 F7800.000
G1 X95.650 Y98.582 F7800.000
G1 X89.927 Y107.648 F7800.000
G1 X94.945 Y99.880 E7.89969 F600.000
G1 X95.558 Y99.287 E8.15525
G1 X96.711 Y98.560 E8.56368
G92 E0
G1 Z1.800 F7800.000
G1 X110.180 Y107.648 F7800.000
G1 X110.180 Y92.352 E4.58339 F600.000
G92 E0
G1 X107.144 Y92.352 F7800.000
G1 X98.711 Y92.352 F7800.000
G1 X96.711 Y92.352 F7800.000
G1 X95.681 Y92.352 F7800.000
G1 X95.681 Y99.209 E2.05473 F600.000
G1 X95.807 Y99.286 E2.09907
G1 X96.446 Y99.891 E2.36271
G1 X101.449 Y107.648 E5.12860
G1 X95.650 Y98.582 F7800.000
G1 X95.650 Y98.582 F7800.000
G1 X89.927 Y107.648 F7800.000
G1 X94.945 Y99.880 E7.89969 F600.000
G1 X95.558 Y99.287 E8.15525
G1 X96.711 Y98.560 E8.56368
G92 E0
G1 Z2.100 F7800.000
G1 X110.180 Y107.648 F7800.000
G1 X110.180 Y92.352 E4.58339 F600.000
G92 E0
G1 X107.144 Y92.352 F7800.000
G1 X98.711 Y92.352 F7800.000
G1 X96.711 Y92.352 F7800.000
G1 X95.681 Y92.352 F7800.000
G1 X95.681 Y99.209 E2.05473 F600.000
G1 X95.807 Y99.286 E2.09907
G1 X96.446 Y99.891 E2.36271
G1 X101.449 Y107.648 E5.12860
G92 E0
G1 X95.650 Y98.582 F7800.000
G1 X95.650 Y98.582 F7800.000
G1 X89.927 Y107.648 F7800.000
G1 X94.945 Y99.880 E2.77109 F600.000
G1 X95.558 Y99.287 E3.02666
G1 X96.711 Y98.560 E3.43508
G92 E0
M107
M104 S0 ; turn off temperature
G28 X0  ; home X axis
M84     ; disable motors

; filament used = 89.2mm (0.7cm3)

; avoid_crossing_perimeters = 1
; bed_shape = 0x0,250x0,250x250,0x250
; bed_temperature = 0
; before_layer_gcode = 
; bridge_acceleration = 0
; bridge_fan_speed = 100
; brim_width = 0
; complete_objects = 0
; cooling = 1
; default_acceleration = 0
; disable_fan_first_layers = 1
; duplicate_distance = 6
; end_gcode = M104 S0 ; turn off temperature\nG28 X0  ; home X axis\nM84     ; disable motors\n
; extruder_clearance_height = 20
; extruder_clearance_radius = 20
; extruder_offset = 0x0
; extrusion_axis = E
; extrusion_multiplier = 3
; fan_always_on = 0
; fan_below_layer_time = 60
; filament_colour = #FFFFFF
; filament_diameter = 3.125
; first_layer_acceleration = 0
; first_layer_bed_temperature = 0
; first_layer_extrusion_width = 150%
; first_layer_speed = 90%
; first_layer_temperature = 30
; gcode_arcs = 0
; gcode_comments = 0
; gcode_flavor = reprap
; infill_acceleration = 0
; infill_first = 0
; layer_gcode = 
; max_fan_speed = 100
; max_print_speed = 80
; max_volumetric_speed = 0
; min_fan_speed = 35
; min_print_speed = 10
; min_skirt_length = 0
; notes = 
; nozzle_diameter = 1.54
; only_retract_when_crossing_perimeters = 1
; ooze_prevention = 0
; output_filename_format = [input_filename_base].gcode
; perimeter_acceleration = 0
; post_process = 
; pressure_advance = 0
; resolution = 0
; retract_before_travel = 2
; retract_layer_change = 1
; retract_length = 0
; retract_length_toolchange = 10
; retract_lift = 0
; retract_restart_extra = 0
; retract_restart_extra_toolchange = 0
; retract_speed = 0
; skirt_distance = 6
; skirt_height = 1
; skirts = 0
; slowdown_below_layer_time = 30
; spiral_vase = 0
; standby_temperature_delta = -5
; start_gcode = G28 ; home all axes\nG1 Z5 F5000 ; lift nozzle\nM302\nM92 E10000\nM500\nM501\nG1 E100
; temperature = 30
; threads = 2
; toolchange_gcode = 
; travel_speed = 130
; use_firmware_retraction = 0
; use_relative_e_distances = 0
; use_volumetric_e = 0
; vibration_limit = 0
; wipe = 0
; z_offset = 0
; dont_support_bridges = 1
; extrusion_width = 0
; first_layer_height = 100%
; infill_only_where_needed = 0
; interface_shells = 0
; layer_height = 0.3
; raft_layers = 0
; seam_position = random
; support_material = 0
; support_material_angle = 0
; support_material_contact_distance = 0.2
; support_material_enforce_layers = 0
; support_material_extruder = 1
; support_material_extrusion_width = 0
; support_material_interface_extruder = 1
; support_material_interface_layers = 3
; support_material_interface_spacing = 0
; support_material_interface_speed = 100%
; support_material_pattern = pillars
; support_material_spacing = 2.5
; support_material_speed = 7
; support_material_threshold = 0
; xy_size_compensation = 0
; bottom_solid_layers = 3
; bridge_flow_ratio = 1
; bridge_speed = 10
; external_fill_pattern = rectilinear
; external_perimeter_extrusion_width = 0
; external_perimeter_speed = 70%
; external_perimeters_first = 1
; extra_perimeters = 1
; fill_angle = 45
; fill_density = 60%
; fill_pattern = rectilinear
; gap_fill_speed = 10
; infill_every_layers = 1
; infill_extruder = 1
; infill_extrusion_width = 0
; infill_overlap = 15%
; infill_speed = 10
; overhangs = 1
; perimeter_extruder = 1
; perimeter_extrusion_width = 0
; perimeter_speed = 10
; perimeters = 1
; small_perimeter_speed = 70%
; solid_infill_below_area = 70
; solid_infill_every_layers = 0
; solid_infill_extruder = 1
; solid_infill_extrusion_width = 0
; solid_infill_speed = 10
; thin_walls = 1
; top_infill_extrusion_width = 0
; top_solid_infill_speed = 10
; top_solid_layers = 3
