; generated by Slic3r 1.2.9 on 2016-03-11 at 01:32:39

; external perimeters extrusion width = 1.54mm
; perimeters extrusion width = 2.62mm
; infill extrusion width = 6.27mm
; solid infill extrusion width = 2.62mm
; top infill extrusion width = 2.62mm

M107
M104 S30 ; set temperature
G28 ; home all axes
G1 Z5 F5000 ; lift nozzle
M302
M92 E10000
M500
M501
G1 E100
M109 S30 ; wait for temperature to be reached
G21 ; set units to millimeters
G90 ; use absolute coordinates
M82 ; use absolute distances for extrusion
G92 E0
G1 Z0.300 F7800.000
G1 X113.098 Y105.450 F7800.000
G1 X115.026 Y107.423 E0.12485 F378.000
G1 X113.217 Y107.423 E0.20673
G1 X105.556 Y99.424 E0.70792
G1 X105.556 Y107.423 E1.06988
G1 X103.935 Y107.423 E1.14322
G1 X103.935 Y92.577 E1.81499
G1 X105.556 Y92.577 E1.88834
G1 X105.556 Y98.325 E2.14845
G1 X107.805 Y100.044 E2.27656 F378.000
G1 X113.963 Y92.577 E2.71452
G1 X115.940 Y92.577 E2.80398
G1 X108.763 Y101.015 E3.30520
G1 X112.936 Y105.284 E3.57535
G1 X112.620 Y106.359 F7800.000
G1 X113.459 Y107.197 E3.62983 F540.000
G1 X114.013 Y107.197 E3.65529
G1 X106.399 Y99.583 E4.15019
G1 X107.706 Y100.336 F7800.000
G1 X108.453 Y101.083 E4.19875 F540.000
G1 X108.707 Y100.784 E4.21681
G1 X108.016 Y100.092 E4.26176
G1 X108.266 Y99.789 E4.27985
G1 X108.962 Y100.484 E4.32507
G1 X109.216 Y100.185 E4.34313
G1 X108.516 Y99.485 E4.38863
G1 X108.767 Y99.181 E4.40672
G1 X109.471 Y99.886 E4.45250
G1 X109.726 Y99.586 E4.47056
G1 X109.017 Y98.878 E4.51662
G1 X109.267 Y98.574 E4.53471
G1 X109.980 Y99.287 E4.58104
G1 X110.235 Y98.988 E4.59910
G1 X109.518 Y98.271 E4.64571
G1 X109.768 Y97.967 E4.66380
G1 X110.489 Y98.688 E4.71069
G1 X110.744 Y98.389 E4.72875
G1 X110.018 Y97.663 E4.77591
G1 X110.269 Y97.360 E4.79400
G1 X110.999 Y98.090 E4.84144
G1 X111.253 Y97.790 E4.85950
G1 X110.519 Y97.056 E4.90722
G1 X110.769 Y96.753 E4.92531
G1 X111.508 Y97.491 E4.97330
G1 X111.762 Y97.192 E4.99137
G1 X111.020 Y96.449 E5.03964
G1 X111.270 Y96.145 E5.05773
G1 X112.017 Y96.892 E5.10627
G1 X112.272 Y96.593 E5.12434
G1 X111.521 Y95.842 E5.17316
G1 X111.771 Y95.538 E5.19125
G1 X112.526 Y96.294 E5.24035
G1 X112.781 Y95.994 E5.25842
G1 X112.021 Y95.235 E5.30780
G1 X112.272 Y94.931 E5.32588
G1 X113.035 Y95.695 E5.37554
G1 X113.290 Y95.396 E5.39360
G1 X112.522 Y94.627 E5.44354
G1 X112.772 Y94.324 E5.46163
G1 X113.545 Y95.096 E5.51184
G1 X113.799 Y94.797 E5.52990
G1 X113.023 Y94.020 E5.58039
G1 X113.273 Y93.716 E5.59848
G1 X114.054 Y94.497 E5.64924
G1 X114.309 Y94.198 E5.66731
G1 X113.523 Y93.413 E5.71835
G1 X113.774 Y93.109 E5.73644
G1 X114.563 Y93.899 E5.78776
G1 X114.818 Y93.599 E5.80582
G1 X114.024 Y92.806 E5.85742
G1 X114.575 Y92.803 E5.88275
G1 X115.072 Y93.300 E5.91507
G1 X115.129 Y92.803 E5.93807
G1 X115.327 Y93.001 E5.95092
G92 E0
G1 X104.781 Y93.352 F7800.000
G1 X104.781 Y93.352 F7800.000
G1 X105.330 Y93.007 F7800.000
G1 X105.126 Y92.803 E0.01341 F540.000
G1 X104.565 Y92.803 E0.03956
G1 X105.330 Y93.568 E0.08994
G1 X105.330 Y94.129 E0.11608
G1 X104.161 Y92.960 E0.19309
G1 X104.161 Y93.521 E0.21923
G1 X105.330 Y94.691 E0.29624
G1 X105.330 Y95.252 E0.32238
G1 X104.161 Y94.083 E0.39939
G1 X104.161 Y94.644 E0.42553
G1 X105.330 Y95.813 E0.50254
G1 X105.330 Y96.375 E0.52868
G1 X104.161 Y95.205 E0.60569
G1 X104.161 Y95.767 E0.63183
G1 X105.330 Y96.936 E0.70884
G1 X105.330 Y97.497 E0.73498
G1 X104.161 Y96.328 E0.81199
G1 X104.161 Y96.889 E0.83813
G1 X105.330 Y98.059 E0.91514
G1 X105.232 Y98.522 E0.93720
G1 X104.161 Y97.451 E1.00777
G1 X104.161 Y98.012 E1.03391
G1 X104.967 Y98.818 E1.08702
G1 X104.161 Y98.573 E1.12626
G1 X105.330 Y99.743 E1.20327
G1 X105.330 Y100.304 E1.22941
G1 X104.161 Y99.135 E1.30642
G1 X104.161 Y99.696 E1.33256
G1 X105.330 Y100.865 E1.40957
G1 X105.330 Y101.427 E1.43571
G1 X104.161 Y100.257 E1.51272
G1 X104.161 Y100.819 E1.53886
G1 X105.330 Y101.988 E1.61587
G1 X105.330 Y102.549 E1.64201
G1 X104.161 Y101.380 E1.71902
G1 X104.161 Y101.941 E1.74516
G1 X105.330 Y103.111 E1.82217
G1 X105.330 Y103.672 E1.84831
G1 X104.161 Y102.503 E1.92532
G1 X104.161 Y103.064 E1.95146
G1 X105.330 Y104.233 E2.02847
G1 X105.330 Y104.795 E2.05461
G1 X104.161 Y103.625 E2.13162
G1 X104.161 Y104.187 E2.15776
G1 X105.330 Y105.356 E2.23477
G1 X105.330 Y105.917 E2.26091
G1 X104.161 Y104.748 E2.33792
G1 X104.161 Y105.309 E2.36406
G1 X105.330 Y106.479 E2.44107
G1 X105.330 Y107.040 E2.46721
G1 X104.161 Y105.871 E2.54421
G1 X104.161 Y106.432 E2.57036
G1 X104.926 Y107.197 E2.62074
G1 X104.364 Y107.197 E2.64689
G1 X104.161 Y106.993 E2.66030
G92 E0
G1 X104.781 Y106.648 F7800.000
G1 X104.781 Y106.648 F7800.000
G1 X106.244 Y99.452 F7800.000
G1 X105.363 Y98.664 E0.11596 F540.000
G92 E0
G1 X103.710 Y92.352 F7800.000
G1 X101.710 Y92.352 F7800.000
G1 X93.500 Y92.352 F7800.000
G1 X91.500 Y92.352 F7800.000
G1 X89.664 Y95.176 F7800.000
G1 X89.664 Y92.577 E0.11761 F378.000
G1 X91.275 Y92.577 E0.19051
G1 X91.275 Y98.759 E0.47025
G1 X96.966 Y107.423 E0.93929 F378.000
G1 X95.229 Y107.423 E1.01790
G1 X90.492 Y99.942 E1.41856
G1 X85.727 Y107.423 E1.81989
G1 X83.990 Y107.423 E1.89850
G1 X89.664 Y98.759 E2.36714
G1 X89.664 Y95.407 E2.51881
G1 X91.049 Y93.007 F7800.000
G1 X90.846 Y92.803 E2.53207 F540.000
G1 X90.290 Y92.803 E2.55765
G1 X91.049 Y93.562 E2.60708
G1 X91.049 Y94.117 E2.63266
G1 X89.890 Y92.958 E2.70817
G1 X89.890 Y93.513 E2.73374
G1 X91.049 Y94.672 E2.80925
G1 X91.049 Y95.227 E2.83483
G1 X89.890 Y94.068 E2.91034
G1 X89.890 Y94.623 E2.93592
G1 X91.049 Y95.782 E3.01143
G1 X91.049 Y96.338 E3.03700
G1 X89.890 Y95.179 E3.11251
G1 X89.890 Y95.734 E3.13809
G1 X91.049 Y96.893 E3.21360
G1 X91.049 Y97.448 E3.23917
G1 X89.890 Y96.289 E3.31468
G1 X89.890 Y96.844 E3.34026
G1 X91.049 Y98.003 E3.41577
G1 X91.049 Y98.558 E3.44135
G1 X89.890 Y97.399 E3.51686
G1 X89.890 Y97.955 E3.54243
G1 X91.395 Y99.459 E3.64045
G1 X90.927 Y100.102 F7800.000
G1 X93.521 Y102.695 E3.80941 F540.000
G1 X92.844 Y103.129 F7800.000
G1 X95.646 Y105.931 E3.99195 F540.000
G1 X94.762 Y106.157 F7800.000
G1 X95.802 Y107.197 E4.05968 F540.000
G1 X96.357 Y107.197 E4.08526
G1 X93.803 Y104.643 E4.25162
G1 X94.583 Y104.313 F7800.000
G1 X91.886 Y101.616 E4.42737 F540.000
G1 X92.458 Y101.077 F7800.000
G1 X89.890 Y98.510 E4.59463 F540.000
G1 X89.773 Y98.948 E4.61552
G1 X90.458 Y99.633 E4.66014
G1 X90.242 Y99.972 E4.67866
G1 X89.553 Y99.283 E4.72352
G1 X89.334 Y99.619 E4.74199
G1 X90.026 Y100.311 E4.78709
G1 X89.810 Y100.650 E4.80562
G1 X89.114 Y99.954 E4.85095
G1 X88.894 Y100.290 E4.86943
G1 X89.594 Y100.989 E4.91501
G1 X89.378 Y101.329 E4.93353
G1 X88.674 Y100.625 E4.97935
G1 X88.455 Y100.961 E4.99782
G1 X89.162 Y101.668 E5.04388
G1 X88.946 Y102.007 E5.06241
G1 X88.235 Y101.296 E5.10871
G1 X88.015 Y101.632 E5.12718
G1 X88.730 Y102.346 E5.17372
G1 X88.514 Y102.685 E5.19224
G1 X87.796 Y101.967 E5.23902
G1 X87.576 Y102.303 E5.25750
G1 X88.298 Y103.024 E5.30452
G1 X88.082 Y103.363 E5.32304
G1 X87.356 Y102.638 E5.37030
G1 X87.136 Y102.973 E5.38878
G1 X87.866 Y103.703 E5.43628
G1 X87.650 Y104.042 E5.45480
G1 X86.917 Y103.309 E5.50254
G1 X86.697 Y103.644 E5.52102
G1 X87.434 Y104.381 E5.56900
G1 X87.217 Y104.720 E5.58752
G1 X86.477 Y103.980 E5.63575
G1 X86.258 Y104.315 E5.65422
G1 X87.001 Y105.059 E5.70268
G1 X86.785 Y105.398 E5.72121
G1 X86.038 Y104.651 E5.76991
G1 X85.818 Y104.986 E5.78838
G1 X86.569 Y105.738 E5.83733
G1 X86.353 Y106.077 E5.85585
G1 X85.598 Y105.322 E5.90504
G1 X85.379 Y105.657 E5.92351
G1 X86.137 Y106.416 E5.97293
G1 X85.921 Y106.755 E5.99146
G1 X85.159 Y105.993 E6.04112
G1 X84.939 Y106.328 E6.05960
G1 X85.705 Y107.094 E6.10950
G1 X85.253 Y107.197 E6.13087
G1 X84.719 Y106.664 E6.16562
G1 X84.500 Y106.999 E6.18410
G1 X84.698 Y107.197 E6.19700
M106 S255
G92 E0
G1 Z0.600 F7800.000
G1 X115.134 Y92.352 F7800.000
G1 X108.469 Y100.310 E3.11048 F600.000
G1 X108.021 Y100.775 E3.30375
G1 X108.471 Y101.587 E3.58188
G1 X114.335 Y107.648 E6.10884
G92 E0
G1 X104.781 Y106.648 F7800.000
G1 X104.781 Y106.648 F7800.000
G1 X105.677 Y102.575 F7800.000
G1 X104.745 Y98.214 E1.33630 F600.000
G1 X104.745 Y92.352 E3.09283
G1 X104.745 Y107.648 F7800.000
G1 X104.745 Y99.984 E5.38932 F600.000
G1 X104.934 Y99.099 E5.66049
G1 X105.104 Y99.099 E5.71145
G1 X106.292 Y99.495 E6.08643
G1 X107.278 Y100.377 E6.48307
G1 X109.747 Y101.699 E7.32204
G92 E0
G1 X105.781 Y98.214 F7800.000
G1 X105.781 Y98.214 F7800.000
G1 X107.498 Y97.365 F7800.000
G1 X108.897 Y93.468 F7800.000
G1 X107.781 Y92.352 F7800.000
G1 X105.781 Y91.352 F7800.000
G1 X103.710 Y91.352 F7800.000
G1 X101.710 Y92.352 F7800.000
G1 X97.605 Y96.457 F7800.000
G1 X93.500 Y92.352 F7800.000
G1 X91.500 Y92.352 F7800.000
G1 X90.470 Y92.352 F7800.000
G1 X90.470 Y99.209 E2.05473 F600.000
G1 X90.596 Y99.286 E2.09907
G1 X91.235 Y99.891 E2.36271
G1 X96.238 Y107.648 E5.12860
G1 X90.439 Y98.582 F7800.000
G1 X90.439 Y98.582 F7800.000
G1 X84.716 Y107.648 F7800.000
G1 X89.734 Y99.880 E7.89969 F600.000
G1 X90.347 Y99.287 E8.15525
G1 X91.500 Y98.560 E8.56368
G92 E0
G1 Z0.900 F7800.000
G1 X115.134 Y92.352 F7800.000
G1 X108.469 Y100.310 E3.11048 F600.000
G1 X108.021 Y100.775 E3.30375
G1 X108.471 Y101.587 E3.58188
G1 X114.335 Y107.648 E6.10884
G92 E0
G1 X104.781 Y106.648 F7800.000
G1 X104.781 Y106.648 F7800.000
G1 X105.677 Y102.575 F7800.000
G1 X104.745 Y98.214 E1.33630 F600.000
G1 X104.745 Y92.352 E3.09283
G1 X104.745 Y107.648 F7800.000
G1 X104.745 Y99.984 E5.38932 F600.000
G1 X104.934 Y99.099 E5.66049
G1 X105.104 Y99.099 E5.71145
G1 X106.292 Y99.495 E6.08643
G1 X107.278 Y100.377 E6.48307
G1 X109.747 Y101.699 E7.32204
G92 E0
G1 X105.781 Y98.214 F7800.000
G1 X105.781 Y98.214 F7800.000
G1 X107.498 Y97.365 F7800.000
G1 X108.897 Y93.468 F7800.000
G1 X107.781 Y92.352 F7800.000
G1 X105.781 Y91.352 F7800.000
G1 X103.710 Y91.352 F7800.000
G1 X101.710 Y92.352 F7800.000
G1 X97.605 Y96.457 F7800.000
G1 X93.500 Y92.352 F7800.000
G1 X91.500 Y92.352 F7800.000
G1 X90.470 Y92.352 F7800.000
G1 X90.470 Y99.209 E2.05473 F600.000
G1 X90.596 Y99.286 E2.09907
G1 X91.235 Y99.891 E2.36271
G1 X96.238 Y107.648 E5.12860
G1 X90.439 Y98.582 F7800.000
G1 X90.439 Y98.582 F7800.000
G1 X84.716 Y107.648 F7800.000
G1 X89.734 Y99.880 E7.89969 F600.000
G1 X90.347 Y99.287 E8.15525
G1 X91.500 Y98.560 E8.56368
G92 E0
G1 Z1.200 F7800.000
G1 X115.134 Y92.352 F7800.000
G1 X108.469 Y100.310 E3.11048 F600.000
G1 X108.021 Y100.775 E3.30375
G1 X108.471 Y101.587 E3.58188
G1 X114.335 Y107.648 E6.10884
G92 E0
G1 X104.781 Y106.648 F7800.000
G1 X104.781 Y106.648 F7800.000
G1 X105.677 Y102.575 F7800.000
G1 X104.745 Y98.214 E1.33630 F600.000
G1 X104.745 Y92.352 E3.09283
G1 X104.745 Y107.648 F7800.000
G1 X104.745 Y99.984 E5.38932 F600.000
G1 X104.934 Y99.099 E5.66049
G1 X105.104 Y99.099 E5.71145
G1 X106.292 Y99.495 E6.08643
G1 X107.278 Y100.377 E6.48307
G1 X109.747 Y101.699 E7.32204
G92 E0
G1 X105.781 Y98.214 F7800.000
G1 X105.781 Y98.214 F7800.000
G1 X107.498 Y97.365 F7800.000
G1 X108.897 Y93.468 F7800.000
G1 X107.781 Y92.352 F7800.000
G1 X105.781 Y91.352 F7800.000
G1 X103.710 Y91.352 F7800.000
G1 X101.710 Y92.352 F7800.000
G1 X97.605 Y96.457 F7800.000
G1 X93.500 Y92.352 F7800.000
G1 X91.500 Y92.352 F7800.000
G1 X90.470 Y92.352 F7800.000
G1 X90.470 Y99.209 E2.05473 F600.000
G1 X90.596 Y99.286 E2.09907
G1 X91.235 Y99.891 E2.36271
G1 X96.238 Y107.648 E5.12860
G1 X90.439 Y98.582 F7800.000
G1 X90.439 Y98.582 F7800.000
G1 X84.716 Y107.648 F7800.000
G1 X89.734 Y99.880 E7.89969 F600.000
G1 X90.347 Y99.287 E8.15525
G1 X91.500 Y98.560 E8.56368
G92 E0
G1 Z1.500 F7800.000
G1 X115.134 Y92.352 F7800.000
G1 X108.469 Y100.310 E3.11048 F600.000
G1 X108.021 Y100.775 E3.30375
G1 X108.471 Y101.587 E3.58188
G1 X114.335 Y107.648 E6.10884
G92 E0
G1 X104.781 Y106.648 F7800.000
G1 X104.781 Y106.648 F7800.000
G1 X105.677 Y102.575 F7800.000
G1 X104.745 Y98.214 E1.33630 F600.000
G1 X104.745 Y92.352 E3.09283
G1 X104.745 Y107.648 F7800.000
G1 X104.745 Y99.984 E5.38932 F600.000
G1 X104.934 Y99.099 E5.66049
G1 X105.104 Y99.099 E5.71145
G1 X106.292 Y99.495 E6.08643
G1 X107.278 Y100.377 E6.48307
G1 X109.747 Y101.699 E7.32204
G92 E0
G1 X105.781 Y98.214 F7800.000
G1 X105.781 Y98.214 F7800.000
G1 X107.498 Y97.365 F7800.000
G1 X108.897 Y93.468 F7800.000
G1 X107.781 Y92.352 F7800.000
G1 X105.781 Y91.352 F7800.000
G1 X103.710 Y91.352 F7800.000
G1 X101.710 Y92.352 F7800.000
G1 X97.605 Y96.457 F7800.000
G1 X93.500 Y92.352 F7800.000
G1 X91.500 Y92.352 F7800.000
G1 X90.470 Y92.352 F7800.000
G1 X90.470 Y99.209 E2.05473 F600.000
G1 X90.596 Y99.286 E2.09907
G1 X91.235 Y99.891 E2.36271
G1 X96.238 Y107.648 E5.12860
G1 X90.439 Y98.582 F7800.000
G1 X90.439 Y98.582 F7800.000
G1 X84.716 Y107.648 F7800.000
G1 X89.734 Y99.880 E7.89969 F600.000
G1 X90.347 Y99.287 E8.15525
G1 X91.500 Y98.560 E8.56368
G92 E0
G1 Z1.800 F7800.000
G1 X115.134 Y92.352 F7800.000
G1 X108.469 Y100.310 E3.11048 F600.000
G1 X108.021 Y100.775 E3.30375
G1 X108.471 Y101.587 E3.58188
G1 X114.335 Y107.648 E6.10884
G92 E0
G1 X104.781 Y106.648 F7800.000
G1 X104.781 Y106.648 F7800.000
G1 X105.677 Y102.575 F7800.000
G1 X104.745 Y98.214 E1.33630 F600.000
G1 X104.745 Y92.352 E3.09283
G1 X104.745 Y107.648 F7800.000
G1 X104.745 Y99.984 E5.38931 F600.000
G1 X104.934 Y99.099 E5.66049
G1 X105.104 Y99.099 E5.71145
G1 X106.292 Y99.495 E6.08643
G1 X107.278 Y100.377 E6.48307
G1 X109.747 Y101.699 E7.32204
G92 E0
G1 X105.781 Y98.214 F7800.000
G1 X105.781 Y98.214 F7800.000
G1 X107.498 Y97.365 F7800.000
G1 X108.897 Y93.468 F7800.000
G1 X107.781 Y92.352 F7800.000
G1 X105.781 Y91.352 F7800.000
G1 X103.710 Y91.352 F7800.000
G1 X101.710 Y92.352 F7800.000
G1 X97.605 Y96.457 F7800.000
G1 X93.500 Y92.352 F7800.000
G1 X91.500 Y92.352 F7800.000
G1 X90.470 Y92.352 F7800.000
G1 X90.470 Y99.209 E2.05473 F600.000
G1 X90.596 Y99.286 E2.09907
G1 X91.235 Y99.891 E2.36271
G1 X96.238 Y107.648 E5.12860
G1 X90.439 Y98.582 F7800.000
G1 X90.439 Y98.582 F7800.000
G1 X84.716 Y107.648 F7800.000
G1 X89.734 Y99.880 E7.89969 F600.000
G1 X90.347 Y99.287 E8.15525
G1 X91.500 Y98.560 E8.56368
G92 E0
G1 Z2.100 F7800.000
G1 X115.134 Y92.352 F7800.000
G1 X108.469 Y100.310 E3.11048 F600.000
G1 X108.021 Y100.775 E3.30375
G1 X108.471 Y101.587 E3.58188
G1 X114.335 Y107.648 E6.10884
G92 E0
G1 X104.781 Y106.648 F7800.000
G1 X104.781 Y106.648 F7800.000
G1 X105.677 Y102.575 F7800.000
G1 X104.745 Y98.214 E1.33630 F600.000
G1 X104.745 Y92.352 E3.09283
G92 E0
G1 X104.745 Y107.648 F7800.000
G1 X104.745 Y99.984 E2.29649 F600.000
G1 X104.934 Y99.099 E2.56766
G1 X105.104 Y99.099 E2.61863
G1 X106.292 Y99.495 E2.99361
G1 X107.278 Y100.377 E3.39024
G1 X109.747 Y101.699 E4.22921
G92 E0
G1 X105.781 Y98.214 F7800.000
G1 X105.781 Y98.214 F7800.000
G1 X107.498 Y97.365 F7800.000
G1 X108.897 Y93.468 F7800.000
G1 X107.781 Y92.352 F7800.000
G1 X105.781 Y91.352 F7800.000
G1 X103.710 Y91.352 F7800.000
G1 X101.710 Y92.352 F7800.000
G1 X97.605 Y96.457 F7800.000
G1 X93.500 Y92.352 F7800.000
G1 X91.500 Y92.352 F7800.000
G1 X90.470 Y92.352 F7800.000
G1 X90.470 Y99.209 E2.05473 F600.000
G1 X90.596 Y99.286 E2.09907
G1 X91.235 Y99.891 E2.36271
G1 X96.238 Y107.648 E5.12860
G92 E0
G1 X90.439 Y98.582 F7800.000
G1 X90.439 Y98.582 F7800.000
G1 X84.716 Y107.648 F7800.000
G1 X89.734 Y99.880 E2.77109 F600.000
G1 X90.347 Y99.287 E3.02666
G1 X91.500 Y98.560 E3.43508
G92 E0
M107
M104 S0 ; turn off temperature
G28 X0  ; home X axis
M84     ; disable motors

; filament used = 146.9mm (1.1cm3)

; avoid_crossing_perimeters = 1
; bed_shape = 0x0,250x0,250x250,0x250
; bed_temperature = 0
; before_layer_gcode = 
; bridge_acceleration = 0
; bridge_fan_speed = 100
; brim_width = 0
; complete_objects = 0
; cooling = 1
; default_acceleration = 0
; disable_fan_first_layers = 1
; duplicate_distance = 6
; end_gcode = M104 S0 ; turn off temperature\nG28 X0  ; home X axis\nM84     ; disable motors\n
; extruder_clearance_height = 20
; extruder_clearance_radius = 20
; extruder_offset = 0x0
; extrusion_axis = E
; extrusion_multiplier = 3
; fan_always_on = 0
; fan_below_layer_time = 60
; filament_colour = #FFFFFF
; filament_diameter = 3.125
; first_layer_acceleration = 0
; first_layer_bed_temperature = 0
; first_layer_extrusion_width = 150%
; first_layer_speed = 90%
; first_layer_temperature = 30
; gcode_arcs = 0
; gcode_comments = 0
