; generated by Slic3r 1.2.9 on 2016-03-11 at 01:32:43

; external perimeters extrusion width = 1.54mm
; perimeters extrusion width = 2.62mm
; infill extrusion width = 6.27mm
; solid infill extrusion width = 2.62mm
; top infill extrusion width = 2.62mm

M107
M104 S30 ; set temperature
G28 ; home all axes
G1 Z5 F5000 ; lift nozzle
M302
M92 E10000
M500
M501
G1 E100
M109 S30 ; wait for temperature to be reached
G21 ; set units to millimeters
G90 ; use absolute coordinates
M82 ; use absolute distances for extrusion
G92 E0
G1 Z0.300 F7800.000
G1 X107.036 Y107.206 F7800.000
G1 X105.732 Y106.725 E0.06294 F378.000
G1 X104.273 Y105.621 E0.14571
G1 X103.196 Y104.124 E0.22913
G1 X102.547 Y102.275 E0.31781
G1 X102.329 Y100.061 E0.41848
G1 X102.426 Y98.562 E0.48646
G1 X102.719 Y97.196 E0.54969
G1 X103.205 Y95.965 E0.60957
G1 X103.872 Y94.896 E0.66660
G1 X104.710 Y94.011 E0.72173
G1 X105.722 Y93.308 E0.77748
G1 X106.894 Y92.797 E0.83534
G1 X108.211 Y92.489 E0.89654
G1 X109.675 Y92.386 E0.96294
G1 X111.141 Y92.491 E1.02944
G1 X112.437 Y92.802 E1.08978 F378.000
G1 X113.610 Y93.319 E1.14778
G1 X114.628 Y94.028 E1.20389
G1 X115.473 Y94.915 E1.25934
G1 X116.150 Y95.983 E1.31656
G1 X116.644 Y97.209 E1.37639
G1 X116.943 Y98.570 E1.43940
G1 X117.042 Y100.065 E1.50722
G1 X116.944 Y101.563 E1.57515
G1 X116.649 Y102.916 E1.63779
G1 X116.161 Y104.124 E1.69677
G1 X115.491 Y105.169 E1.75295
G1 X114.650 Y106.032 E1.80747
G1 X113.634 Y106.716 E1.86288
G1 X112.461 Y107.214 E1.92053
G1 X111.149 Y107.514 E1.98143
G1 X109.700 Y107.614 E2.04718
G1 X107.536 Y107.390 E2.14562
G1 X107.253 Y107.286 E2.15924
G1 X107.730 Y106.075 F7800.000
G1 X106.611 Y105.634 E2.21369 F378.000
G1 X105.470 Y104.701 E2.28037
G1 X104.638 Y103.438 E2.34881
G1 X104.144 Y101.890 E2.42233
G1 X103.981 Y100.065 E2.50526
G1 X104.146 Y98.242 E2.58806
G1 X104.645 Y96.676 E2.66245
G1 X105.483 Y95.372 E2.73262
G1 X106.626 Y94.394 E2.80066
G1 X108.028 Y93.808 E2.86941
G1 X109.485 Y93.637 E2.93581
G1 X109.674 Y93.615 E2.94442 F378.000
G1 X111.358 Y93.801 E3.02107
G1 X112.774 Y94.368 E3.09009
G1 X113.909 Y95.317 E3.15702
G1 X114.730 Y96.605 E3.22617
G1 X115.219 Y98.190 E3.30120
G1 X115.380 Y100.065 E3.38638
G1 X115.217 Y101.868 E3.46829
G1 X114.725 Y103.408 E3.54145
G1 X113.897 Y104.678 E3.61004
G1 X112.762 Y105.623 E3.67686
G1 X111.357 Y106.188 E3.74536
G1 X109.697 Y106.374 E3.82097
G1 X108.024 Y106.191 E3.89711
G1 X107.945 Y106.160 E3.90095
G1 X107.226 Y107.000 F7800.000
G1 X102.993 Y102.766 E4.17566 F540.000
G1 X103.292 Y103.619 F7800.000
G1 X106.350 Y106.676 E4.37410 F540.000
G1 X106.749 Y105.969 F7800.000
G1 X107.979 Y107.200 E4.45397 F540.000
G1 X108.596 Y107.264 E4.48243
G1 X107.661 Y106.329 E4.54311
G1 X108.348 Y106.463 E4.57524
G1 X109.213 Y107.328 E4.63136
G1 X109.823 Y107.385 E4.65946
G1 X108.970 Y106.531 E4.71484
G1 X109.591 Y106.600 E4.74352
G1 X110.340 Y107.349 E4.79214
G1 X110.858 Y107.313 E4.81593
G1 X110.093 Y106.549 E4.86554
G1 X110.590 Y106.493 E4.88850
G1 X111.350 Y107.253 E4.93781
G1 X111.800 Y107.150 E4.95900
G1 X111.088 Y106.437 E5.00525
G1 X111.537 Y106.333 E5.02640
G1 X112.250 Y107.047 E5.07273
G1 X112.666 Y106.909 E5.09281
G1 X111.931 Y106.174 E5.14051
G1 X112.325 Y106.016 E5.16001
G1 X113.054 Y106.745 E5.20731
G1 X113.442 Y106.580 E5.22666
G1 X112.720 Y105.857 E5.27356
G1 X113.050 Y105.634 E5.29184
G1 X113.792 Y106.376 E5.33999
G1 X114.122 Y106.153 E5.35827
G1 X113.351 Y105.383 E5.40827
G1 X113.653 Y105.132 E5.42629
G1 X114.452 Y105.930 E5.47810
G1 X114.728 Y105.653 E5.49604
G1 X113.955 Y104.880 E5.54620
G1 X114.199 Y104.571 E5.56427
G1 X115.005 Y105.377 E5.61656
G1 X115.281 Y105.100 E5.63450
G1 X114.417 Y104.236 E5.69057
G1 X114.635 Y103.902 E5.70890
G1 X115.511 Y104.777 E5.76573
G1 X115.727 Y104.440 E5.78410
G1 X114.853 Y103.567 E5.84079
G1 X115.014 Y103.175 E5.86024
G1 X115.943 Y104.103 E5.92050
G1 X116.109 Y103.716 E5.93983
G1 X115.148 Y102.756 E6.00216
G1 X115.282 Y102.337 E6.02234
G1 X116.268 Y103.322 E6.08630
G1 X116.427 Y102.928 E6.10579
G1 X115.416 Y101.918 E6.17138
G1 X115.477 Y101.425 E6.19415
G1 X116.529 Y102.478 E6.26245
G1 X116.628 Y102.023 E6.28377
G1 X115.523 Y100.918 E6.35552
G1 X115.568 Y100.411 E6.37889
G1 X116.722 Y101.565 E6.45377
G1 X116.757 Y101.046 E6.47763
G1 X115.599 Y99.888 E6.55278
G1 X115.547 Y99.283 E6.58064
G1 X116.791 Y100.527 E6.66138
G1 X116.805 Y99.988 E6.68610
G1 X115.495 Y98.678 E6.77115
G1 X115.443 Y98.073 E6.79901
G1 X116.766 Y99.396 E6.88486
G1 X116.726 Y98.803 E6.91211
G1 X115.204 Y97.281 E7.01087
G1 X114.958 Y96.482 E7.04924
G1 X116.592 Y98.116 E7.15528
G1 X116.437 Y97.408 E7.18854
G1 X114.066 Y95.037 E7.34241
G1 X114.208 Y95.179 F7800.000
G1 X111.974 Y92.945 E7.48741 F540.000
G1 X111.247 Y92.771 F7800.000
G1 X112.420 Y93.944 E7.56355 F540.000
G1 X112.861 Y93.279 F7800.000
G1 X116.071 Y96.489 E7.77180 F540.000
G1 X115.090 Y94.955 F7800.000
G1 X114.251 Y94.116 E7.82622 F540.000
G1 X111.504 Y93.581 F7800.000
G1 X110.608 Y92.685 E7.88432 F540.000
G1 X110.012 Y92.643 E7.91173
G1 X110.882 Y93.512 E7.96813
G1 X110.259 Y93.443 E7.99685
G1 X109.440 Y92.623 E8.05003
G1 X108.923 Y92.660 E8.07379
G1 X109.661 Y93.398 E8.12168
G1 X109.167 Y93.456 E8.14455
G1 X108.407 Y92.696 E8.19385
G1 X107.928 Y92.770 E8.21608
G1 X108.672 Y93.514 E8.26434
G1 X108.177 Y93.572 E8.28720
G1 X107.480 Y92.875 E8.33242
G1 X107.032 Y92.980 E8.35354
G1 X107.756 Y93.704 E8.40052
G1 X107.366 Y93.867 E8.41992
G1 X106.630 Y93.131 E8.46770
G1 X106.244 Y93.299 E8.48697
G1 X106.976 Y94.030 E8.53443
G1 X106.586 Y94.193 E8.55382
G1 X105.859 Y93.467 E8.60095
G1 X105.523 Y93.683 E8.61932
G1 X106.278 Y94.438 E8.66833
G1 X105.980 Y94.693 E8.68632
G1 X105.196 Y93.910 E8.73717
G1 X104.878 Y94.144 E8.75532
G1 X105.682 Y94.948 E8.80748
G1 X105.384 Y95.203 E8.82548
G1 X104.602 Y94.421 E8.87624
G1 X104.325 Y94.697 E8.89419
G1 X105.153 Y95.525 E8.94791
G1 X104.937 Y95.862 E8.96627
G1 X104.056 Y94.981 E9.02344
G1 X103.839 Y95.317 E9.04180
G1 X104.720 Y96.199 E9.09900
G1 X104.504 Y96.535 E9.11736
G1 X103.626 Y95.658 E9.17432
G1 X103.414 Y95.998 E9.19274
G1 X104.348 Y96.932 E9.25337
G1 X104.214 Y97.352 E9.27357
G1 X103.253 Y96.391 E9.33594
G1 X103.097 Y96.787 E9.35550
G1 X104.081 Y97.771 E9.41936
G1 X103.947 Y98.191 E9.43956
G1 X102.940 Y97.184 E9.50489
G1 X102.840 Y97.636 E9.52616
G1 X103.886 Y98.683 E9.59406
G1 X103.840 Y99.190 E9.61742
G1 X102.742 Y98.092 E9.68867
G1 X102.648 Y98.551 E9.71016
G1 X103.794 Y99.697 E9.78454
G1 X103.760 Y100.215 E9.80838
G1 X102.614 Y99.070 E9.88271
G1 X102.581 Y99.589 E9.90659
G1 X103.814 Y100.823 E9.98663
G1 X103.868 Y101.430 E10.01461
G1 X102.571 Y100.133 E10.09880
G1 X102.632 Y100.746 E10.12709
G1 X103.924 Y102.039 E10.21095
G1 X104.183 Y102.851 E10.25009
G1 X102.692 Y101.360 E10.34686
G1 X102.753 Y101.973 E10.37515
G1 X104.453 Y103.673 E10.48546
G1 X104.340 Y105.220 F7800.000
G1 X104.695 Y105.574 E10.50844 F540.000
G92 E0
G1 X102.326 Y102.324 F7800.000
G1 X97.214 Y99.746 F7800.000
G1 X96.610 Y97.333 F7800.000
G1 X96.535 Y96.935 F7800.000
G1 X90.659 Y98.692 F7800.000
G1 X87.593 Y100.637 F7800.000
G1 X88.823 Y98.759 E0.10157 F378.000
G1 X88.823 Y92.577 E0.38130
G1 X90.434 Y92.577 E0.45420
G1 X90.434 Y98.759 E0.73395
G1 X96.125 Y107.423 E1.20299 F378.000
G1 X94.388 Y107.423 E1.28159
G1 X89.651 Y99.942 E1.68225
G1 X84.886 Y107.423 E2.08358
G1 X83.149 Y107.423 E2.16219
G1 X87.467 Y100.830 E2.51881
G1 X90.086 Y100.102 F7800.000
G1 X92.680 Y102.695 E2.68777 F540.000
G1 X92.003 Y103.129 F7800.000
G1 X94.805 Y105.931 E2.87030 F540.000
G1 X93.921 Y106.157 F7800.000
G1 X94.961 Y107.197 E2.93804 F540.000
G1 X95.516 Y107.197 E2.96362
G1 X92.962 Y104.643 E3.12998
G1 X93.742 Y104.313 F7800.000
G1 X91.045 Y101.616 E3.30573 F540.000
G1 X91.617 Y101.077 F7800.000
G1 X89.049 Y98.510 E3.47299 F540.000
G1 X88.932 Y98.948 E3.49388
G1 X89.617 Y99.633 E3.53850
G1 X89.401 Y99.972 E3.55702
G1 X88.712 Y99.283 E3.60188
G1 X88.493 Y99.619 E3.62035
G1 X89.185 Y100.311 E3.66545
G1 X88.969 Y100.650 E3.68397
G1 X88.273 Y99.954 E3.72931
G1 X88.053 Y100.290 E3.74778
G1 X88.753 Y100.989 E3.79336
G1 X88.537 Y101.328 E3.81189
G1 X87.833 Y100.625 E3.85771
G1 X87.614 Y100.961 E3.87618
G1 X88.321 Y101.668 E3.92224
G1 X88.105 Y102.007 E3.94076
G1 X87.394 Y101.296 E3.98706
G1 X87.174 Y101.632 E4.00554
G1 X87.889 Y102.346 E4.05208
G1 X87.673 Y102.685 E4.07060
G1 X86.955 Y101.967 E4.11738
G1 X86.735 Y102.302 E4.13585
G1 X87.457 Y103.024 E4.18287
G1 X87.241 Y103.363 E4.20140
G1 X86.515 Y102.638 E4.24866
G1 X86.295 Y102.973 E4.26713
G1 X87.025 Y103.703 E4.31463
G1 X86.809 Y104.042 E4.33316
G1 X86.076 Y103.309 E4.38090
G1 X85.856 Y103.644 E4.39937
G1 X86.593 Y104.381 E4.44736
G1 X86.376 Y104.720 E4.46588
G1 X85.636 Y103.980 E4.51410
G1 X85.417 Y104.315 E4.53258
G1 X86.160 Y105.059 E4.58104
G1 X85.944 Y105.398 E4.59956
G1 X85.197 Y104.651 E4.64827
G1 X84.977 Y104.986 E4.66674
G1 X85.728 Y105.738 E4.71568
G1 X85.512 Y106.077 E4.73421
G1 X84.757 Y105.322 E4.78339
G1 X84.538 Y105.657 E4.80187
G1 X85.296 Y106.416 E4.85129
G1 X85.080 Y106.755 E4.86981
G1 X84.318 Y105.993 E4.91948
G1 X84.098 Y106.328 E4.93795
G1 X84.864 Y107.094 E4.98786
G1 X84.412 Y107.197 E5.00923
G1 X83.878 Y106.664 E5.04398
G1 X83.659 Y106.999 E5.06245
G1 X83.857 Y107.197 E5.07536
G1 X89.598 Y98.582 F7800.000
G1 X89.598 Y98.582 F7800.000
G1 X90.554 Y99.459 F7800.000
G1 X89.049 Y97.955 E5.17338 F540.000
G1 X89.049 Y97.399 E5.19895
G1 X90.208 Y98.558 E5.27446
G1 X90.208 Y98.003 E5.30004
G1 X89.049 Y96.844 E5.37555
G1 X89.049 Y96.289 E5.40112
G1 X90.208 Y97.448 E5.47663
G1 X90.208 Y96.893 E5.50221
G1 X89.049 Y95.734 E5.57772
G1 X89.049 Y95.179 E5.60330
G1 X90.208 Y96.338 E5.67881
G1 X90.208 Y95.782 E5.70438
G1 X89.049 Y94.623 E5.77989
G1 X89.049 Y94.068 E5.80547
G1 X90.208 Y95.227 E5.88098
G1 X90.208 Y94.672 E5.90655
G1 X89.049 Y93.513 E5.98207
G1 X89.049 Y92.958 E6.00764
G1 X90.208 Y94.117 E6.08315
G1 X90.208 Y93.562 E6.10873
G1 X89.449 Y92.803 E6.15816
G1 X90.005 Y92.803 E6.18373
G1 X90.208 Y93.007 E6.19700
M106 S255
G92 E0
G1 Z0.600 F7800.000
G1 X103.157 Y100.047 F7800.000
G1 X103.262 Y98.678 E0.41153 F600.000
G1 X103.381 Y97.973 E0.62586
G1 X103.523 Y97.439 E0.79152
G1 X103.924 Y96.327 E1.14548
G1 X104.513 Y95.391 E1.47684
G1 X104.828 Y94.989 E1.62985
G1 X105.019 Y94.779 E1.71523
G1 X105.212 Y94.596 E1.79480
G1 X106.071 Y93.933 E2.11989
G1 X106.397 Y93.754 E2.23136
G1 X107.111 Y93.449 E2.46387
G1 X107.756 Y93.240 E2.66725
G1 X108.307 Y93.127 E2.83582
G1 X109.674 Y93.002 E3.24710
G1 X111.029 Y93.123 E3.65472
G1 X111.615 Y93.240 E3.83385
G1 X112.225 Y93.433 E4.02546
G1 X112.982 Y93.752 E4.27153
G1 X113.278 Y93.910 E4.37211
G1 X114.155 Y94.580 E4.70267
G1 X114.337 Y94.750 E4.77748
G1 X114.530 Y94.962 E4.86333
G1 X114.865 Y95.390 E5.02623
G1 X115.457 Y96.339 E5.36129
G1 X115.854 Y97.454 E5.71594
G1 X116.024 Y98.145 E5.92927
G1 X116.107 Y98.688 E6.09399
G1 X116.210 Y100.065 E6.50779
G1 X116.104 Y101.445 E6.92233
G1 X115.985 Y102.140 E7.13364
G1 X115.844 Y102.667 E7.29724
G1 X115.446 Y103.754 E7.64414
G1 X114.860 Y104.668 E7.96932
G1 X114.546 Y105.061 E8.12003
G1 X114.348 Y105.273 E8.20698
G1 X114.161 Y105.446 E8.28337
G1 X113.297 Y106.094 E8.60707
G1 X112.981 Y106.261 E8.71416
G1 X112.251 Y106.563 E8.95086
G1 X111.621 Y106.761 E9.14865
G1 X111.054 Y106.873 E9.32169
G1 X109.710 Y106.992 E9.72602
G1 X107.986 Y106.812 E10.24540
G1 X107.763 Y106.773 E10.31347
G1 X106.400 Y106.264 E10.74920
G1 X106.073 Y106.101 E10.85885
G1 X105.036 Y105.287 E11.25388
G1 X104.820 Y105.088 E11.34188
G1 X103.909 Y103.753 E11.82618
G1 X103.373 Y102.162 E12.32903
G1 X103.331 Y101.938 E12.39747
G1 X103.157 Y100.047 E12.96633
G92 E0
G1 X102.503 Y97.130 F7800.000
G1 X96.621 Y96.122 F7800.000
G1 X92.851 Y92.352 F7800.000
G1 X90.659 Y92.352 F7800.000
G1 X89.629 Y92.352 F7800.000
G1 X89.629 Y99.209 E2.05473 F600.000
G1 X89.755 Y99.286 E2.09907
G1 X90.394 Y99.891 E2.36271
G1 X95.397 Y107.648 E5.12860
G1 X89.598 Y98.582 F7800.000
G1 X89.598 Y98.582 F7800.000
G1 X83.875 Y107.648 F7800.000
G1 X88.893 Y99.880 E7.89969 F600.000
G1 X89.506 Y99.287 E8.15525
G1 X90.659 Y98.560 E8.56368
G92 E0
G1 Z0.900 F7800.000
G1 X103.157 Y100.047 F7800.000
G1 X103.262 Y98.678 E0.41153 F600.000
G1 X103.381 Y97.973 E0.62586
G1 X103.523 Y97.439 E0.79152
G1 X103.924 Y96.327 E1.14548
G1 X104.513 Y95.391 E1.47684
G1 X104.828 Y94.989 E1.62985
G1 X105.019 Y94.779 E1.71523
G1 X105.212 Y94.596 E1.79480
G1 X106.071 Y93.933 E2.11989
G1 X106.397 Y93.754 E2.23136
G1 X107.111 Y93.449 E2.46387
G1 X107.756 Y93.240 E2.66725
G1 X108.307 Y93.127 E2.83582
G1 X109.674 Y93.002 E3.24710
G1 X111.029 Y93.123 E3.65472
G1 X111.615 Y93.240 E3.83385
G1 X112.225 Y93.433 E4.02546
G1 X112.982 Y93.752 E4.27153
G1 X113.278 Y93.910 E4.37211
G1 X114.155 Y94.580 E4.70267
G1 X114.337 Y94.750 E4.77748
G1 X114.530 Y94.962 E4.86333
G1 X114.865 Y95.390 E5.02623
G1 X115.457 Y96.339 E5.36129
G1 X115.854 Y97.454 E5.71595
G1 X116.024 Y98.145 E5.92928
G1 X116.107 Y98.688 E6.09399
G1 X116.210 Y100.065 E6.50779
G1 X116.104 Y101.445 E6.92233
G1 X115.985 Y102.140 E7.13364
G1 X115.844 Y102.667 E7.29724
G1 X115.446 Y103.754 E7.64414
G1 X114.860 Y104.668 E7.96932
G1 X114.546 Y105.061 E8.12004
G1 X114.348 Y105.273 E8.20698
G1 X114.161 Y105.446 E8.28337
G1 X113.297 Y106.094 E8.60707
G1 X112.981 Y106.261 E8.71416
G1 X112.251 Y106.563 E8.95086
G1 X111.621 Y106.761 E9.14865
G1 X111.054 Y106.873 E9.32169
G1 X109.710 Y106.992 E9.72602
G1 X107.986 Y106.812 E10.24540
G1 X107.763 Y106.773 E10.31347
G1 X106.400 Y106.264 E10.74920
G1 X106.073 Y106.101 E10.85885
G1 X105.036 Y105.287 E11.25388
G1 X104.820 Y105.088 E11.34188
G1 X103.909 Y103.753 E11.82618
G1 X103.373 Y102.162 E12.32903
G1 X103.331 Y101.938 E12.39747
G1 X103.157 Y100.047 E12.96633
G92 E0
G1 X102.503 Y97.130 F7800.000
G1 X96.621 Y96.122 F7800.000
G1 X92.851 Y92.352 F7800.000
G1 X90.659 Y92.352 F7800.000
G1 X89.629 Y92.352 F7800.000
G1 X89.629 Y99.209 E2.05473 F600.000
G1 X89.755 Y99.286 E2.09907
G1 X90.394 Y99.891 E2.36271
G1 X95.397 Y107.648 E5.12860
G1 X89.598 Y98.582 F7800.000
G1 X89.598 Y98.582 F7800.000
G1 X83.875 Y107.648 F7800.000
G1 X88.893 Y99.880 E7.89969 F600.000
G1 X89.506 Y99.287 E8.15525
G1 X90.659 Y98.560 E8.56368
G92 E0
G1 Z1.200 F7800.000
G1 X103.157 Y100.047 F7800.000
G1 X103.262 Y98.678 E0.41153 F600.000
G1 X103.381 Y97.973 E0.62586
G1 X103.523 Y97.439 E0.79152
G1 X103.924 Y96.327 E1.14548
G1 X104.513 Y95.391 E1.47684
G1 X104.828 Y94.989 E1.62985
G1 X105.019 Y94.779 E1.71523
G1 X105.212 Y94.596 E1.79480
G1 X106.071 Y93.933 E2.11989
G1 X106.397 Y93.754 E2.23137
G1 X107.111 Y93.449 E2.46387
G1 X107.756 Y93.240 E2.66725
G1 X108.307 Y93.127 E2.83582
G1 X109.674 Y93.002 E3.24710
G1 X111.029 Y93.123 E3.65472
G1 X111.615 Y93.240 E3.83385
G1 X112.225 Y93.433 E4.02546
G1 X112.982 Y93.752 E4.27153
G1 X113.278 Y93.910 E4.37211
G1 X114.155 Y94.580 E4.70267
G1 X114.337 Y94.750 E4.77748
G1 X114.530 Y94.962 E4.86333
G1 X114.865 Y95.390 E5.02623
G1 X115.457 Y96.339 E5.36129
G1 X115.854 Y97.454 E5.71594
G1 X116.024 Y98.145 E5.92928
G1 X116.107 Y98.688 E6.09399
G1 X116.210 Y100.065 E6.50779
G1 X116.104 Y101.445 E6.92233
G1 X115.985 Y102.140 E7.13364
G1 X115.844 Y102.667 E7.29724
G1 X115.446 Y103.754 E7.64414
G1 X114.860 Y104.668 E7.96932
G1 X114.546 Y105.061 E8.12004
G1 X114.348 Y105.273 E8.20698
G1 X114.161 Y105.446 E8.28337
G1 X113.297 Y106.094 E8.60707
G1 X112.981 Y106.261 E8.71416
G1 X112.251 Y106.563 E8.95086
G1 X111.621 Y106.761 E9.14865
G1 X111.054 Y106.873 E9.32169
G1 X109.710 Y106.992 E9.72602
G1 X107.986 Y106.812 E10.24540
G1 X107.763 Y106.773 E10.31347
G1 X106.400 Y106.264 E10.74920
G1 X106.073 Y106.101 E10.85885
G1 X105.036 Y105.287 E11.25388
G1 X104.820 Y105.088 E11.34188
G1 X103.909 Y103.753 E11.82618
G1 X103.373 Y102.162 E12.32903
G1 X103.331 Y101.938 E12.39747
G1 X103.157 Y100.047 E12.96633
G92 E0
G1 X102.503 Y97.130 F7800.000
G1 X96.621 Y96.122 F7800.000
G1 X92.851 Y92.352 F7800.000
G1 X90.659 Y92.352 F7800.000
G1 X89.629 Y92.352 F7800.000
G1 X89.629 Y99.209 E2.05473 F600.000
G1 X89.755 Y99.286 E2.09907
G1 X90.394 Y99.891 E2.36271
G1 X95.397 Y107.648 E5.12860
G1 X89.598 Y98.582 F7800.000
G1 X89.598 Y98.582 F7800.000
G1 X83.875 Y107.648 F7800.000
