; generated by Slic3r 1.2.9 on 2016-03-11 at 01:32:45

; external perimeters extrusion width = 1.54mm
; perimeters extrusion width = 2.62mm
; infill extrusion width = 6.27mm
; solid infill extrusion width = 2.62mm
; top infill extrusion width = 2.62mm

M107
M104 S30 ; set temperature
G28 ; home all axes
G1 Z5 F5000 ; lift nozzle
M302
M92 E10000
M500
M501
G1 E100
M109 S30 ; wait for temperature to be reached
G21 ; set units to millimeters
G90 ; use absolute coordinates
M82 ; use absolute distances for extrusion
G92 E0
G1 Z0.300 F7800.000
G1 X110.813 Y94.442 F7800.000
G1 X112.825 Y94.939 E0.09377 F378.000
G1 X114.280 Y95.730 E0.16873
G1 X115.463 Y96.886 E0.24356
G1 X116.338 Y98.354 E0.32086
G1 X116.865 Y100.076 E0.40239
G1 X117.042 Y102.063 E0.49261
G1 X116.944 Y103.562 E0.56061
G1 X116.649 Y104.919 E0.62342
G1 X116.161 Y106.130 E0.68254
G1 X115.491 Y107.179 E0.73884
G1 X114.650 Y108.044 E0.79345
G1 X113.634 Y108.730 E0.84892
G1 X112.461 Y109.229 E0.90658
G1 X111.149 Y109.530 E0.96749
G1 X109.700 Y109.630 E1.03323
G1 X107.536 Y109.406 E1.13167
G1 X105.732 Y108.738 E1.21870
G1 X104.273 Y107.631 E1.30157
G1 X103.196 Y106.131 E1.38514
G1 X102.547 Y104.276 E1.47405
G1 X102.328 Y102.055 E1.57504
G1 X102.417 Y100.611 E1.64051
G1 X102.684 Y99.290 E1.70150
G1 X103.126 Y98.094 E1.75917
G1 X103.733 Y97.048 E1.81393
G1 X104.497 Y96.169 E1.86657
G1 X105.417 Y95.456 E1.91928
G1 X106.483 Y94.918 E1.97331
G1 X107.681 Y94.566 E2.02980
G1 X109.165 Y94.383 E2.09744
G1 X109.698 Y92.960 E2.16619
G1 X110.255 Y91.961 E2.21794
G1 X110.882 Y91.243 E2.26105
G1 X111.602 Y90.760 E2.30032
G1 X112.449 Y90.468 E2.34082
G1 X113.434 Y90.369 E2.38564
G1 X113.987 Y90.393 E2.41069
G1 X114.660 Y90.473 E2.44136 F378.000
G1 X115.134 Y90.567 E2.46320
G1 X115.134 Y91.566 E2.50839
G1 X114.564 Y91.490 E2.53442
G1 X114.105 Y91.470 E2.55520
G1 X113.369 Y91.541 E2.58866
G1 X112.709 Y91.762 E2.62016
G1 X112.136 Y92.132 E2.65099
G1 X111.651 Y92.661 E2.68349
G1 X111.241 Y93.357 E2.72002
G1 X110.898 Y94.227 E2.76235
G1 X110.733 Y95.705 F7800.000
G1 X111.358 Y95.774 E2.79080 F378.000
G1 X112.774 Y96.343 E2.85985
G1 X113.909 Y97.295 E2.92688
G1 X114.731 Y98.588 E2.99620
G1 X115.219 Y100.178 E3.07146
G1 X115.380 Y102.059 E3.15691
G1 X115.217 Y103.869 E3.23911
G1 X114.725 Y105.414 E3.31249
G1 X113.897 Y106.688 E3.38123
G1 X112.762 Y107.636 E3.44815
G1 X111.358 Y108.203 E3.51669
G1 X109.697 Y108.390 E3.59231
G1 X108.024 Y108.206 E3.66847
G1 X106.611 Y107.647 E3.73725
G1 X105.470 Y106.711 E3.80402
G1 X104.638 Y105.443 E3.87263
G1 X104.144 Y103.890 E3.94637
G1 X103.981 Y102.059 E4.02957
G1 X104.146 Y100.230 E4.11265
G1 X104.645 Y98.659 E4.18726
G1 X105.483 Y97.350 E4.25759
G1 X106.626 Y96.369 E4.32574
G1 X108.028 Y95.781 E4.39453 F378.000
G1 X109.674 Y95.587 E4.46955
G1 X110.504 Y95.679 E4.50732
G1 X112.075 Y95.779 F7800.000
G1 X111.052 Y94.756 E4.57314 F540.000
G1 X110.481 Y94.734 E4.59912
G1 X109.585 Y93.838 E4.65676
G1 X112.991 Y96.147 F7800.000
G1 X111.780 Y94.936 E4.73468 F540.000
G1 X112.508 Y95.116 E4.76879
G1 X116.217 Y98.824 E5.00732
G1 X116.458 Y99.614 F7800.000
G1 X114.427 Y97.583 E5.13801 F540.000
G1 X115.596 Y97.656 F7800.000
G1 X113.630 Y95.690 E5.26446 F540.000
G1 X115.045 Y98.750 F7800.000
G1 X116.656 Y100.360 E5.36804 F540.000
G1 X116.709 Y100.962 E5.39552
G1 X115.288 Y99.541 E5.48695
G1 X115.460 Y100.260 E5.52059
G1 X116.763 Y101.564 E5.60444
G1 X116.814 Y102.163 E5.63179
G1 X115.511 Y100.860 E5.71563
G1 X115.562 Y101.459 E5.74299
G1 X116.781 Y102.677 E5.82135
G1 X116.747 Y103.192 E5.84479
G1 X115.601 Y102.046 E5.91851
G1 X115.556 Y102.549 E5.94148
G1 X116.700 Y103.693 E6.01508
G1 X116.602 Y104.143 E6.03605
G1 X115.510 Y103.052 E6.10627
G1 X115.465 Y103.555 E6.12924
G1 X116.504 Y104.594 E6.19608
G1 X116.389 Y105.026 E6.21645
G1 X115.384 Y104.021 E6.28110
G1 X115.251 Y104.437 E6.30094
G1 X116.231 Y105.417 E6.36399
G1 X116.074 Y105.808 E6.38315
G1 X115.119 Y104.853 E6.44459
G1 X114.986 Y105.268 E6.46443
G1 X115.898 Y106.180 E6.52308
G1 X115.684 Y106.514 E6.54113
G1 X114.810 Y105.640 E6.59737
G1 X114.594 Y105.972 E6.61539
G1 X115.470 Y106.849 E6.67177
G1 X115.233 Y107.160 E6.68956
G1 X114.378 Y106.305 E6.74456
G1 X114.162 Y106.637 E6.76258
G1 X114.959 Y107.434 E6.81384
G1 X114.685 Y107.708 E6.83147
G1 X113.907 Y106.930 E6.88150
G1 X113.609 Y107.180 E6.89920
G1 X114.404 Y107.975 E6.95037
G1 X114.077 Y108.196 E6.96833
G1 X113.310 Y107.429 E7.01767
G1 X113.012 Y107.679 E7.03537
G1 X113.750 Y108.417 E7.08287
G1 X113.398 Y108.613 E7.10121
G1 X112.674 Y107.889 E7.14777
G1 X112.283 Y108.047 E7.16693
G1 X113.013 Y108.777 E7.21387
G1 X112.628 Y108.940 E7.23288
G1 X111.893 Y108.204 E7.28021
G1 X111.502 Y108.362 E7.29936
G1 X112.211 Y109.071 E7.34497
G1 X111.765 Y109.173 E7.36578
G1 X111.049 Y108.457 E7.41188
G1 X110.556 Y108.512 E7.43443
G1 X111.319 Y109.276 E7.48352
G1 X110.827 Y109.331 E7.50607
G1 X110.063 Y108.568 E7.55516
G1 X109.559 Y108.612 E7.57817
G1 X110.314 Y109.367 E7.62670
G1 X109.801 Y109.402 E7.65008
G1 X108.943 Y108.544 E7.70526
G1 X108.327 Y108.476 E7.73345
G1 X109.192 Y109.341 E7.78910
G1 X108.581 Y109.278 E7.81707
G1 X107.638 Y108.335 E7.87774
G1 X106.731 Y107.976 F7800.000
G1 X107.969 Y109.214 E7.95740 F540.000
G1 X107.218 Y109.011 E7.99279
G1 X103.002 Y104.795 E8.26399
G1 X102.755 Y104.001 E8.30182
G1 X104.489 Y105.735 E8.41334
G1 X104.196 Y104.893 F7800.000
G1 X102.696 Y103.393 E8.50983 F540.000
G1 X102.636 Y102.785 E8.53762
G1 X103.940 Y104.089 E8.62151
G1 X103.872 Y103.473 E8.64968
G1 X102.576 Y102.177 E8.73307
G1 X102.576 Y101.629 E8.75799
G1 X103.819 Y102.871 E8.83791
G1 X103.765 Y102.270 E8.86539
G1 X102.608 Y101.112 E8.93982
G1 X102.640 Y100.596 E8.96335
G1 X103.789 Y101.746 E9.03729
G1 X103.835 Y101.243 E9.06025
G1 X102.729 Y100.137 E9.13139
G1 X102.821 Y99.681 E9.15256
G1 X103.880 Y100.740 E9.22070
G1 X103.928 Y100.240 E9.24356
G1 X102.921 Y99.233 E9.30832
G1 X103.069 Y98.833 E9.32772
G1 X104.060 Y99.824 E9.39146
G1 X104.192 Y99.407 E9.41131
G1 X103.217 Y98.433 E9.47402
G1 X103.380 Y98.047 E9.49305
G1 X104.324 Y98.991 E9.55378
G1 X104.463 Y98.582 E9.57344
G1 X103.581 Y97.700 E9.63014
G1 X103.782 Y97.354 E9.64838
G1 X104.677 Y98.248 E9.70590
G1 X104.891 Y97.914 E9.72395
G1 X104.005 Y97.028 E9.78091
G1 X104.260 Y96.735 E9.79858
G1 X105.105 Y97.579 E9.85291
G1 X105.319 Y97.245 E9.87096
G1 X104.521 Y96.447 E9.92229
G1 X104.800 Y96.178 E9.93993
G1 X105.609 Y96.988 E9.99198
G1 X105.904 Y96.735 E10.00966
G1 X105.109 Y95.939 E10.06082
G1 X105.418 Y95.700 E10.07859
G1 X106.199 Y96.481 E10.12885
G1 X106.494 Y96.228 E10.14653
G1 X105.767 Y95.501 E10.19327
G1 X106.132 Y95.317 E10.21183
G1 X106.865 Y96.051 E10.25900
G1 X107.251 Y95.889 E10.27804
G1 X106.496 Y95.133 E10.32662
G1 X106.916 Y95.006 E10.34660
G1 X107.637 Y95.727 E10.39297
G1 X108.023 Y95.565 E10.41202
G1 X107.340 Y94.881 E10.45598
G1 X107.779 Y94.772 E10.47655
G1 X108.512 Y95.505 E10.52369
G1 X109.002 Y95.447 E10.54615
G1 X108.267 Y94.712 E10.59346
G1 X108.755 Y94.651 E10.61581
G1 X109.493 Y95.389 E10.66328
G1 X110.042 Y95.391 E10.68826
G1 X109.242 Y94.591 E10.73968
G1 X109.436 Y94.236 E10.75806
G1 X110.659 Y95.459 E10.83672
G1 X111.276 Y95.528 E10.86495
G1 X110.324 Y94.576 E10.92617
G1 X110.636 Y94.340 E10.94397
G1 X109.735 Y93.439 E11.00197
G1 X109.884 Y93.040 E11.02133
G1 X110.791 Y93.947 E11.07970
G1 X110.946 Y93.554 E11.09892
G1 X110.076 Y92.684 E11.15488
G1 X110.273 Y92.332 E11.17321
G1 X111.119 Y93.179 E11.22764
G1 X111.322 Y92.834 E11.24585
G1 X110.482 Y91.993 E11.29990
G1 X110.737 Y91.701 E11.31757
G1 X111.537 Y92.501 E11.36902
G1 X111.800 Y92.215 E11.38667
G1 X110.993 Y91.408 E11.43854
G1 X111.318 Y91.185 E11.45647
G1 X112.074 Y91.941 E11.50508
G1 X112.406 Y91.725 E11.52311
G1 X111.646 Y90.965 E11.57202
G1 X112.050 Y90.821 E11.59155
G1 X112.759 Y91.530 E11.63711
G1 X113.170 Y91.392 E11.65682
G1 X112.464 Y90.686 E11.70224
G1 X112.962 Y90.636 E11.72501
G1 X113.623 Y91.297 E11.76752
G1 X114.122 Y91.248 E11.79034
G1 X113.475 Y90.601 E11.83199
G1 X114.061 Y90.640 E11.85874
G1 X114.689 Y91.267 E11.89909
G1 X114.699 Y90.729 E11.92356
G1 X114.908 Y90.938 E11.93701
G92 E0
G1 X109.829 Y94.824 F7800.000
G1 X103.106 Y102.041 F7800.000
G1 X103.297 Y105.639 F7800.000
G1 X106.348 Y108.690 E0.19624 F540.000
G1 X104.696 Y107.586 F7800.000
G1 X104.342 Y107.231 E0.21905 F540.000
G92 E0
G1 X102.995 Y106.235 F7800.000
G1 X99.510 Y107.456 F7800.000
G1 X99.609 Y107.650 F7800.000
G1 X96.542 Y109.664 F7800.000
G1 X93.712 Y108.371 F7800.000
G1 X89.651 Y101.958 E0.34348 F378.000
G1 X84.886 Y109.439 E0.74481
G1 X83.149 Y109.439 E0.82342
G1 X88.823 Y100.775 E1.29206
G1 X88.823 Y94.593 E1.57180
G1 X90.434 Y94.593 E1.64470
G1 X90.434 Y100.775 E1.92444
G1 X96.125 Y109.439 E2.39348 F378.000
G1 X94.388 Y109.439 E2.47208
G1 X93.836 Y108.567 E2.51881
G1 X93.921 Y108.173 F7800.000
G1 X94.961 Y109.213 E2.58655 F540.000
G1 X95.516 Y109.213 E2.61212
G1 X92.962 Y106.659 E2.77849
G1 X93.742 Y106.329 F7800.000
G1 X91.045 Y103.632 E2.95423 F540.000
G1 X91.617 Y103.093 F7800.000
G1 X89.049 Y100.526 E3.12150 F540.000
G1 X88.932 Y100.964 E3.14239
G1 X89.617 Y101.649 E3.18700
G1 X89.401 Y101.988 E3.20553
G1 X88.712 Y101.299 E3.25039
G1 X88.493 Y101.635 E3.26886
G1 X89.185 Y102.327 E3.31396
G1 X88.969 Y102.666 E3.33248
G1 X88.273 Y101.970 E3.37782
G1 X88.053 Y102.306 E3.39629
G1 X88.753 Y103.005 E3.44187
G1 X88.537 Y103.344 E3.46039
G1 X87.833 Y102.641 E3.50621
G1 X87.614 Y102.977 E3.52469
G1 X88.321 Y103.684 E3.57075
G1 X88.105 Y104.023 E3.58927
G1 X87.394 Y103.312 E3.63557
G1 X87.174 Y103.648 E3.65404
G1 X87.889 Y104.362 E3.70058
G1 X87.673 Y104.701 E3.71911
G1 X86.955 Y103.983 E3.76589
G1 X86.735 Y104.318 E3.78436
G1 X87.457 Y105.040 E3.83138
G1 X87.241 Y105.379 E3.84991
G1 X86.515 Y104.654 E3.89717
G1 X86.295 Y104.989 E3.91564
G1 X87.025 Y105.719 E3.96314
G1 X86.809 Y106.058 E3.98167
G1 X86.076 Y105.325 E4.02941
G1 X85.856 Y105.660 E4.04788
G1 X86.593 Y106.397 E4.09586
G1 X86.376 Y106.736 E4.11439
G1 X85.636 Y105.996 E4.16261
G1 X85.417 Y106.331 E4.18108
G1 X86.160 Y107.075 E4.22955
G1 X85.944 Y107.414 E4.24807
G1 X85.197 Y106.667 E4.29677
G1 X84.977 Y107.002 E4.31525
G1 X85.728 Y107.754 E4.36419
G1 X85.512 Y108.093 E4.38271
G1 X84.757 Y107.338 E4.43190
G1 X84.538 Y107.673 E4.45037
G1 X85.296 Y108.432 E4.49980
G1 X85.080 Y108.771 E4.51832
G1 X84.318 Y108.009 E4.56799
G1 X84.098 Y108.344 E4.58646
G1 X84.864 Y109.110 E4.63636
G1 X84.412 Y109.213 E4.65773
G1 X83.878 Y108.680 E4.69249
G1 X83.659 Y109.015 E4.71096
G1 X83.857 Y109.213 E4.72386
G1 X89.598 Y100.598 F7800.000
G1 X89.598 Y100.598 F7800.000
G1 X92.003 Y105.145 F7800.000
G1 X94.805 Y107.947 E4.90639 F540.000
G1 X92.680 Y104.711 F7800.000
G1 X90.086 Y102.118 E5.07535 F540.000
G1 X90.554 Y101.475 F7800.000
G1 X89.049 Y99.971 E5.17338 F540.000
G1 X89.049 Y99.415 E5.19895
G1 X90.208 Y100.574 E5.27446
G1 X90.208 Y100.019 E5.30004
G1 X89.049 Y98.860 E5.37555
G1 X89.049 Y98.305 E5.40112
G1 X90.208 Y99.464 E5.47663
G1 X90.208 Y98.909 E5.50221
G1 X89.049 Y97.750 E5.57772
G1 X89.049 Y97.195 E5.60329
G1 X90.208 Y98.354 E5.67881
G1 X90.208 Y97.798 E5.70438
G1 X89.049 Y96.639 E5.77989
G1 X89.049 Y96.084 E5.80547
G1 X90.208 Y97.243 E5.88098
G1 X90.208 Y96.688 E5.90655
G1 X89.049 Y95.529 E5.98206
G1 X89.049 Y94.974 E6.00764
G1 X90.208 Y96.133 E6.08315
G1 X90.208 Y95.578 E6.10872
G1 X89.449 Y94.819 E6.15816
G1 X90.005 Y94.819 E6.18373
G1 X90.208 Y95.023 E6.19700
M106 S255
G92 E0
G1 Z0.600 F7800.000
G1 X108.950 Y94.182 F7800.000
G1 X110.915 Y95.103 E0.65005 F600.000
G1 X111.605 Y95.241 E0.86102
G1 X112.585 Y95.558 E1.16951
G1 X112.977 Y95.742 E1.29934
G1 X113.212 Y95.877 E1.38056
G1 X113.851 Y96.312 E1.61210
G1 X114.327 Y96.743 E1.80457
G1 X114.521 Y96.948 E1.88904
G1 X114.857 Y97.363 E2.04931
G1 X115.348 Y98.160 E2.32964
G1 X115.599 Y98.681 E2.50305
G1 X115.978 Y99.920 E2.89116
G1 X116.051 Y100.236 E2.98830
G1 X116.209 Y102.072 E3.54073
G1 X116.104 Y103.444 E3.95299
G1 X115.985 Y104.140 E4.16440
G1 X115.843 Y104.671 E4.32910
G1 X115.445 Y105.761 E4.67707
G1 X114.859 Y106.678 E5.00311
G1 X114.547 Y107.070 E5.15316
G1 X114.159 Y107.459 E5.31762
G1 X113.296 Y108.109 E5.64159
G1 X112.982 Y108.275 E5.74797
G1 X112.250 Y108.578 E5.98535
G1 X111.622 Y108.776 E6.18267
G1 X111.054 Y108.888 E6.35614
G1 X109.710 Y109.008 E6.76036
G1 X107.986 Y108.827 E7.27987
G1 X107.684 Y108.769 E7.37202
G1 X106.399 Y108.277 E7.78427
G1 X106.073 Y108.115 E7.89326
G1 X105.035 Y107.296 E8.28978
G1 X104.820 Y107.098 E8.37708
G1 X103.910 Y105.760 E8.86223
G1 X103.353 Y104.098 E9.38730
G1 X103.156 Y102.040 E10.00690
G1 X103.255 Y100.721 E10.40330
G1 X103.378 Y99.961 E10.63391
G1 X103.492 Y99.519 E10.77062
G1 X103.863 Y98.441 E11.11219
G1 X103.988 Y98.202 E11.19289
G1 X104.401 Y97.525 E11.43075
G1 X104.820 Y96.965 E11.64044
G1 X105.009 Y96.747 E11.72669
G1 X105.815 Y96.086 E12.03908
G1 X106.147 Y95.865 E12.15842
G1 X106.395 Y95.726 E12.24362
G1 X106.740 Y95.567 E12.35759
G1 X107.810 Y95.188 E12.69775
G1 X109.173 Y95.012 E13.10954
G1 X109.567 Y94.900 E13.23230
G1 X110.036 Y94.691 E13.38601
G1 X110.042 Y94.566 E13.42359
G1 X110.178 Y93.914 E13.62297
G1 X110.417 Y93.293 E13.82257
G1 X110.586 Y92.950 E13.93700
G1 X110.895 Y92.411 E14.12310
G1 X111.110 Y92.132 E14.22862
G1 X111.389 Y91.820 E14.35425
G1 X111.770 Y91.513 E14.50097
G1 X111.926 Y91.410 E14.55670
G1 X112.529 Y91.132 E14.75563
G1 X113.338 Y90.962 E15.00347
G1 X114.150 Y90.946 E15.24695
G1 X115.359 Y91.078 E15.61124
G92 E0
G1 X109.493 Y92.865 F7800.000
G1 X109.493 Y92.865 F7800.000
G1 X106.761 Y91.342 F7800.000
G1 X106.748 Y91.325 F7800.000
G1 X106.736 Y91.310 F7800.000
G1 X105.456 Y91.494 F7800.000
G1 X104.838 Y91.612 F7800.000
G1 X103.602 Y91.906 F7800.000
G1 X102.861 Y92.121 F7800.000
G1 X101.653 Y92.534 F7800.000
G1 X100.758 Y92.891 F7800.000
G1 X99.551 Y93.441 F7800.000
G1 X98.498 Y93.985 F7800.000
G1 X97.247 Y94.705 F7800.000
G1 X97.230 Y94.715 F7800.000
G1 X96.883 Y94.368 F7800.000
G1 X90.659 Y94.368 F7800.000
G1 X89.629 Y94.368 F7800.000
G1 X89.629 Y101.225 E2.05473 F600.000
G1 X89.755 Y101.302 E2.09907
G1 X90.394 Y101.907 E2.36271
G1 X95.397 Y109.664 E5.12860
G1 X89.598 Y100.598 F7800.000
G1 X89.598 Y100.598 F7800.000
G1 X83.875 Y109.664 F7800.000
G1 X88.893 Y101.896 E7.89969 F600.000
G1 X89.506 Y101.303 E8.15525
G1 X90.659 Y100.576 E8.56368
G92 E0
G1 Z0.900 F7800.000
G1 X108.950 Y94.182 F7800.000
G1 X110.915 Y95.103 E0.65005 F600.000
G1 X111.605 Y95.241 E0.86102
G1 X112.585 Y95.558 E1.16951
G1 X112.977 Y95.742 E1.29934
G1 X113.212 Y95.877 E1.38056
G1 X113.851 Y96.312 E1.61210
G1 X114.327 Y96.743 E1.80458
G1 X114.521 Y96.948 E1.88904
G1 X114.857 Y97.363 E2.04931
G1 X115.348 Y98.160 E2.32964
G1 X115.599 Y98.681 E2.50305
G1 X115.978 Y99.920 E2.89116
G1 X116.051 Y100.236 E2.98831
G1 X116.209 Y102.072 E3.54074
G1 X116.104 Y103.444 E3.95299
G1 X115.985 Y104.140 E4.16440
G1 X115.843 Y104.671 E4.32910
G1 X115.445 Y105.761 E4.67707
G1 X114.859 Y106.678 E5.00311
G1 X114.547 Y107.070 E5.15316
G1 X114.159 Y107.459 E5.31762
G1 X113.296 Y108.109 E5.64159
G1 X112.982 Y108.275 E5.74797
G1 X112.250 Y108.578 E5.98535
G1 X111.622 Y108.776 E6.18267
G1 X111.054 Y108.888 E6.35614
G1 X109.710 Y109.008 E6.76036
G1 X107.986 Y108.827 E7.27988
G1 X107.684 Y108.769 E7.37202
G1 X106.399 Y108.277 E7.78427
G1 X106.073 Y108.115 E7.89326
G1 X105.035 Y107.296 E8.28978
G1 X104.820 Y107.098 E8.37708
G1 X103.910 Y105.760 E8.86223
G1 X103.353 Y104.098 E9.38730
G1 X103.156 Y102.040 E10.00690
G1 X103.255 Y100.721 E10.40330
G1 X103.378 Y99.961 E10.63391
G1 X103.492 Y99.519 E10.77062
G1 X103.863 Y98.441 E11.11219
G1 X103.988 Y98.202 E11.19289
G1 X104.401 Y97.525 E11.43075
G1 X104.820 Y96.965 E11.64044
G1 X105.009 Y96.747 E11.72669
G1 X105.815 Y96.086 E12.03908
G1 X106.147 Y95.865 E12.15842
G1 X106.395 Y95.726 E12.24362
G1 X106.740 Y95.567 E12.35759
G1 X107.810 Y95.188 E12.69775
G1 X109.106 Y95.022 E13.08934
G1 X109.567 Y94.900 E13.23214
G1 X110.036 Y94.691 E13.38585
G1 X110.042 Y94.566 E13.42343
G1 X110.178 Y93.914 E13.62281
G1 X110.417 Y93.293 E13.82241
G1 X110.586 Y92.950 E13.93684
G1 X110.895 Y92.411 E14.12294
G1 X111.110 Y92.132 E14.22846
