; generated by Slic3r 1.2.9 on 2016-03-11 at 01:32:53

; external perimeters extrusion width = 1.54mm
; perimeters extrusion width = 2.62mm
; infill extrusion width = 6.27mm
; solid infill extrusion width = 2.62mm
; top infill extrusion width = 2.62mm

M107
M104 S30 ; set temperature
G28 ; home all axes
G1 Z5 F5000 ; lift nozzle
M302
M92 E10000
M500
M501
G1 E100
M109 S30 ; wait for temperature to be reached
G21 ; set units to millimeters
G90 ; use absolute coordinates
M82 ; use absolute distances for extrusion
G92 E0
G1 Z0.300 F7800.000
G1 X110.200 Y96.249 F7800.000
G1 X110.200 Y98.759 E0.11360 F378.000
G1 X115.891 Y107.423 E0.58263 F378.000
G1 X114.154 Y107.423 E0.66124
G1 X109.416 Y99.942 E1.06190
G1 X104.651 Y107.423 E1.46323
G1 X102.914 Y107.423 E1.54184
G1 X108.589 Y98.759 E2.01048
G1 X108.589 Y92.577 E2.29022
G1 X110.200 Y92.577 E2.36311
G1 X110.200 Y96.018 E2.51881
G1 X109.974 Y93.007 F7800.000
G1 X109.770 Y92.803 E2.53207 F540.000
G1 X109.215 Y92.803 E2.55765
G1 X109.974 Y93.562 E2.60708
G1 X109.974 Y94.117 E2.63266
G1 X108.815 Y92.958 E2.70817
G1 X108.815 Y93.513 E2.73374
G1 X109.974 Y94.672 E2.80925
G1 X109.974 Y95.227 E2.83483
G1 X108.815 Y94.068 E2.91034
G1 X108.815 Y94.623 E2.93592
G1 X109.974 Y95.782 E3.01143
G1 X109.974 Y96.338 E3.03700
G1 X108.815 Y95.179 E3.11251
G1 X108.815 Y95.734 E3.13809
G1 X109.974 Y96.893 E3.21360
G1 X109.974 Y97.448 E3.23917
G1 X108.815 Y96.289 E3.31469
G1 X108.815 Y96.844 E3.34026
G1 X109.974 Y98.003 E3.41577
G1 X109.974 Y98.558 E3.44135
G1 X108.815 Y97.399 E3.51686
G1 X108.815 Y97.955 E3.54243
G1 X110.319 Y99.459 E3.64045
G1 X109.852 Y100.102 F7800.000
G1 X112.445 Y102.695 E3.80941 F540.000
G1 X111.769 Y103.129 F7800.000
G1 X114.571 Y105.931 E3.99195 F540.000
G1 X113.686 Y106.157 F7800.000
G1 X114.726 Y107.197 E4.05968 F540.000
G1 X115.281 Y107.197 E4.08526
G1 X112.728 Y104.643 E4.25162
G1 X113.508 Y104.313 F7800.000
G1 X110.810 Y101.616 E4.42737 F540.000
G1 X111.382 Y101.077 F7800.000
G1 X108.815 Y98.510 E4.59463 F540.000
G1 X108.698 Y98.948 E4.61552
G1 X109.383 Y99.633 E4.66014
G1 X109.167 Y99.972 E4.67866
G1 X108.478 Y99.283 E4.72352
G1 X108.258 Y99.619 E4.74199
G1 X108.951 Y100.311 E4.78709
G1 X108.734 Y100.650 E4.80562
G1 X108.039 Y99.954 E4.85095
G1 X107.819 Y100.290 E4.86943
G1 X108.518 Y100.989 E4.91501
G1 X108.302 Y101.329 E4.93353
G1 X107.599 Y100.625 E4.97935
G1 X107.379 Y100.961 E4.99782
G1 X108.086 Y101.668 E5.04388
G1 X107.870 Y102.007 E5.06241
G1 X107.160 Y101.296 E5.10871
G1 X106.940 Y101.632 E5.12718
G1 X107.654 Y102.346 E5.17372
G1 X107.438 Y102.685 E5.19224
G1 X106.720 Y101.967 E5.23902
G1 X106.500 Y102.303 E5.25750
G1 X107.222 Y103.024 E5.30452
G1 X107.006 Y103.363 E5.32304
G1 X106.281 Y102.638 E5.37030
G1 X106.061 Y102.973 E5.38878
G1 X106.790 Y103.703 E5.43628
G1 X106.574 Y104.042 E5.45480
G1 X105.841 Y103.309 E5.50254
G1 X105.622 Y103.644 E5.52102
G1 X106.358 Y104.381 E5.56900
G1 X106.142 Y104.720 E5.58752
G1 X105.402 Y103.980 E5.63575
G1 X105.182 Y104.315 E5.65422
G1 X105.926 Y105.059 E5.70268
G1 X105.710 Y105.398 E5.72121
G1 X104.962 Y104.651 E5.76991
G1 X104.743 Y104.986 E5.78838
G1 X105.494 Y105.738 E5.83733
G1 X105.278 Y106.077 E5.85585
G1 X104.523 Y105.322 E5.90504
G1 X104.303 Y105.657 E5.92351
G1 X105.062 Y106.416 E5.97293
G1 X104.846 Y106.755 E5.99146
G1 X104.084 Y105.993 E6.04112
G1 X103.864 Y106.328 E6.05960
G1 X104.630 Y107.094 E6.10950
G1 X104.178 Y107.197 E6.13087
G1 X103.644 Y106.664 E6.16562
G1 X103.424 Y106.999 E6.18410
G1 X103.622 Y107.197 E6.19700
G92 E0
G1 X102.498 Y107.648 F7800.000
G1 X97.502 Y108.648 F7800.000
G1 X94.123 Y108.345 F7800.000
G1 X90.602 Y106.407 F7800.000
G1 X90.610 Y100.362 F7800.000
G1 X86.515 Y103.748 F7800.000
G1 X89.783 Y98.759 E0.26987 F378.000
G1 X89.783 Y92.577 E0.54960
G1 X91.394 Y92.577 E0.62250
G1 X91.394 Y98.759 E0.90224
G1 X97.085 Y107.423 E1.37128 F378.000
G1 X95.348 Y107.423 E1.44989
G1 X90.611 Y99.942 E1.85055
G1 X85.846 Y107.423 E2.25188
G1 X84.109 Y107.423 E2.33049
G1 X86.389 Y103.941 E2.51881
G1 X84.817 Y107.197 F7800.000
G1 X84.619 Y106.999 E2.53171 F540.000
G1 X84.838 Y106.664 E2.55018
G1 X85.372 Y107.197 E2.58494
G1 X85.824 Y107.094 E2.60631
G1 X85.058 Y106.328 E2.65621
G1 X85.278 Y105.993 E2.67469
G1 X86.040 Y106.755 E2.72435
G1 X86.256 Y106.416 E2.74287
G1 X85.498 Y105.657 E2.79230
G1 X85.717 Y105.322 E2.81077
G1 X86.472 Y106.077 E2.85996
G1 X86.688 Y105.738 E2.87848
G1 X85.937 Y104.986 E2.92742
G1 X86.157 Y104.651 E2.94590
G1 X86.904 Y105.398 E2.99460
G1 X87.120 Y105.059 E3.01313
G1 X86.377 Y104.315 E3.06159
G1 X86.596 Y103.980 E3.08006
G1 X87.336 Y104.720 E3.12828
G1 X87.553 Y104.381 E3.14681
G1 X86.816 Y103.644 E3.19479
G1 X87.036 Y103.309 E3.21326
G1 X87.769 Y104.042 E3.26101
G1 X87.985 Y103.703 E3.27953
G1 X87.255 Y102.973 E3.32703
G1 X87.475 Y102.638 E3.34551
G1 X88.201 Y103.363 E3.39277
G1 X88.417 Y103.024 E3.41129
G1 X87.695 Y102.303 E3.45831
G1 X87.915 Y101.967 E3.47678
G1 X88.633 Y102.685 E3.52357
G1 X88.849 Y102.346 E3.54209
G1 X88.134 Y101.632 E3.58863
G1 X88.354 Y101.296 E3.60710
G1 X89.065 Y102.007 E3.65340
G1 X89.281 Y101.668 E3.67193
G1 X88.574 Y100.961 E3.71799
G1 X88.793 Y100.625 E3.73646
G1 X89.497 Y101.329 E3.78228
G1 X89.713 Y100.989 E3.80080
G1 X89.013 Y100.290 E3.84638
G1 X89.233 Y99.954 E3.86485
G1 X89.929 Y100.650 E3.91019
G1 X90.145 Y100.311 E3.92872
G1 X89.453 Y99.619 E3.97381
G1 X89.672 Y99.283 E3.99229
G1 X90.361 Y99.972 E4.03714
G1 X90.577 Y99.633 E4.05567
G1 X89.892 Y98.948 E4.10028
G1 X90.009 Y98.510 E4.12118
G1 X92.577 Y101.077 E4.28844
G1 X92.005 Y101.616 F7800.000
G1 X94.702 Y104.313 E4.46419 F540.000
G1 X93.922 Y104.643 F7800.000
G1 X96.476 Y107.197 E4.63055 F540.000
G1 X95.921 Y107.197 E4.65612
G1 X94.881 Y106.157 E4.72386
G1 X95.765 Y105.931 F7800.000
G1 X92.963 Y103.129 E4.90639 F540.000
G1 X93.640 Y102.695 F7800.000
G1 X91.046 Y100.102 E5.07535 F540.000
G1 X91.514 Y99.459 F7800.000
G1 X90.009 Y97.955 E5.17337 F540.000
G1 X90.009 Y97.399 E5.19895
G1 X91.168 Y98.558 E5.27446
G1 X91.168 Y98.003 E5.30004
G1 X90.009 Y96.844 E5.37555
G1 X90.009 Y96.289 E5.40112
G1 X91.168 Y97.448 E5.47663
G1 X91.168 Y96.893 E5.50221
G1 X90.009 Y95.734 E5.57772
G1 X90.009 Y95.179 E5.60329
G1 X91.168 Y96.338 E5.67881
G1 X91.168 Y95.782 E5.70438
G1 X90.009 Y94.623 E5.77989
G1 X90.009 Y94.068 E5.80547
G1 X91.168 Y95.227 E5.88098
G1 X91.168 Y94.672 E5.90655
G1 X90.009 Y93.513 E5.98206
G1 X90.009 Y92.958 E6.00764
G1 X91.168 Y94.117 E6.08315
G1 X91.168 Y93.562 E6.10872
G1 X90.409 Y92.803 E6.15816
G1 X90.965 Y92.803 E6.18373
G1 X91.168 Y93.007 E6.19700
M106 S255
G92 E0
G1 Z0.600 F7800.000
G1 X109.394 Y92.352 F7800.000
G1 X109.394 Y99.209 E2.05473 F600.000
G1 X109.521 Y99.286 E2.09907
G1 X110.159 Y99.891 E2.36271
G1 X115.163 Y107.648 E5.12860
G1 X109.364 Y98.582 F7800.000
G1 X109.364 Y98.582 F7800.000
G1 X103.641 Y107.648 F7800.000
G1 X108.659 Y99.880 E7.89969 F600.000
G1 X109.272 Y99.287 E8.15525
G1 X110.425 Y98.560 E8.56368
G92 E0
G1 X108.364 Y92.352 F7800.000
G1 X108.364 Y92.352 F7800.000
G1 X106.364 Y92.352 F7800.000
G1 X101.940 Y96.776 F7800.000
G1 X99.995 Y97.827 F7800.000
G1 X98.039 Y96.772 F7800.000
G1 X93.619 Y92.352 F7800.000
G1 X91.619 Y92.352 F7800.000
G1 X90.589 Y92.352 F7800.000
G1 X90.589 Y99.209 E2.05473 F600.000
G1 X90.715 Y99.286 E2.09907
G1 X91.354 Y99.891 E2.36271
G1 X96.357 Y107.648 E5.12860
G1 X90.558 Y98.582 F7800.000
G1 X90.558 Y98.582 F7800.000
G1 X84.835 Y107.648 F7800.000
G1 X89.853 Y99.880 E7.89969 F600.000
G1 X90.466 Y99.287 E8.15525
G1 X91.619 Y98.560 E8.56368
G92 E0
G1 Z0.900 F7800.000
G1 X109.394 Y92.352 F7800.000
G1 X109.394 Y99.209 E2.05473 F600.000
G1 X109.521 Y99.286 E2.09907
G1 X110.159 Y99.891 E2.36271
G1 X115.163 Y107.648 E5.12860
G1 X109.364 Y98.582 F7800.000
G1 X109.364 Y98.582 F7800.000
G1 X103.641 Y107.648 F7800.000
G1 X108.659 Y99.880 E7.89969 F600.000
G1 X109.272 Y99.287 E8.15525
G1 X110.425 Y98.560 E8.56368
G92 E0
G1 X108.364 Y92.352 F7800.000
G1 X108.364 Y92.352 F7800.000
G1 X106.364 Y92.352 F7800.000
G1 X101.940 Y96.776 F7800.000
G1 X99.995 Y97.827 F7800.000
G1 X98.039 Y96.772 F7800.000
G1 X93.619 Y92.352 F7800.000
G1 X91.619 Y92.352 F7800.000
G1 X90.589 Y92.352 F7800.000
G1 X90.589 Y99.209 E2.05473 F600.000
G1 X90.715 Y99.286 E2.09907
G1 X91.354 Y99.891 E2.36271
G1 X96.357 Y107.648 E5.12860
G1 X90.558 Y98.582 F7800.000
G1 X90.558 Y98.582 F7800.000
G1 X84.835 Y107.648 F7800.000
G1 X89.853 Y99.880 E7.89969 F600.000
G1 X90.466 Y99.287 E8.15525
G1 X91.619 Y98.560 E8.56368
G92 E0
G1 Z1.200 F7800.000
G1 X109.394 Y92.352 F7800.000
G1 X109.394 Y99.209 E2.05473 F600.000
G1 X109.521 Y99.286 E2.09907
G1 X110.159 Y99.891 E2.36271
G1 X115.163 Y107.648 E5.12860
G1 X109.364 Y98.582 F7800.000
G1 X109.364 Y98.582 F7800.000
G1 X103.641 Y107.648 F7800.000
G1 X108.659 Y99.880 E7.89969 F600.000
G1 X109.272 Y99.287 E8.15525
G1 X110.425 Y98.560 E8.56368
G92 E0
G1 X108.364 Y92.352 F7800.000
G1 X108.364 Y92.352 F7800.000
G1 X106.364 Y92.352 F7800.000
G1 X101.940 Y96.776 F7800.000
G1 X99.995 Y97.827 F7800.000
G1 X98.039 Y96.772 F7800.000
G1 X93.619 Y92.352 F7800.000
G1 X91.619 Y92.352 F7800.000
G1 X90.589 Y92.352 F7800.000
G1 X90.589 Y99.209 E2.05473 F600.000
G1 X90.715 Y99.286 E2.09907
G1 X91.354 Y99.891 E2.36271
G1 X96.357 Y107.648 E5.12860
G1 X90.558 Y98.582 F7800.000
G1 X90.558 Y98.582 F7800.000
G1 X84.835 Y107.648 F7800.000
G1 X89.853 Y99.880 E7.89969 F600.000
G1 X90.466 Y99.287 E8.15525
G1 X91.619 Y98.560 E8.56368
G92 E0
G1 Z1.500 F7800.000
G1 X109.394 Y92.352 F7800.000
G1 X109.394 Y99.209 E2.05473 F600.000
G1 X109.521 Y99.286 E2.09907
G1 X110.159 Y99.891 E2.36271
G1 X115.163 Y107.648 E5.12860
G1 X109.364 Y98.582 F7800.000
G1 X109.364 Y98.582 F7800.000
G1 X103.641 Y107.648 F7800.000
G1 X108.659 Y99.880 E7.89969 F600.000
G1 X109.272 Y99.287 E8.15525
G1 X110.425 Y98.560 E8.56368
G92 E0
G1 X108.364 Y92.352 F7800.000
G1 X108.364 Y92.352 F7800.000
G1 X106.364 Y92.352 F7800.000
G1 X101.940 Y96.776 F7800.000
G1 X99.995 Y97.827 F7800.000
G1 X98.039 Y96.772 F7800.000
G1 X93.619 Y92.352 F7800.000
G1 X91.619 Y92.352 F7800.000
G1 X90.589 Y92.352 F7800.000
G1 X90.589 Y99.209 E2.05473 F600.000
G1 X90.715 Y99.286 E2.09907
G1 X91.354 Y99.891 E2.36271
G1 X96.357 Y107.648 E5.12860
G1 X90.558 Y98.582 F7800.000
G1 X90.558 Y98.582 F7800.000
G1 X84.835 Y107.648 F7800.000
G1 X89.853 Y99.880 E7.89969 F600.000
G1 X90.466 Y99.287 E8.15525
G1 X91.619 Y98.560 E8.56368
G92 E0
G1 Z1.800 F7800.000
G1 X109.394 Y92.352 F7800.000
G1 X109.394 Y99.209 E2.05473 F600.000
G1 X109.521 Y99.286 E2.09907
G1 X110.159 Y99.891 E2.36271
G1 X115.163 Y107.648 E5.12860
G1 X109.364 Y98.582 F7800.000
G1 X109.364 Y98.582 F7800.000
G1 X103.641 Y107.648 F7800.000
G1 X108.659 Y99.880 E7.89969 F600.000
G1 X109.272 Y99.287 E8.15525
G1 X110.425 Y98.560 E8.56368
G92 E0
G1 X108.364 Y92.352 F7800.000
G1 X108.364 Y92.352 F7800.000
G1 X106.364 Y92.352 F7800.000
G1 X101.940 Y96.776 F7800.000
G1 X99.995 Y97.827 F7800.000
G1 X98.039 Y96.772 F7800.000
G1 X93.619 Y92.352 F7800.000
G1 X91.619 Y92.352 F7800.000
G1 X90.589 Y92.352 F7800.000
G1 X90.589 Y99.209 E2.05473 F600.000
G1 X90.715 Y99.286 E2.09907
G1 X91.354 Y99.891 E2.36271
G1 X96.357 Y107.648 E5.12860
G1 X90.558 Y98.582 F7800.000
G1 X90.558 Y98.582 F7800.000
G1 X84.835 Y107.648 F7800.000
G1 X89.853 Y99.880 E7.89969 F600.000
G1 X90.466 Y99.287 E8.15525
G1 X91.619 Y98.560 E8.56368
G92 E0
G1 Z2.100 F7800.000
G1 X109.394 Y92.352 F7800.000
G1 X109.394 Y99.209 E2.05473 F600.000
G1 X109.521 Y99.286 E2.09907
G1 X110.159 Y99.891 E2.36271
G1 X115.163 Y107.648 E5.12860
G92 E0
G1 X109.364 Y98.582 F7800.000
G1 X109.364 Y98.582 F7800.000
G1 X103.641 Y107.648 F7800.000
G1 X108.659 Y99.880 E2.77109 F600.000
G1 X109.272 Y99.287 E3.02666
G1 X110.425 Y98.560 E3.43508
G92 E0
G1 X108.364 Y92.352 F7800.000
G1 X108.364 Y92.352 F7800.000
G1 X106.364 Y92.352 F7800.000
G1 X101.940 Y96.776 F7800.000
G1 X99.995 Y97.827 F7800.000
G1 X98.039 Y96.772 F7800.000
G1 X93.619 Y92.352 F7800.000
G1 X91.619 Y92.352 F7800.000
G1 X90.589 Y92.352 F7800.000
G1 X90.589 Y99.209 E2.05473 F600.000
G1 X90.715 Y99.286 E2.09907
G1 X91.354 Y99.891 E2.36271
G1 X96.357 Y107.648 E5.12860
G92 E0
G1 X90.558 Y98.582 F7800.000
G1 X90.558 Y98.582 F7800.000
G1 X84.835 Y107.648 F7800.000
G1 X89.853 Y99.880 E2.77109 F600.000
G1 X90.466 Y99.287 E3.02666
G1 X91.619 Y98.560 E3.43508
G92 E0
M107
M104 S0 ; turn off temperature
G28 X0  ; home X axis
M84     ; disable motors

; filament used = 115.2mm (0.9cm3)

; avoid_crossing_perimeters = 1
; bed_shape = 0x0,250x0,250x250,0x250
; bed_temperature = 0
; before_layer_gcode = 
; bridge_acceleration = 0
; bridge_fan_speed = 100
; brim_width = 0
; complete_objects = 0
; cooling = 1
; default_acceleration = 0
; disable_fan_first_layers = 1
; duplicate_distance = 6
; end_gcode = M104 S0 ; turn off temperature\nG28 X0  ; home X axis\nM84     ; disable motors\n
; extruder_clearance_height = 20
; extruder_clearance_radius = 20
; extruder_offset = 0x0
; extrusion_axis = E
; extrusion_multiplier = 3
; fan_always_on = 0
; fan_below_layer_time = 60
; filament_colour = #FFFFFF
; filament_diameter = 3.125
; first_layer_acceleration = 0
; first_layer_bed_temperature = 0
; first_layer_extrusion_width = 150%
; first_layer_speed = 90%
; first_layer_temperature = 30
; gcode_arcs = 0
; gcode_comments = 0
; gcode_flavor = reprap
; infill_acceleration = 0
; infill_first = 0
; layer_gcode = 
; max_fan_speed = 100
; max_print_speed = 80
; max_volumetric_speed = 0
; min_fan_speed = 35
; min_print_speed = 10
; min_skirt_length = 0
; notes = 
; nozzle_diameter = 1.54
; only_retract_when_crossing_perimeters = 1
; ooze_prevention = 0
; output_filename_format = [input_filename_base].gcode
; perimeter_acceleration = 0
; post_process = 
; pressure_advance = 0
; resolution = 0
; retract_before_travel = 2
; retract_layer_change = 1
; retract_length = 0
; retract_length_toolchange = 10
; retract_lift = 0
; retract_restart_extra = 0
; retract_restart_extra_toolchange = 0
; retract_speed = 0
; skirt_distance = 6
; skirt_height = 1
; skirts = 0
; slowdown_below_layer_time = 30
; spiral_vase = 0
; standby_temperature_delta = -5
; start_gcode = G28 ; home all axes\nG1 Z5 F5000 ; lift nozzle\nM302\nM92 E10000\nM500\nM501\nG1 E100
; temperature = 30
; threads = 2
; toolchange_gcode = 
; travel_speed = 130
; use_firmware_retraction = 0
; use_relative_e_distances = 0
; use_volumetric_e = 0
; vibration_limit = 0
; wipe = 0
; z_offset = 0
; dont_support_bridges = 1
; extrusion_width = 0
; first_layer_height = 100%
; infill_only_where_needed = 0
; interface_shells = 0
; layer_height = 0.3
; raft_layers = 0
; seam_position = random
; support_material = 0
; support_material_angle = 0
; support_material_contact_distance = 0.2
; support_material_enforce_layers = 0
; support_material_extruder = 1
; support_material_extrusion_width = 0
; support_material_interface_extruder = 1
; support_material_interface_layers = 3
; support_material_interface_spacing = 0
; support_material_interface_speed = 100%
; support_material_pattern = pillars
; support_material_spacing = 2.5
; support_material_speed = 7
; support_material_threshold = 0
; xy_size_compensation = 0
; bottom_solid_layers = 3
; bridge_flow_ratio = 1
; bridge_speed = 10
; external_fill_pattern = rectilinear
; external_perimeter_extrusion_width = 0
; external_perimeter_speed = 70%
; external_perimeters_first = 1
; extra_perimeters = 1
; fill_angle = 45
; fill_density = 60%
; fill_pattern = rectilinear
; gap_fill_speed = 10
; infill_every_layers = 1
; infill_extruder = 1
; infill_extrusion_width = 0
; infill_overlap = 15%
; infill_speed = 10
; overhangs = 1
; perimeter_extruder = 1
; perimeter_extrusion_width = 0
; perimeter_speed = 10
; perimeters = 1
; small_perimeter_speed = 70%
; solid_infill_below_area = 70
; solid_infill_every_layers = 0
; solid_infill_extruder = 1
; solid_infill_extrusion_width = 0
; solid_infill_speed = 10
; thin_walls = 1
; top_infill_extrusion_width = 0
; top_solid_infill_speed = 10
; top_solid_layers = 3
