; generated by Slic3r 1.2.9 on 2016-03-10 at 20:37:54

; external perimeters extrusion width = 1.54mm
; perimeters extrusion width = 2.62mm
; infill extrusion width = 6.27mm
; solid infill extrusion width = 2.62mm
; top infill extrusion width = 2.62mm

M107
M104 S30 ; set temperature
G28 ; home all axes
G1 Z5 F5000 ; lift nozzle
M302
M92 E10000
M500
M501
G1 E100
M109 S30 ; wait for temperature to be reached
G21 ; set units to millimeters
G90 ; use absolute coordinates
M82 ; use absolute distances for extrusion
G92 E0
G1 Z0.300 F7800.000
G1 X124.675 Y118.819 F7800.000
G1 X120.812 Y118.819 E0.17483 F600.000
G1 X130.350 Y131.218 E0.88265
G1 X130.350 Y132.423 E0.93720
G1 X119.932 Y132.423 E1.40856
G1 X119.932 Y131.181 E1.46476
G1 X128.679 Y131.181 E1.86055
G1 X119.140 Y118.826 E2.56684
G1 X119.140 Y117.577 E2.62336
G1 X130.860 Y117.577 E3.15364
G1 X130.860 Y118.819 E3.20984
G1 X124.906 Y118.819 E3.47922 F600.000
G92 E0
G1 X122.680 Y121.728 F7800.000
G1 X119.366 Y118.415 E0.21617 F600.000
G1 X119.366 Y117.859 E0.24182
G1 X120.826 Y119.319 E0.33706
G1 X120.657 Y118.593 F7800.000
G1 X119.867 Y117.803 E0.38860 F600.000
G1 X120.423 Y117.803 E0.41425
G1 X121.213 Y118.593 E0.46579
G1 X121.769 Y118.593 E0.49144
G1 X120.979 Y117.803 E0.54298
G1 X121.535 Y117.803 E0.56862
G1 X122.325 Y118.593 E0.62017
G1 X122.881 Y118.593 E0.64581
G1 X122.091 Y117.803 E0.69735
G1 X122.647 Y117.803 E0.72300
G1 X123.437 Y118.593 E0.77454
G1 X123.993 Y118.593 E0.80019
G1 X123.203 Y117.803 E0.85173
G1 X123.758 Y117.803 E0.87738
G1 X124.549 Y118.593 E0.92892
G1 X125.105 Y118.593 E0.95456
G1 X124.314 Y117.803 E1.00611
G1 X124.870 Y117.803 E1.03175
G1 X125.660 Y118.593 E1.08329
G1 X126.216 Y118.593 E1.10894
G1 X125.426 Y117.803 E1.16048
G1 X125.982 Y117.803 E1.18613
G1 X126.772 Y118.593 E1.23767
G1 X127.328 Y118.593 E1.26332
G1 X126.538 Y117.803 E1.31486
G1 X127.094 Y117.803 E1.34050
G1 X127.884 Y118.593 E1.39205
G1 X128.440 Y118.593 E1.41769
G1 X127.650 Y117.803 E1.46924
G1 X128.206 Y117.803 E1.49488
G1 X128.996 Y118.593 E1.54642
G1 X129.552 Y118.593 E1.57207
G1 X128.762 Y117.803 E1.62361
G1 X129.318 Y117.803 E1.64926
G1 X130.108 Y118.593 E1.70080
G1 X130.634 Y118.563 E1.72508
G1 X129.874 Y117.803 E1.77463
G1 X130.430 Y117.803 E1.80028
G1 X130.634 Y118.007 E1.81356
G92 E0
G1 X124.534 Y124.138 F7800.000
G1 X120.488 Y120.092 E0.26395 F600.000
G1 X122.371 Y122.531 F7800.000
G1 X126.388 Y126.547 E0.52596 F600.000
G1 X126.138 Y127.410 F7800.000
G1 X130.095 Y131.367 E0.78409 F600.000
G1 X130.124 Y131.951 E0.81109
G1 X128.021 Y129.849 E0.94822
G1 X128.241 Y128.957 F7800.000
G1 X124.255 Y124.971 E1.20830 F600.000
G92 E0
G1 X120.684 Y131.407 F7800.000
G1 X121.474 Y132.197 E0.05154 F600.000
G1 X122.030 Y132.197 E0.07719
G1 X121.240 Y131.407 E0.12873
G1 X121.796 Y131.407 E0.15438
G1 X122.586 Y132.197 E0.20592
G1 X123.142 Y132.197 E0.23157
G1 X122.352 Y131.407 E0.28311
G1 X122.908 Y131.407 E0.30875
G1 X123.698 Y132.197 E0.36030
G1 X124.254 Y132.197 E0.38594
G1 X123.464 Y131.407 E0.43749
G1 X124.020 Y131.407 E0.46313
G1 X124.810 Y132.197 E0.51468
G1 X125.366 Y132.197 E0.54032
G1 X124.576 Y131.407 E0.59186
G1 X125.131 Y131.407 E0.61751
G1 X125.922 Y132.197 E0.66905
G1 X126.478 Y132.197 E0.69470
G1 X125.687 Y131.407 E0.74624
G1 X126.243 Y131.407 E0.77189
G1 X127.033 Y132.197 E0.82343
G1 X127.589 Y132.197 E0.84908
G1 X126.799 Y131.407 E0.90062
G1 X127.355 Y131.407 E0.92626
G1 X128.145 Y132.197 E0.97781
G1 X128.701 Y132.197 E1.00345
G1 X127.911 Y131.407 E1.05500
G1 X128.467 Y131.407 E1.08064
G1 X129.257 Y132.197 E1.13219
G1 X129.813 Y132.197 E1.15783
G1 X129.023 Y131.407 E1.20937
G1 X120.918 Y132.197 F7800.000
G1 X120.158 Y131.438 E1.25892 F600.000
G1 X120.158 Y131.993 E1.28457
G1 X120.362 Y132.197 E1.29785
M106 S255
G92 E0
G1 Z0.600 F7800.000
G1 X131.085 Y118.198 F7800.000
G1 X121.269 Y118.198 E2.94133 F600.000
G1 X120.168 Y118.556 E3.28802
G1 X120.565 Y119.586 E3.61865
G1 X128.915 Y130.421 E7.71765
G1 X129.308 Y131.453 E8.04874
G1 X128.222 Y131.802 E8.39055
G1 X119.707 Y131.802 E10.94174
G92 E0
G1 Z0.900 F7800.000
G1 X131.085 Y118.198 F7800.000
G1 X121.269 Y118.198 E2.94133 F600.000
G1 X120.168 Y118.556 E3.28802
G1 X120.565 Y119.586 E3.61865
G1 X128.915 Y130.421 E7.71765
G1 X129.308 Y131.453 E8.04874
G1 X128.222 Y131.802 E8.39055
G1 X119.707 Y131.802 E10.94174
G92 E0
G1 Z1.200 F7800.000
G1 X131.085 Y118.198 F7800.000
G1 X121.269 Y118.198 E2.94133 F600.000
G1 X120.168 Y118.556 E3.28802
G1 X120.565 Y119.586 E3.61865
G1 X128.915 Y130.421 E7.71765
G1 X129.308 Y131.453 E8.04874
G1 X128.222 Y131.802 E8.39055
G1 X119.707 Y131.802 E10.94174
G92 E0
G1 Z1.500 F7800.000
G1 X131.085 Y118.198 F7800.000
G1 X121.269 Y118.198 E2.94133 F600.000
G1 X120.168 Y118.556 E3.28802
G1 X120.565 Y119.586 E3.61865
G1 X128.915 Y130.421 E7.71765
G1 X129.308 Y131.453 E8.04874
G1 X128.222 Y131.802 E8.39055
G1 X119.707 Y131.802 E10.94174
G92 E0
G1 Z1.800 F7800.000
G1 X131.085 Y118.198 F7800.000
G1 X121.269 Y118.198 E2.94133 F600.000
G1 X120.168 Y118.556 E3.28802
G1 X120.565 Y119.586 E3.61865
G1 X128.915 Y130.421 E7.71765
G1 X129.308 Y131.453 E8.04874
G1 X128.222 Y131.802 E8.39055
G1 X119.707 Y131.802 E10.94174
G92 E0
G1 Z2.100 F7800.000
G1 X131.085 Y118.198 F7800.000
G1 X121.269 Y118.198 E2.94133 F600.000
G1 X120.168 Y118.556 E3.28802
G1 X120.565 Y119.586 E3.61865
G1 X128.915 Y130.421 E7.71765
G1 X129.308 Y131.453 E8.04874
G1 X128.222 Y131.802 E8.39055
G1 X119.707 Y131.802 E10.94174
G92 E0
M107
M104 S0 ; turn off temperature
G28 X0  ; home X axis
M84     ; disable motors

; filament used = 73.4mm (0.6cm3)

; avoid_crossing_perimeters = 1
; bed_shape = 0x0,250x0,250x250,0x250
; bed_temperature = 0
; before_layer_gcode = 
; bridge_acceleration = 0
; bridge_fan_speed = 100
; brim_width = 0
; complete_objects = 0
; cooling = 1
; default_acceleration = 0
; disable_fan_first_layers = 1
; duplicate_distance = 6
; end_gcode = M104 S0 ; turn off temperature\nG28 X0  ; home X axis\nM84     ; disable motors\n
; extruder_clearance_height = 20
; extruder_clearance_radius = 20
; extruder_offset = 0x0
; extrusion_axis = E
; extrusion_multiplier = 3
; fan_always_on = 0
; fan_below_layer_time = 60
; filament_colour = #FFFFFF
; filament_diameter = 3.125
; first_layer_acceleration = 0
; first_layer_bed_temperature = 0
; first_layer_extrusion_width = 150%
; first_layer_speed = 90%
; first_layer_temperature = 30
; gcode_arcs = 0
; gcode_comments = 0
; gcode_flavor = reprap
; infill_acceleration = 0
; infill_first = 0
; layer_gcode = 
; max_fan_speed = 100
; max_print_speed = 80
; max_volumetric_speed = 0
; min_fan_speed = 35
; min_print_speed = 10
; min_skirt_length = 0
; notes = 
; nozzle_diameter = 1.54
; only_retract_when_crossing_perimeters = 1
; ooze_prevention = 0
; output_filename_format = [input_filename_base].gcode
; perimeter_acceleration = 0
; post_process = 
; pressure_advance = 0
; resolution = 0
; retract_before_travel = 2
; retract_layer_change = 1
; retract_length = 0
; retract_length_toolchange = 10
; retract_lift = 0
; retract_restart_extra = 0
; retract_restart_extra_toolchange = 0
; retract_speed = 0
; skirt_distance = 6
; skirt_height = 1
; skirts = 0
; slowdown_below_layer_time = 30
; spiral_vase = 0
; standby_temperature_delta = -5
; start_gcode = G28 ; home all axes\nG1 Z5 F5000 ; lift nozzle\nM302\nM92 E10000\nM500\nM501\nG1 E100
; temperature = 30
; threads = 2
; toolchange_gcode = 
; travel_speed = 130
; use_firmware_retraction = 0
; use_relative_e_distances = 0
; use_volumetric_e = 0
; vibration_limit = 0
; wipe = 0
; z_offset = 0
; dont_support_bridges = 1
; extrusion_width = 0
; first_layer_height = 100%
; infill_only_where_needed = 0
; interface_shells = 0
; layer_height = 0.3
; raft_layers = 0
; seam_position = random
; support_material = 0
; support_material_angle = 0
; support_material_contact_distance = 0.2
; support_material_enforce_layers = 0
; support_material_extruder = 1
; support_material_extrusion_width = 0
; support_material_interface_extruder = 1
; support_material_interface_layers = 3
; support_material_interface_spacing = 0
; support_material_interface_speed = 100%
; support_material_pattern = pillars
; support_material_spacing = 2.5
; support_material_speed = 7
; support_material_threshold = 0
; xy_size_compensation = 0
; bottom_solid_layers = 3
; bridge_flow_ratio = 1
; bridge_speed = 10
; external_fill_pattern = rectilinear
; external_perimeter_extrusion_width = 0
; external_perimeter_speed = 70%
; external_perimeters_first = 1
; extra_perimeters = 1
; fill_angle = 45
; fill_density = 60%
; fill_pattern = rectilinear
; gap_fill_speed = 10
; infill_every_layers = 1
; infill_extruder = 1
; infill_extrusion_width = 0
; infill_overlap = 15%
; infill_speed = 10
; overhangs = 1
; perimeter_extruder = 1
; perimeter_extrusion_width = 0
; perimeter_speed = 10
; perimeters = 1
; small_perimeter_speed = 70%
; solid_infill_below_area = 70
; solid_infill_every_layers = 0
; solid_infill_extruder = 1
; solid_infill_extrusion_width = 0
; solid_infill_speed = 10
; thin_walls = 1
; top_infill_extrusion_width = 0
; top_solid_infill_speed = 10
; top_solid_layers = 3
