; generated by Slic3r 1.2.9 on 2016-03-11 at 01:32:56

; external perimeters extrusion width = 1.54mm
; perimeters extrusion width = 2.62mm
; infill extrusion width = 6.27mm
; solid infill extrusion width = 2.62mm
; top infill extrusion width = 2.62mm

M107
M104 S30 ; set temperature
G28 ; home all axes
G1 Z5 F5000 ; lift nozzle
M302
M92 E10000
M500
M501
G1 E100
M109 S30 ; wait for temperature to be reached
G21 ; set units to millimeters
G90 ; use absolute coordinates
M82 ; use absolute distances for extrusion
G92 E0
G1 Z0.300 F7800.000
G1 X103.494 Y104.021 F7800.000
G1 X103.494 Y92.577 E0.51783 F378.000
G1 X109.452 Y92.577 E0.78739
G1 X110.952 Y92.693 E0.85550
G1 X111.053 Y92.700 E0.86008 F378.000
G1 X112.380 Y93.064 E0.92234
G1 X113.444 Y93.663 E0.97758
G1 X114.219 Y94.467 E1.02810
G1 X114.683 Y95.456 E1.07755
G1 X114.840 Y96.650 E1.13203
G1 X114.737 Y97.552 E1.17314
G1 X114.430 Y98.339 E1.21132
G1 X113.920 Y99.016 E1.24968
G1 X113.217 Y99.561 E1.28992
G1 X112.331 Y99.946 E1.33365
G1 X111.212 Y100.177 E1.38536
G1 X111.188 Y100.600 E1.40449
G1 X112.041 Y100.878 E1.44510
G1 X112.712 Y101.267 E1.48016
G1 X113.247 Y101.778 E1.51367
G1 X113.638 Y102.398 E1.54680
G1 X113.874 Y103.110 E1.58076
G1 X113.951 Y103.901 E1.61673
G1 X113.389 Y105.853 E1.70863
G1 X111.709 Y107.019 E1.80114
G1 X108.796 Y107.423 E1.93424
G1 X103.494 Y107.423 E2.17413
G1 X103.494 Y104.252 E2.31762
G1 X105.115 Y99.729 F7800.000
G1 X105.115 Y93.786 E2.58654 F378.000
G1 X109.360 Y93.786 E2.77860 F378.000
G1 X110.535 Y93.866 E2.83191
G1 X111.503 Y94.113 E2.87711
G1 X112.253 Y94.537 E2.91608
G1 X112.783 Y95.139 E2.95240
G1 X113.098 Y95.902 E2.98976
G1 X113.203 Y96.831 E3.03202
G1 X112.749 Y98.445 E3.10791
G1 X111.378 Y99.420 E3.18403
G1 X109.205 Y99.729 E3.28334
G1 X105.346 Y99.729 E3.45794
G1 X105.346 Y100.895 F7800.000
G1 X108.818 Y100.895 E3.61504 F378.000
G1 X109.856 Y100.967 E3.66212
G1 X110.727 Y101.188 E3.70277
G1 X111.422 Y101.567 E3.73861
G1 X111.927 Y102.117 E3.77237
G1 X112.226 Y102.825 E3.80718
G1 X112.324 Y103.676 E3.84593
G1 X112.222 Y104.489 E3.88301
G1 X111.907 Y105.154 E3.91630
G1 X111.380 Y105.643 E3.94884
G1 X110.679 Y105.966 E3.98376
G1 X109.824 Y106.153 E4.02337
G1 X108.817 Y106.214 E4.06901
G1 X105.115 Y106.214 E4.23651
G1 X105.115 Y100.895 E4.47719
G1 X110.978 Y100.912 F7800.000
G1 X111.706 Y101.227 E4.55500 F540.000
G1 X111.037 Y99.839 F7800.000
G1 X111.474 Y99.763 E4.59844 F540.000
G1 X111.895 Y99.589 E4.64305
G1 X112.099 Y99.394 F7800.000
G1 X112.402 Y99.697 E4.66263 F540.000
G1 X112.786 Y99.530 E4.68177
G1 X112.275 Y99.019 E4.71478
G1 X112.597 Y98.790 E4.73284
G1 X113.164 Y99.357 E4.76950
G1 X113.474 Y99.117 E4.78745
G1 X112.919 Y98.561 E4.82335
G1 X113.049 Y98.141 E4.84349
G1 X113.784 Y98.875 E4.89097
G1 X114.021 Y98.561 E4.90895
G1 X113.170 Y97.710 E4.96393
G1 X113.291 Y97.280 E4.98435
G1 X114.252 Y98.241 E5.04644
G1 X114.406 Y97.844 E5.06590
G1 X113.412 Y96.850 E5.13016
G1 X113.376 Y96.263 E5.15705
G1 X114.533 Y97.420 E5.23186
G1 X114.589 Y96.926 E5.25461
G1 X113.255 Y95.591 E5.34091
G1 X114.046 Y94.729 F7800.000
G1 X113.107 Y93.791 E5.40160 F540.000
G1 X111.980 Y93.214 F7800.000
G1 X114.477 Y95.712 E5.56306 F540.000
G1 X114.560 Y96.346 E5.59229
G1 X111.221 Y93.006 E5.80821
G1 X110.559 Y92.895 E5.83887
G1 X111.525 Y93.862 E5.90136
G1 X110.786 Y93.673 E5.93625
G1 X109.962 Y92.849 E5.98951
G1 X109.365 Y92.804 E6.01688
G1 X110.171 Y93.609 E6.06895
G1 X109.579 Y93.569 E6.09604
G1 X108.814 Y92.803 E6.14555
G1 X108.263 Y92.803 E6.17074
G1 X109.020 Y93.560 E6.21968
G1 X108.469 Y93.560 E6.24487
G1 X107.712 Y92.803 E6.29382
G1 X107.161 Y92.803 E6.31901
G1 X107.918 Y93.560 E6.36795
G1 X107.367 Y93.560 E6.39314
G1 X106.610 Y92.803 E6.44209
G1 X106.059 Y92.803 E6.46728
G1 X106.816 Y93.560 E6.51622
G1 X106.265 Y93.560 E6.54141
G1 X105.508 Y92.803 E6.59036
G1 X104.957 Y92.803 E6.61555
G1 X105.714 Y93.560 E6.66449
G1 X105.163 Y93.560 E6.68968
G1 X104.406 Y92.803 E6.73863
G1 X103.855 Y92.803 E6.76382
G1 X104.889 Y93.837 E6.83069
G1 X104.889 Y94.388 E6.85588
G1 X103.720 Y93.219 E6.93146
G1 X103.720 Y93.770 E6.95665
G1 X104.889 Y94.939 E7.03224
G1 X104.889 Y95.490 E7.05742
G1 X103.720 Y94.321 E7.13301
G1 X103.720 Y94.872 E7.15820
G1 X104.889 Y96.041 E7.23378
G1 X104.889 Y96.592 E7.25897
G1 X103.720 Y95.423 E7.33455
G1 X103.720 Y95.974 E7.35974
G1 X104.889 Y97.143 E7.43532
G1 X104.889 Y97.694 E7.46051
G1 X103.720 Y96.525 E7.53610
G1 X103.720 Y97.076 E7.56128
G1 X104.889 Y98.245 E7.63687
G1 X104.889 Y98.796 E7.66205
G1 X103.720 Y97.627 E7.73764
G1 X103.720 Y98.178 E7.76283
G1 X104.889 Y99.347 E7.83841
G1 X104.889 Y99.898 E7.86360
G1 X103.720 Y98.729 E7.93918
G1 X103.720 Y99.280 E7.96437
G1 X105.109 Y100.669 E8.05418
G1 X104.889 Y101.000 F7800.000
G1 X103.720 Y99.831 E8.12976 F540.000
G1 X103.720 Y100.382 E8.15495
G1 X104.889 Y101.551 E8.23054
G1 X104.889 Y102.102 E8.25572
G1 X103.720 Y100.933 E8.33131
G1 X103.720 Y101.484 E8.35650
G1 X104.889 Y102.653 E8.43208
G1 X104.889 Y103.204 E8.45727
G1 X103.720 Y102.035 E8.53285
G1 X103.720 Y102.586 E8.55804
G1 X104.889 Y103.755 E8.63362
G1 X104.889 Y104.306 E8.65881
G1 X103.720 Y103.137 E8.73439
G1 X103.720 Y103.688 E8.75958
G1 X104.889 Y104.857 E8.83517
G1 X104.889 Y105.408 E8.86035
G1 X103.720 Y104.239 E8.93594
G1 X103.720 Y104.790 E8.96113
G1 X104.889 Y105.959 E9.03671
G1 X104.820 Y106.440 E9.05894
G1 X105.577 Y107.197 E9.10789
G1 X106.128 Y107.197 E9.13308
G1 X105.371 Y106.440 E9.18202
G1 X104.889 Y106.510 E9.20425
G1 X103.720 Y105.341 E9.27984
G1 X103.720 Y105.892 E9.30503
G1 X105.026 Y107.197 E9.38943
G1 X104.475 Y107.197 E9.41462
G1 X103.720 Y106.442 E9.46340
G1 X103.720 Y106.993 E9.48859
G1 X103.924 Y107.197 E9.50175
G1 X105.922 Y106.440 F7800.000
G1 X106.679 Y107.197 E9.55070 F540.000
G1 X107.230 Y107.197 E9.57589
G1 X106.473 Y106.440 E9.62483
G1 X107.024 Y106.440 E9.65002
G1 X107.781 Y107.197 E9.69897
G1 X108.332 Y107.197 E9.72416
G1 X107.575 Y106.440 E9.77310
G1 X108.125 Y106.440 E9.79829
G1 X108.879 Y107.194 E9.84703
G1 X109.363 Y107.127 E9.86936
G1 X108.676 Y106.440 E9.91376
G1 X109.200 Y106.412 E9.93772
G1 X109.847 Y107.060 E9.97956
G1 X110.331 Y106.992 E10.00189
G1 X109.719 Y106.381 E10.04142
G1 X110.180 Y106.290 E10.06287
G1 X110.815 Y106.925 E10.10391
G1 X111.298 Y106.858 E10.12624
G1 X110.632 Y106.191 E10.16934
G1 X111.020 Y106.028 E10.18857
G1 X111.747 Y106.756 E10.23562
G1 X112.073 Y106.530 E10.25372
G1 X111.397 Y105.855 E10.29739
G1 X111.701 Y105.608 E10.31529
G1 X112.398 Y106.305 E10.36035
G1 X112.723 Y106.079 E10.37845
G1 X111.986 Y105.342 E10.42607
G1 X112.198 Y105.003 E10.44435
G1 X113.048 Y105.853 E10.49929
G1 X113.269 Y105.523 E10.51745
G1 X112.376 Y104.630 E10.57520
G1 X112.479 Y104.182 E10.59621
G1 X113.392 Y105.095 E10.65526
G1 X113.515 Y104.667 E10.67561
G1 X112.540 Y103.692 E10.73867
G1 X112.495 Y103.096 E10.76601
G1 X113.639 Y104.240 E10.83997
G1 X113.701 Y103.751 E10.86249
G1 X112.321 Y102.371 E10.95168
G1 X111.865 Y101.364 F7800.000
G1 X113.601 Y103.100 E11.06391 F540.000
G1 X110.790 Y100.840 F7800.000
G1 X109.810 Y99.860 E11.12728 F540.000
G1 X110.293 Y99.792 E11.14955
G1 X110.888 Y100.387 E11.18805
G1 X110.195 Y100.796 F7800.000
G1 X109.328 Y99.929 E11.24412 F540.000
G1 X108.803 Y99.955 E11.26815
G1 X109.562 Y100.714 E11.31722
G1 X108.970 Y100.673 E11.34434
G1 X108.252 Y99.955 E11.39077
G1 X107.701 Y99.955 E11.41596
G1 X108.415 Y100.669 E11.46213
G1 X107.864 Y100.669 E11.48732
G1 X107.150 Y99.955 E11.53349
G1 X106.599 Y99.955 E11.55867
G1 X107.313 Y100.669 E11.60484
G1 X106.762 Y100.669 E11.63003
G1 X106.048 Y99.955 E11.67620
G1 X105.497 Y99.955 E11.70138
G1 X106.211 Y100.669 E11.74755
G1 X105.660 Y100.669 E11.77274
G1 X104.946 Y99.955 E11.81891
G92 E0
G1 X103.269 Y107.648 F7800.000
G1 X85.726 Y108.648 F7800.000
G1 X84.330 Y105.956 F7800.000
G1 X86.658 Y102.231 F7800.000
G1 X94.240 Y105.956 F7800.000
G1 X86.307 Y106.181 F7800.000
G1 X94.698 Y106.181 E0.37968 F378.000
G1 X85.159 Y93.826 E1.08597
G1 X85.159 Y92.577 E1.14250
G1 X96.878 Y92.577 E1.67277
G1 X96.878 Y93.819 E1.72897
G1 X86.830 Y93.819 E2.18363 F378.000
G1 X96.368 Y106.218 E2.89146
G1 X96.368 Y107.423 E2.94600
G1 X85.951 Y107.423 E3.41737
G1 X85.951 Y106.181 E3.47357
G1 X86.076 Y106.181 E3.47922
G1 X86.702 Y106.407 F7800.000
G1 X87.492 Y107.197 E3.53077 F540.000
G1 X88.048 Y107.197 E3.55641
G1 X87.258 Y106.407 E3.60796
G1 X87.814 Y106.407 E3.63360
G1 X88.604 Y107.197 E3.68514
G1 X89.160 Y107.197 E3.71079
G1 X88.370 Y106.407 E3.76233
G1 X88.926 Y106.407 E3.78798
G1 X89.716 Y107.197 E3.83952
G1 X90.272 Y107.197 E3.86517
G1 X89.482 Y106.407 E3.91671
G1 X90.038 Y106.407 E3.94236
G1 X90.828 Y107.197 E3.99390
G1 X91.384 Y107.197 E4.01955
G1 X90.594 Y106.407 E4.07109
G1 X91.150 Y106.407 E4.09673
G1 X91.940 Y107.197 E4.14828
G1 X92.496 Y107.197 E4.17392
G1 X91.706 Y106.407 E4.22547
G1 X92.262 Y106.407 E4.25111
G1 X93.052 Y107.197 E4.30265
G1 X93.608 Y107.197 E4.32830
G1 X92.818 Y106.407 E4.37984
G1 X93.374 Y106.407 E4.40549
G1 X94.164 Y107.197 E4.45703
G1 X94.720 Y107.197 E4.48268
G1 X93.930 Y106.407 E4.53422
G1 X94.486 Y106.407 E4.55987
G1 X95.276 Y107.197 E4.61141
G1 X95.832 Y107.197 E4.63705
G1 X95.041 Y106.407 E4.68860
G1 X94.040 Y104.849 F7800.000
G1 X96.142 Y106.951 E4.82573 F540.000
G1 X96.113 Y106.367 E4.85273
G1 X92.156 Y102.410 E5.11087
G1 X92.406 Y101.547 F7800.000
G1 X88.390 Y97.531 E5.37288 F540.000
G1 X88.698 Y96.728 F7800.000
G1 X85.385 Y93.415 E5.58905 F540.000
G1 X85.385 Y92.859 E5.61469
G1 X86.845 Y94.318 E5.70993
G1 X86.675 Y93.593 F7800.000
G1 X85.885 Y92.803 E5.76148 F540.000
G1 X86.441 Y92.803 E5.78712
G1 X87.231 Y93.593 E5.83866
G1 X87.787 Y93.593 E5.86431
G1 X86.997 Y92.803 E5.91585
G1 X87.553 Y92.803 E5.94150
G1 X88.343 Y93.593 E5.99304
G1 X88.899 Y93.593 E6.01869
G1 X88.109 Y92.803 E6.07023
G1 X88.665 Y92.803 E6.09587
G1 X89.455 Y93.593 E6.14742
G1 X90.011 Y93.593 E6.17306
G1 X89.221 Y92.803 E6.22461
G1 X89.777 Y92.803 E6.25025
G1 X90.567 Y93.593 E6.30179
G1 X91.123 Y93.593 E6.32744
G1 X90.333 Y92.803 E6.37898
G1 X90.889 Y92.803 E6.40463
G1 X91.679 Y93.593 E6.45617
G1 X92.235 Y93.593 E6.48182
G1 X91.445 Y92.803 E6.53336
G1 X92.001 Y92.803 E6.55900
G1 X92.791 Y93.593 E6.61055
G1 X93.347 Y93.593 E6.63619
G1 X92.557 Y92.803 E6.68773
G1 X93.113 Y92.803 E6.71338
G1 X93.903 Y93.593 E6.76492
G1 X94.459 Y93.593 E6.79057
G1 X93.668 Y92.803 E6.84211
G1 X94.224 Y92.803 E6.86776
G1 X95.015 Y93.593 E6.91930
G1 X95.570 Y93.593 E6.94494
G1 X94.780 Y92.803 E6.99649
G1 X95.336 Y92.803 E7.02213
G1 X96.126 Y93.593 E7.07367
G1 X96.652 Y93.563 E7.09795
G1 X95.892 Y92.803 E7.14750
G1 X96.448 Y92.803 E7.17315
G1 X96.652 Y93.007 E7.18643
G92 E0
G1 X90.552 Y99.138 F7800.000
G1 X86.506 Y95.092 E0.26395 F540.000
G1 X90.273 Y99.971 F7800.000
G1 X94.260 Y103.957 E0.52402 F540.000
G92 E0
G1 X86.936 Y107.197 F7800.000
G1 X86.177 Y106.438 E0.04955 F540.000
G1 X86.177 Y106.993 E0.07519
G1 X86.380 Y107.197 E0.08848
M106 S255
G92 E0
G1 Z0.600 F7800.000
G1 X105.143 Y103.801 F7800.000
G1 X104.305 Y99.504 E1.31181 F600.000
G1 X104.305 Y94.011 E2.95776
G1 X104.378 Y93.461 E3.12413
G1 X105.340 Y93.181 E3.42438
G1 X109.409 Y93.182 E4.64347
G1 X110.705 Y93.283 E5.03309
G1 X110.945 Y93.322 E5.10598
G1 X111.842 Y93.575 E5.38512
G1 X112.123 Y93.691 E5.47618
G1 X112.551 Y93.932 E5.62357
G1 X112.988 Y94.254 E5.78594
G1 X113.321 Y94.615 E5.93338
G1 X113.523 Y94.875 E6.03191
G1 X113.887 Y95.689 E6.29909
G1 X114.011 Y96.695 E6.60290
G1 X113.972 Y97.093 E6.72257
G1 X113.921 Y97.351 E6.80141
G1 X113.723 Y97.944 E6.98888
G1 X113.431 Y98.533 E7.18599
G1 X113.024 Y98.969 E7.36453
G1 X112.914 Y99.050 E7.40537
G1 X112.178 Y99.466 E7.65870
G1 X111.643 Y99.699 E7.83357
G1 X111.309 Y99.792 E7.93764
G1 X110.454 Y100.308 E8.23699
G1 X109.655 Y101.178 E8.59080
G92 E0
G1 X104.462 Y100.312 F7800.000
G1 X109.306 Y100.324 E1.45131 F600.000
G1 X109.882 Y100.303 E1.62395
G1 X110.438 Y100.326 E1.79078
G1 X110.811 Y100.739 E1.95771
G1 X110.945 Y100.848 E2.00934
G1 X111.232 Y101.022 E2.11002
G1 X111.788 Y101.282 E2.29370
G1 X112.361 Y101.734 E2.51240
G1 X112.712 Y102.215 E2.69113
G1 X112.961 Y102.718 E2.85898
G1 X113.085 Y103.277 E3.03066
G1 X113.126 Y103.825 E3.19546
G1 X112.978 Y104.547 E3.41627
G1 X112.891 Y104.847 E3.50965
G1 X112.698 Y105.357 E3.67318
G1 X112.359 Y105.704 E3.81848
G1 X111.859 Y106.106 E4.01069
G1 X111.453 Y106.363 E4.15458
G1 X110.782 Y106.549 E4.36338
G1 X109.961 Y106.696 E4.61335
G1 X108.754 Y106.818 E4.97678
G1 X105.340 Y106.818 E5.99968
G1 X104.378 Y106.539 E6.29994
G1 X104.305 Y105.989 E6.46630
G1 X104.305 Y101.120 E7.92528
G1 X104.462 Y100.312 E8.17196
G92 E0
G1 X103.269 Y92.352 F7800.000
G1 X100.186 Y93.435 F7800.000
G1 X99.103 Y92.352 F7800.000
G1 X97.103 Y92.352 F7800.000
G1 X97.103 Y93.198 F7800.000
G1 X87.287 Y93.198 E2.94133 F600.000
G1 X86.187 Y93.556 E3.28802
G1 X86.583 Y94.586 E3.61865
G1 X94.933 Y105.421 E7.71765
G1 X95.326 Y106.453 E8.04874
G1 X94.240 Y106.802 E8.39055
G1 X85.726 Y106.802 E10.94174
G92 E0
G1 Z0.900 F7800.000
G1 X105.143 Y103.801 F7800.000
G1 X104.305 Y99.504 E1.31181 F600.000
G1 X104.305 Y94.011 E2.95776
G1 X104.378 Y93.461 E3.12413
G1 X105.340 Y93.181 E3.42438
G1 X109.409 Y93.182 E4.64347
G1 X110.705 Y93.283 E5.03309
G1 X110.945 Y93.322 E5.10598
G1 X111.842 Y93.575 E5.38512
G1 X112.123 Y93.691 E5.47618
G1 X112.551 Y93.932 E5.62357
G1 X112.988 Y94.254 E5.78594
G1 X113.321 Y94.615 E5.93338
G1 X113.523 Y94.875 E6.03191
G1 X113.887 Y95.689 E6.29909
G1 X114.011 Y96.695 E6.60290
G1 X113.972 Y97.093 E6.72257
G1 X113.921 Y97.351 E6.80141
G1 X113.723 Y97.944 E6.98888
G1 X113.431 Y98.533 E7.18599
G1 X113.024 Y98.969 E7.36453
G1 X112.914 Y99.050 E7.40537
G1 X112.178 Y99.466 E7.65870
G1 X111.643 Y99.699 E7.83357
G1 X111.309 Y99.792 E7.93764
G1 X110.454 Y100.308 E8.23699
G1 X109.655 Y101.178 E8.59079
G92 E0
G1 X104.462 Y100.312 F7800.000
G1 X109.306 Y100.324 E1.45131 F600.000
G1 X109.882 Y100.303 E1.62395
G1 X110.438 Y100.326 E1.79078
G1 X110.811 Y100.739 E1.95771
G1 X110.945 Y100.848 E2.00934
G1 X111.232 Y101.022 E2.11002
G1 X111.788 Y101.282 E2.29370
G1 X112.361 Y101.734 E2.51240
G1 X112.712 Y102.215 E2.69113
G1 X112.961 Y102.718 E2.85898
G1 X113.085 Y103.277 E3.03066
G1 X113.126 Y103.825 E3.19546
G1 X112.978 Y104.547 E3.41627
G1 X112.891 Y104.847 E3.50965
G1 X112.698 Y105.357 E3.67318
G1 X112.359 Y105.704 E3.81848
G1 X111.859 Y106.106 E4.01069
G1 X111.453 Y106.363 E4.15458
G1 X110.782 Y106.549 E4.36338
G1 X109.961 Y106.696 E4.61335
G1 X108.754 Y106.818 E4.97678
G1 X105.340 Y106.818 E5.99968
G1 X104.378 Y106.539 E6.29994
G1 X104.305 Y105.989 E6.46630
G1 X104.305 Y101.120 E7.92528
G1 X104.462 Y100.312 E8.17196
G92 E0
G1 X103.269 Y92.352 F7800.000
G1 X100.186 Y93.435 F7800.000
G1 X99.103 Y92.352 F7800.000
G1 X97.103 Y92.352 F7800.000
G1 X97.103 Y93.198 F7800.000
G1 X87.287 Y93.198 E2.94133 F600.000
G1 X86.187 Y93.556 E3.28802
G1 X86.583 Y94.586 E3.61865
G1 X94.933 Y105.421 E7.71765
G1 X95.326 Y106.453 E8.04874
G1 X94.240 Y106.802 E8.39055
G1 X85.726 Y106.802 E10.94174
G92 E0
G1 Z1.200 F7800.000
G1 X105.143 Y103.801 F7800.000
G1 X104.305 Y99.504 E1.31181 F600.000
G1 X104.305 Y94.011 E2.95776
G1 X104.378 Y93.461 E3.12413
G1 X105.340 Y93.181 E3.42438
G1 X109.409 Y93.182 E4.64347
G1 X110.705 Y93.283 E5.03309
G1 X110.945 Y93.322 E5.10598
G1 X111.842 Y93.575 E5.38512
G1 X112.123 Y93.691 E5.47618
G1 X112.551 Y93.932 E5.62357
G1 X112.988 Y94.254 E5.78594
G1 X113.321 Y94.615 E5.93338
G1 X113.523 Y94.875 E6.03191
G1 X113.887 Y95.689 E6.29909
G1 X114.011 Y96.695 E6.60290
G1 X113.972 Y97.093 E6.72257
G1 X113.921 Y97.351 E6.80141
G1 X113.723 Y97.944 E6.98888
G1 X113.431 Y98.533 E7.18599
G1 X113.024 Y98.969 E7.36453
G1 X112.914 Y99.050 E7.40537
G1 X112.178 Y99.466 E7.65870
G1 X111.643 Y99.699 E7.83357
G1 X111.309 Y99.792 E7.93764
G1 X110.454 Y100.308 E8.23699
G1 X109.655 Y101.178 E8.59080
G92 E0
G1 X104.462 Y100.312 F7800.000
G1 X109.306 Y100.324 E1.45131 F600.000
G1 X109.882 Y100.303 E1.62395
G1 X110.438 Y100.326 E1.79078
G1 X110.811 Y100.739 E1.95771
G1 X110.945 Y100.848 E2.00934
G1 X111.232 Y101.022 E2.11002
G1 X111.788 Y101.282 E2.29370
G1 X112.361 Y101.734 E2.51240
G1 X112.712 Y102.215 E2.69113
