; generated by Slic3r 1.2.9 on 2016-03-11 at 01:32:57

; external perimeters extrusion width = 1.54mm
; perimeters extrusion width = 2.62mm
; infill extrusion width = 6.27mm
; solid infill extrusion width = 2.62mm
; top infill extrusion width = 2.62mm

M107
M104 S30 ; set temperature
G28 ; home all axes
G1 Z5 F5000 ; lift nozzle
M302
M92 E10000
M500
M501
G1 E100
M109 S30 ; wait for temperature to be reached
G21 ; set units to millimeters
G90 ; use absolute coordinates
M82 ; use absolute distances for extrusion
G92 E0
G1 Z0.300 F7800.000
G1 X102.102 Y98.546 F7800.000
G1 X102.390 Y97.176 E0.06334 F378.000
G1 X102.867 Y95.954 E0.12271
G1 X103.524 Y94.896 E0.17905
G1 X104.351 Y94.017 E0.23366
G1 X105.351 Y93.314 E0.28898
G1 X106.507 Y92.799 E0.34625
G1 X107.803 Y92.489 E0.40656
G1 X109.241 Y92.386 E0.47180
G1 X110.561 Y92.490 E0.53170
G1 X110.650 Y92.497 E0.53573 F378.000
G1 X111.933 Y92.829 E0.59570
G1 X113.094 Y93.381 E0.65388
G1 X114.114 Y94.143 E0.71146
G1 X114.969 Y95.107 E0.76982
G1 X115.550 Y96.088 E0.82138
G1 X114.247 Y96.737 E0.88728
G1 X113.077 Y95.102 E0.97825
G1 X111.391 Y94.000 E1.06939
G1 X109.346 Y93.635 E1.16341
G1 X107.722 Y93.832 E1.23743
G1 X106.332 Y94.425 E1.30580
G1 X105.184 Y95.414 E1.37437
G1 X104.333 Y96.722 E1.44499
G1 X103.825 Y98.274 E1.51888
G1 X103.657 Y100.064 E1.60019
G1 X103.818 Y101.863 E1.68192
G1 X104.306 Y103.401 E1.75493
G1 X105.125 Y104.672 E1.82338
G1 X106.245 Y105.620 E1.88977
G1 X107.626 Y106.187 E1.95730
G1 X109.248 Y106.374 E2.03118
G1 X110.319 Y106.293 E2.07980
G1 X111.292 Y106.050 E2.12516
G1 X112.168 Y105.642 E2.16888
G1 X112.921 Y105.077 E2.21150
G1 X113.524 Y104.364 E2.25375
G1 X113.874 Y103.697 E2.28780
G1 X115.402 Y104.202 E2.36061
G1 X114.929 Y105.088 E2.40605
G1 X114.158 Y105.989 E2.45972
G1 X113.201 Y106.694 E2.51350
G1 X112.061 Y107.204 E2.57002
G1 X110.738 Y107.511 E2.63147
G1 X109.235 Y107.614 E2.69961
G1 X107.121 Y107.390 E2.79582
G1 X105.355 Y106.723 E2.88124
G1 X103.921 Y105.616 E2.96319
G1 X102.861 Y104.118 E3.04626
G1 X102.221 Y102.270 E3.13473
G1 X102.006 Y100.061 E3.23517
G1 X102.087 Y98.777 E3.29341
G1 X103.892 Y102.936 F7800.000
G1 X102.373 Y101.418 E3.39060 F540.000
G1 X102.315 Y100.813 E3.41809
G1 X103.638 Y102.137 E3.50284
G1 X103.552 Y101.505 E3.53172
G1 X102.256 Y100.209 E3.61470
G1 X102.253 Y99.660 E3.63953
G1 X103.498 Y100.906 E3.71927
G1 X103.445 Y100.306 E3.74650
G1 X102.285 Y99.147 E3.82072
G1 X102.318 Y98.634 E3.84399
G1 X103.464 Y99.780 E3.91738
G1 X103.511 Y99.282 E3.94005
G1 X102.397 Y98.168 E4.01137
G1 X102.492 Y97.717 E4.03222
G1 X103.558 Y98.783 E4.10047
G1 X103.606 Y98.286 E4.12308
G1 X102.587 Y97.266 E4.18836
G1 X102.729 Y96.863 E4.20771
G1 X103.741 Y97.875 E4.27248
G1 X103.875 Y97.463 E4.29206
G1 X102.882 Y96.471 E4.35562
G1 X103.035 Y96.078 E4.37469
G1 X104.010 Y97.052 E4.43705
G1 X104.150 Y96.647 E4.45647
G1 X103.235 Y95.732 E4.51505
G1 X103.444 Y95.395 E4.53299
G1 X104.365 Y96.316 E4.59196
G1 X104.580 Y95.986 E4.60981
G1 X103.653 Y95.059 E4.66917
G1 X103.908 Y94.768 E4.68667
G1 X104.795 Y95.656 E4.74347
G1 X105.010 Y95.325 E4.76132
G1 X104.177 Y94.492 E4.81466
G1 X104.450 Y94.219 E4.83212
G1 X105.295 Y95.065 E4.88625
G1 X105.588 Y94.812 E4.90376
G1 X104.750 Y93.973 E4.95745
G1 X105.070 Y93.748 E4.97518
G1 X105.881 Y94.560 E5.02713
G1 X106.174 Y94.307 E5.04464
G1 X105.390 Y93.523 E5.09485
G1 X105.762 Y93.349 E5.11343
G1 X106.534 Y94.121 E5.16284
G1 X106.916 Y93.958 E5.18166
G1 X106.140 Y93.181 E5.23137
G1 X106.518 Y93.013 E5.25008
G1 X107.299 Y93.794 E5.30008
G1 X107.681 Y93.631 E5.31890
G1 X106.957 Y92.907 E5.36526
G1 X107.397 Y92.802 E5.38575
G1 X108.156 Y93.561 E5.43434
G1 X108.643 Y93.502 E5.45653
G1 X107.848 Y92.707 E5.50739
G1 X108.357 Y92.670 E5.53049
G1 X109.129 Y93.443 E5.57992
G1 X109.681 Y93.449 E5.60492
G1 X108.866 Y92.634 E5.65712
G1 X109.410 Y92.632 E5.68176
G1 X110.345 Y93.568 E5.74164
G1 X111.010 Y93.686 E5.77218
G1 X110.002 Y92.679 E5.83667
G1 X110.614 Y92.745 E5.86449
G1 X111.791 Y93.922 E5.93984
G1 X112.226 Y93.266 F7800.000
G1 X115.067 Y96.107 E6.12174 F540.000
G1 X114.703 Y96.288 E6.14016
G1 X113.219 Y94.805 E6.23514
G1 X113.367 Y94.952 F7800.000
G1 X111.350 Y92.935 E6.36427 F540.000
G1 X113.710 Y94.204 F7800.000
G1 X114.209 Y94.704 E6.39624 F540.000
G92 E0
G1 X114.254 Y104.639 F7800.000
G1 X114.254 Y104.639 F7800.000
G1 X114.357 Y104.126 F7800.000
G1 X114.919 Y104.688 E0.03597 F540.000
G1 X114.720 Y105.035 E0.05407
G1 X113.851 Y104.166 E0.10974
G1 X113.651 Y104.511 E0.12782
G1 X114.469 Y105.329 E0.18018
G1 X114.217 Y105.623 E0.19770
G1 X113.401 Y104.807 E0.24995
G1 X113.151 Y105.103 E0.26748
G1 X113.946 Y105.898 E0.31838
G1 X113.636 Y106.133 E0.33601
G1 X112.864 Y105.361 E0.38545
G1 X112.552 Y105.595 E0.40309
G1 X113.322 Y106.365 E0.45239
G1 X112.984 Y106.573 E0.47034
G1 X112.240 Y105.828 E0.51801
G1 X111.867 Y106.001 E0.53660
G1 X112.607 Y106.741 E0.58395
G1 X112.230 Y106.909 E0.60265
G1 X111.495 Y106.175 E0.64967
G1 X111.090 Y106.315 E0.66908
G1 X111.819 Y107.044 E0.71576
G1 X111.377 Y107.147 E0.73633
G1 X110.654 Y106.424 E0.78262
G1 X110.206 Y106.522 E0.80336
G1 X110.934 Y107.250 E0.84997
G1 X110.448 Y107.310 E0.87214
G1 X109.699 Y106.561 E0.92011
G1 X109.191 Y106.599 E0.94314
G1 X109.938 Y107.345 E0.99090
G1 X109.427 Y107.380 E1.01407
G1 X108.582 Y106.535 E1.06819
G1 X107.965 Y106.464 E1.09628
G1 X108.837 Y107.335 E1.15209
G1 X108.227 Y107.271 E1.17988
G1 X107.289 Y106.334 E1.23987
G1 X106.363 Y105.953 F7800.000
G1 X107.616 Y107.206 E1.32009 F540.000
G1 X106.889 Y107.024 E1.35404
G1 X102.683 Y102.819 E1.62327
G1 X102.432 Y102.022 E1.66106
G1 X104.255 Y103.845 E1.77775
G1 X102.972 Y103.653 F7800.000
G1 X106.012 Y106.693 E1.97238 F540.000
G1 X104.353 Y105.580 F7800.000
G1 X103.995 Y105.222 E1.99530 F540.000
G92 E0
G1 X102.659 Y104.222 F7800.000
G1 X99.752 Y106.279 F7800.000
G1 X99.491 Y106.141 F7800.000
G1 X95.792 Y106.141 F7800.000
G1 X94.042 Y104.236 F7800.000
G1 X95.567 Y106.218 E0.11315 F378.000
G1 X95.567 Y107.423 E0.16770
G1 X85.150 Y107.423 E0.63906
G1 X85.150 Y106.181 E0.69526
G1 X93.897 Y106.181 E1.09105
G1 X84.358 Y93.826 E1.79734
G1 X84.358 Y92.577 E1.85386
G1 X96.077 Y92.577 E2.38414
G1 X96.077 Y93.819 E2.44034
G1 X86.029 Y93.819 E2.89500 F378.000
G1 X93.901 Y104.052 E3.47922
G1 X93.458 Y103.957 F7800.000
G1 X89.472 Y99.971 E3.73930 F540.000
G1 X89.751 Y99.138 F7800.000
G1 X85.705 Y95.092 E4.00324 F540.000
G1 X86.044 Y94.318 F7800.000
G1 X84.584 Y92.859 E4.09848 F540.000
G1 X84.584 Y93.415 E4.12413
G1 X87.897 Y96.728 E4.34030
G1 X87.588 Y97.531 F7800.000
G1 X91.605 Y101.547 E4.60231 F540.000
G1 X91.355 Y102.410 F7800.000
G1 X95.312 Y106.367 E4.86045 F540.000
G1 X95.341 Y106.951 E4.88745
G1 X93.239 Y104.849 E5.02458
G1 X94.240 Y106.407 F7800.000
G1 X95.031 Y107.197 E5.07612 F540.000
G1 X94.475 Y107.197 E5.10177
G1 X93.684 Y106.407 E5.15331
G1 X93.129 Y106.407 E5.17896
G1 X93.919 Y107.197 E5.23050
G1 X93.363 Y107.197 E5.25615
G1 X92.573 Y106.407 E5.30769
G1 X92.017 Y106.407 E5.33334
G1 X92.807 Y107.197 E5.38488
G1 X92.251 Y107.197 E5.41052
G1 X91.461 Y106.407 E5.46207
G1 X90.905 Y106.407 E5.48771
G1 X91.695 Y107.197 E5.53926
G1 X91.139 Y107.197 E5.56490
G1 X90.349 Y106.407 E5.61644
G1 X89.793 Y106.407 E5.64209
G1 X90.583 Y107.197 E5.69363
G1 X90.027 Y107.197 E5.71928
G1 X89.237 Y106.407 E5.77082
G1 X88.681 Y106.407 E5.79647
G1 X89.471 Y107.197 E5.84801
G1 X88.915 Y107.197 E5.87366
G1 X88.125 Y106.407 E5.92520
G1 X87.569 Y106.407 E5.95085
G1 X88.359 Y107.197 E6.00239
G1 X87.803 Y107.197 E6.02803
G1 X87.013 Y106.407 E6.07958
G1 X86.457 Y106.407 E6.10522
G1 X87.247 Y107.197 E6.15677
G1 X86.691 Y107.197 E6.18241
G1 X85.901 Y106.407 E6.23395
G1 X86.135 Y107.197 F7800.000
G1 X85.376 Y106.438 E6.28350 F540.000
G1 X85.376 Y106.993 E6.30915
G1 X85.579 Y107.197 E6.32243
G92 E0
G1 X85.874 Y93.593 F7800.000
G1 X85.084 Y92.803 E0.05154 F540.000
G1 X85.640 Y92.803 E0.07719
G1 X86.430 Y93.593 E0.12873
G1 X86.986 Y93.593 E0.15438
G1 X86.196 Y92.803 E0.20592
G1 X86.752 Y92.803 E0.23156
G1 X87.542 Y93.593 E0.28311
G1 X88.098 Y93.593 E0.30875
G1 X87.308 Y92.803 E0.36029
G1 X87.864 Y92.803 E0.38594
G1 X88.654 Y93.593 E0.43748
G1 X89.210 Y93.593 E0.46313
G1 X88.420 Y92.803 E0.51467
G1 X88.976 Y92.803 E0.54032
G1 X89.766 Y93.593 E0.59186
G1 X90.322 Y93.593 E0.61750
G1 X89.532 Y92.803 E0.66905
G1 X90.088 Y92.803 E0.69469
G1 X90.878 Y93.593 E0.74623
G1 X91.434 Y93.593 E0.77188
G1 X90.644 Y92.803 E0.82342
G1 X91.200 Y92.803 E0.84907
G1 X91.990 Y93.593 E0.90061
G1 X92.546 Y93.593 E0.92626
G1 X91.756 Y92.803 E0.97780
G1 X92.311 Y92.803 E1.00344
G1 X93.102 Y93.593 E1.05499
G1 X93.658 Y93.593 E1.08063
G1 X92.867 Y92.803 E1.13218
G1 X93.423 Y92.803 E1.15782
G1 X94.213 Y93.593 E1.20936
G1 X94.769 Y93.593 E1.23501
G1 X93.979 Y92.803 E1.28655
G1 X94.535 Y92.803 E1.31220
G1 X95.325 Y93.593 E1.36374
G1 X95.851 Y93.563 E1.38802
G1 X95.091 Y92.803 E1.43757
G1 X95.647 Y92.803 E1.46322
G1 X95.851 Y93.007 E1.47650
M106 S255
G92 E0
G1 Z0.600 F7800.000
G1 X114.852 Y103.783 F7800.000
G1 X114.095 Y104.879 E0.39907 F600.000
G1 X113.632 Y105.424 E0.61328
G1 X113.508 Y105.540 E0.66419
G1 X112.831 Y106.059 E0.91979
G1 X112.438 Y106.278 E1.05464
G1 X111.841 Y106.551 E1.25120
G1 X111.428 Y106.685 E1.38129
G1 X110.643 Y106.874 E1.62347
G1 X110.347 Y106.915 E1.71287
G1 X109.247 Y106.992 E2.04327
G1 X107.585 Y106.811 E2.54417
G1 X107.273 Y106.749 E2.63945
G1 X106.022 Y106.256 E3.04239
G1 X105.706 Y106.095 E3.14885
G1 X104.672 Y105.260 E3.54706
G1 X104.480 Y105.081 E3.62573
G1 X103.653 Y103.857 E4.06829
G1 X103.583 Y103.747 E4.10738
G1 X103.534 Y103.614 E4.14995
G1 X103.030 Y102.094 E4.62982
G1 X102.833 Y100.047 E5.24585
G1 X102.941 Y98.660 E5.66269
G1 X103.055 Y97.996 E5.86469
G1 X103.209 Y97.420 E6.04322
G1 X103.610 Y96.325 E6.39258
G1 X104.190 Y95.408 E6.71789
G1 X104.504 Y95.010 E6.86978
G1 X104.877 Y94.624 E7.03067
G1 X105.721 Y93.966 E7.35119
G1 X106.086 Y93.761 E7.47682
G1 X106.737 Y93.477 E7.68947
G1 X107.437 Y93.246 E7.91034
G1 X107.905 Y93.144 E8.05386
G1 X109.239 Y93.015 E8.45567
G1 X109.488 Y93.029 E8.53031
G1 X110.538 Y93.164 E8.84757
G1 X111.458 Y93.364 E9.12966
G1 X111.711 Y93.440 E9.20883
G1 X112.719 Y94.003 E9.55473
G1 X113.423 Y94.496 E9.81218
G1 X113.632 Y94.666 E9.89305
G1 X114.348 Y95.561 E10.23633
G1 X115.025 Y96.600 E10.60816
G92 E0
G1 X109.242 Y92.160 F7800.000
G1 X109.242 Y92.160 F7800.000
G1 X109.170 Y91.161 F7800.000
G1 X107.693 Y91.215 F7800.000
G1 X107.521 Y91.228 F7800.000
G1 X106.149 Y91.389 F7800.000
G1 X105.920 Y91.427 F7800.000
G1 X104.611 Y91.705 F7800.000
G1 X104.303 Y91.787 F7800.000
G1 X103.036 Y92.188 F7800.000
G1 X102.609 Y92.347 F7800.000
G1 X101.357 Y92.889 F7800.000
G1 X100.786 Y93.171 F7800.000
G1 X99.839 Y93.698 F7800.000
G1 X98.494 Y92.352 F7800.000
G1 X96.302 Y92.352 F7800.000
G1 X96.302 Y93.198 F7800.000
G1 X86.486 Y93.198 E2.94133 F600.000
G1 X85.385 Y93.556 E3.28802
G1 X85.782 Y94.586 E3.61865
G1 X94.132 Y105.421 E7.71765
G1 X94.525 Y106.453 E8.04874
G1 X93.439 Y106.802 E8.39055
G1 X84.925 Y106.802 E10.94174
G92 E0
G1 Z0.900 F7800.000
G1 X114.852 Y103.783 F7800.000
G1 X114.095 Y104.879 E0.39907 F600.000
G1 X113.632 Y105.424 E0.61328
G1 X113.508 Y105.540 E0.66419
G1 X112.831 Y106.059 E0.91979
G1 X112.438 Y106.278 E1.05464
G1 X111.841 Y106.551 E1.25120
G1 X111.428 Y106.685 E1.38129
G1 X110.643 Y106.874 E1.62346
G1 X110.347 Y106.915 E1.71287
G1 X109.247 Y106.992 E2.04327
G1 X107.585 Y106.811 E2.54417
G1 X107.273 Y106.749 E2.63944
G1 X106.022 Y106.256 E3.04239
G1 X105.706 Y106.095 E3.14885
G1 X104.672 Y105.260 E3.54706
G1 X104.480 Y105.081 E3.62573
G1 X103.653 Y103.857 E4.06829
G1 X103.583 Y103.747 E4.10738
G1 X103.534 Y103.614 E4.14995
G1 X103.030 Y102.094 E4.62982
G1 X102.833 Y100.047 E5.24585
G1 X102.941 Y98.660 E5.66269
G1 X103.055 Y97.996 E5.86469
G1 X103.209 Y97.420 E6.04322
G1 X103.610 Y96.325 E6.39258
G1 X104.190 Y95.408 E6.71789
G1 X104.504 Y95.010 E6.86978
G1 X104.877 Y94.624 E7.03067
G1 X105.721 Y93.966 E7.35119
G1 X106.086 Y93.761 E7.47682
G1 X106.737 Y93.477 E7.68947
G1 X107.437 Y93.246 E7.91034
G1 X107.905 Y93.144 E8.05386
G1 X109.239 Y93.015 E8.45567
G1 X109.488 Y93.029 E8.53031
G1 X110.538 Y93.164 E8.84757
G1 X111.458 Y93.364 E9.12966
G1 X111.711 Y93.440 E9.20883
G1 X112.719 Y94.003 E9.55473
G1 X113.423 Y94.496 E9.81218
G1 X113.632 Y94.666 E9.89305
G1 X114.348 Y95.561 E10.23633
G1 X115.025 Y96.600 E10.60816
G92 E0
G1 X109.242 Y92.160 F7800.000
G1 X109.242 Y92.160 F7800.000
G1 X109.170 Y91.161 F7800.000
G1 X107.693 Y91.215 F7800.000
G1 X107.521 Y91.228 F7800.000
G1 X106.149 Y91.389 F7800.000
G1 X105.920 Y91.427 F7800.000
G1 X104.611 Y91.705 F7800.000
G1 X104.303 Y91.787 F7800.000
G1 X103.036 Y92.188 F7800.000
G1 X102.609 Y92.347 F7800.000
G1 X101.357 Y92.889 F7800.000
G1 X100.786 Y93.171 F7800.000
G1 X99.839 Y93.698 F7800.000
G1 X98.494 Y92.352 F7800.000
G1 X96.302 Y92.352 F7800.000
G1 X96.302 Y93.198 F7800.000
G1 X86.486 Y93.198 E2.94133 F600.000
G1 X85.385 Y93.556 E3.28802
G1 X85.782 Y94.586 E3.61865
G1 X94.132 Y105.421 E7.71765
G1 X94.525 Y106.453 E8.04874
G1 X93.439 Y106.802 E8.39055
G1 X84.925 Y106.802 E10.94174
G92 E0
G1 Z1.200 F7800.000
G1 X114.852 Y103.783 F7800.000
G1 X114.095 Y104.879 E0.39907 F600.000
G1 X113.632 Y105.424 E0.61328
G1 X113.508 Y105.540 E0.66419
G1 X112.831 Y106.059 E0.91979
G1 X112.438 Y106.278 E1.05464
G1 X111.841 Y106.551 E1.25120
G1 X111.428 Y106.685 E1.38129
G1 X110.643 Y106.874 E1.62346
G1 X110.347 Y106.915 E1.71287
G1 X109.247 Y106.992 E2.04327
G1 X107.585 Y106.811 E2.54416
G1 X107.273 Y106.749 E2.63944
G1 X106.022 Y106.256 E3.04239
G1 X105.706 Y106.095 E3.14885
G1 X104.672 Y105.260 E3.54706
G1 X104.480 Y105.081 E3.62573
G1 X103.653 Y103.857 E4.06829
G1 X103.583 Y103.747 E4.10738
G1 X103.534 Y103.614 E4.14995
G1 X103.030 Y102.094 E4.62982
G1 X102.833 Y100.047 E5.24585
G1 X102.941 Y98.660 E5.66269
G1 X103.055 Y97.996 E5.86469
G1 X103.209 Y97.420 E6.04322
G1 X103.610 Y96.325 E6.39258
G1 X104.190 Y95.408 E6.71789
G1 X104.504 Y95.010 E6.86978
G1 X104.877 Y94.624 E7.03066
G1 X105.721 Y93.966 E7.35119
G1 X106.086 Y93.761 E7.47682
G1 X106.737 Y93.477 E7.68947
G1 X107.437 Y93.246 E7.91034
G1 X107.905 Y93.144 E8.05386
G1 X109.239 Y93.015 E8.45567
G1 X109.488 Y93.029 E8.53031
G1 X110.538 Y93.164 E8.84757
G1 X111.458 Y93.364 E9.12966
G1 X111.711 Y93.440 E9.20883
G1 X112.719 Y94.003 E9.55473
G1 X113.423 Y94.496 E9.81218
G1 X113.632 Y94.666 E9.89305
G1 X114.348 Y95.561 E10.23633
G1 X115.025 Y96.600 E10.60816
G92 E0
G1 X109.242 Y92.160 F7800.000
G1 X109.242 Y92.160 F7800.000
G1 X109.170 Y91.161 F7800.000
G1 X107.693 Y91.215 F7800.000
G1 X107.521 Y91.228 F7800.000
G1 X106.149 Y91.389 F7800.000
G1 X105.920 Y91.427 F7800.000
G1 X104.611 Y91.705 F7800.000
G1 X104.303 Y91.787 F7800.000
G1 X103.036 Y92.188 F7800.000
G1 X102.609 Y92.347 F7800.000
G1 X101.357 Y92.889 F7800.000
G1 X100.786 Y93.171 F7800.000
G1 X99.839 Y93.698 F7800.000
G1 X98.494 Y92.352 F7800.000
G1 X96.302 Y92.352 F7800.000
G1 X96.302 Y93.198 F7800.000
G1 X86.486 Y93.198 E2.94133 F600.000
G1 X85.385 Y93.556 E3.28802
G1 X85.782 Y94.586 E3.61865
G1 X94.132 Y105.421 E7.71765
G1 X94.525 Y106.453 E8.04874
G1 X93.439 Y106.802 E8.39055
G1 X84.925 Y106.802 E10.94174
G92 E0
G1 Z1.500 F7800.000
G1 X114.852 Y103.783 F7800.000
G1 X114.095 Y104.879 E0.39907 F600.000
G1 X113.632 Y105.424 E0.61328
G1 X113.508 Y105.540 E0.66419
G1 X112.831 Y106.059 E0.91979
G1 X112.438 Y106.278 E1.05464
G1 X111.841 Y106.551 E1.25120
G1 X111.428 Y106.685 E1.38129
G1 X110.643 Y106.874 E1.62346
G1 X110.347 Y106.915 E1.71287
G1 X109.247 Y106.992 E2.04327
G1 X107.585 Y106.811 E2.54417
G1 X107.273 Y106.749 E2.63945
G1 X106.022 Y106.256 E3.04239
G1 X105.706 Y106.095 E3.14885
G1 X104.672 Y105.260 E3.54706
G1 X104.480 Y105.081 E3.62573
G1 X103.653 Y103.857 E4.06829
G1 X103.583 Y103.747 E4.10738
G1 X103.534 Y103.614 E4.14995
G1 X103.030 Y102.094 E4.62982
G1 X102.833 Y100.047 E5.24585
G1 X102.941 Y98.660 E5.66269
G1 X103.055 Y97.996 E5.86469
G1 X103.209 Y97.420 E6.04322
G1 X103.610 Y96.325 E6.39258
G1 X104.190 Y95.408 E6.71789
G1 X104.504 Y95.010 E6.86978
G1 X104.877 Y94.624 E7.03067
G1 X105.721 Y93.966 E7.35119
