; generated by Slic3r 1.2.9 on 2016-03-11 at 01:32:58

; external perimeters extrusion width = 1.54mm
; perimeters extrusion width = 2.62mm
; infill extrusion width = 6.27mm
; solid infill extrusion width = 2.62mm
; top infill extrusion width = 2.62mm

M107
M104 S30 ; set temperature
G28 ; home all axes
G1 Z5 F5000 ; lift nozzle
M302
M92 E10000
M500
M501
G1 E100
M109 S30 ; wait for temperature to be reached
G21 ; set units to millimeters
G90 ; use absolute coordinates
M82 ; use absolute distances for extrusion
G92 E0
G1 Z0.300 F7800.000
G1 X111.273 Y106.794 F7800.000
G1 X109.995 Y107.210 E0.06084 F378.000
G1 X107.635 Y107.423 E0.16806
G1 X102.809 Y107.423 E0.38643
G1 X102.809 Y92.577 E1.05820
G1 X108.299 Y92.577 E1.30665
G1 X109.604 Y92.673 E1.36584
G1 X109.692 Y92.680 E1.36984 F378.000
G1 X110.958 Y92.986 E1.42876
G1 X112.107 Y93.493 E1.48562
G1 X113.115 Y94.190 E1.54108
G1 X113.957 Y95.065 E1.59601
G1 X114.635 Y96.120 E1.65277
G1 X115.133 Y97.333 E1.71207
G1 X115.433 Y98.678 E1.77442
G1 X115.533 Y100.153 E1.84132
G1 X115.303 Y102.317 E1.93982
G1 X114.622 Y104.105 E2.02638
G1 X113.491 Y105.532 E2.10877
G1 X111.941 Y106.578 E2.19338
G1 X111.493 Y106.723 E2.21468
G1 X111.023 Y105.529 F7800.000
G1 X109.462 Y106.045 E2.28906 F378.000
G1 X107.611 Y106.214 E2.37318
G1 X104.430 Y106.214 E2.51713
G1 X104.430 Y93.786 E3.07949
G1 X108.076 Y93.786 E3.24449 F378.000
G1 X109.182 Y93.870 E3.29466
G1 X110.208 Y94.126 E3.34250
G1 X111.143 Y94.553 E3.38905
G1 X111.965 Y95.145 E3.43486
G1 X112.650 Y95.887 E3.48057
G1 X113.194 Y96.778 E3.52780
G1 X113.589 Y97.796 E3.57720
G1 X113.824 Y98.923 E3.62929
G1 X113.902 Y100.161 E3.68543
G1 X113.725 Y101.954 E3.76696
G1 X113.183 Y103.459 E3.83931
G1 X112.275 Y104.660 E3.90749
G1 X111.213 Y105.397 E3.96597
G92 E0
G1 X103.655 Y106.648 F7800.000
G1 X103.655 Y106.648 F7800.000
G1 X105.215 Y106.440 F7800.000
G1 X105.972 Y107.197 E0.04858 F540.000
G1 X106.519 Y107.197 E0.07339
G1 X105.762 Y106.440 E0.12197
G1 X106.309 Y106.440 E0.14678
G1 X107.066 Y107.197 E0.19535
G1 X107.613 Y107.197 E0.22016
G1 X106.856 Y106.440 E0.26874
G1 X107.403 Y106.440 E0.29355
G1 X108.122 Y107.159 E0.33970
G1 X108.623 Y107.114 E0.36254
G1 X107.915 Y106.406 E0.40796
G1 X108.416 Y106.360 E0.43079
G1 X109.125 Y107.068 E0.47623
G1 X109.626 Y107.023 E0.49908
G1 X108.917 Y106.314 E0.54455
G1 X109.418 Y106.269 E0.56738
G1 X110.108 Y106.958 E0.61159
G1 X110.520 Y106.824 E0.63128
G1 X109.834 Y106.137 E0.67532
G1 X110.245 Y106.001 E0.69496
G1 X110.933 Y106.690 E0.73912
G1 X111.346 Y106.556 E0.75881
G1 X110.656 Y105.866 E0.80308
G1 X111.067 Y105.730 E0.82272
G1 X111.759 Y106.421 E0.86711
G1 X112.112 Y106.228 E0.88538
G1 X111.392 Y105.509 E0.93154
G1 X111.715 Y105.285 E0.94937
G1 X112.438 Y106.008 E0.99577
G1 X112.765 Y105.787 E1.01364
G1 X112.038 Y105.061 E1.06028
G1 X112.361 Y104.836 E1.07811
G1 X113.092 Y105.567 E1.12499
G1 X113.395 Y105.323 E1.14264
G1 X112.609 Y104.538 E1.19303
G1 X112.845 Y104.227 E1.21074
G1 X113.645 Y105.027 E1.26209
G1 X113.887 Y104.722 E1.27975
G1 X113.080 Y103.915 E1.33150
G1 X113.316 Y103.604 E1.34921
G1 X114.128 Y104.417 E1.40136
G1 X114.370 Y104.112 E1.41902
G1 X113.483 Y103.225 E1.47592
G1 X113.628 Y102.823 E1.49531
G1 X114.545 Y103.739 E1.55413
G1 X114.696 Y103.344 E1.57335
G1 X113.773 Y102.421 E1.63258
G1 X113.917 Y102.018 E1.65197
G1 X114.847 Y102.948 E1.71160
G1 X114.997 Y102.552 E1.73082
G1 X113.985 Y101.539 E1.79579
G1 X114.034 Y101.042 E1.81847
G1 X115.106 Y102.113 E1.88722
G1 X115.158 Y101.619 E1.90978
G1 X114.084 Y100.544 E1.97873
G1 X114.127 Y100.040 E2.00168
G1 X115.211 Y101.125 E2.07125
G1 X115.263 Y100.630 E2.09381
G1 X114.090 Y99.457 E2.16911
G1 X114.053 Y98.873 E2.19565
G1 X115.298 Y100.119 E2.27559
G1 X115.259 Y99.532 E2.30226
G1 X113.922 Y98.195 E2.38804
G1 X113.742 Y97.468 E2.42202
G1 X115.219 Y98.945 E2.51679
G1 X115.090 Y98.270 E2.54799
G1 X113.396 Y96.576 E2.65671
G1 X114.571 Y96.658 F7800.000
G1 X111.374 Y93.460 E2.86188 F540.000
G1 X111.026 Y94.206 F7800.000
G1 X109.775 Y92.954 E2.94219 F540.000
G1 X110.495 Y93.128 E2.97583
G1 X114.933 Y97.566 E3.26059
G1 X113.723 Y95.262 F7800.000
G1 X112.741 Y94.281 E3.32355 F540.000
G1 X110.122 Y93.849 F7800.000
G1 X109.146 Y92.872 E3.38619 F540.000
G1 X108.555 Y92.829 E3.41305
G1 X109.394 Y93.667 E3.46685
G1 X108.787 Y93.607 E3.49452
G1 X107.983 Y92.803 E3.54611
G1 X107.436 Y92.803 E3.57092
G1 X108.195 Y93.562 E3.61962
G1 X107.646 Y93.560 E3.64452
G1 X106.889 Y92.803 E3.69310
G1 X106.342 Y92.803 E3.71791
G1 X107.099 Y93.560 E3.76649
G1 X106.553 Y93.560 E3.79130
G1 X105.795 Y92.803 E3.83987
G1 X105.249 Y92.803 E3.86468
G1 X106.006 Y93.560 E3.91326
G1 X105.459 Y93.560 E3.93807
G1 X104.702 Y92.803 E3.98665
G1 X104.155 Y92.803 E4.01146
G1 X104.912 Y93.560 E4.06004
G1 X104.365 Y93.560 E4.08485
G1 X103.608 Y92.803 E4.13342
G1 X103.068 Y92.810 E4.15793
G1 X104.204 Y93.945 E4.23081
G1 X104.204 Y94.492 E4.25562
G1 X103.035 Y93.323 E4.33063
G1 X103.035 Y93.870 E4.35544
G1 X104.204 Y95.039 E4.43046
G1 X104.204 Y95.586 E4.45527
G1 X103.035 Y94.417 E4.53028
G1 X103.035 Y94.964 E4.55509
G1 X104.204 Y96.133 E4.63010
G1 X104.204 Y96.679 E4.65491
G1 X103.035 Y95.510 E4.72993
G1 X103.035 Y96.057 E4.75474
G1 X104.204 Y97.226 E4.82975
G1 X104.204 Y97.773 E4.85456
G1 X103.035 Y96.604 E4.92957
G1 X103.035 Y97.151 E4.95438
G1 X104.204 Y98.320 E5.02940
G1 X104.204 Y98.867 E5.05421
G1 X103.035 Y97.698 E5.12922
G1 X103.035 Y98.244 E5.15403
G1 X104.204 Y99.414 E5.22904
G1 X104.204 Y99.960 E5.25385
G1 X103.035 Y98.791 E5.32887
G1 X103.035 Y99.338 E5.35368
G1 X104.204 Y100.507 E5.42869
G1 X104.204 Y101.054 E5.45350
G1 X103.035 Y99.885 E5.52851
G1 X103.035 Y100.432 E5.55332
G1 X104.204 Y101.601 E5.62834
G1 X104.204 Y102.148 E5.65315
G1 X103.035 Y100.978 E5.72816
G1 X103.035 Y101.525 E5.75297
G1 X104.204 Y102.694 E5.82798
G1 X104.204 Y103.241 E5.85279
G1 X103.035 Y102.072 E5.92781
G1 X103.035 Y102.619 E5.95262
G1 X104.204 Y103.788 E6.02763
G1 X104.204 Y104.335 E6.05244
G1 X103.035 Y103.166 E6.12745
G1 X103.035 Y103.713 E6.15226
G1 X104.204 Y104.882 E6.22728
G1 X104.204 Y105.428 E6.25209
G1 X103.035 Y104.259 E6.32710
G1 X103.035 Y104.806 E6.35191
G1 X104.204 Y105.975 E6.42692
G1 X104.122 Y106.440 E6.44833
G1 X104.879 Y107.197 E6.49691
G1 X105.426 Y107.197 E6.52172
G1 X104.668 Y106.440 E6.57030
G1 X104.204 Y106.522 E6.59171
G1 X103.035 Y105.353 E6.66672
G1 X103.035 Y105.900 E6.69153
G1 X104.332 Y107.197 E6.77477
G1 X103.785 Y107.197 E6.79958
G1 X103.035 Y106.447 E6.84772
G1 X103.035 Y106.993 E6.87253
G1 X103.238 Y107.197 E6.88560
G92 E0
G1 X102.584 Y107.648 F7800.000
G1 X85.033 Y108.648 F7800.000
G1 X83.637 Y105.956 F7800.000
G1 X85.966 Y102.231 F7800.000
G1 X93.547 Y105.956 F7800.000
G1 X86.061 Y106.181 F7800.000
G1 X94.005 Y106.181 E0.35945 F378.000
G1 X84.466 Y93.826 E1.06574
G1 X84.466 Y92.577 E1.12226
G1 X96.185 Y92.577 E1.65254
G1 X96.185 Y93.819 E1.70874
G1 X86.137 Y93.819 E2.16340 F378.000
G1 X95.675 Y106.218 E2.87123
G1 X95.675 Y107.423 E2.92577
G1 X85.258 Y107.423 E3.39714
G1 X85.258 Y106.181 E3.45334
G1 X85.830 Y106.181 E3.47922
G1 X86.010 Y106.407 F7800.000
G1 X86.800 Y107.197 E3.53077 F540.000
G1 X87.356 Y107.197 E3.55641
G1 X86.566 Y106.407 E3.60796
G1 X87.122 Y106.407 E3.63360
G1 X87.912 Y107.197 E3.68514
G1 X88.468 Y107.197 E3.71079
G1 X87.677 Y106.407 E3.76233
G1 X88.233 Y106.407 E3.78798
G1 X89.024 Y107.197 E3.83952
G1 X89.579 Y107.197 E3.86517
G1 X88.789 Y106.407 E3.91671
G1 X89.345 Y106.407 E3.94236
G1 X90.135 Y107.197 E3.99390
G1 X90.691 Y107.197 E4.01954
G1 X89.901 Y106.407 E4.07109
G1 X90.457 Y106.407 E4.09673
G1 X91.247 Y107.197 E4.14828
G1 X91.803 Y107.197 E4.17392
G1 X91.013 Y106.407 E4.22547
G1 X91.569 Y106.407 E4.25111
G1 X92.359 Y107.197 E4.30265
G1 X92.915 Y107.197 E4.32830
G1 X92.125 Y106.407 E4.37984
G1 X92.681 Y106.407 E4.40549
G1 X93.471 Y107.197 E4.45703
G1 X94.027 Y107.197 E4.48268
G1 X93.237 Y106.407 E4.53422
G1 X93.793 Y106.407 E4.55987
G1 X94.583 Y107.197 E4.61141
G1 X95.139 Y107.197 E4.63705
G1 X94.349 Y106.407 E4.68860
G1 X93.347 Y104.849 F7800.000
G1 X95.449 Y106.951 E4.82573 F540.000
G1 X95.421 Y106.367 E4.85273
G1 X91.464 Y102.410 E5.11087
G1 X91.713 Y101.547 F7800.000
G1 X87.697 Y97.531 E5.37288 F540.000
G1 X88.006 Y96.728 F7800.000
G1 X84.692 Y93.415 E5.58905 F540.000
G1 X84.692 Y92.859 E5.61469
G1 X86.152 Y94.318 E5.70993
G1 X85.983 Y93.593 F7800.000
G1 X85.193 Y92.803 E5.76148 F540.000
G1 X85.749 Y92.803 E5.78712
G1 X86.539 Y93.593 E5.83867
G1 X87.095 Y93.593 E5.86431
G1 X86.304 Y92.803 E5.91585
G1 X86.860 Y92.803 E5.94150
G1 X87.650 Y93.593 E5.99304
G1 X88.206 Y93.593 E6.01869
G1 X87.416 Y92.803 E6.07023
G1 X87.972 Y92.803 E6.09588
G1 X88.762 Y93.593 E6.14742
G1 X89.318 Y93.593 E6.17306
G1 X88.528 Y92.803 E6.22461
G1 X89.084 Y92.803 E6.25025
G1 X89.874 Y93.593 E6.30179
G1 X90.430 Y93.593 E6.32744
G1 X89.640 Y92.803 E6.37898
G1 X90.196 Y92.803 E6.40463
G1 X90.986 Y93.593 E6.45617
G1 X91.542 Y93.593 E6.48182
G1 X90.752 Y92.803 E6.53336
G1 X91.308 Y92.803 E6.55900
G1 X92.098 Y93.593 E6.61055
G1 X92.654 Y93.593 E6.63619
G1 X91.864 Y92.803 E6.68773
G1 X92.420 Y92.803 E6.71338
G1 X93.210 Y93.593 E6.76492
G1 X93.766 Y93.593 E6.79057
G1 X92.976 Y92.803 E6.84211
G1 X93.532 Y92.803 E6.86776
G1 X94.322 Y93.593 E6.91930
G1 X94.878 Y93.593 E6.94494
G1 X94.088 Y92.803 E6.99649
G1 X94.644 Y92.803 E7.02213
G1 X95.434 Y93.593 E7.07367
G1 X95.959 Y93.563 E7.09795
G1 X95.200 Y92.803 E7.14750
G1 X95.756 Y92.803 E7.17315
G1 X95.959 Y93.007 E7.18643
G92 E0
G1 X89.860 Y99.138 F7800.000
G1 X85.814 Y95.092 E0.26395 F540.000
G1 X89.580 Y99.971 F7800.000
G1 X93.567 Y103.957 E0.52402 F540.000
G92 E0
G1 X86.244 Y107.197 F7800.000
G1 X85.484 Y106.438 E0.04955 F540.000
G1 X85.484 Y106.993 E0.07519
G1 X85.688 Y107.197 E0.08848
M106 S255
G92 E0
G1 Z0.600 F7800.000
G1 X103.692 Y93.461 F7800.000
G1 X104.655 Y93.181 E0.30026 F600.000
G1 X108.131 Y93.183 E1.34180
G1 X109.209 Y93.258 E1.66578
G1 X109.593 Y93.314 E1.78194
G1 X110.343 Y93.498 E2.01328
G1 X110.741 Y93.627 E2.13870
G1 X111.406 Y93.926 E2.35724
G1 X111.758 Y94.118 E2.47721
G1 X112.367 Y94.547 E2.70057
G1 X112.629 Y94.762 E2.80221
G1 X113.348 Y95.547 E3.12095
G1 X113.930 Y96.488 E3.45263
G1 X114.362 Y97.575 E3.80314
G1 X114.626 Y98.794 E4.17696
G1 X114.716 Y100.137 E4.58029
G1 X114.511 Y102.128 E5.17986
G1 X113.929 Y103.711 E5.68535
G1 X113.772 Y103.947 E5.77028
G1 X112.976 Y104.976 E6.16009
G1 X112.645 Y105.257 E6.29025
G1 X111.634 Y105.948 E6.65726
G1 X111.426 Y106.052 E6.72693
G1 X111.193 Y106.147 E6.80219
G1 X109.866 Y106.582 E7.22072
G1 X109.492 Y106.649 E7.33462
G1 X107.607 Y106.818 E7.90155
G1 X104.655 Y106.818 E8.78628
G1 X103.692 Y106.539 E9.08653
G1 X103.619 Y105.989 E9.25290
G1 X103.619 Y94.011 E12.84206
G1 X103.692 Y93.461 E13.00843
G92 E0
G1 X102.584 Y92.352 F7800.000
G1 X99.497 Y93.439 F7800.000
G1 X98.410 Y92.352 F7800.000
G1 X96.410 Y92.352 F7800.000
G1 X96.410 Y93.198 F7800.000
G1 X86.594 Y93.198 E2.94133 F600.000
G1 X85.494 Y93.556 E3.28802
G1 X85.890 Y94.586 E3.61865
G1 X94.241 Y105.421 E7.71765
G1 X94.633 Y106.453 E8.04874
G1 X93.547 Y106.802 E8.39055
G1 X85.033 Y106.802 E10.94174
G92 E0
G1 Z0.900 F7800.000
G1 X103.692 Y93.461 F7800.000
G1 X104.655 Y93.181 E0.30026 F600.000
G1 X108.131 Y93.183 E1.34179
G1 X109.209 Y93.258 E1.66578
G1 X109.593 Y93.314 E1.78193
G1 X110.343 Y93.498 E2.01328
G1 X110.741 Y93.627 E2.13870
G1 X111.406 Y93.926 E2.35724
G1 X111.758 Y94.118 E2.47721
G1 X112.367 Y94.547 E2.70057
G1 X112.629 Y94.762 E2.80221
G1 X113.348 Y95.547 E3.12096
G1 X113.930 Y96.488 E3.45263
G1 X114.362 Y97.575 E3.80314
G1 X114.626 Y98.794 E4.17696
G1 X114.716 Y100.137 E4.58029
G1 X114.511 Y102.128 E5.17986
G1 X113.929 Y103.711 E5.68535
G1 X113.772 Y103.947 E5.77028
G1 X112.976 Y104.976 E6.16009
G1 X112.645 Y105.257 E6.29025
G1 X111.634 Y105.948 E6.65726
G1 X111.426 Y106.052 E6.72693
G1 X111.193 Y106.147 E6.80219
G1 X109.866 Y106.582 E7.22072
G1 X109.492 Y106.649 E7.33462
G1 X107.607 Y106.818 E7.90155
G1 X104.655 Y106.818 E8.78628
G1 X103.692 Y106.539 E9.08653
G1 X103.619 Y105.989 E9.25290
G1 X103.619 Y94.011 E12.84206
G1 X103.692 Y93.461 E13.00843
G92 E0
G1 X102.584 Y92.352 F7800.000
G1 X99.497 Y93.439 F7800.000
G1 X98.410 Y92.352 F7800.000
G1 X96.410 Y92.352 F7800.000
G1 X96.410 Y93.198 F7800.000
G1 X86.594 Y93.198 E2.94133 F600.000
G1 X85.494 Y93.556 E3.28802
G1 X85.890 Y94.586 E3.61865
G1 X94.241 Y105.421 E7.71765
G1 X94.633 Y106.453 E8.04874
G1 X93.547 Y106.802 E8.39055
G1 X85.033 Y106.802 E10.94174
G92 E0
G1 Z1.200 F7800.000
G1 X103.692 Y93.461 F7800.000
G1 X104.655 Y93.181 E0.30026 F600.000
G1 X108.131 Y93.183 E1.34180
G1 X109.209 Y93.258 E1.66578
G1 X109.593 Y93.314 E1.78194
G1 X110.343 Y93.498 E2.01328
G1 X110.741 Y93.627 E2.13870
G1 X111.406 Y93.926 E2.35724
G1 X111.758 Y94.118 E2.47721
G1 X112.367 Y94.547 E2.70057
G1 X112.629 Y94.762 E2.80221
G1 X113.348 Y95.547 E3.12096
G1 X113.930 Y96.488 E3.45263
G1 X114.362 Y97.575 E3.80314
G1 X114.626 Y98.794 E4.17696
G1 X114.716 Y100.137 E4.58029
G1 X114.511 Y102.128 E5.17986
G1 X113.929 Y103.711 E5.68535
G1 X113.772 Y103.947 E5.77028
G1 X112.976 Y104.976 E6.16009
G1 X112.645 Y105.257 E6.29025
G1 X111.634 Y105.948 E6.65726
G1 X111.426 Y106.052 E6.72693
G1 X111.193 Y106.147 E6.80219
G1 X109.866 Y106.582 E7.22072
G1 X109.492 Y106.649 E7.33462
G1 X107.607 Y106.818 E7.90155
G1 X104.655 Y106.818 E8.78628
G1 X103.692 Y106.539 E9.08653
G1 X103.619 Y105.989 E9.25290
G1 X103.619 Y94.011 E12.84206
G1 X103.692 Y93.461 E13.00843
G92 E0
G1 X102.584 Y92.352 F7800.000
G1 X99.497 Y93.439 F7800.000
G1 X98.410 Y92.352 F7800.000
G1 X96.410 Y92.352 F7800.000
G1 X96.410 Y93.198 F7800.000
G1 X86.594 Y93.198 E2.94133 F600.000
G1 X85.494 Y93.556 E3.28802
G1 X85.890 Y94.586 E3.61865
G1 X94.241 Y105.421 E7.71765
G1 X94.633 Y106.453 E8.04874
G1 X93.547 Y106.802 E8.39055
G1 X85.033 Y106.802 E10.94174
G92 E0
G1 Z1.500 F7800.000
G1 X103.692 Y93.461 F7800.000
G1 X104.655 Y93.181 E0.30026 F600.000
G1 X108.131 Y93.183 E1.34180
G1 X109.209 Y93.258 E1.66578
G1 X109.593 Y93.314 E1.78193
G1 X110.343 Y93.498 E2.01328
G1 X110.741 Y93.627 E2.13870
G1 X111.406 Y93.926 E2.35724
G1 X111.758 Y94.118 E2.47721
G1 X112.367 Y94.547 E2.70057
G1 X112.629 Y94.762 E2.80221
G1 X113.348 Y95.547 E3.12096
G1 X113.930 Y96.488 E3.45263
G1 X114.362 Y97.575 E3.80314
G1 X114.626 Y98.794 E4.17696
G1 X114.716 Y100.137 E4.58029
G1 X114.511 Y102.128 E5.17986
G1 X113.929 Y103.711 E5.68535
G1 X113.772 Y103.947 E5.77028
G1 X112.976 Y104.976 E6.16009
G1 X112.645 Y105.257 E6.29025
G1 X111.634 Y105.948 E6.65726
G1 X111.426 Y106.052 E6.72693
G1 X111.193 Y106.147 E6.80219
G1 X109.866 Y106.582 E7.22072
G1 X109.492 Y106.649 E7.33462
G1 X107.607 Y106.818 E7.90155
G1 X104.655 Y106.818 E8.78628
G1 X103.692 Y106.539 E9.08653
G1 X103.619 Y105.989 E9.25290
G1 X103.619 Y94.011 E12.84206
G1 X103.692 Y93.461 E13.00843
G92 E0
G1 X102.584 Y92.352 F7800.000
G1 X99.497 Y93.439 F7800.000
G1 X98.410 Y92.352 F7800.000
G1 X96.410 Y92.352 F7800.000
G1 X96.410 Y93.198 F7800.000
G1 X86.594 Y93.198 E2.94133 F600.000
G1 X85.494 Y93.556 E3.28802
G1 X85.890 Y94.586 E3.61865
G1 X94.241 Y105.421 E7.71765
G1 X94.633 Y106.453 E8.04874
G1 X93.547 Y106.802 E8.39055
G1 X85.033 Y106.802 E10.94174
G92 E0
G1 Z1.800 F7800.000
G1 X103.692 Y93.461 F7800.000
G1 X104.655 Y93.181 E0.30026 F600.000
G1 X108.224 Y93.184 E1.36968
G1 X109.209 Y93.258 E1.66582
G1 X109.593 Y93.314 E1.78197
G1 X110.343 Y93.498 E2.01332
G1 X110.741 Y93.627 E2.13874
G1 X111.406 Y93.926 E2.35728
G1 X111.758 Y94.118 E2.47725
G1 X112.367 Y94.547 E2.70061
G1 X112.629 Y94.762 E2.80224
G1 X113.348 Y95.547 E3.12099
G1 X113.930 Y96.488 E3.45267
G1 X114.362 Y97.575 E3.80318
G1 X114.626 Y98.794 E4.17700
G1 X114.716 Y100.137 E4.58033
G1 X114.511 Y102.128 E5.17990
G1 X113.929 Y103.711 E5.68539
G1 X113.772 Y103.947 E5.77032
G1 X112.976 Y104.976 E6.16013
G1 X112.645 Y105.257 E6.29029
G1 X111.634 Y105.948 E6.65730
G1 X111.426 Y106.052 E6.72697
G1 X111.193 Y106.147 E6.80223
G1 X109.866 Y106.582 E7.22076
G1 X109.492 Y106.649 E7.33466
G1 X107.607 Y106.818 E7.90159
G1 X104.655 Y106.818 E8.78632
G1 X103.692 Y106.539 E9.08657
G1 X103.619 Y105.989 E9.25294
