; generated by Slic3r 1.2.9 on 2016-03-11 at 01:32:59

; external perimeters extrusion width = 1.54mm
; perimeters extrusion width = 2.62mm
; infill extrusion width = 6.27mm
; solid infill extrusion width = 2.62mm
; top infill extrusion width = 2.62mm

M107
M104 S30 ; set temperature
G28 ; home all axes
G1 Z5 F5000 ; lift nozzle
M302
M92 E10000
M500
M501
G1 E100
M109 S30 ; wait for temperature to be reached
G21 ; set units to millimeters
G90 ; use absolute coordinates
M82 ; use absolute distances for extrusion
G92 E0
G1 Z0.300 F7800.000
G1 X103.386 Y94.600 F7800.000
G1 X103.386 Y92.577 E0.09153 F378.000
G1 X114.950 Y92.577 E0.61479
G1 X114.950 Y93.819 E0.67099
G1 X105.007 Y93.819 E1.12090 F378.000
G1 X105.007 Y99.611 E1.38299
G1 X113.856 Y99.611 E1.78339
G1 X113.856 Y100.831 E1.83860
G1 X105.007 Y100.831 E2.23900
G1 X105.007 Y106.181 E2.48109
G1 X114.506 Y106.181 E2.91091
G1 X114.506 Y107.423 E2.96711
G1 X103.386 Y107.423 E3.47028
G1 X103.386 Y94.831 E4.04007
G1 X104.781 Y93.976 F7800.000
G1 X103.630 Y92.825 E4.11377 F540.000
G1 X103.612 Y93.353 E4.13768
G1 X104.781 Y94.522 E4.21253
G1 X104.781 Y95.067 E4.23723
G1 X103.612 Y93.898 E4.31208
G1 X103.612 Y94.444 E4.33679
G1 X104.781 Y95.613 E4.41164
G1 X104.781 Y96.159 E4.43634
G1 X103.612 Y94.990 E4.51119
G1 X103.612 Y95.535 E4.53589
G1 X104.781 Y96.704 E4.61074
G1 X104.781 Y97.250 E4.63545
G1 X103.612 Y96.081 E4.71030
G1 X103.612 Y96.626 E4.73500
G1 X104.781 Y97.796 E4.80985
G1 X104.781 Y98.341 E4.83455
G1 X103.612 Y97.172 E4.90940
G1 X103.612 Y97.718 E4.93411
G1 X104.781 Y98.887 E5.00896
G1 X104.781 Y99.432 E5.03366
G1 X103.612 Y98.263 E5.10851
G1 X103.612 Y98.809 E5.13321
G1 X105.408 Y100.605 E5.24821
G1 X105.953 Y100.605 E5.27291
G1 X105.185 Y99.837 E5.32208
G1 X105.731 Y99.837 E5.34679
G1 X106.499 Y100.605 E5.39596
G1 X107.045 Y100.605 E5.42067
G1 X106.277 Y99.837 E5.46984
G1 X106.822 Y99.837 E5.49455
G1 X107.590 Y100.605 E5.54372
G1 X108.136 Y100.605 E5.56843
G1 X107.368 Y99.837 E5.61760
G1 X107.913 Y99.837 E5.64230
G1 X108.682 Y100.605 E5.69148
G1 X109.227 Y100.605 E5.71618
G1 X108.459 Y99.837 E5.76536
G1 X109.005 Y99.837 E5.79006
G1 X109.773 Y100.605 E5.83924
G1 X110.318 Y100.605 E5.86394
G1 X109.550 Y99.837 E5.91312
G1 X110.096 Y99.837 E5.93782
G1 X110.864 Y100.605 E5.98700
G1 X111.410 Y100.605 E6.01170
G1 X110.642 Y99.837 E6.06088
G1 X111.187 Y99.837 E6.08558
G1 X111.955 Y100.605 E6.13476
G1 X112.501 Y100.605 E6.15946
G1 X111.733 Y99.837 E6.20864
G1 X112.278 Y99.837 E6.23334
G1 X113.047 Y100.605 E6.28252
G1 X113.592 Y100.605 E6.30722
G1 X112.824 Y99.837 E6.35640
G1 X113.370 Y99.837 E6.38110
G1 X113.630 Y100.097 E6.39774
G92 E0
G1 X104.232 Y106.648 F7800.000
G1 X104.232 Y106.648 F7800.000
G1 X113.392 Y106.407 F7800.000
G1 X114.182 Y107.197 E0.05059 F540.000
G1 X114.280 Y106.749 E0.07135
G1 X113.938 Y106.407 E0.09324
G1 X113.637 Y107.197 F7800.000
G1 X112.847 Y106.407 E0.14383 F540.000
G1 X112.301 Y106.407 E0.16853
G1 X113.091 Y107.197 E0.21912
G1 X112.545 Y107.197 E0.24382
G1 X111.755 Y106.407 E0.29441
G1 X111.210 Y106.407 E0.31911
G1 X112.000 Y107.197 E0.36969
G1 X111.454 Y107.197 E0.39440
G1 X110.664 Y106.407 E0.44498
G1 X110.118 Y106.407 E0.46968
G1 X110.908 Y107.197 E0.52027
G1 X110.363 Y107.197 E0.54497
G1 X109.573 Y106.407 E0.59556
G1 X109.027 Y106.407 E0.62026
G1 X109.817 Y107.197 E0.67085
G1 X109.272 Y107.197 E0.69555
G1 X108.481 Y106.407 E0.74613
G1 X107.936 Y106.407 E0.77084
G1 X108.726 Y107.197 E0.82142
G1 X108.180 Y107.197 E0.84612
G1 X107.390 Y106.407 E0.89671
G1 X106.845 Y106.407 E0.92141
G1 X107.635 Y107.197 E0.97200
G1 X107.089 Y107.197 E0.99670
G1 X106.299 Y106.407 E1.04729
G1 X105.753 Y106.407 E1.07199
G1 X106.543 Y107.197 E1.12257
G1 X105.998 Y107.197 E1.14728
G1 X105.208 Y106.407 E1.19786
G1 X104.781 Y106.526 E1.21792
G1 X103.612 Y105.357 E1.29277
G1 X103.612 Y105.902 E1.31748
G1 X104.907 Y107.197 E1.40038
G1 X105.452 Y107.197 E1.42508
G1 X104.662 Y106.407 E1.47567
G1 X104.781 Y105.980 E1.49573
G1 X103.612 Y104.811 E1.57058
G1 X103.612 Y104.265 E1.59528
G1 X104.781 Y105.434 E1.67013
G1 X104.781 Y104.889 E1.69483
G1 X103.612 Y103.720 E1.76968
G1 X103.612 Y103.174 E1.79439
G1 X104.781 Y104.343 E1.86924
G1 X104.781 Y103.798 E1.89394
G1 X103.612 Y102.628 E1.96879
G1 X103.612 Y102.083 E1.99349
G1 X104.781 Y103.252 E2.06835
G1 X104.781 Y102.706 E2.09305
G1 X103.612 Y101.537 E2.16790
G1 X103.612 Y100.992 E2.19260
G1 X104.781 Y102.161 E2.26745
G1 X104.781 Y101.615 E2.29215
G1 X103.612 Y100.446 E2.36701
G1 X103.612 Y99.900 E2.39171
G1 X104.781 Y101.069 E2.46656
G1 X104.862 Y100.605 E2.48790
G1 X103.612 Y99.355 E2.56796
G1 X104.943 Y93.593 F7800.000
G1 X104.153 Y92.803 E2.61854 F540.000
G1 X104.699 Y92.803 E2.64324
G1 X105.489 Y93.593 E2.69383
G1 X106.035 Y93.593 E2.71853
G1 X105.244 Y92.803 E2.76912
G1 X105.790 Y92.803 E2.79382
G1 X106.580 Y93.593 E2.84440
G1 X107.126 Y93.593 E2.86911
G1 X106.336 Y92.803 E2.91969
G1 X106.881 Y92.803 E2.94439
G1 X107.671 Y93.593 E2.99498
G1 X108.217 Y93.593 E3.01968
G1 X107.427 Y92.803 E3.07027
G1 X107.973 Y92.803 E3.09497
G1 X108.763 Y93.593 E3.14555
G1 X109.308 Y93.593 E3.17026
G1 X108.518 Y92.803 E3.22084
G1 X109.064 Y92.803 E3.24554
G1 X109.854 Y93.593 E3.29613
G1 X110.400 Y93.593 E3.32083
G1 X109.610 Y92.803 E3.37141
G1 X110.155 Y92.803 E3.39612
G1 X110.945 Y93.593 E3.44670
G1 X111.491 Y93.593 E3.47140
G1 X110.701 Y92.803 E3.52199
G1 X111.246 Y92.803 E3.54669
G1 X112.036 Y93.593 E3.59728
G1 X112.582 Y93.593 E3.62198
G1 X111.792 Y92.803 E3.67256
G1 X112.338 Y92.803 E3.69727
G1 X113.128 Y93.593 E3.74785
G1 X113.673 Y93.593 E3.77255
G1 X112.883 Y92.803 E3.82314
G1 X113.429 Y92.803 E3.84784
G1 X114.219 Y93.593 E3.89843
G1 X114.724 Y93.552 E3.92135
G1 X113.975 Y92.803 E3.96932
G1 X114.520 Y92.803 E3.99403
G1 X114.724 Y93.007 E4.00706
G1 X104.232 Y93.352 F7800.000
G1 X104.232 Y93.352 F7800.000
G1 X104.196 Y93.387 F7800.000
G1 X104.161 Y93.352 F7800.000
G1 X103.612 Y106.448 F7800.000
G1 X104.361 Y107.197 E4.05503 F540.000
G1 X103.815 Y107.197 E4.07973
G1 X103.612 Y106.993 E4.09277
G92 E0
G1 X103.161 Y107.648 F7800.000
G1 X101.161 Y107.648 F7800.000
G1 X99.823 Y106.141 F7800.000
G1 X96.484 Y106.141 F7800.000
G1 X94.588 Y104.045 F7800.000
G1 X96.259 Y106.218 E0.12401 F378.000
G1 X96.259 Y107.423 E0.17856
G1 X85.842 Y107.423 E0.64992
G1 X85.842 Y106.181 E0.70612
G1 X94.589 Y106.181 E1.10191
G1 X85.050 Y93.826 E1.80820
G1 X85.050 Y92.577 E1.86472
G1 X96.769 Y92.577 E2.39500
G1 X96.769 Y93.819 E2.45120
G1 X86.721 Y93.819 E2.90586 F378.000
G1 X94.447 Y103.862 E3.47922
G1 X94.151 Y103.957 F7800.000
G1 X90.164 Y99.971 E3.73930 F540.000
G1 X90.444 Y99.138 F7800.000
G1 X86.398 Y95.092 E4.00324 F540.000
G1 X86.736 Y94.318 F7800.000
G1 X85.276 Y92.859 E4.09848 F540.000
G1 X85.276 Y93.415 E4.12413
G1 X88.590 Y96.728 E4.34030
G1 X88.281 Y97.531 F7800.000
G1 X92.297 Y101.547 E4.60231 F540.000
G1 X92.048 Y102.410 F7800.000
G1 X96.005 Y106.367 E4.86045 F540.000
G1 X96.033 Y106.951 E4.88744
G1 X93.931 Y104.849 E5.02458
G1 X94.933 Y106.407 F7800.000
G1 X95.723 Y107.197 E5.07612 F540.000
G1 X95.167 Y107.197 E5.10177
G1 X94.377 Y106.407 E5.15331
G1 X93.821 Y106.407 E5.17896
G1 X94.611 Y107.197 E5.23050
G1 X94.055 Y107.197 E5.25615
G1 X93.265 Y106.407 E5.30769
G1 X92.709 Y106.407 E5.33333
G1 X93.499 Y107.197 E5.38488
G1 X92.943 Y107.197 E5.41052
G1 X92.153 Y106.407 E5.46207
G1 X91.597 Y106.407 E5.48771
G1 X92.387 Y107.197 E5.53926
G1 X91.831 Y107.197 E5.56490
G1 X91.041 Y106.407 E5.61644
G1 X90.485 Y106.407 E5.64209
G1 X91.275 Y107.197 E5.69363
G1 X90.719 Y107.197 E5.71928
G1 X89.929 Y106.407 E5.77082
G1 X89.373 Y106.407 E5.79647
G1 X90.163 Y107.197 E5.84801
G1 X89.608 Y107.197 E5.87366
G1 X88.817 Y106.407 E5.92520
G1 X88.261 Y106.407 E5.95084
G1 X89.052 Y107.197 E6.00239
G1 X88.496 Y107.197 E6.02803
G1 X87.706 Y106.407 E6.07958
G1 X87.150 Y106.407 E6.10522
G1 X87.940 Y107.197 E6.15677
G1 X87.384 Y107.197 E6.18241
G1 X86.594 Y106.407 E6.23395
G1 X86.828 Y107.197 F7800.000
G1 X86.068 Y106.438 E6.28350 F540.000
G1 X86.068 Y106.993 E6.30915
G1 X86.272 Y107.197 E6.32243
G92 E0
G1 X86.567 Y93.593 F7800.000
G1 X85.777 Y92.803 E0.05154 F540.000
G1 X86.333 Y92.803 E0.07719
G1 X87.123 Y93.593 E0.12873
G1 X87.679 Y93.593 E0.15438
G1 X86.888 Y92.803 E0.20592
G1 X87.444 Y92.803 E0.23156
G1 X88.234 Y93.593 E0.28311
G1 X88.790 Y93.593 E0.30875
G1 X88.000 Y92.803 E0.36029
G1 X88.556 Y92.803 E0.38594
G1 X89.346 Y93.593 E0.43748
G1 X89.902 Y93.593 E0.46313
G1 X89.112 Y92.803 E0.51467
G1 X89.668 Y92.803 E0.54032
G1 X90.458 Y93.593 E0.59186
G1 X91.014 Y93.593 E0.61750
G1 X90.224 Y92.803 E0.66905
G1 X90.780 Y92.803 E0.69469
G1 X91.570 Y93.593 E0.74624
G1 X92.126 Y93.593 E0.77188
G1 X91.336 Y92.803 E0.82342
G1 X91.892 Y92.803 E0.84907
G1 X92.682 Y93.593 E0.90061
G1 X93.238 Y93.593 E0.92626
G1 X92.448 Y92.803 E0.97780
G1 X93.004 Y92.803 E1.00345
G1 X93.794 Y93.593 E1.05499
G1 X94.350 Y93.593 E1.08063
G1 X93.560 Y92.803 E1.13218
G1 X94.116 Y92.803 E1.15782
G1 X94.906 Y93.593 E1.20936
G1 X95.462 Y93.593 E1.23501
G1 X94.672 Y92.803 E1.28655
G1 X95.228 Y92.803 E1.31220
G1 X96.018 Y93.593 E1.36374
G1 X96.543 Y93.563 E1.38802
G1 X95.784 Y92.803 E1.43757
G1 X96.340 Y92.803 E1.46322
G1 X96.543 Y93.007 E1.47650
M106 S255
G92 E0
G1 Z0.600 F7800.000
G1 X115.175 Y93.198 F7800.000
G1 X105.232 Y93.198 E2.97938 F600.000
G1 X104.276 Y93.468 E3.27683
G1 X104.196 Y94.044 E3.45118
G1 X104.196 Y99.386 E5.05189
G1 X105.067 Y103.706 E6.37226
G1 X104.232 Y106.648 F7800.000
G1 X104.232 Y106.648 F7800.000
G1 X114.731 Y106.802 F7800.000
G1 X105.232 Y106.802 E9.21860 F600.000
G1 X104.276 Y106.532 E9.51604
G1 X104.196 Y105.956 E9.69039
G1 X104.196 Y101.056 E11.15866
G1 X104.365 Y100.221 E11.41390
G1 X114.081 Y100.221 E14.32528
G92 E0
G1 X116.175 Y92.352 F7800.000
G1 X101.161 Y92.352 F7800.000
G1 X100.078 Y94.044 F7800.000
G1 X96.994 Y94.044 F7800.000
G1 X96.994 Y93.198 F7800.000
G1 X87.178 Y93.198 E2.94133 F600.000
G1 X86.078 Y93.556 E3.28802
G1 X86.474 Y94.586 E3.61865
G1 X94.825 Y105.421 E7.71765
G1 X95.217 Y106.453 E8.04874
G1 X94.131 Y106.802 E8.39055
G1 X85.617 Y106.802 E10.94174
G92 E0
G1 Z0.900 F7800.000
G1 X115.175 Y93.198 F7800.000
G1 X105.232 Y93.198 E2.97938 F600.000
G1 X104.276 Y93.468 E3.27683
G1 X104.196 Y94.044 E3.45118
G1 X104.196 Y99.386 E5.05189
G1 X105.067 Y103.706 E6.37226
G1 X104.232 Y106.648 F7800.000
G1 X104.232 Y106.648 F7800.000
G1 X114.731 Y106.802 F7800.000
G1 X105.232 Y106.802 E9.21860 F600.000
G1 X104.276 Y106.532 E9.51604
G1 X104.196 Y105.956 E9.69039
G1 X104.196 Y101.056 E11.15866
G1 X104.365 Y100.221 E11.41390
G1 X114.081 Y100.221 E14.32528
G92 E0
G1 X116.175 Y92.352 F7800.000
G1 X101.161 Y92.352 F7800.000
G1 X100.078 Y94.044 F7800.000
G1 X96.994 Y94.044 F7800.000
G1 X96.994 Y93.198 F7800.000
G1 X87.178 Y93.198 E2.94133 F600.000
G1 X86.078 Y93.556 E3.28802
G1 X86.474 Y94.586 E3.61865
G1 X94.825 Y105.421 E7.71765
G1 X95.217 Y106.453 E8.04874
G1 X94.131 Y106.802 E8.39055
G1 X85.617 Y106.802 E10.94174
G92 E0
G1 Z1.200 F7800.000
G1 X115.175 Y93.198 F7800.000
G1 X105.232 Y93.198 E2.97938 F600.000
G1 X104.276 Y93.468 E3.27683
G1 X104.196 Y94.044 E3.45118
G1 X104.196 Y99.386 E5.05189
G1 X105.067 Y103.706 E6.37226
G1 X104.232 Y106.648 F7800.000
G1 X104.232 Y106.648 F7800.000
G1 X114.731 Y106.802 F7800.000
G1 X105.232 Y106.802 E9.21860 F600.000
G1 X104.276 Y106.532 E9.51604
G1 X104.196 Y105.956 E9.69039
G1 X104.196 Y101.056 E11.15866
G1 X104.365 Y100.221 E11.41390
G1 X114.081 Y100.221 E14.32528
G92 E0
G1 X116.175 Y92.352 F7800.000
G1 X101.161 Y92.352 F7800.000
G1 X100.078 Y94.044 F7800.000
G1 X96.994 Y94.044 F7800.000
G1 X96.994 Y93.198 F7800.000
G1 X87.178 Y93.198 E2.94133 F600.000
G1 X86.078 Y93.556 E3.28802
G1 X86.474 Y94.586 E3.61865
G1 X94.825 Y105.421 E7.71765
G1 X95.217 Y106.453 E8.04874
G1 X94.131 Y106.802 E8.39055
G1 X85.617 Y106.802 E10.94174
G92 E0
G1 Z1.500 F7800.000
G1 X115.175 Y93.198 F7800.000
G1 X105.232 Y93.198 E2.97938 F600.000
G1 X104.276 Y93.468 E3.27683
G1 X104.196 Y94.044 E3.45118
G1 X104.196 Y99.386 E5.05189
G1 X105.067 Y103.706 E6.37226
G1 X104.232 Y106.648 F7800.000
G1 X104.232 Y106.648 F7800.000
G1 X114.731 Y106.802 F7800.000
G1 X105.232 Y106.802 E9.21860 F600.000
G1 X104.276 Y106.532 E9.51604
G1 X104.196 Y105.956 E9.69039
G1 X104.196 Y101.056 E11.15866
G1 X104.365 Y100.221 E11.41390
G1 X114.081 Y100.221 E14.32528
G92 E0
G1 X116.175 Y92.352 F7800.000
G1 X101.161 Y92.352 F7800.000
G1 X100.078 Y94.044 F7800.000
G1 X96.994 Y94.044 F7800.000
G1 X96.994 Y93.198 F7800.000
G1 X87.178 Y93.198 E2.94133 F600.000
G1 X86.078 Y93.556 E3.28802
G1 X86.474 Y94.586 E3.61865
G1 X94.825 Y105.421 E7.71765
G1 X95.217 Y106.453 E8.04874
G1 X94.131 Y106.802 E8.39055
G1 X85.617 Y106.802 E10.94174
G92 E0
G1 Z1.800 F7800.000
G1 X115.175 Y93.198 F7800.000
G1 X105.232 Y93.198 E2.97938 F600.000
G1 X104.276 Y93.468 E3.27683
G1 X104.196 Y94.044 E3.45118
G1 X104.196 Y99.386 E5.05189
G1 X105.067 Y103.706 E6.37226
G1 X104.232 Y106.648 F7800.000
G1 X104.232 Y106.648 F7800.000
G1 X114.731 Y106.802 F7800.000
G1 X105.232 Y106.802 E9.21860 F600.000
G1 X104.276 Y106.532 E9.51604
G1 X104.196 Y105.956 E9.69039
G1 X104.196 Y101.056 E11.15866
G1 X104.365 Y100.221 E11.41390
G1 X114.081 Y100.221 E14.32528
G92 E0
G1 X116.175 Y92.352 F7800.000
G1 X101.161 Y92.352 F7800.000
G1 X100.078 Y94.044 F7800.000
G1 X96.994 Y94.044 F7800.000
G1 X96.994 Y93.198 F7800.000
G1 X87.178 Y93.198 E2.94133 F600.000
G1 X86.078 Y93.556 E3.28802
G1 X86.474 Y94.586 E3.61865
G1 X94.825 Y105.421 E7.71765
G1 X95.217 Y106.453 E8.04874
G1 X94.131 Y106.802 E8.39055
G1 X85.617 Y106.802 E10.94174
G92 E0
G1 Z2.100 F7800.000
G1 X115.175 Y93.198 F7800.000
G1 X105.232 Y93.198 E2.97938 F600.000
G1 X104.276 Y93.468 E3.27683
G1 X104.196 Y94.044 E3.45118
G1 X104.196 Y99.386 E5.05189
G1 X105.067 Y103.706 E6.37226
G92 E0
G1 X104.232 Y106.648 F7800.000
G1 X104.232 Y106.648 F7800.000
G1 X114.731 Y106.802 F7800.000
G1 X105.232 Y106.802 E2.84634 F600.000
G1 X104.276 Y106.532 E3.14378
G1 X104.196 Y105.956 E3.31814
G1 X104.196 Y101.056 E4.78640
G1 X104.365 Y100.221 E5.04164
G1 X114.081 Y100.221 E7.95302
G92 E0
G1 X116.175 Y92.352 F7800.000
G1 X101.161 Y92.352 F7800.000
G1 X100.078 Y94.044 F7800.000
G1 X96.994 Y94.044 F7800.000
G1 X96.994 Y93.198 F7800.000
G1 X87.178 Y93.198 E2.94133 F600.000
G1 X86.078 Y93.556 E3.28802
G1 X86.474 Y94.586 E3.61865
G1 X94.825 Y105.421 E7.71765
G1 X95.217 Y106.453 E8.04874
G1 X94.131 Y106.802 E8.39055
G1 X85.617 Y106.802 E10.94174
G92 E0
M107
M104 S0 ; turn off temperature
G28 X0  ; home X axis
M84     ; disable motors

; filament used = 169.9mm (1.3cm3)

; avoid_crossing_perimeters = 1
; bed_shape = 0x0,250x0,250x250,0x250
; bed_temperature = 0
; before_layer_gcode = 
; bridge_acceleration = 0
; bridge_fan_speed = 100
; brim_width = 0
; complete_objects = 0
; cooling = 1
; default_acceleration = 0
; disable_fan_first_layers = 1
; duplicate_distance = 6
; end_gcode = M104 S0 ; turn off temperature\nG28 X0  ; home X axis\nM84     ; disable motors\n
; extruder_clearance_height = 20
; extruder_clearance_radius = 20
; extruder_offset = 0x0
; extrusion_axis = E
; extrusion_multiplier = 3
; fan_always_on = 0
; fan_below_layer_time = 60
; filament_colour = #FFFFFF
; filament_diameter = 3.125
; first_layer_acceleration = 0
; first_layer_bed_temperature = 0
; first_layer_extrusion_width = 150%
; first_layer_speed = 90%
; first_layer_temperature = 30
; gcode_arcs = 0
; gcode_comments = 0
; gcode_flavor = reprap
; infill_acceleration = 0
; infill_first = 0
; layer_gcode = 
; max_fan_speed = 100
; max_print_speed = 80
; max_volumetric_speed = 0
; min_fan_speed = 35
; min_print_speed = 10
; min_skirt_length = 0
; notes = 
; nozzle_diameter = 1.54
; only_retract_when_crossing_perimeters = 1
; ooze_prevention = 0
; output_filename_format = [input_filename_base].gcode
; perimeter_acceleration = 0
; post_process = 
; pressure_advance = 0
; resolution = 0
; retract_before_travel = 2
; retract_layer_change = 1
; retract_length = 0
; retract_length_toolchange = 10
; retract_lift = 0
; retract_restart_extra = 0
; retract_restart_extra_toolchange = 0
; retract_speed = 0
; skirt_distance = 6
