; generated by Slic3r 1.2.9 on 2016-03-11 at 01:33:00

; external perimeters extrusion width = 1.54mm
; perimeters extrusion width = 2.62mm
; infill extrusion width = 6.27mm
; solid infill extrusion width = 2.62mm
; top infill extrusion width = 2.62mm

M107
M104 S30 ; set temperature
G28 ; home all axes
G1 Z5 F5000 ; lift nozzle
M302
M92 E10000
M500
M501
G1 E100
M109 S30 ; wait for temperature to be reached
G21 ; set units to millimeters
G90 ; use absolute coordinates
M82 ; use absolute distances for extrusion
G92 E0
G1 Z0.300 F7800.000
G1 X114.112 Y99.912 F7800.000
G1 X114.112 Y100.063 E0.00683 F378.000
G1 X105.587 Y100.063 E0.39259
G1 X105.587 Y106.181 E0.66942
G1 X114.373 Y106.181 E1.06699
G1 X114.373 Y107.423 E1.12319
G1 X103.966 Y107.423 E1.59410
G1 X103.966 Y92.577 E2.26587
G1 X105.587 Y92.577 E2.33922
G1 X105.587 Y98.800 E2.62081
G1 X114.112 Y98.800 E3.00656 F378.000
G1 X114.112 Y99.681 E3.04642
G1 X113.886 Y99.230 F7800.000
G1 X113.683 Y99.026 E3.05946 F540.000
G1 X113.137 Y99.026 E3.08416
G1 X113.886 Y99.775 E3.13212
G1 X113.403 Y99.837 E3.15419
G1 X112.592 Y99.026 E3.20611
G1 X112.046 Y99.026 E3.23081
G1 X112.857 Y99.837 E3.28273
G1 X112.312 Y99.837 E3.30743
G1 X111.500 Y99.026 E3.35935
G1 X110.955 Y99.026 E3.38405
G1 X111.766 Y99.837 E3.43597
G1 X111.220 Y99.837 E3.46067
G1 X110.409 Y99.026 E3.51259
G1 X109.864 Y99.026 E3.53729
G1 X110.675 Y99.837 E3.58921
G1 X110.129 Y99.837 E3.61391
G1 X109.318 Y99.026 E3.66583
G1 X108.773 Y99.026 E3.69053
G1 X109.584 Y99.837 E3.74245
G1 X109.038 Y99.837 E3.76715
G1 X108.227 Y99.026 E3.81908
G1 X107.681 Y99.026 E3.84377
G1 X108.493 Y99.837 E3.89570
G1 X107.947 Y99.837 E3.92039
G1 X107.136 Y99.026 E3.97232
G1 X106.590 Y99.026 E3.99701
G1 X107.401 Y99.837 E4.04894
G1 X106.856 Y99.837 E4.07363
G1 X106.045 Y99.026 E4.12556
G1 X105.499 Y99.026 E4.15025
G1 X106.310 Y99.837 E4.20218
G1 X105.765 Y99.837 E4.22687
G1 X104.192 Y98.264 E4.32755
G1 X104.192 Y98.810 E4.35225
G1 X105.361 Y99.979 E4.42709
G1 X105.361 Y100.525 E4.45179
G1 X104.192 Y99.356 E4.52663
G1 X104.192 Y99.901 E4.55132
G1 X105.361 Y101.070 E4.62617
G1 X105.361 Y101.616 E4.65086
G1 X104.192 Y100.447 E4.72571
G1 X104.192 Y100.992 E4.75040
G1 X105.361 Y102.161 E4.82524
G1 X105.361 Y102.707 E4.84994
G1 X104.192 Y101.538 E4.92478
G1 X104.192 Y102.083 E4.94948
G1 X105.361 Y103.252 E5.02432
G1 X105.361 Y103.798 E5.04902
G1 X104.192 Y102.629 E5.12386
G1 X104.192 Y103.175 E5.14856
G1 X105.361 Y104.344 E5.22340
G1 X105.361 Y104.889 E5.24810
G1 X104.192 Y103.720 E5.32294
G1 X104.192 Y104.266 E5.34763
G1 X105.361 Y105.435 E5.42248
G1 X105.361 Y105.980 E5.44717
G1 X104.192 Y104.811 E5.52202
G1 X104.192 Y105.357 E5.54671
G1 X106.032 Y107.197 E5.66452
G1 X106.578 Y107.197 E5.68922
G1 X105.788 Y106.407 E5.73980
G1 X106.333 Y106.407 E5.76450
G1 X107.124 Y107.197 E5.81508
G1 X107.669 Y107.197 E5.83977
G1 X106.879 Y106.407 E5.89035
G1 X107.425 Y106.407 E5.91505
G1 X108.215 Y107.197 E5.96563
G1 X108.760 Y107.197 E5.99032
G1 X107.970 Y106.407 E6.04090
G1 X108.516 Y106.407 E6.06560
G1 X109.306 Y107.197 E6.11618
G1 X109.851 Y107.197 E6.14088
G1 X109.061 Y106.407 E6.19146
G1 X109.607 Y106.407 E6.21615
G1 X110.397 Y107.197 E6.26673
G1 X110.942 Y107.197 E6.29143
G1 X110.152 Y106.407 E6.34201
G1 X110.698 Y106.407 E6.36670
G1 X111.488 Y107.197 E6.41728
G1 X112.034 Y107.197 E6.44198
G1 X111.244 Y106.407 E6.49256
G1 X111.789 Y106.407 E6.51726
G1 X112.579 Y107.197 E6.56784
G1 X113.125 Y107.197 E6.59253
G1 X112.335 Y106.407 E6.64311
G1 X112.880 Y106.407 E6.66781
G1 X113.670 Y107.197 E6.71839
G1 X114.147 Y107.128 E6.74020
G1 X113.426 Y106.407 E6.78639
G1 X113.971 Y106.407 E6.81109
G1 X114.147 Y106.583 E6.82235
G1 X105.487 Y107.197 F7800.000
G1 X104.192 Y105.902 E6.90524 F540.000
G1 X104.192 Y106.448 E6.92993
G1 X104.941 Y107.197 E6.97789
G1 X104.396 Y107.197 E7.00259
G1 X104.192 Y106.993 E7.01562
G1 X105.361 Y98.888 F7800.000
G1 X104.192 Y97.719 E7.09046 F540.000
G1 X104.192 Y97.173 E7.11516
G1 X105.361 Y98.342 E7.19000
G1 X105.361 Y97.797 E7.21470
G1 X104.192 Y96.628 E7.28954
G1 X104.192 Y96.082 E7.31424
G1 X105.361 Y97.251 E7.38908
G1 X105.361 Y96.706 E7.41378
G1 X104.192 Y95.537 E7.48862
G1 X104.192 Y94.991 E7.51332
G1 X105.361 Y96.160 E7.58816
G1 X105.361 Y95.615 E7.61285
G1 X104.192 Y94.445 E7.68770
G1 X104.192 Y93.900 E7.71239
G1 X105.361 Y95.069 E7.78724
G1 X105.361 Y94.523 E7.81193
G1 X104.192 Y93.354 E7.88677
G1 X104.209 Y92.826 E7.91071
G1 X105.361 Y93.978 E7.98446
G1 X105.361 Y93.432 E8.00915
G1 X104.732 Y92.803 E8.04944
G92 E0
G1 X103.741 Y92.352 F7800.000
G1 X101.741 Y92.352 F7800.000
G1 X99.571 Y92.352 F7800.000
G1 X97.571 Y92.352 F7800.000
G1 X96.395 Y93.819 F7800.000
G1 X87.298 Y93.819 E0.41166 F378.000
G1 X96.836 Y106.218 E1.11949
G1 X96.836 Y107.423 E1.17403
G1 X86.419 Y107.423 E1.64540
G1 X86.419 Y106.181 E1.70160
G1 X95.166 Y106.181 E2.09739
G1 X85.627 Y93.826 E2.80367
G1 X85.627 Y92.577 E2.86020
G1 X97.346 Y92.577 E3.39048
G1 X97.346 Y93.819 E3.44668
G1 X96.626 Y93.819 E3.47922 F378.000
G1 X97.120 Y93.007 F7800.000
G1 X96.916 Y92.803 E3.49251 F540.000
G1 X96.360 Y92.803 E3.51815
G1 X97.120 Y93.563 E3.56770
G1 X96.594 Y93.593 E3.59198
G1 X95.804 Y92.803 E3.64352
G1 X95.248 Y92.803 E3.66917
G1 X96.038 Y93.593 E3.72071
G1 X95.482 Y93.593 E3.74636
G1 X94.692 Y92.803 E3.79790
G1 X94.136 Y92.803 E3.82355
G1 X94.927 Y93.593 E3.87509
G1 X94.371 Y93.593 E3.90073
G1 X93.580 Y92.803 E3.95228
G1 X93.025 Y92.803 E3.97792
G1 X93.815 Y93.593 E4.02946
G1 X93.259 Y93.593 E4.05511
G1 X92.469 Y92.803 E4.10665
G1 X91.913 Y92.803 E4.13230
G1 X92.703 Y93.593 E4.18384
G1 X92.147 Y93.593 E4.20949
G1 X91.357 Y92.803 E4.26103
G1 X90.801 Y92.803 E4.28668
G1 X91.591 Y93.593 E4.33822
G1 X91.035 Y93.593 E4.36386
G1 X90.245 Y92.803 E4.41541
G1 X89.689 Y92.803 E4.44105
G1 X90.479 Y93.593 E4.49259
G1 X89.923 Y93.593 E4.51824
G1 X89.133 Y92.803 E4.56978
G1 X88.577 Y92.803 E4.59543
G1 X89.367 Y93.593 E4.64697
G1 X88.811 Y93.593 E4.67262
G1 X88.021 Y92.803 E4.72416
G1 X87.465 Y92.803 E4.74980
G1 X88.255 Y93.593 E4.80135
G1 X87.699 Y93.593 E4.82699
G1 X86.909 Y92.803 E4.87853
G1 X86.353 Y92.803 E4.90418
G1 X87.143 Y93.593 E4.95572
G1 X87.313 Y94.318 F7800.000
G1 X85.853 Y92.859 E5.05096 F540.000
G1 X85.853 Y93.415 E5.07661
G1 X89.166 Y96.728 E5.29278
G1 X88.857 Y97.531 F7800.000
G1 X92.874 Y101.547 E5.55479 F540.000
G1 X92.624 Y102.410 F7800.000
G1 X96.581 Y106.367 E5.81293 F540.000
G1 X96.610 Y106.951 E5.83992
G1 X94.508 Y104.849 E5.97706
G1 X94.727 Y103.957 F7800.000
G1 X90.741 Y99.971 E6.23713 F540.000
G1 X91.020 Y99.138 F7800.000
G1 X86.974 Y95.092 E6.50108 F540.000
G92 E0
G1 X87.170 Y106.407 F7800.000
G1 X87.960 Y107.197 E0.05154 F540.000
G1 X88.516 Y107.197 E0.07719
G1 X87.726 Y106.407 E0.12873
G1 X88.282 Y106.407 E0.15438
G1 X89.072 Y107.197 E0.20592
G1 X89.628 Y107.197 E0.23157
G1 X88.838 Y106.407 E0.28311
G1 X89.394 Y106.407 E0.30876
G1 X90.184 Y107.197 E0.36030
G1 X90.740 Y107.197 E0.38594
G1 X89.950 Y106.407 E0.43749
G1 X90.506 Y106.407 E0.46313
G1 X91.296 Y107.197 E0.51468
G1 X91.852 Y107.197 E0.54032
G1 X91.062 Y106.407 E0.59186
G1 X91.618 Y106.407 E0.61751
G1 X92.408 Y107.197 E0.66905
G1 X92.964 Y107.197 E0.69470
G1 X92.174 Y106.407 E0.74624
G1 X92.730 Y106.407 E0.77189
G1 X93.520 Y107.197 E0.82343
G1 X94.076 Y107.197 E0.84908
G1 X93.286 Y106.407 E0.90062
G1 X93.842 Y106.407 E0.92626
G1 X94.632 Y107.197 E0.97781
G1 X95.188 Y107.197 E1.00345
G1 X94.398 Y106.407 E1.05500
G1 X94.953 Y106.407 E1.08064
G1 X95.744 Y107.197 E1.13219
G1 X96.300 Y107.197 E1.15783
G1 X95.509 Y106.407 E1.20937
G1 X87.404 Y107.197 F7800.000
G1 X86.645 Y106.438 E1.25892 F540.000
G1 X86.645 Y106.993 E1.28457
G1 X86.848 Y107.197 E1.29785
M106 S255
G92 E0
G1 Z0.600 F7800.000
G1 X105.674 Y102.912 F7800.000
G1 X104.777 Y98.575 E1.32720 F600.000
G1 X104.777 Y92.352 E3.19190
G1 X104.812 Y93.352 F7800.000
G1 X104.777 Y93.388 F7800.000
G1 X104.777 Y106.612 F7800.000
G1 X104.812 Y106.648 F7800.000
G1 X114.598 Y106.802 F7800.000
G1 X105.812 Y106.802 E5.82462 F600.000
G1 X104.857 Y106.532 E6.12207
G1 X104.777 Y105.956 E6.29642
G1 X104.777 Y100.288 E7.99482
G1 X104.954 Y99.431 E8.25689
G1 X114.337 Y99.431 E11.06862
G92 E0
G1 X105.812 Y98.575 F7800.000
G1 X105.812 Y98.575 F7800.000
G1 X109.924 Y94.463 F7800.000
G1 X107.812 Y92.352 F7800.000
G1 X105.812 Y91.352 F7800.000
G1 X103.741 Y91.352 F7800.000
G1 X101.741 Y92.352 F7800.000
G1 X100.656 Y93.437 F7800.000
G1 X100.656 Y94.044 F7800.000
G1 X97.571 Y94.044 F7800.000
G1 X97.571 Y93.198 F7800.000
G1 X87.755 Y93.198 E2.94133 F600.000
G1 X86.654 Y93.556 E3.28802
G1 X87.051 Y94.586 E3.61865
G1 X95.401 Y105.421 E7.71765
G1 X95.794 Y106.453 E8.04874
G1 X94.708 Y106.802 E8.39055
G1 X86.194 Y106.802 E10.94174
G92 E0
G1 Z0.900 F7800.000
G1 X105.674 Y102.912 F7800.000
G1 X104.777 Y98.575 E1.32720 F600.000
G1 X104.777 Y92.352 E3.19190
G1 X104.812 Y93.352 F7800.000
G1 X104.777 Y93.388 F7800.000
G1 X104.777 Y106.612 F7800.000
G1 X104.812 Y106.648 F7800.000
G1 X114.598 Y106.802 F7800.000
G1 X105.812 Y106.802 E5.82462 F600.000
G1 X104.857 Y106.532 E6.12207
G1 X104.777 Y105.956 E6.29642
G1 X104.777 Y100.288 E7.99482
G1 X104.954 Y99.431 E8.25689
G1 X114.337 Y99.431 E11.06862
G92 E0
G1 X105.812 Y98.575 F7800.000
G1 X105.812 Y98.575 F7800.000
G1 X109.924 Y94.463 F7800.000
G1 X107.812 Y92.352 F7800.000
G1 X105.812 Y91.352 F7800.000
G1 X103.741 Y91.352 F7800.000
G1 X101.741 Y92.352 F7800.000
G1 X100.656 Y93.437 F7800.000
G1 X100.656 Y94.044 F7800.000
G1 X97.571 Y94.044 F7800.000
G1 X97.571 Y93.198 F7800.000
G1 X87.755 Y93.198 E2.94133 F600.000
G1 X86.654 Y93.556 E3.28802
G1 X87.051 Y94.586 E3.61865
G1 X95.401 Y105.421 E7.71765
G1 X95.794 Y106.453 E8.04874
G1 X94.708 Y106.802 E8.39055
G1 X86.194 Y106.802 E10.94174
G92 E0
G1 Z1.200 F7800.000
G1 X105.674 Y102.912 F7800.000
G1 X104.777 Y98.575 E1.32720 F600.000
G1 X104.777 Y92.352 E3.19190
G1 X104.812 Y93.352 F7800.000
G1 X104.777 Y93.388 F7800.000
G1 X104.777 Y106.612 F7800.000
G1 X104.812 Y106.648 F7800.000
G1 X114.598 Y106.802 F7800.000
G1 X105.812 Y106.802 E5.82462 F600.000
G1 X104.857 Y106.532 E6.12207
G1 X104.777 Y105.956 E6.29642
G1 X104.777 Y100.288 E7.99482
G1 X104.954 Y99.431 E8.25689
G1 X114.337 Y99.431 E11.06862
G92 E0
G1 X105.812 Y98.575 F7800.000
G1 X105.812 Y98.575 F7800.000
G1 X109.924 Y94.463 F7800.000
G1 X107.812 Y92.352 F7800.000
G1 X105.812 Y91.352 F7800.000
G1 X103.741 Y91.352 F7800.000
G1 X101.741 Y92.352 F7800.000
G1 X100.656 Y93.437 F7800.000
G1 X100.656 Y94.044 F7800.000
G1 X97.571 Y94.044 F7800.000
G1 X97.571 Y93.198 F7800.000
G1 X87.755 Y93.198 E2.94133 F600.000
G1 X86.654 Y93.556 E3.28802
G1 X87.051 Y94.586 E3.61865
G1 X95.401 Y105.421 E7.71765
G1 X95.794 Y106.453 E8.04874
G1 X94.708 Y106.802 E8.39055
G1 X86.194 Y106.802 E10.94174
G92 E0
G1 Z1.500 F7800.000
G1 X105.674 Y102.912 F7800.000
G1 X104.777 Y98.575 E1.32720 F600.000
G1 X104.777 Y92.352 E3.19190
G1 X104.812 Y93.352 F7800.000
G1 X104.777 Y93.388 F7800.000
G1 X104.777 Y106.612 F7800.000
G1 X104.812 Y106.648 F7800.000
G1 X114.598 Y106.802 F7800.000
G1 X105.812 Y106.802 E5.82462 F600.000
G1 X104.857 Y106.532 E6.12207
G1 X104.777 Y105.956 E6.29642
G1 X104.777 Y100.288 E7.99482
G1 X104.954 Y99.431 E8.25689
G1 X114.337 Y99.431 E11.06862
G92 E0
G1 X105.812 Y98.575 F7800.000
G1 X105.812 Y98.575 F7800.000
G1 X109.924 Y94.463 F7800.000
G1 X107.812 Y92.352 F7800.000
G1 X105.812 Y91.352 F7800.000
G1 X103.741 Y91.352 F7800.000
G1 X101.741 Y92.352 F7800.000
G1 X100.656 Y93.437 F7800.000
G1 X100.656 Y94.044 F7800.000
G1 X97.571 Y94.044 F7800.000
G1 X97.571 Y93.198 F7800.000
G1 X87.755 Y93.198 E2.94133 F600.000
G1 X86.654 Y93.556 E3.28802
G1 X87.051 Y94.586 E3.61865
G1 X95.401 Y105.421 E7.71765
G1 X95.794 Y106.453 E8.04874
G1 X94.708 Y106.802 E8.39055
G1 X86.194 Y106.802 E10.94174
G92 E0
G1 Z1.800 F7800.000
G1 X105.674 Y102.912 F7800.000
G1 X104.777 Y98.575 E1.32720 F600.000
G1 X104.777 Y92.352 E3.19190
G1 X104.812 Y93.352 F7800.000
G1 X104.777 Y93.388 F7800.000
G1 X104.777 Y106.612 F7800.000
G1 X104.812 Y106.648 F7800.000
G1 X114.598 Y106.802 F7800.000
G1 X105.812 Y106.802 E5.82462 F600.000
G1 X104.857 Y106.532 E6.12207
G1 X104.777 Y105.956 E6.29642
G1 X104.777 Y100.288 E7.99482
G1 X104.954 Y99.431 E8.25689
G1 X114.337 Y99.431 E11.06862
G92 E0
G1 X105.812 Y98.575 F7800.000
G1 X105.812 Y98.575 F7800.000
G1 X109.924 Y94.463 F7800.000
G1 X107.812 Y92.352 F7800.000
G1 X105.812 Y91.352 F7800.000
G1 X103.741 Y91.352 F7800.000
G1 X101.741 Y92.352 F7800.000
G1 X100.656 Y93.437 F7800.000
G1 X100.656 Y94.044 F7800.000
G1 X97.571 Y94.044 F7800.000
G1 X97.571 Y93.198 F7800.000
G1 X87.755 Y93.198 E2.94133 F600.000
G1 X86.654 Y93.556 E3.28802
G1 X87.051 Y94.586 E3.61865
G1 X95.401 Y105.421 E7.71765
G1 X95.794 Y106.453 E8.04874
G1 X94.708 Y106.802 E8.39055
G1 X86.194 Y106.802 E10.94174
G92 E0
G1 Z2.100 F7800.000
G1 X105.674 Y102.912 F7800.000
G1 X104.777 Y98.575 E1.32720 F600.000
G1 X104.777 Y92.352 E3.19190
G92 E0
G1 X104.812 Y93.352 F7800.000
G1 X104.777 Y93.388 F7800.000
G1 X104.777 Y106.612 F7800.000
G1 X104.812 Y106.648 F7800.000
G1 X114.598 Y106.802 F7800.000
G1 X105.812 Y106.802 E2.63272 F600.000
G1 X104.857 Y106.532 E2.93017
G1 X104.777 Y105.956 E3.10452
G1 X104.777 Y100.288 E4.80291
G1 X104.954 Y99.431 E5.06499
G1 X114.337 Y99.431 E7.87672
G92 E0
G1 X105.812 Y98.575 F7800.000
G1 X105.812 Y98.575 F7800.000
G1 X109.924 Y94.463 F7800.000
G1 X107.812 Y92.352 F7800.000
G1 X105.812 Y91.352 F7800.000
G1 X103.741 Y91.352 F7800.000
G1 X101.741 Y92.352 F7800.000
G1 X100.656 Y93.437 F7800.000
G1 X100.656 Y94.044 F7800.000
G1 X97.571 Y94.044 F7800.000
G1 X97.571 Y93.198 F7800.000
G1 X87.755 Y93.198 E2.94133 F600.000
G1 X86.654 Y93.556 E3.28802
G1 X87.051 Y94.586 E3.61865
G1 X95.401 Y105.421 E7.71765
G1 X95.794 Y106.453 E8.04874
G1 X94.708 Y106.802 E8.39055
G1 X86.194 Y106.802 E10.94174
G92 E0
M107
M104 S0 ; turn off temperature
G28 X0  ; home X axis
M84     ; disable motors

; filament used = 147.9mm (1.1cm3)

; avoid_crossing_perimeters = 1
; bed_shape = 0x0,250x0,250x250,0x250
; bed_temperature = 0
; before_layer_gcode = 
; bridge_acceleration = 0
; bridge_fan_speed = 100
; brim_width = 0
; complete_objects = 0
; cooling = 1
; default_acceleration = 0
; disable_fan_first_layers = 1
; duplicate_distance = 6
; end_gcode = M104 S0 ; turn off temperature\nG28 X0  ; home X axis\nM84     ; disable motors\n
; extruder_clearance_height = 20
; extruder_clearance_radius = 20
; extruder_offset = 0x0
; extrusion_axis = E
; extrusion_multiplier = 3
; fan_always_on = 0
; fan_below_layer_time = 60
; filament_colour = #FFFFFF
; filament_diameter = 3.125
; first_layer_acceleration = 0
; first_layer_bed_temperature = 0
; first_layer_extrusion_width = 150%
; first_layer_speed = 90%
; first_layer_temperature = 30
; gcode_arcs = 0
; gcode_comments = 0
; gcode_flavor = reprap
; infill_acceleration = 0
; infill_first = 0
; layer_gcode = 
; max_fan_speed = 100
; max_print_speed = 80
; max_volumetric_speed = 0
; min_fan_speed = 35
; min_print_speed = 10
; min_skirt_length = 0
; notes = 
; nozzle_diameter = 1.54
; only_retract_when_crossing_perimeters = 1
; ooze_prevention = 0
; output_filename_format = [input_filename_base].gcode
; perimeter_acceleration = 0
; post_process = 
; pressure_advance = 0
; resolution = 0
; retract_before_travel = 2
; retract_layer_change = 1
; retract_length = 0
; retract_length_toolchange = 10
; retract_lift = 0
; retract_restart_extra = 0
; retract_restart_extra_toolchange = 0
; retract_speed = 0
; skirt_distance = 6
; skirt_height = 1
; skirts = 0
; slowdown_below_layer_time = 30
; spiral_vase = 0
; standby_temperature_delta = -5
; start_gcode = G28 ; home all axes\nG1 Z5 F5000 ; lift nozzle\nM302\nM92 E10000\nM500\nM501\nG1 E100
; temperature = 30
; threads = 2
; toolchange_gcode = 
; travel_speed = 130
; use_firmware_retraction = 0
; use_relative_e_distances = 0
; use_volumetric_e = 0
; vibration_limit = 0
; wipe = 0
; z_offset = 0
; dont_support_bridges = 1
; extrusion_width = 0
; first_layer_height = 100%
; infill_only_where_needed = 0
; interface_shells = 0
; layer_height = 0.3
; raft_layers = 0
; seam_position = random
