; generated by Slic3r 1.2.9 on 2016-03-11 at 01:33:01

; external perimeters extrusion width = 1.54mm
; perimeters extrusion width = 2.62mm
; infill extrusion width = 6.27mm
; solid infill extrusion width = 2.62mm
; top infill extrusion width = 2.62mm

M107
M104 S30 ; set temperature
G28 ; home all axes
G1 Z5 F5000 ; lift nozzle
M302
M92 E10000
M500
M501
G1 E100
M109 S30 ; wait for temperature to be reached
G21 ; set units to millimeters
G90 ; use absolute coordinates
M82 ; use absolute distances for extrusion
G92 E0
G1 Z0.300 F7800.000
G1 X115.844 Y99.185 F7800.000
G1 X115.844 Y99.807 E0.02813 F378.000
G1 X109.818 Y99.807 E0.30081
G1 X109.818 Y98.522 E0.35895
G1 X114.386 Y98.522 E0.56565
G1 X114.386 Y95.430 E0.70557
G1 X113.700 Y94.866 E0.74574
G1 X112.972 Y94.436 E0.78400
G1 X112.136 Y94.084 E0.82505
G1 X111.224 Y93.824 E0.86797
G1 X110.267 Y93.668 E0.91181
G1 X109.261 Y93.615 E0.95742
G1 X107.588 Y93.806 E1.03360
G1 X106.157 Y94.387 E1.10350
G1 X104.986 Y95.358 E1.17230
G1 X104.126 Y96.660 E1.24290
G1 X103.613 Y98.231 E1.31769
G1 X103.444 Y100.064 E1.40101
G1 X103.603 Y101.895 E1.48414
G1 X104.086 Y103.443 E1.55754
G1 X104.899 Y104.705 E1.62546
G1 X106.025 Y105.636 E1.69157
G1 X107.435 Y106.191 E1.76016
G1 X109.110 Y106.374 E1.83641
G1 X110.219 Y106.306 E1.88666
G1 X111.203 Y106.102 E1.93213
G1 X112.068 Y105.758 E1.97424
G1 X112.817 Y105.261 E2.01493
G1 X113.448 Y104.600 E2.05629
G1 X113.859 Y103.944 E2.09131
G1 X115.396 Y104.397 E2.16380
G1 X114.897 Y105.266 E2.20912
G1 X114.117 Y106.137 E2.26206
G1 X113.184 Y106.789 E2.31356
G1 X112.064 Y107.245 E2.36825
G1 X110.727 Y107.522 E2.43007
G1 X109.174 Y107.614 E2.50042
G1 X106.992 Y107.393 E2.59969
G1 X105.180 Y106.736 E2.68689
G1 X103.724 Y105.648 E2.76915
G1 X102.655 Y104.161 E2.85203
G1 X102.009 Y102.303 E2.94103
G1 X101.791 Y100.062 E3.04292
G1 X101.891 Y98.552 E3.11138
G1 X102.189 Y97.183 E3.17477
G1 X102.683 Y95.956 E3.23460
G1 X103.361 Y94.893 E3.29170
G1 X104.214 Y94.012 E3.34717
G1 X105.243 Y93.309 E3.40354
G1 X106.435 Y92.797 E3.46225
G1 X107.776 Y92.489 E3.52451
G1 X109.269 Y92.385 E3.59225
G1 X110.483 Y92.454 E3.64725
G1 X111.830 Y92.681 E3.70909 F378.000
G1 X113.010 Y93.048 E3.76499
G1 X114.097 Y93.550 E3.81916
G1 X115.062 Y94.172 E3.87112
G1 X115.844 Y94.857 E3.91815
G1 X115.844 Y98.954 E4.10355
G1 X115.618 Y95.656 F7800.000
G1 X113.558 Y93.597 E4.23627 F540.000
G1 X113.043 Y94.180 F7800.000
G1 X111.800 Y92.937 E4.31631 F540.000
G1 X111.119 Y92.805 E4.34795
G1 X112.137 Y93.823 E4.41357
G1 X112.598 Y93.186 F7800.000
G1 X115.618 Y96.206 E4.60812 F540.000
G1 X115.618 Y96.755 E4.63314
G1 X114.612 Y95.749 E4.69798
G1 X114.612 Y96.298 E4.72299
G1 X115.618 Y97.304 E4.78783
G1 X115.618 Y97.853 E4.81285
G1 X114.612 Y96.847 E4.87768
G1 X114.612 Y97.396 E4.90270
G1 X115.618 Y98.402 E4.96754
G1 X115.618 Y98.951 E4.99256
G1 X114.612 Y97.945 E5.05739
G1 X114.612 Y98.494 E5.08241
G1 X115.618 Y99.500 E5.14724
G1 X115.149 Y99.581 E5.16890
G1 X114.316 Y98.748 E5.22258
G1 X113.767 Y98.748 E5.24760
G1 X114.600 Y99.581 E5.30128
G1 X114.051 Y99.581 E5.32630
G1 X113.218 Y98.748 E5.37998
G1 X112.669 Y98.748 E5.40500
G1 X113.502 Y99.581 E5.45868
G1 X112.953 Y99.581 E5.48370
G1 X112.120 Y98.748 E5.53738
G1 X111.571 Y98.748 E5.56240
G1 X112.404 Y99.581 E5.61608
G1 X111.855 Y99.581 E5.64110
G1 X111.022 Y98.748 E5.69478
G1 X110.472 Y98.748 E5.71980
G1 X111.306 Y99.581 E5.77348
G1 X110.756 Y99.581 E5.79850
G1 X110.044 Y98.868 E5.84442
G92 E0
G1 X104.204 Y95.137 F7800.000
G1 X104.204 Y95.137 F7800.000
G1 X110.713 Y93.497 F7800.000
G1 X109.866 Y92.650 E0.05457 F540.000
G1 X109.284 Y92.617 E0.08112
G1 X110.095 Y93.428 E0.13336
G1 X109.515 Y93.398 E0.15978
G1 X108.759 Y92.642 E0.20851
G1 X108.246 Y92.677 E0.23196
G1 X108.995 Y93.427 E0.28026
G1 X108.503 Y93.483 E0.30287
G1 X107.733 Y92.714 E0.35244
G1 X107.287 Y92.817 E0.37331
G1 X108.010 Y93.540 E0.41990
G1 X107.533 Y93.612 E0.44188
G1 X106.840 Y92.919 E0.48650
G1 X106.401 Y93.030 E0.50711
G1 X107.142 Y93.770 E0.55484
G1 X106.751 Y93.929 E0.57404
G1 X106.017 Y93.195 E0.62135
G1 X105.633 Y93.359 E0.64040
G1 X106.361 Y94.087 E0.68730
G1 X105.995 Y94.271 E0.70593
G1 X105.258 Y93.534 E0.75344
G1 X104.932 Y93.756 E0.77145
G1 X105.695 Y94.520 E0.82064
G1 X105.395 Y94.769 E0.83841
G1 X104.605 Y93.979 E0.88929
G1 X104.302 Y94.224 E0.90709
G1 X105.095 Y95.018 E0.95821
G1 X104.806 Y95.278 E0.97592
G1 X104.027 Y94.499 E1.02613
G1 X103.752 Y94.774 E1.04382
G1 X104.588 Y95.609 E1.09764
G1 X104.369 Y95.939 E1.11569
G1 X103.487 Y95.058 E1.17250
G1 X103.273 Y95.393 E1.19062
G1 X104.150 Y96.270 E1.24713
G1 X103.932 Y96.600 E1.26518
G1 X103.059 Y95.728 E1.32139
G1 X102.853 Y96.071 E1.33962
G1 X103.795 Y97.013 E1.40031
G1 X103.660 Y97.427 E1.42015
G1 X102.696 Y96.463 E1.48229
G1 X102.538 Y96.854 E1.50152
G1 X103.525 Y97.841 E1.56512
G1 X103.391 Y98.256 E1.58499
G1 X102.389 Y97.254 E1.64958
G1 X102.291 Y97.705 E1.67061
G1 X103.345 Y98.759 E1.73854
G1 X103.298 Y99.262 E1.76154
G1 X102.192 Y98.156 E1.83279
G1 X102.108 Y98.620 E1.85430
G1 X103.252 Y99.764 E1.92803
G1 X103.229 Y100.291 E1.95204
G1 X102.074 Y99.135 E2.02651
G1 X102.040 Y99.650 E2.05003
G1 X103.282 Y100.892 E2.13006
G1 X103.334 Y101.494 E2.15756
G1 X102.040 Y100.200 E2.24093
G1 X102.099 Y100.808 E2.26877
G1 X103.406 Y102.114 E2.35295
G1 X103.654 Y102.912 E2.39102
G1 X102.158 Y101.416 E2.48742
G1 X102.217 Y102.024 E2.51526
G1 X103.953 Y103.760 E2.62708
G1 X102.752 Y103.658 F7800.000
G1 X105.769 Y106.675 E2.82149 F540.000
G1 X106.165 Y105.972 F7800.000
G1 X107.391 Y107.198 E2.90044 F540.000
G1 X108.002 Y107.260 E2.92843
G1 X107.071 Y106.329 E2.98839
G1 X107.754 Y106.463 E3.02008
G1 X108.613 Y107.322 E3.07542
G1 X109.224 Y107.383 E3.10341
G1 X108.370 Y106.530 E3.15842
G1 X108.986 Y106.597 E3.18666
G1 X109.748 Y107.358 E3.23573
G1 X110.266 Y107.328 E3.25938
G1 X109.509 Y106.571 E3.30814
G1 X110.027 Y106.539 E3.33176
G1 X110.782 Y107.295 E3.38043
G1 X111.237 Y107.201 E3.40160
G1 X110.500 Y106.463 E3.44911
G1 X110.955 Y106.369 E3.47027
G1 X111.692 Y107.106 E3.51779
G1 X112.134 Y106.999 E3.53851
G1 X111.383 Y106.248 E3.58696
G1 X111.775 Y106.091 E3.60623
G1 X112.525 Y106.840 E3.65449
G1 X112.915 Y106.681 E3.67369
G1 X112.162 Y105.929 E3.72217
G1 X112.492 Y105.710 E3.74022
G1 X113.273 Y106.490 E3.79052
G1 X113.596 Y106.265 E3.80849
G1 X112.822 Y105.490 E3.85837
G1 X113.111 Y105.231 E3.87609
G1 X113.916 Y106.036 E3.92797
G1 X114.191 Y105.761 E3.94566
G1 X113.380 Y104.950 E3.99793
G1 X113.640 Y104.661 E4.01565
G1 X114.453 Y105.474 E4.06801
G1 X114.712 Y105.184 E4.08573
G1 X113.851 Y104.324 E4.14119
G1 X114.462 Y104.385 E4.16916
G1 X114.916 Y104.839 E4.19840
G92 E0
G1 X114.153 Y104.935 F7800.000
G1 X114.153 Y104.935 F7800.000
G1 X106.631 Y106.987 F7800.000
G1 X102.460 Y102.816 E0.26877 F540.000
G1 X103.791 Y105.246 F7800.000
G1 X104.141 Y105.596 E0.29133 F540.000
G92 E0
G1 X102.666 Y100.062 F7800.000
G1 X102.821 Y98.064 F7800.000
G1 X103.401 Y96.313 F7800.000
G1 X103.997 Y95.395 F7800.000
G1 X104.204 Y95.137 F7800.000
G1 X111.369 Y93.604 F7800.000
G1 X110.458 Y92.694 E0.05867 F540.000
G1 X115.219 Y94.709 F7800.000
G1 X115.618 Y95.107 E0.08436 F540.000
G92 E0
G1 X106.365 Y92.583 F7800.000
G1 X102.508 Y92.330 F7800.000
G1 X99.646 Y93.706 F7800.000
G1 X99.547 Y94.044 F7800.000
G1 X96.100 Y94.044 F7800.000
G1 X92.414 Y93.819 F7800.000
G1 X85.827 Y93.819 E0.29804 F378.000
G1 X95.365 Y106.218 E1.00586
G1 X95.365 Y107.423 E1.06041
G1 X84.948 Y107.423 E1.53177
G1 X84.948 Y106.181 E1.58797
G1 X93.695 Y106.181 E1.98376
G1 X84.156 Y93.826 E2.69005
G1 X84.156 Y92.577 E2.74657
G1 X95.875 Y92.577 E3.27685
G1 X95.875 Y93.819 E3.33305
G1 X92.645 Y93.819 E3.47922 F378.000
G1 X95.649 Y93.007 F7800.000
G1 X95.446 Y92.803 E3.49251 F540.000
G1 X94.890 Y92.803 E3.51815
G1 X95.649 Y93.563 E3.56770
G1 X95.124 Y93.593 E3.59198
G1 X94.334 Y92.803 E3.64352
G1 X93.778 Y92.803 E3.66917
G1 X94.568 Y93.593 E3.72071
G1 X94.012 Y93.593 E3.74636
G1 X93.222 Y92.803 E3.79790
G1 X92.666 Y92.803 E3.82355
G1 X93.456 Y93.593 E3.87509
G1 X92.900 Y93.593 E3.90073
G1 X92.110 Y92.803 E3.95228
G1 X91.554 Y92.803 E3.97792
G1 X92.344 Y93.593 E4.02946
G1 X91.788 Y93.593 E4.05511
G1 X90.998 Y92.803 E4.10665
G1 X90.442 Y92.803 E4.13230
G1 X91.232 Y93.593 E4.18384
G1 X90.676 Y93.593 E4.20949
G1 X89.886 Y92.803 E4.26103
G1 X89.330 Y92.803 E4.28667
G1 X90.120 Y93.593 E4.33822
G1 X89.564 Y93.593 E4.36386
G1 X88.774 Y92.803 E4.41541
G1 X88.218 Y92.803 E4.44105
G1 X89.008 Y93.593 E4.49259
G1 X88.452 Y93.593 E4.51824
G1 X87.662 Y92.803 E4.56978
G1 X87.106 Y92.803 E4.59543
G1 X87.896 Y93.593 E4.64697
G1 X87.340 Y93.593 E4.67262
G1 X86.550 Y92.803 E4.72416
G1 X85.994 Y92.803 E4.74980
G1 X86.785 Y93.593 E4.80135
G1 X86.229 Y93.593 E4.82699
G1 X85.439 Y92.803 E4.87853
G1 X84.883 Y92.803 E4.90418
G1 X85.673 Y93.593 E4.95572
G1 X85.842 Y94.318 F7800.000
G1 X84.382 Y92.859 E5.05096 F540.000
G1 X84.382 Y93.415 E5.07661
G1 X87.696 Y96.728 E5.29278
G1 X87.387 Y97.531 F7800.000
G1 X91.403 Y101.547 E5.55479 F540.000
G1 X91.154 Y102.410 F7800.000
G1 X95.111 Y106.367 E5.81293 F540.000
G1 X95.139 Y106.951 E5.83992
G1 X93.037 Y104.849 E5.97706
G1 X93.257 Y103.957 F7800.000
G1 X89.270 Y99.971 E6.23713 F540.000
G1 X89.550 Y99.138 F7800.000
G1 X85.504 Y95.092 E6.50108 F540.000
G92 E0
G1 X85.700 Y106.407 F7800.000
G1 X86.490 Y107.197 E0.05154 F540.000
G1 X87.046 Y107.197 E0.07719
G1 X86.256 Y106.407 E0.12873
G1 X86.812 Y106.407 E0.15438
G1 X87.602 Y107.197 E0.20592
G1 X88.158 Y107.197 E0.23157
G1 X87.367 Y106.407 E0.28311
G1 X87.923 Y106.407 E0.30875
G1 X88.714 Y107.197 E0.36030
G1 X89.269 Y107.197 E0.38594
G1 X88.479 Y106.407 E0.43749
G1 X89.035 Y106.407 E0.46313
G1 X89.825 Y107.197 E0.51467
G1 X90.381 Y107.197 E0.54032
G1 X89.591 Y106.407 E0.59186
G1 X90.147 Y106.407 E0.61751
G1 X90.937 Y107.197 E0.66905
G1 X91.493 Y107.197 E0.69470
G1 X90.703 Y106.407 E0.74624
G1 X91.259 Y106.407 E0.77189
G1 X92.049 Y107.197 E0.82343
G1 X92.605 Y107.197 E0.84908
G1 X91.815 Y106.407 E0.90062
G1 X92.371 Y106.407 E0.92626
G1 X93.161 Y107.197 E0.97781
G1 X93.717 Y107.197 E1.00345
G1 X92.927 Y106.407 E1.05500
G1 X93.483 Y106.407 E1.08064
G1 X94.273 Y107.197 E1.13218
G1 X94.829 Y107.197 E1.15783
G1 X94.039 Y106.407 E1.20937
G1 X85.934 Y107.197 F7800.000
G1 X85.174 Y106.438 E1.25892 F540.000
G1 X85.174 Y106.993 E1.28457
G1 X85.378 Y107.197 E1.29785
M106 S255
G92 E0
G1 Z0.600 F7800.000
G1 X114.854 Y104.003 F7800.000
G1 X113.983 Y105.143 E0.42995 F600.000
G1 X113.602 Y105.556 E0.59838
G1 X113.370 Y105.755 E0.68998
G1 X112.829 Y106.138 E0.88839
G1 X112.473 Y106.326 E1.00903
G1 X111.863 Y106.582 E1.20744
G1 X111.315 Y106.740 E1.37824
G1 X110.641 Y106.879 E1.58432
G1 X110.362 Y106.916 E1.66886
G1 X109.187 Y106.991 E2.02147
G1 X109.025 Y106.982 E2.07021
G1 X107.398 Y106.811 E2.56038
G1 X107.174 Y106.772 E2.62853
G1 X105.816 Y106.264 E3.06303
G1 X105.559 Y106.143 E3.14800
G1 X104.461 Y105.289 E3.56479
G1 X104.268 Y105.114 E3.64304
G1 X103.438 Y103.897 E4.08442
G1 X103.370 Y103.789 E4.12264
G1 X103.318 Y103.650 E4.16697
G1 X102.816 Y102.126 E4.64789
G1 X102.627 Y100.156 E5.24101
G1 X102.624 Y99.968 E5.29714
G1 X102.727 Y98.670 E5.68749
G1 X102.850 Y97.956 E5.90469
G1 X102.993 Y97.430 E6.06774
G1 X103.399 Y96.325 E6.42055
G1 X103.997 Y95.395 E6.75200
G1 X104.338 Y94.969 E6.91543
G1 X104.708 Y94.598 E7.07251
G1 X105.587 Y93.936 E7.40219
G1 X105.935 Y93.748 E7.52064
G1 X106.648 Y93.450 E7.75228
G1 X107.548 Y93.182 E8.03358
G1 X107.871 Y93.127 E8.13175
G1 X109.273 Y93.001 E8.55372
G1 X110.379 Y93.063 E8.88546
G1 X111.310 Y93.214 E9.16812
G1 X111.680 Y93.296 E9.28162
G1 X112.294 Y93.480 E9.47387
G1 X112.777 Y93.653 E9.62753
G1 X113.310 Y93.893 E9.80268
G1 X113.775 Y94.136 E9.95989
G1 X114.021 Y94.288 E10.04643
G1 X114.747 Y94.823 E10.31674
G1 X115.085 Y95.201 E10.46872
G1 X115.115 Y95.536 E10.56954
G1 X115.115 Y98.297 E11.39687
G1 X114.999 Y98.962 E11.59915
G1 X110.460 Y99.164 E12.96047
G1 X116.069 Y99.164 E14.64103
G92 E0
G1 X116.206 Y92.426 F7800.000
G1 X107.670 Y91.214 F7800.000
G1 X102.508 Y92.330 F7800.000
G1 X99.646 Y93.706 F7800.000
G1 X99.547 Y94.044 F7800.000
G1 X96.100 Y94.044 F7800.000
G1 X96.100 Y93.198 F7800.000
G1 X86.284 Y93.198 E2.94133 F600.000
G1 X85.184 Y93.556 E3.28802
G1 X85.580 Y94.586 E3.61865
G1 X93.931 Y105.421 E7.71765
G1 X94.323 Y106.453 E8.04874
G1 X93.237 Y106.802 E8.39055
G1 X84.723 Y106.802 E10.94174
G92 E0
G1 Z0.900 F7800.000
G1 X114.854 Y104.003 F7800.000
G1 X113.983 Y105.143 E0.42995 F600.000
G1 X113.602 Y105.556 E0.59838
G1 X113.370 Y105.755 E0.68998
G1 X112.829 Y106.138 E0.88839
G1 X112.473 Y106.326 E1.00903
G1 X111.863 Y106.582 E1.20744
G1 X111.315 Y106.740 E1.37824
G1 X110.641 Y106.879 E1.58431
G1 X110.362 Y106.916 E1.66886
G1 X109.187 Y106.991 E2.02147
G1 X109.025 Y106.982 E2.07021
G1 X107.398 Y106.811 E2.56038
G1 X107.174 Y106.772 E2.62853
G1 X105.816 Y106.264 E3.06303
G1 X105.559 Y106.143 E3.14800
G1 X104.461 Y105.289 E3.56479
G1 X104.268 Y105.114 E3.64304
G1 X103.438 Y103.897 E4.08442
G1 X103.370 Y103.789 E4.12264
G1 X103.318 Y103.650 E4.16697
G1 X102.816 Y102.126 E4.64789
G1 X102.627 Y100.156 E5.24101
G1 X102.624 Y99.968 E5.29713
G1 X102.727 Y98.670 E5.68749
G1 X102.850 Y97.956 E5.90469
G1 X102.993 Y97.430 E6.06774
G1 X103.399 Y96.325 E6.42055
G1 X103.997 Y95.395 E6.75199
G1 X104.338 Y94.969 E6.91543
G1 X104.708 Y94.598 E7.07251
G1 X105.587 Y93.936 E7.40219
G1 X105.935 Y93.748 E7.52064
G1 X106.648 Y93.450 E7.75228
G1 X107.548 Y93.182 E8.03358
G1 X107.871 Y93.127 E8.13175
G1 X109.273 Y93.001 E8.55371
G1 X110.379 Y93.063 E8.88546
G1 X111.310 Y93.214 E9.16812
G1 X111.680 Y93.296 E9.28162
G1 X112.294 Y93.480 E9.47387
G1 X112.777 Y93.653 E9.62753
G1 X113.310 Y93.893 E9.80268
G1 X113.775 Y94.136 E9.95989
G1 X114.021 Y94.288 E10.04643
G1 X114.747 Y94.823 E10.31674
G1 X115.085 Y95.201 E10.46872
G1 X115.115 Y95.536 E10.56954
G1 X115.115 Y98.297 E11.39687
G1 X114.999 Y98.962 E11.59915
G1 X110.460 Y99.164 E12.96046
G1 X116.069 Y99.164 E14.64103
G92 E0
G1 X116.206 Y92.426 F7800.000
G1 X107.670 Y91.214 F7800.000
G1 X102.508 Y92.330 F7800.000
G1 X99.646 Y93.706 F7800.000
G1 X99.547 Y94.044 F7800.000
G1 X96.100 Y94.044 F7800.000
G1 X96.100 Y93.198 F7800.000
G1 X86.284 Y93.198 E2.94133 F600.000
G1 X85.184 Y93.556 E3.28802
G1 X85.580 Y94.586 E3.61865
G1 X93.931 Y105.421 E7.71765
G1 X94.323 Y106.453 E8.04874
G1 X93.237 Y106.802 E8.39055
G1 X84.723 Y106.802 E10.94174
G92 E0
G1 Z1.200 F7800.000
G1 X114.854 Y104.003 F7800.000
G1 X113.983 Y105.143 E0.42995 F600.000
G1 X113.602 Y105.556 E0.59838
G1 X113.370 Y105.755 E0.68998
G1 X112.829 Y106.138 E0.88839
G1 X112.473 Y106.326 E1.00903
G1 X111.863 Y106.582 E1.20744
G1 X111.315 Y106.740 E1.37824
G1 X110.641 Y106.879 E1.58432
G1 X110.362 Y106.916 E1.66887
G1 X109.187 Y106.991 E2.02147
G1 X109.025 Y106.982 E2.07021
G1 X107.398 Y106.811 E2.56038
G1 X107.174 Y106.772 E2.62853
G1 X105.816 Y106.264 E3.06303
G1 X105.559 Y106.143 E3.14800
G1 X104.461 Y105.289 E3.56479
G1 X104.268 Y105.114 E3.64304
G1 X103.438 Y103.897 E4.08442
G1 X103.370 Y103.789 E4.12264
G1 X103.318 Y103.650 E4.16697
G1 X102.816 Y102.126 E4.64789
G1 X102.627 Y100.156 E5.24101
G1 X102.624 Y99.968 E5.29714
G1 X102.727 Y98.670 E5.68749
G1 X102.850 Y97.956 E5.90469
G1 X102.993 Y97.430 E6.06775
G1 X103.399 Y96.325 E6.42055
G1 X103.997 Y95.395 E6.75200
G1 X104.338 Y94.969 E6.91543
G1 X104.708 Y94.598 E7.07251
G1 X105.587 Y93.936 E7.40219
G1 X105.935 Y93.748 E7.52064
G1 X106.648 Y93.450 E7.75228
G1 X107.548 Y93.182 E8.03358
G1 X107.871 Y93.127 E8.13175
G1 X109.273 Y93.001 E8.55372
G1 X110.379 Y93.063 E8.88546
G1 X111.310 Y93.214 E9.16812
G1 X111.680 Y93.296 E9.28162
G1 X112.294 Y93.480 E9.47387
G1 X112.777 Y93.653 E9.62753
G1 X113.310 Y93.893 E9.80268
G1 X113.775 Y94.136 E9.95989
G1 X114.021 Y94.288 E10.04643
G1 X114.747 Y94.823 E10.31674
G1 X115.085 Y95.201 E10.46872
G1 X115.115 Y95.536 E10.56954
G1 X115.115 Y98.297 E11.39687
G1 X114.999 Y98.962 E11.59915
G1 X110.460 Y99.164 E12.96047
G1 X116.069 Y99.164 E14.64103
G92 E0
G1 X116.206 Y92.426 F7800.000
G1 X107.670 Y91.214 F7800.000
G1 X102.508 Y92.330 F7800.000
G1 X99.646 Y93.706 F7800.000
G1 X99.547 Y94.044 F7800.000
