; generated by Slic3r 1.2.9 on 2016-03-11 at 01:33:03

; external perimeters extrusion width = 1.54mm
; perimeters extrusion width = 2.62mm
; infill extrusion width = 6.27mm
; solid infill extrusion width = 2.62mm
; top infill extrusion width = 2.62mm

M107
M104 S30 ; set temperature
G28 ; home all axes
G1 Z5 F5000 ; lift nozzle
M302
M92 E10000
M500
M501
G1 E100
M109 S30 ; wait for temperature to be reached
G21 ; set units to millimeters
G90 ; use absolute coordinates
M82 ; use absolute distances for extrusion
G92 E0
G1 Z0.300 F7800.000
G1 X110.090 Y99.257 F7800.000
G1 X110.090 Y107.423 E0.36950 F378.000
G1 X108.468 Y107.423 E0.44289 F378.000
G1 X108.468 Y92.577 E1.11466
G1 X110.090 Y92.577 E1.18805
G1 X110.090 Y99.026 E1.47987
G1 X109.864 Y93.007 F7800.000
G1 X109.661 Y92.803 E1.49328 F540.000
G1 X109.099 Y92.803 E1.51943
G1 X109.864 Y93.568 E1.56982
G1 X109.864 Y94.129 E1.59596
G1 X108.694 Y92.959 E1.67303
G1 X108.694 Y93.521 E1.69918
G1 X109.864 Y94.691 E1.77625
G1 X109.864 Y95.252 E1.80240
G1 X108.694 Y94.082 E1.87947
G1 X108.694 Y94.643 E1.90562
G1 X109.864 Y95.813 E1.98268
G1 X109.864 Y96.375 E2.00883
G1 X108.694 Y95.205 E2.08590
G1 X108.694 Y95.766 E2.11205
G1 X109.864 Y96.936 E2.18912
G1 X109.864 Y97.497 E2.21527
G1 X108.694 Y96.327 E2.29234
G1 X108.694 Y96.889 E2.31848
G1 X109.864 Y98.059 E2.39555
G1 X109.864 Y98.620 E2.42170
G1 X108.694 Y97.450 E2.49877
G1 X108.694 Y98.012 E2.52492
G1 X109.864 Y99.182 E2.60199
G1 X109.864 Y99.743 E2.62813
G1 X108.694 Y98.573 E2.70520
G1 X108.694 Y99.134 E2.73135
G1 X109.864 Y100.304 E2.80842
G1 X109.864 Y100.866 E2.83457
G1 X108.694 Y99.696 E2.91164
G1 X108.694 Y100.257 E2.93778
G1 X109.864 Y101.427 E3.01485
G1 X109.864 Y101.988 E3.04100
G1 X108.694 Y100.818 E3.11807
G1 X108.694 Y101.380 E3.14422
G1 X109.864 Y102.550 E3.22129
G1 X109.864 Y103.111 E3.24743
G1 X108.694 Y101.941 E3.32450
G1 X108.694 Y102.503 E3.35065
G1 X109.864 Y103.673 E3.42772
G1 X109.864 Y104.234 E3.45387
G1 X108.694 Y103.064 E3.53094
G1 X108.694 Y103.625 E3.55709
G1 X109.864 Y104.795 E3.63415
G1 X109.864 Y105.357 E3.66030
G1 X108.694 Y104.187 E3.73737
G1 X108.694 Y104.748 E3.76352
G1 X109.864 Y105.918 E3.84059
G1 X109.864 Y106.479 E3.86674
G1 X108.694 Y105.309 E3.94381
G1 X108.694 Y105.871 E3.96995
G1 X109.864 Y107.041 E4.04702
G1 X109.459 Y107.197 E4.06724
G1 X108.694 Y106.432 E4.11763
G1 X108.694 Y106.993 E4.14378
G1 X108.898 Y107.197 E4.15719
G92 E0
G1 X108.243 Y107.648 F7800.000
G1 X90.477 Y108.648 F7800.000
G1 X89.081 Y105.956 F7800.000
G1 X91.409 Y102.231 F7800.000
G1 X98.991 Y105.956 F7800.000
G1 X90.702 Y106.181 F7800.000
G1 X99.449 Y106.181 E0.39579 F378.000
G1 X89.910 Y93.826 E1.10208
G1 X89.910 Y92.577 E1.15861
G1 X101.629 Y92.577 E1.68888
G1 X101.629 Y93.819 E1.74508
G1 X91.581 Y93.819 E2.19974 F378.000
G1 X101.119 Y106.218 E2.90757
G1 X101.119 Y107.423 E2.96211
G1 X90.702 Y107.423 E3.43348
G1 X90.702 Y106.412 E3.47922
G1 X91.453 Y106.407 F7800.000
G1 X92.243 Y107.197 E3.53077 F540.000
G1 X92.799 Y107.197 E3.55641
G1 X92.009 Y106.407 E3.60796
G1 X92.565 Y106.407 E3.63360
G1 X93.355 Y107.197 E3.68514
G1 X93.911 Y107.197 E3.71079
G1 X93.121 Y106.407 E3.76233
G1 X93.677 Y106.407 E3.78798
G1 X94.467 Y107.197 E3.83952
G1 X95.023 Y107.197 E3.86517
G1 X94.233 Y106.407 E3.91671
G1 X94.789 Y106.407 E3.94236
G1 X95.579 Y107.197 E3.99390
G1 X96.135 Y107.197 E4.01955
G1 X95.345 Y106.407 E4.07109
G1 X95.901 Y106.407 E4.09673
G1 X96.691 Y107.197 E4.14828
G1 X97.247 Y107.197 E4.17392
G1 X96.457 Y106.407 E4.22547
G1 X97.013 Y106.407 E4.25111
G1 X97.803 Y107.197 E4.30265
G1 X98.359 Y107.197 E4.32830
G1 X97.569 Y106.407 E4.37984
G1 X98.125 Y106.407 E4.40549
G1 X98.915 Y107.197 E4.45703
G1 X99.471 Y107.197 E4.48268
G1 X98.681 Y106.407 E4.53422
G1 X99.237 Y106.407 E4.55987
G1 X100.027 Y107.197 E4.61141
G1 X100.583 Y107.197 E4.63705
G1 X99.792 Y106.407 E4.68860
G1 X98.791 Y104.849 F7800.000
G1 X100.893 Y106.951 E4.82573 F540.000
G1 X100.864 Y106.367 E4.85273
G1 X96.907 Y102.410 E5.11087
G1 X97.157 Y101.547 F7800.000
G1 X93.141 Y97.531 E5.37288 F540.000
G1 X93.449 Y96.728 F7800.000
G1 X90.136 Y93.415 E5.58905 F540.000
G1 X90.136 Y92.859 E5.61469
G1 X91.596 Y94.318 E5.70993
G1 X91.426 Y93.593 F7800.000
G1 X90.636 Y92.803 E5.76148 F540.000
G1 X91.192 Y92.803 E5.78712
G1 X91.982 Y93.593 E5.83866
G1 X92.538 Y93.593 E5.86431
G1 X91.748 Y92.803 E5.91585
G1 X92.304 Y92.803 E5.94150
G1 X93.094 Y93.593 E5.99304
G1 X93.650 Y93.593 E6.01869
G1 X92.860 Y92.803 E6.07023
G1 X93.416 Y92.803 E6.09587
G1 X94.206 Y93.593 E6.14742
G1 X94.762 Y93.593 E6.17306
G1 X93.972 Y92.803 E6.22460
G1 X94.528 Y92.803 E6.25025
G1 X95.318 Y93.593 E6.30179
G1 X95.874 Y93.593 E6.32744
G1 X95.084 Y92.803 E6.37898
G1 X95.640 Y92.803 E6.40463
G1 X96.430 Y93.593 E6.45617
G1 X96.986 Y93.593 E6.48181
G1 X96.196 Y92.803 E6.53336
G1 X96.752 Y92.803 E6.55900
G1 X97.542 Y93.593 E6.61055
G1 X98.098 Y93.593 E6.63619
G1 X97.308 Y92.803 E6.68773
G1 X97.864 Y92.803 E6.71338
G1 X98.654 Y93.593 E6.76492
G1 X99.210 Y93.593 E6.79057
G1 X98.419 Y92.803 E6.84211
G1 X98.975 Y92.803 E6.86776
G1 X99.766 Y93.593 E6.91930
G1 X100.321 Y93.593 E6.94494
G1 X99.531 Y92.803 E6.99649
G1 X100.087 Y92.803 E7.02213
G1 X100.877 Y93.593 E7.07367
G1 X101.403 Y93.563 E7.09795
G1 X100.643 Y92.803 E7.14750
G1 X101.199 Y92.803 E7.17315
G1 X101.403 Y93.007 E7.18643
G92 E0
G1 X95.303 Y99.138 F7800.000
G1 X91.257 Y95.092 E0.26395 F540.000
G1 X95.024 Y99.971 F7800.000
G1 X99.011 Y103.957 E0.52402 F540.000
G92 E0
G1 X91.687 Y107.197 F7800.000
G1 X90.928 Y106.438 E0.04955 F540.000
G1 X90.928 Y106.993 E0.07520
G1 X91.131 Y107.197 E0.08848
M106 S255
G92 E0
G1 Z0.600 F7800.000
G1 X109.279 Y107.648 F7800.000
G1 X109.279 Y92.352 E4.58339 F600.000
G92 E0
G1 X106.243 Y92.352 F7800.000
G1 X103.854 Y92.352 F7800.000
G1 X101.854 Y92.352 F7800.000
G1 X101.854 Y93.198 F7800.000
G1 X92.038 Y93.198 E2.94133 F600.000
G1 X90.938 Y93.556 E3.28802
G1 X91.334 Y94.586 E3.61865
G1 X99.684 Y105.421 E7.71765
G1 X100.077 Y106.453 E8.04874
G1 X98.991 Y106.802 E8.39055
G1 X90.477 Y106.802 E10.94174
G92 E0
G1 Z0.900 F7800.000
G1 X109.279 Y107.648 F7800.000
G1 X109.279 Y92.352 E4.58339 F600.000
G92 E0
G1 X106.243 Y92.352 F7800.000
G1 X103.854 Y92.352 F7800.000
G1 X101.854 Y92.352 F7800.000
G1 X101.854 Y93.198 F7800.000
G1 X92.038 Y93.198 E2.94133 F600.000
G1 X90.938 Y93.556 E3.28802
G1 X91.334 Y94.586 E3.61865
G1 X99.684 Y105.421 E7.71765
G1 X100.077 Y106.453 E8.04874
G1 X98.991 Y106.802 E8.39055
G1 X90.477 Y106.802 E10.94174
G92 E0
G1 Z1.200 F7800.000
G1 X109.279 Y107.648 F7800.000
G1 X109.279 Y92.352 E4.58339 F600.000
G92 E0
G1 X106.243 Y92.352 F7800.000
G1 X103.854 Y92.352 F7800.000
G1 X101.854 Y92.352 F7800.000
G1 X101.854 Y93.198 F7800.000
G1 X92.038 Y93.198 E2.94133 F600.000
G1 X90.938 Y93.556 E3.28802
G1 X91.334 Y94.586 E3.61865
G1 X99.684 Y105.421 E7.71765
G1 X100.077 Y106.453 E8.04874
G1 X98.991 Y106.802 E8.39055
G1 X90.477 Y106.802 E10.94174
G92 E0
G1 Z1.500 F7800.000
G1 X109.279 Y107.648 F7800.000
G1 X109.279 Y92.352 E4.58339 F600.000
G92 E0
G1 X106.243 Y92.352 F7800.000
G1 X103.854 Y92.352 F7800.000
G1 X101.854 Y92.352 F7800.000
G1 X101.854 Y93.198 F7800.000
G1 X92.038 Y93.198 E2.94133 F600.000
G1 X90.938 Y93.556 E3.28802
G1 X91.334 Y94.586 E3.61865
G1 X99.684 Y105.421 E7.71765
G1 X100.077 Y106.453 E8.04874
G1 X98.991 Y106.802 E8.39055
G1 X90.477 Y106.802 E10.94174
G92 E0
G1 Z1.800 F7800.000
G1 X109.279 Y107.648 F7800.000
G1 X109.279 Y92.352 E4.58339 F600.000
G92 E0
G1 X106.243 Y92.352 F7800.000
G1 X103.854 Y92.352 F7800.000
G1 X101.854 Y92.352 F7800.000
G1 X101.854 Y93.198 F7800.000
G1 X92.038 Y93.198 E2.94133 F600.000
G1 X90.938 Y93.556 E3.28802
G1 X91.334 Y94.586 E3.61865
G1 X99.684 Y105.421 E7.71765
G1 X100.077 Y106.453 E8.04874
G1 X98.991 Y106.802 E8.39055
G1 X90.477 Y106.802 E10.94174
G92 E0
G1 Z2.100 F7800.000
G1 X109.279 Y107.648 F7800.000
G1 X109.279 Y92.352 E4.58339 F600.000
G92 E0
G1 X106.243 Y92.352 F7800.000
G1 X103.854 Y92.352 F7800.000
G1 X101.854 Y92.352 F7800.000
G1 X101.854 Y93.198 F7800.000
G1 X92.038 Y93.198 E2.94133 F600.000
G1 X90.938 Y93.556 E3.28802
G1 X91.334 Y94.586 E3.61865
G1 X99.684 Y105.421 E7.71765
G1 X100.077 Y106.453 E8.04874
G1 X98.991 Y106.802 E8.39055
G1 X90.477 Y106.802 E10.94174
G92 E0
M107
M104 S0 ; turn off temperature
G28 X0  ; home X axis
M84     ; disable motors

; filament used = 105.1mm (0.8cm3)

; avoid_crossing_perimeters = 1
; bed_shape = 0x0,250x0,250x250,0x250
; bed_temperature = 0
; before_layer_gcode = 
; bridge_acceleration = 0
; bridge_fan_speed = 100
; brim_width = 0
; complete_objects = 0
; cooling = 1
; default_acceleration = 0
; disable_fan_first_layers = 1
; duplicate_distance = 6
; end_gcode = M104 S0 ; turn off temperature\nG28 X0  ; home X axis\nM84     ; disable motors\n
; extruder_clearance_height = 20
; extruder_clearance_radius = 20
; extruder_offset = 0x0
; extrusion_axis = E
; extrusion_multiplier = 3
; fan_always_on = 0
; fan_below_layer_time = 60
; filament_colour = #FFFFFF
; filament_diameter = 3.125
; first_layer_acceleration = 0
; first_layer_bed_temperature = 0
; first_layer_extrusion_width = 150%
; first_layer_speed = 90%
; first_layer_temperature = 30
; gcode_arcs = 0
; gcode_comments = 0
; gcode_flavor = reprap
; infill_acceleration = 0
; infill_first = 0
; layer_gcode = 
; max_fan_speed = 100
; max_print_speed = 80
; max_volumetric_speed = 0
; min_fan_speed = 35
; min_print_speed = 10
; min_skirt_length = 0
; notes = 
; nozzle_diameter = 1.54
; only_retract_when_crossing_perimeters = 1
; ooze_prevention = 0
; output_filename_format = [input_filename_base].gcode
; perimeter_acceleration = 0
; post_process = 
; pressure_advance = 0
; resolution = 0
; retract_before_travel = 2
; retract_layer_change = 1
; retract_length = 0
; retract_length_toolchange = 10
; retract_lift = 0
; retract_restart_extra = 0
; retract_restart_extra_toolchange = 0
; retract_speed = 0
; skirt_distance = 6
; skirt_height = 1
; skirts = 0
; slowdown_below_layer_time = 30
; spiral_vase = 0
; standby_temperature_delta = -5
; start_gcode = G28 ; home all axes\nG1 Z5 F5000 ; lift nozzle\nM302\nM92 E10000\nM500\nM501\nG1 E100
; temperature = 30
; threads = 2
; toolchange_gcode = 
; travel_speed = 130
; use_firmware_retraction = 0
; use_relative_e_distances = 0
; use_volumetric_e = 0
; vibration_limit = 0
; wipe = 0
; z_offset = 0
; dont_support_bridges = 1
; extrusion_width = 0
; first_layer_height = 100%
; infill_only_where_needed = 0
; interface_shells = 0
; layer_height = 0.3
; raft_layers = 0
; seam_position = random
; support_material = 0
; support_material_angle = 0
; support_material_contact_distance = 0.2
; support_material_enforce_layers = 0
; support_material_extruder = 1
; support_material_extrusion_width = 0
; support_material_interface_extruder = 1
; support_material_interface_layers = 3
; support_material_interface_spacing = 0
; support_material_interface_speed = 100%
; support_material_pattern = pillars
; support_material_spacing = 2.5
; support_material_speed = 7
; support_material_threshold = 0
; xy_size_compensation = 0
; bottom_solid_layers = 3
; bridge_flow_ratio = 1
; bridge_speed = 10
; external_fill_pattern = rectilinear
; external_perimeter_extrusion_width = 0
; external_perimeter_speed = 70%
; external_perimeters_first = 1
; extra_perimeters = 1
; fill_angle = 45
; fill_density = 60%
; fill_pattern = rectilinear
; gap_fill_speed = 10
; infill_every_layers = 1
; infill_extruder = 1
; infill_extrusion_width = 0
; infill_overlap = 15%
; infill_speed = 10
; overhangs = 1
; perimeter_extruder = 1
; perimeter_extrusion_width = 0
; perimeter_speed = 10
; perimeters = 1
; small_perimeter_speed = 70%
; solid_infill_below_area = 70
; solid_infill_every_layers = 0
; solid_infill_extruder = 1
; solid_infill_extrusion_width = 0
; solid_infill_speed = 10
; thin_walls = 1
; top_infill_extrusion_width = 0
; top_solid_infill_speed = 10
; top_solid_layers = 3
