; generated by Slic3r 1.2.9 on 2016-03-11 at 01:33:03

; external perimeters extrusion width = 1.54mm
; perimeters extrusion width = 2.62mm
; infill extrusion width = 6.27mm
; solid infill extrusion width = 2.62mm
; top infill extrusion width = 2.62mm

M107
M104 S30 ; set temperature
G28 ; home all axes
G1 Z5 F5000 ; lift nozzle
M302
M92 E10000
M500
M501
G1 E100
M109 S30 ; wait for temperature to be reached
G21 ; set units to millimeters
G90 ; use absolute coordinates
M82 ; use absolute distances for extrusion
G92 E0
G1 Z0.300 F7800.000
G1 X112.775 Y99.367 F7800.000
G1 X112.775 Y107.519 E0.36888 F378.000
G1 X108.212 Y107.519 E0.57535
G1 X108.212 Y106.277 E0.63155
G1 X111.164 Y106.277 E0.76512
G1 X111.164 Y96.973 E1.18612
G1 X111.089 Y96.025 E1.22916
G1 X110.856 Y95.217 E1.26718
G1 X110.460 Y94.566 E1.30171
G1 X109.918 Y94.089 E1.33435
G1 X109.260 Y93.804 E1.36680
G1 X108.499 Y93.710 E1.40152
G1 X107.789 Y93.796 E1.43385
G1 X107.157 Y94.055 E1.46474
G1 X106.613 Y94.484 E1.49612
G1 X106.178 Y95.060 E1.52878
G1 X105.864 Y95.757 E1.56338
G1 X105.723 Y96.352 E1.59103
G1 X104.172 Y96.095 E1.66216
G1 X104.893 Y94.173 E1.75503
G1 X106.346 Y92.911 E1.84210
G1 X108.497 Y92.483 E1.94135
G1 X109.666 Y92.611 E1.99453
G1 X109.734 Y92.618 E1.99764 F378.000
G1 X110.777 Y93.020 E2.04823
G1 X111.628 Y93.686 E2.09713
G1 X112.261 Y94.587 E2.14697
G1 X112.645 Y95.697 E2.20012
G1 X112.775 Y97.036 E2.26098
G1 X112.775 Y99.136 E2.35600
G1 X111.157 Y95.351 F7800.000
G1 X112.507 Y96.701 E2.44411 F540.000
G1 X112.549 Y97.299 E2.47177
G1 X111.327 Y96.076 E2.55155
G1 X111.374 Y96.680 E2.57951
G1 X112.549 Y97.855 E2.65616
G1 X112.549 Y98.411 E2.68182
G1 X111.390 Y97.252 E2.75745
G1 X111.390 Y97.808 E2.78310
G1 X112.549 Y98.967 E2.85873
G1 X112.549 Y99.523 E2.88438
G1 X111.390 Y98.364 E2.96001
G1 X111.390 Y98.920 E2.98567
G1 X112.549 Y100.080 E3.06130
G1 X112.549 Y100.636 E3.08695
G1 X111.390 Y99.476 E3.16258
G1 X111.390 Y100.033 E3.18823
G1 X112.549 Y101.192 E3.26386
G1 X112.549 Y101.748 E3.28952
G1 X111.390 Y100.589 E3.36515
G1 X111.390 Y101.145 E3.39080
G1 X112.549 Y102.304 E3.46643
G1 X112.549 Y102.860 E3.49209
G1 X111.390 Y101.701 E3.56771
G1 X111.390 Y102.257 E3.59337
G1 X112.549 Y103.416 E3.66900
G1 X112.549 Y103.972 E3.69465
G1 X111.390 Y102.813 E3.77028
G1 X111.390 Y103.369 E3.79594
G1 X112.549 Y104.528 E3.87156
G1 X112.549 Y105.084 E3.89722
G1 X111.390 Y103.925 E3.97285
G1 X111.390 Y104.481 E3.99850
G1 X112.549 Y105.640 E4.07413
G1 X112.549 Y106.196 E4.09979
G1 X111.390 Y105.037 E4.17542
G1 X111.390 Y105.593 E4.20107
G1 X112.549 Y106.752 E4.27670
G1 X112.522 Y107.281 E4.30111
G1 X111.390 Y106.149 E4.37494
G1 X111.188 Y106.503 F7800.000
G1 X111.978 Y107.293 E4.42650 F540.000
G1 X111.422 Y107.293 E4.45215
G1 X110.632 Y106.503 E4.50370
G1 X110.076 Y106.503 E4.52936
G1 X110.866 Y107.293 E4.58091
G1 X110.310 Y107.293 E4.60656
G1 X109.520 Y106.503 E4.65812
G1 X108.964 Y106.503 E4.68377
G1 X109.754 Y107.293 E4.73532
G1 X109.198 Y107.293 E4.76098
G1 X108.438 Y106.533 E4.81054
G1 X108.438 Y107.089 E4.83620
G1 X108.642 Y107.293 E4.84948
G92 E0
G1 X111.939 Y96.942 F7800.000
G1 X111.870 Y95.884 F7800.000
G1 X111.867 Y95.867 F7800.000
G1 X111.682 Y95.283 F7800.000
G1 X105.146 Y96.012 F7800.000
G1 X104.618 Y95.484 E0.03448 F540.000
G1 X104.769 Y95.080 E0.05440
G1 X105.610 Y95.921 E0.10928
G1 X105.756 Y95.511 E0.12936
G1 X104.921 Y94.675 E0.18386
G1 X105.088 Y94.286 E0.20340
G1 X105.929 Y95.127 E0.25827
G1 X106.143 Y94.785 E0.27688
G1 X105.371 Y94.013 E0.32725
G1 X105.668 Y93.755 E0.34544
G1 X106.383 Y94.469 E0.39204
G1 X106.666 Y94.197 E0.41018
G1 X105.966 Y93.496 E0.45588
G1 X106.264 Y93.238 E0.47406
G1 X106.977 Y93.951 E0.52062
G1 X107.343 Y93.761 E0.53965
G1 X106.649 Y93.067 E0.58496
G1 X107.112 Y92.975 E0.60678
G1 X107.738 Y93.600 E0.64756
G1 X108.220 Y93.526 E0.67006
G1 X107.576 Y92.882 E0.71204
G1 X108.040 Y92.790 E0.73386
G1 X108.753 Y93.503 E0.78040
G1 X109.387 Y93.581 E0.80986
G1 X108.530 Y92.724 E0.86580
G1 X109.154 Y92.791 E0.89475
G1 X112.447 Y96.085 E1.10965
G1 X112.245 Y95.326 E1.14587
G1 X109.867 Y92.949 E1.30102
G1 X111.189 Y93.715 F7800.000
G1 X111.552 Y94.078 E1.32467 F540.000
G92 E0
G1 X106.243 Y92.702 F7800.000
G1 X103.288 Y92.413 F7800.000
G1 X102.015 Y93.102 F7800.000
G1 X101.827 Y94.140 F7800.000
G1 X99.169 Y94.140 F7800.000
G1 X91.768 Y93.915 F7800.000
G1 X88.896 Y93.915 E0.12995 F378.000
G1 X98.434 Y106.314 E0.83778
G1 X98.434 Y107.519 E0.89232
G1 X88.017 Y107.519 E1.36369
G1 X88.017 Y106.277 E1.41989
G1 X96.764 Y106.277 E1.81568
G1 X87.225 Y93.922 E2.52196
G1 X87.225 Y92.673 E2.57849
G1 X98.944 Y92.673 E3.10877
G1 X98.944 Y93.915 E3.16497
G1 X91.999 Y93.915 E3.47922 F378.000
G92 E0
G1 X88.911 Y94.414 F7800.000
G1 X87.451 Y92.955 E0.09524 F540.000
G1 X87.451 Y93.511 E0.12089
G1 X90.764 Y96.824 E0.33706
G1 X90.455 Y97.627 F7800.000
G1 X94.472 Y101.643 E0.59907 F540.000
G1 X94.222 Y102.506 F7800.000
G1 X98.179 Y106.463 E0.85720 F540.000
G1 X98.208 Y107.047 E0.88420
G1 X96.106 Y104.945 E1.02134
G1 X96.325 Y104.053 F7800.000
G1 X92.339 Y100.067 E1.28141 F540.000
G1 X92.618 Y99.234 F7800.000
G1 X88.572 Y95.188 E1.54536 F540.000
G1 X88.741 Y93.689 F7800.000
G1 X87.951 Y92.899 E1.59690 F540.000
G1 X88.507 Y92.899 E1.62255
G1 X89.297 Y93.689 E1.67409
G1 X89.853 Y93.689 E1.69973
G1 X89.063 Y92.899 E1.75128
G1 X89.619 Y92.899 E1.77692
G1 X90.409 Y93.689 E1.82846
G1 X90.965 Y93.689 E1.85411
G1 X90.175 Y92.899 E1.90565
G1 X90.731 Y92.899 E1.93130
G1 X91.521 Y93.689 E1.98284
G1 X92.077 Y93.689 E2.00849
G1 X91.287 Y92.899 E2.06003
G1 X91.843 Y92.899 E2.08567
G1 X92.633 Y93.689 E2.13722
G1 X93.189 Y93.689 E2.16286
G1 X92.399 Y92.899 E2.21440
G1 X92.955 Y92.899 E2.24005
G1 X93.745 Y93.689 E2.29159
G1 X94.301 Y93.689 E2.31724
G1 X93.511 Y92.899 E2.36878
G1 X94.067 Y92.899 E2.39443
G1 X94.857 Y93.689 E2.44597
G1 X95.413 Y93.689 E2.47162
G1 X94.623 Y92.899 E2.52316
G1 X95.178 Y92.899 E2.54880
G1 X95.969 Y93.689 E2.60035
G1 X96.525 Y93.689 E2.62599
G1 X95.734 Y92.899 E2.67753
G1 X96.290 Y92.899 E2.70318
G1 X97.080 Y93.689 E2.75472
G1 X97.636 Y93.689 E2.78037
G1 X96.846 Y92.899 E2.83191
G1 X97.402 Y92.899 E2.85756
G1 X98.192 Y93.689 E2.90910
G1 X98.718 Y93.659 E2.93338
G1 X97.958 Y92.899 E2.98293
G1 X98.514 Y92.899 E3.00857
G1 X98.718 Y93.103 E3.02186
G92 E0
G1 X97.107 Y106.503 F7800.000
G1 X97.898 Y107.293 E0.05154 F540.000
G1 X97.342 Y107.293 E0.07719
G1 X96.551 Y106.503 E0.12873
G1 X95.996 Y106.503 E0.15438
G1 X96.786 Y107.293 E0.20592
G1 X96.230 Y107.293 E0.23157
G1 X95.440 Y106.503 E0.28311
G1 X94.884 Y106.503 E0.30875
G1 X95.674 Y107.293 E0.36030
G1 X95.118 Y107.293 E0.38594
G1 X94.328 Y106.503 E0.43749
G1 X93.772 Y106.503 E0.46313
G1 X94.562 Y107.293 E0.51468
G1 X94.006 Y107.293 E0.54032
G1 X93.216 Y106.503 E0.59186
G1 X92.660 Y106.503 E0.61751
G1 X93.450 Y107.293 E0.66905
G1 X92.894 Y107.293 E0.69470
G1 X92.104 Y106.503 E0.74624
G1 X91.548 Y106.503 E0.77189
G1 X92.338 Y107.293 E0.82343
G1 X91.782 Y107.293 E0.84908
G1 X90.992 Y106.503 E0.90062
G1 X90.436 Y106.503 E0.92626
G1 X91.226 Y107.293 E0.97781
G1 X90.670 Y107.293 E1.00345
G1 X89.880 Y106.503 E1.05500
G1 X89.324 Y106.503 E1.08064
G1 X90.114 Y107.293 E1.13219
G1 X89.558 Y107.293 E1.15783
G1 X88.768 Y106.503 E1.20937
G1 X89.002 Y107.293 F7800.000
G1 X88.243 Y106.534 E1.25892 F540.000
G1 X88.243 Y107.089 E1.28457
G1 X88.446 Y107.293 E1.29785
M106 S255
G92 E0
G1 Z0.600 F7800.000
G1 X104.796 Y96.426 F7800.000
G1 X105.544 Y94.626 E0.58425 F600.000
G1 X106.213 Y93.931 E0.87318
G1 X106.663 Y93.558 E1.04832
G1 X106.943 Y93.448 E1.13848
G1 X107.751 Y93.220 E1.38995
G1 X108.524 Y93.101 E1.62452
G1 X109.303 Y93.189 E1.85919
G1 X109.582 Y93.245 E1.94451
G1 X110.145 Y93.476 E2.12696
G1 X110.434 Y93.625 E2.22432
G1 X110.900 Y94.013 E2.40605
G1 X111.091 Y94.195 E2.48522
G1 X111.486 Y94.798 E2.70119
G1 X111.571 Y94.940 E2.75056
G1 X111.841 Y95.785 E3.01629
G1 X111.879 Y95.985 E3.07740
G1 X111.970 Y97.075 E3.40518
G1 X111.970 Y106.052 E6.09506
G1 X111.888 Y106.632 E6.27054
G1 X110.939 Y106.898 E6.56585
G1 X107.987 Y106.898 E7.45041
G92 E0
G1 X103.255 Y102.701 F7800.000
G1 X99.697 Y99.216 F7800.000
G1 X99.169 Y98.973 F7800.000
G1 X99.169 Y94.140 F7800.000
G1 X99.169 Y93.294 F7800.000
G1 X89.353 Y93.294 E2.94133 F600.000
G1 X88.252 Y93.652 E3.28802
G1 X88.649 Y94.682 E3.61865
G1 X96.999 Y105.517 E7.71765
G1 X97.392 Y106.549 E8.04874
G1 X96.306 Y106.898 E8.39055
G1 X87.792 Y106.898 E10.94174
G92 E0
G1 Z0.900 F7800.000
G1 X104.796 Y96.426 F7800.000
G1 X105.544 Y94.626 E0.58425 F600.000
G1 X106.213 Y93.931 E0.87318
G1 X106.663 Y93.558 E1.04832
G1 X106.943 Y93.448 E1.13848
G1 X107.751 Y93.220 E1.38995
G1 X108.524 Y93.101 E1.62452
G1 X109.303 Y93.189 E1.85919
G1 X109.582 Y93.245 E1.94451
G1 X110.145 Y93.476 E2.12696
G1 X110.434 Y93.625 E2.22431
G1 X110.900 Y94.013 E2.40605
G1 X111.091 Y94.195 E2.48522
G1 X111.486 Y94.798 E2.70119
G1 X111.571 Y94.940 E2.75056
G1 X111.841 Y95.785 E3.01629
G1 X111.879 Y95.985 E3.07740
G1 X111.970 Y97.075 E3.40518
G1 X111.970 Y106.052 E6.09506
G1 X111.888 Y106.632 E6.27054
G1 X110.939 Y106.898 E6.56585
G1 X107.987 Y106.898 E7.45041
G92 E0
G1 X103.255 Y102.701 F7800.000
G1 X99.697 Y99.216 F7800.000
G1 X99.169 Y98.973 F7800.000
G1 X99.169 Y94.140 F7800.000
G1 X99.169 Y93.294 F7800.000
G1 X89.353 Y93.294 E2.94133 F600.000
G1 X88.252 Y93.652 E3.28802
G1 X88.649 Y94.682 E3.61865
G1 X96.999 Y105.517 E7.71765
G1 X97.392 Y106.549 E8.04874
G1 X96.306 Y106.898 E8.39055
G1 X87.792 Y106.898 E10.94174
G92 E0
G1 Z1.200 F7800.000
G1 X104.796 Y96.426 F7800.000
G1 X105.544 Y94.626 E0.58425 F600.000
G1 X106.213 Y93.931 E0.87318
G1 X106.663 Y93.558 E1.04832
G1 X106.943 Y93.448 E1.13848
G1 X107.751 Y93.220 E1.38995
G1 X108.524 Y93.101 E1.62452
G1 X109.303 Y93.189 E1.85919
G1 X109.582 Y93.245 E1.94451
G1 X110.145 Y93.476 E2.12696
G1 X110.434 Y93.625 E2.22431
G1 X110.900 Y94.013 E2.40605
G1 X111.091 Y94.195 E2.48522
G1 X111.486 Y94.798 E2.70119
G1 X111.571 Y94.940 E2.75056
G1 X111.841 Y95.785 E3.01629
G1 X111.879 Y95.985 E3.07740
G1 X111.970 Y97.075 E3.40518
G1 X111.970 Y106.052 E6.09506
G1 X111.888 Y106.632 E6.27054
G1 X110.939 Y106.898 E6.56585
G1 X107.987 Y106.898 E7.45041
G92 E0
G1 X103.255 Y102.701 F7800.000
G1 X99.697 Y99.216 F7800.000
G1 X99.169 Y98.973 F7800.000
G1 X99.169 Y94.140 F7800.000
G1 X99.169 Y93.294 F7800.000
G1 X89.353 Y93.294 E2.94133 F600.000
G1 X88.252 Y93.652 E3.28802
G1 X88.649 Y94.682 E3.61865
G1 X96.999 Y105.517 E7.71765
G1 X97.392 Y106.549 E8.04874
G1 X96.306 Y106.898 E8.39055
G1 X87.792 Y106.898 E10.94174
G92 E0
G1 Z1.500 F7800.000
G1 X104.796 Y96.426 F7800.000
G1 X105.544 Y94.626 E0.58425 F600.000
G1 X106.213 Y93.931 E0.87318
G1 X106.663 Y93.558 E1.04832
G1 X106.943 Y93.448 E1.13848
G1 X107.751 Y93.220 E1.38995
G1 X108.524 Y93.101 E1.62452
G1 X109.303 Y93.189 E1.85919
G1 X109.582 Y93.245 E1.94451
G1 X110.145 Y93.476 E2.12696
G1 X110.434 Y93.625 E2.22431
G1 X110.900 Y94.013 E2.40605
G1 X111.091 Y94.195 E2.48522
G1 X111.486 Y94.798 E2.70119
G1 X111.571 Y94.940 E2.75056
G1 X111.841 Y95.785 E3.01629
G1 X111.879 Y95.985 E3.07740
G1 X111.970 Y97.075 E3.40518
G1 X111.970 Y106.052 E6.09506
G1 X111.888 Y106.632 E6.27054
G1 X110.939 Y106.898 E6.56585
G1 X107.987 Y106.898 E7.45041
G92 E0
G1 X103.255 Y102.701 F7800.000
G1 X99.697 Y99.216 F7800.000
G1 X99.169 Y98.973 F7800.000
G1 X99.169 Y94.140 F7800.000
G1 X99.169 Y93.294 F7800.000
G1 X89.353 Y93.294 E2.94133 F600.000
G1 X88.252 Y93.652 E3.28802
G1 X88.649 Y94.682 E3.61865
G1 X96.999 Y105.517 E7.71765
G1 X97.392 Y106.549 E8.04874
G1 X96.306 Y106.898 E8.39055
G1 X87.792 Y106.898 E10.94174
G92 E0
G1 Z1.800 F7800.000
G1 X104.796 Y96.426 F7800.000
G1 X105.544 Y94.626 E0.58425 F600.000
G1 X106.213 Y93.931 E0.87318
G1 X106.663 Y93.558 E1.04832
G1 X106.943 Y93.448 E1.13848
G1 X107.751 Y93.220 E1.38995
G1 X108.524 Y93.101 E1.62453
G1 X109.303 Y93.189 E1.85919
G1 X109.582 Y93.245 E1.94451
G1 X110.145 Y93.476 E2.12696
G1 X110.434 Y93.625 E2.22431
G1 X110.900 Y94.013 E2.40605
G1 X111.091 Y94.196 E2.48522
G1 X111.486 Y94.798 E2.70119
G1 X111.571 Y94.940 E2.75056
G1 X111.841 Y95.785 E3.01629
G1 X111.879 Y95.985 E3.07740
G1 X111.970 Y97.075 E3.40518
G1 X111.970 Y106.052 E6.09506
G1 X111.888 Y106.632 E6.27054
G1 X110.939 Y106.898 E6.56585
G1 X107.987 Y106.898 E7.45041
G92 E0
G1 X103.255 Y102.701 F7800.000
G1 X99.697 Y99.216 F7800.000
G1 X99.169 Y98.973 F7800.000
G1 X99.169 Y94.140 F7800.000
G1 X99.169 Y93.294 F7800.000
G1 X89.353 Y93.294 E2.94133 F600.000
G1 X88.252 Y93.652 E3.28802
G1 X88.649 Y94.682 E3.61865
G1 X96.999 Y105.517 E7.71765
G1 X97.392 Y106.549 E8.04874
G1 X96.306 Y106.898 E8.39055
G1 X87.792 Y106.898 E10.94174
G92 E0
G1 Z2.100 F7800.000
G1 X104.796 Y96.426 F7800.000
G1 X105.544 Y94.626 E0.58425 F600.000
G1 X106.213 Y93.931 E0.87318
G1 X106.661 Y93.559 E1.04770
G1 X106.943 Y93.449 E1.13846
G1 X107.598 Y93.253 E1.34308
G1 X108.555 Y93.104 E1.63344
G1 X109.303 Y93.189 E1.85889
G1 X109.582 Y93.245 E1.94421
G1 X110.145 Y93.476 E2.12666
G1 X110.434 Y93.625 E2.22402
G1 X110.900 Y94.013 E2.40576
G1 X111.091 Y94.195 E2.48492
G1 X111.486 Y94.798 E2.70089
G1 X111.571 Y94.940 E2.75027
G1 X111.841 Y95.785 E3.01600
G1 X111.879 Y95.985 E3.07711
G1 X111.970 Y97.075 E3.40488
G1 X111.970 Y106.052 E6.09477
G1 X111.888 Y106.632 E6.27025
G1 X110.939 Y106.898 E6.56555
G1 X107.987 Y106.898 E7.45011
G92 E0
G1 X103.255 Y102.701 F7800.000
G1 X99.697 Y99.216 F7800.000
G1 X99.169 Y98.973 F7800.000
G1 X99.169 Y94.140 F7800.000
G1 X99.169 Y93.294 F7800.000
G1 X89.353 Y93.294 E2.94133 F600.000
G1 X88.252 Y93.652 E3.28802
G1 X88.649 Y94.682 E3.61865
G1 X96.999 Y105.517 E7.71765
G1 X97.392 Y106.549 E8.04874
G1 X96.306 Y106.898 E8.39055
G1 X87.792 Y106.898 E10.94174
G92 E0
M107
M104 S0 ; turn off temperature
G28 X0  ; home X axis
M84     ; disable motors

; filament used = 124.3mm (1.0cm3)

; avoid_crossing_perimeters = 1
; bed_shape = 0x0,250x0,250x250,0x250
; bed_temperature = 0
; before_layer_gcode = 
; bridge_acceleration = 0
; bridge_fan_speed = 100
; brim_width = 0
; complete_objects = 0
; cooling = 1
; default_acceleration = 0
; disable_fan_first_layers = 1
; duplicate_distance = 6
; end_gcode = M104 S0 ; turn off temperature\nG28 X0  ; home X axis\nM84     ; disable motors\n
; extruder_clearance_height = 20
; extruder_clearance_radius = 20
; extruder_offset = 0x0
; extrusion_axis = E
; extrusion_multiplier = 3
; fan_always_on = 0
; fan_below_layer_time = 60
; filament_colour = #FFFFFF
; filament_diameter = 3.125
; first_layer_acceleration = 0
; first_layer_bed_temperature = 0
; first_layer_extrusion_width = 150%
; first_layer_speed = 90%
; first_layer_temperature = 30
; gcode_arcs = 0
; gcode_comments = 0
; gcode_flavor = reprap
; infill_acceleration = 0
; infill_first = 0
; layer_gcode = 
; max_fan_speed = 100
; max_print_speed = 80
; max_volumetric_speed = 0
; min_fan_speed = 35
; min_print_speed = 10
; min_skirt_length = 0
; notes = 
; nozzle_diameter = 1.54
; only_retract_when_crossing_perimeters = 1
; ooze_prevention = 0
; output_filename_format = [input_filename_base].gcode
; perimeter_acceleration = 0
; post_process = 
; pressure_advance = 0
; resolution = 0
; retract_before_travel = 2
; retract_layer_change = 1
; retract_length = 0
; retract_length_toolchange = 10
; retract_lift = 0
; retract_restart_extra = 0
; retract_restart_extra_toolchange = 0
; retract_speed = 0
; skirt_distance = 6
; skirt_height = 1
; skirts = 0
; slowdown_below_layer_time = 30
; spiral_vase = 0
; standby_temperature_delta = -5
; start_gcode = G28 ; home all axes\nG1 Z5 F5000 ; lift nozzle\nM302\nM92 E10000\nM500\nM501\nG1 E100
; temperature = 30
; threads = 2
; toolchange_gcode = 
; travel_speed = 130
; use_firmware_retraction = 0
; use_relative_e_distances = 0
; use_volumetric_e = 0
; vibration_limit = 0
; wipe = 0
; z_offset = 0
; dont_support_bridges = 1
; extrusion_width = 0
; first_layer_height = 100%
; infill_only_where_needed = 0
; interface_shells = 0
; layer_height = 0.3
; raft_layers = 0
; seam_position = random
; support_material = 0
; support_material_angle = 0
; support_material_contact_distance = 0.2
