; generated by Slic3r 1.2.9 on 2016-03-11 at 01:33:08

; external perimeters extrusion width = 1.54mm
; perimeters extrusion width = 2.62mm
; infill extrusion width = 6.27mm
; solid infill extrusion width = 2.62mm
; top infill extrusion width = 2.62mm

M107
M104 S30 ; set temperature
G28 ; home all axes
G1 Z5 F5000 ; lift nozzle
M302
M92 E10000
M500
M501
G1 E100
M109 S30 ; wait for temperature to be reached
G21 ; set units to millimeters
G90 ; use absolute coordinates
M82 ; use absolute distances for extrusion
G92 E0
G1 Z0.300 F7800.000
G1 X115.413 Y103.747 F7800.000
G1 X115.260 Y104.124 E0.01839 F378.000
G1 X114.590 Y105.169 E0.07457
G1 X113.749 Y106.032 E0.12909
G1 X112.733 Y106.716 E0.18450
G1 X111.561 Y107.214 E0.24215
G1 X110.249 Y107.514 E0.30305
G1 X108.799 Y107.614 E0.36880
G1 X106.635 Y107.390 E0.46724
G1 X104.831 Y106.725 E0.55425
G1 X103.372 Y105.621 E0.63703
G1 X102.296 Y104.124 E0.72045
G1 X101.647 Y102.275 E0.80912
G1 X101.428 Y100.061 E0.90980
G1 X101.526 Y98.562 E0.97778
G1 X101.818 Y97.196 E1.04101
G1 X102.304 Y95.965 E1.10089
G1 X102.971 Y94.896 E1.15792
G1 X103.810 Y94.011 E1.21304
G1 X104.821 Y93.308 E1.26879
G1 X105.993 Y92.797 E1.32665
G1 X107.310 Y92.489 E1.38785
G1 X108.774 Y92.386 E1.45425
G1 X110.240 Y92.491 E1.52076
G1 X111.537 Y92.802 E1.58110 F378.000
G1 X112.709 Y93.319 E1.63909
G1 X113.727 Y94.028 E1.69521
G1 X114.573 Y94.915 E1.75066
G1 X115.249 Y95.983 E1.80788
G1 X115.744 Y97.209 E1.86771
G1 X116.042 Y98.570 E1.93071
G1 X116.142 Y100.065 E1.99854
G1 X116.043 Y101.563 E2.06647
G1 X115.749 Y102.916 E2.12911
G1 X115.499 Y103.533 E2.15924
G1 X113.943 Y103.036 F7800.000
G1 X113.824 Y103.408 E2.17695 F378.000
G1 X112.996 Y104.678 E2.24554
G1 X111.861 Y105.623 E2.31236
G1 X110.457 Y106.188 E2.38086
G1 X108.797 Y106.374 E2.45647
G1 X107.124 Y106.191 E2.53261
G1 X105.710 Y105.634 E2.60135
G1 X104.569 Y104.701 E2.66803
G1 X103.738 Y103.438 E2.73647
G1 X103.243 Y101.890 E2.80999
G1 X103.080 Y100.065 E2.89291
G1 X103.245 Y98.242 E2.97572
G1 X103.744 Y96.676 E3.05011
G1 X104.583 Y95.372 E3.12027
G1 X105.725 Y94.394 E3.18833
G1 X107.127 Y93.808 E3.25707
G1 X108.629 Y93.632 E3.32549
G1 X108.774 Y93.615 E3.33208 F378.000
G1 X110.457 Y93.801 E3.40873
G1 X111.873 Y94.368 E3.47775
G1 X113.008 Y95.317 E3.54468
G1 X113.830 Y96.605 E3.61383
G1 X114.318 Y98.190 E3.68886
G1 X114.479 Y100.065 E3.77404
G1 X114.317 Y101.868 E3.85595
G1 X114.014 Y102.816 E3.90095
G1 X115.170 Y96.489 F7800.000
G1 X111.961 Y93.279 E4.10921 F540.000
G1 X111.519 Y93.944 F7800.000
G1 X110.346 Y92.771 E4.18535 F540.000
G1 X111.073 Y92.945 F7800.000
G1 X113.308 Y95.179 E4.33034 F540.000
G1 X113.165 Y95.037 F7800.000
G1 X115.536 Y97.408 E4.48421 F540.000
G1 X115.691 Y98.116 E4.51748
G1 X114.057 Y96.482 E4.62352
G1 X114.303 Y97.281 E4.66188
G1 X115.825 Y98.803 E4.76065
G1 X115.865 Y99.396 E4.78790
G1 X114.542 Y98.073 E4.87375
G1 X114.594 Y98.678 E4.90161
G1 X115.905 Y99.988 E4.98666
G1 X115.890 Y100.527 E5.01138
G1 X114.646 Y99.283 E5.09212
G1 X114.698 Y99.888 E5.11998
G1 X115.856 Y101.046 E5.19513
G1 X115.822 Y101.565 E5.21899
G1 X114.668 Y100.411 E5.29387
G1 X114.622 Y100.918 E5.31724
G1 X115.728 Y102.023 E5.38899
G1 X115.629 Y102.478 E5.41031
G1 X114.576 Y101.425 E5.47861
G1 X114.516 Y101.918 E5.50138
G1 X115.527 Y102.928 E5.56697
G1 X115.367 Y103.322 E5.58646
G1 X114.382 Y102.337 E5.65042
G1 X114.248 Y102.756 E5.67060
G1 X115.208 Y103.716 E5.73293
G1 X115.042 Y104.103 E5.75226
G1 X114.114 Y103.175 E5.81252
G1 X113.953 Y103.567 E5.83196
G1 X114.826 Y104.440 E5.88865
G1 X114.610 Y104.777 E5.90702
G1 X113.735 Y103.902 E5.96385
G1 X113.516 Y104.236 E5.98218
G1 X114.380 Y105.100 E6.03825
G1 X114.104 Y105.377 E6.05619
G1 X113.298 Y104.571 E6.10847
G1 X113.054 Y104.880 E6.12654
G1 X113.827 Y105.653 E6.17670
G1 X113.551 Y105.930 E6.19465
G1 X112.753 Y105.132 E6.24645
G1 X112.451 Y105.383 E6.26447
G1 X113.221 Y106.153 E6.31447
G1 X112.891 Y106.376 E6.33275
G1 X112.149 Y105.634 E6.38090
G1 X111.819 Y105.857 E6.39917
G1 X112.542 Y106.580 E6.44608
G1 X112.154 Y106.745 E6.46543
G1 X111.425 Y106.016 E6.51273
G1 X111.030 Y106.174 E6.53223
G1 X111.765 Y106.909 E6.57993
G1 X111.350 Y107.047 E6.60001
G1 X110.636 Y106.333 E6.64634
G1 X110.187 Y106.437 E6.66749
G1 X110.900 Y107.150 E6.71374
G1 X110.450 Y107.253 E6.73493
G1 X109.690 Y106.493 E6.78424
G1 X109.192 Y106.549 E6.80720
G1 X109.957 Y107.313 E6.85681
G1 X109.440 Y107.349 E6.88060
G1 X108.690 Y106.599 E6.92923
G1 X108.069 Y106.531 E6.95791
G1 X108.922 Y107.385 E7.01328
G1 X108.313 Y107.328 E7.04139
G1 X107.448 Y106.463 E7.09750
G1 X106.760 Y106.329 E7.12964
G1 X107.696 Y107.264 E7.19032
G1 X107.079 Y107.200 E7.21878
G1 X105.848 Y105.969 E7.29866
G1 X105.449 Y106.676 F7800.000
G1 X102.391 Y103.619 E7.49708 F540.000
G1 X102.092 Y102.766 F7800.000
G1 X106.325 Y107.000 E7.77178 F540.000
G1 X103.794 Y105.574 F7800.000
G1 X103.440 Y105.220 E7.79476 F540.000
G1 X103.552 Y103.674 F7800.000
G1 X101.852 Y101.974 E7.90508 F540.000
G1 X101.792 Y101.360 E7.93338
G1 X103.283 Y102.851 E8.03015
G1 X103.024 Y102.039 E8.06928
G1 X101.731 Y100.746 E8.15315
G1 X101.671 Y100.133 E8.18144
G1 X102.968 Y101.430 E8.26562
G1 X102.914 Y100.823 E8.29360
G1 X101.680 Y99.589 E8.37365
G1 X101.714 Y99.070 E8.39752
G1 X102.859 Y100.215 E8.47184
G1 X102.894 Y99.697 E8.49569
G1 X101.748 Y98.551 E8.57006
G1 X101.842 Y98.092 E8.59155
G1 X102.940 Y99.190 E8.66279
G1 X102.986 Y98.683 E8.68616
G1 X101.939 Y97.636 E8.75405
G1 X102.040 Y97.184 E8.77532
G1 X103.047 Y98.191 E8.84065
G1 X103.180 Y97.771 E8.86085
G1 X102.196 Y96.787 E8.92470
G1 X102.353 Y96.391 E8.94426
G1 X103.314 Y97.352 E9.00663
G1 X103.447 Y96.933 E9.02683
G1 X102.513 Y95.998 E9.08747
G1 X102.726 Y95.658 E9.10589
G1 X103.603 Y96.535 E9.16284
G1 X103.820 Y96.199 E9.18120
G1 X102.938 Y95.317 E9.23841
G1 X103.155 Y94.981 E9.25676
G1 X104.036 Y95.862 E9.31393
G1 X104.252 Y95.525 E9.33229
G1 X103.425 Y94.698 E9.38601
G1 X103.701 Y94.421 E9.40395
G1 X104.483 Y95.203 E9.45472
G1 X104.781 Y94.948 E9.47272
G1 X103.978 Y94.145 E9.52488
G1 X104.296 Y93.910 E9.54302
G1 X105.079 Y94.693 E9.59387
G1 X105.377 Y94.438 E9.61187
G1 X104.622 Y93.683 E9.66088
G1 X104.959 Y93.467 E9.67925
G1 X105.685 Y94.193 E9.72638
G1 X106.075 Y94.030 E9.74577
G1 X105.344 Y93.299 E9.79323
G1 X105.729 Y93.131 E9.81250
G1 X106.465 Y93.867 E9.86028
G1 X106.855 Y93.704 E9.87968
G1 X106.131 Y92.980 E9.92667
G1 X106.579 Y92.875 E9.94778
G1 X107.276 Y93.572 E9.99301
G1 X107.771 Y93.514 E10.01587
G1 X107.027 Y92.770 E10.06413
G1 X107.506 Y92.696 E10.08636
G1 X108.266 Y93.456 E10.13566
G1 X108.761 Y93.398 E10.15852
G1 X108.023 Y92.660 E10.20642
G1 X108.539 Y92.623 E10.23018
G1 X109.359 Y93.443 E10.28336
G1 X109.981 Y93.512 E10.31208
G1 X109.112 Y92.643 E10.36848
G1 X109.708 Y92.685 E10.39589
G1 X110.603 Y93.581 E10.45399
G1 X113.350 Y94.116 F7800.000
G1 X114.189 Y94.955 E10.50841 F540.000
G92 E0
G1 X101.302 Y98.531 F7800.000
G1 X96.422 Y99.753 F7800.000
G1 X97.947 Y103.546 F7800.000
G1 X98.158 Y103.936 F7800.000
G1 X95.292 Y106.141 F7800.000
G1 X91.948 Y102.164 F7800.000
G1 X95.067 Y106.218 E0.23142 F378.000
G1 X95.067 Y107.423 E0.28597
G1 X84.650 Y107.423 E0.75733
G1 X84.650 Y106.181 E0.81353
G1 X93.397 Y106.181 E1.20933
G1 X83.858 Y93.826 E1.91561
G1 X83.858 Y92.577 E1.97214
G1 X95.577 Y92.577 E2.50241
G1 X95.577 Y93.819 E2.55861
G1 X85.529 Y93.819 E3.01328 F378.000
G1 X91.807 Y101.981 E3.47922
G1 X91.105 Y101.547 F7800.000
G1 X87.088 Y97.531 E3.74123 F540.000
G1 X87.397 Y96.728 F7800.000
G1 X84.084 Y93.415 E3.95741 F540.000
G1 X84.084 Y92.859 E3.98305
G1 X85.544 Y94.318 E4.07829
G1 X85.374 Y93.593 F7800.000
G1 X84.584 Y92.803 E4.12983 F540.000
G1 X85.140 Y92.803 E4.15548
G1 X85.930 Y93.593 E4.20702
G1 X86.486 Y93.593 E4.23267
G1 X85.696 Y92.803 E4.28421
G1 X86.252 Y92.803 E4.30986
G1 X87.042 Y93.593 E4.36140
G1 X87.598 Y93.593 E4.38705
G1 X86.808 Y92.803 E4.43859
G1 X87.364 Y92.803 E4.46423
G1 X88.154 Y93.593 E4.51578
G1 X88.710 Y93.593 E4.54142
G1 X87.920 Y92.803 E4.59296
G1 X88.476 Y92.803 E4.61861
G1 X89.266 Y93.593 E4.67015
G1 X89.822 Y93.593 E4.69580
G1 X89.032 Y92.803 E4.74734
G1 X89.588 Y92.803 E4.77299
G1 X90.378 Y93.593 E4.82453
G1 X90.934 Y93.593 E4.85017
G1 X90.144 Y92.803 E4.90172
G1 X90.700 Y92.803 E4.92736
G1 X91.490 Y93.593 E4.97891
G1 X92.046 Y93.593 E5.00455
G1 X91.256 Y92.803 E5.05609
G1 X91.811 Y92.803 E5.08174
G1 X92.602 Y93.593 E5.13328
G1 X93.158 Y93.593 E5.15893
G1 X92.367 Y92.803 E5.21047
G1 X92.923 Y92.803 E5.23612
G1 X93.713 Y93.593 E5.28766
G1 X94.269 Y93.593 E5.31330
G1 X93.479 Y92.803 E5.36485
G1 X94.035 Y92.803 E5.39049
G1 X94.825 Y93.593 E5.44203
G1 X95.351 Y93.563 E5.46631
G1 X94.591 Y92.803 E5.51586
G1 X95.147 Y92.803 E5.54151
G1 X95.351 Y93.007 E5.55479
G92 E0
G1 X89.251 Y99.138 F7800.000
G1 X85.205 Y95.092 E0.26395 F540.000
G1 X88.972 Y99.971 F7800.000
G1 X92.958 Y103.957 E0.52402 F540.000
G1 X92.739 Y104.849 F7800.000
G1 X94.841 Y106.951 E0.66116 F540.000
G1 X94.812 Y106.367 E0.68815
G1 X90.855 Y102.410 E0.94629
G1 X93.740 Y106.407 F7800.000
G1 X94.531 Y107.197 E0.99783 F540.000
G1 X93.975 Y107.197 E1.02348
G1 X93.184 Y106.407 E1.07502
G1 X92.629 Y106.407 E1.10067
G1 X93.419 Y107.197 E1.15221
G1 X92.863 Y107.197 E1.17785
G1 X92.073 Y106.407 E1.22940
G1 X91.517 Y106.407 E1.25504
G1 X92.307 Y107.197 E1.30659
G1 X91.751 Y107.197 E1.33223
G1 X90.961 Y106.407 E1.38378
G1 X90.405 Y106.407 E1.40942
G1 X91.195 Y107.197 E1.46096
G1 X90.639 Y107.197 E1.48661
G1 X89.849 Y106.407 E1.53815
G1 X89.293 Y106.407 E1.56380
G1 X90.083 Y107.197 E1.61534
G1 X89.527 Y107.197 E1.64099
G1 X88.737 Y106.407 E1.69253
G1 X88.181 Y106.407 E1.71818
G1 X88.971 Y107.197 E1.76972
G1 X88.415 Y107.197 E1.79536
G1 X87.625 Y106.407 E1.84691
G1 X87.069 Y106.407 E1.87255
G1 X87.859 Y107.197 E1.92410
G1 X87.303 Y107.197 E1.94974
G1 X86.513 Y106.407 E2.00128
G1 X85.957 Y106.407 E2.02693
G1 X86.747 Y107.197 E2.07847
G1 X86.191 Y107.197 E2.10412
G1 X85.401 Y106.407 E2.15566
G1 X85.635 Y107.197 F7800.000
G1 X84.876 Y106.438 E2.20521 F540.000
G1 X84.876 Y106.993 E2.23086
G1 X85.079 Y107.197 E2.24414
M106 S255
G92 E0
G1 Z0.600 F7800.000
G1 X102.256 Y100.047 F7800.000
G1 X102.361 Y98.678 E0.41153 F600.000
G1 X102.481 Y97.973 E0.62588
G1 X102.623 Y97.439 E0.79152
G1 X103.024 Y96.327 E1.14548
G1 X103.612 Y95.391 E1.47685
G1 X103.927 Y94.989 E1.62983
G1 X104.119 Y94.779 E1.71523
G1 X104.311 Y94.596 E1.79482
G1 X105.170 Y93.933 E2.11988
G1 X105.496 Y93.754 E2.23138
G1 X106.210 Y93.449 E2.46385
G1 X106.856 Y93.240 E2.66726
G1 X107.407 Y93.127 E2.83583
G1 X108.774 Y93.002 E3.24711
G1 X110.129 Y93.123 E3.65473
G1 X110.715 Y93.240 E3.83386
G1 X111.324 Y93.433 E4.02547
G1 X112.081 Y93.752 E4.27154
G1 X112.377 Y93.910 E4.37212
G1 X113.254 Y94.580 E4.70268
G1 X113.436 Y94.750 E4.77749
G1 X113.630 Y94.962 E4.86334
G1 X113.965 Y95.390 E5.02624
G1 X114.556 Y96.339 E5.36130
G1 X114.954 Y97.454 E5.71595
G1 X115.123 Y98.145 E5.92928
G1 X115.206 Y98.688 E6.09400
G1 X115.309 Y100.065 E6.50780
G1 X115.204 Y101.445 E6.92234
G1 X115.084 Y102.140 E7.13365
G1 X114.943 Y102.667 E7.29724
G1 X114.545 Y103.754 E7.64417
G1 X113.960 Y104.668 E7.96933
G1 X113.645 Y105.061 E8.12004
G1 X113.447 Y105.273 E8.20699
G1 X113.260 Y105.446 E8.28340
G1 X112.396 Y106.094 E8.60708
G1 X112.080 Y106.261 E8.71417
G1 X111.350 Y106.563 E8.95086
G1 X110.720 Y106.761 E9.14866
G1 X110.154 Y106.873 E9.32169
G1 X108.810 Y106.992 E9.72605
G1 X107.086 Y106.812 E10.24540
G1 X106.862 Y106.773 E10.31347
G1 X105.500 Y106.264 E10.74920
G1 X105.172 Y106.101 E10.85886
G1 X104.136 Y105.287 E11.25388
G1 X103.919 Y105.088 E11.34189
G1 X103.009 Y103.753 E11.82618
G1 X102.473 Y102.162 E12.32904
G1 X102.431 Y101.938 E12.39746
G1 X102.256 Y100.047 E12.96634
G92 E0
G1 X101.602 Y97.130 F7800.000
G1 X99.038 Y94.654 F7800.000
G1 X99.215 Y94.044 F7800.000
G1 X95.802 Y94.044 F7800.000
G1 X95.802 Y93.198 F7800.000
G1 X85.986 Y93.198 E2.94133 F600.000
G1 X84.885 Y93.556 E3.28802
G1 X85.282 Y94.586 E3.61865
G1 X93.632 Y105.421 E7.71765
G1 X94.025 Y106.453 E8.04874
G1 X92.939 Y106.802 E8.39055
G1 X84.425 Y106.802 E10.94174
G92 E0
G1 Z0.900 F7800.000
G1 X102.256 Y100.047 F7800.000
G1 X102.361 Y98.678 E0.41153 F600.000
G1 X102.481 Y97.973 E0.62587
G1 X102.623 Y97.439 E0.79152
G1 X103.024 Y96.327 E1.14548
G1 X103.612 Y95.391 E1.47685
G1 X103.927 Y94.989 E1.62983
G1 X104.119 Y94.779 E1.71523
G1 X104.311 Y94.596 E1.79482
G1 X105.170 Y93.933 E2.11988
G1 X105.496 Y93.754 E2.23138
G1 X106.210 Y93.449 E2.46385
G1 X106.856 Y93.240 E2.66726
G1 X107.407 Y93.127 E2.83583
G1 X108.774 Y93.002 E3.24711
G1 X110.129 Y93.123 E3.65473
G1 X110.715 Y93.240 E3.83386
G1 X111.324 Y93.433 E4.02547
G1 X112.081 Y93.752 E4.27154
G1 X112.377 Y93.910 E4.37212
G1 X113.254 Y94.580 E4.70268
G1 X113.436 Y94.750 E4.77749
G1 X113.630 Y94.962 E4.86334
G1 X113.965 Y95.390 E5.02624
G1 X114.556 Y96.339 E5.36130
G1 X114.954 Y97.454 E5.71596
G1 X115.123 Y98.145 E5.92929
G1 X115.206 Y98.688 E6.09400
G1 X115.309 Y100.065 E6.50780
G1 X115.204 Y101.445 E6.92234
G1 X115.084 Y102.140 E7.13365
G1 X114.943 Y102.667 E7.29724
G1 X114.545 Y103.754 E7.64417
G1 X113.960 Y104.668 E7.96933
G1 X113.645 Y105.061 E8.12004
G1 X113.447 Y105.273 E8.20699
G1 X113.260 Y105.446 E8.28340
G1 X112.396 Y106.094 E8.60708
G1 X112.080 Y106.261 E8.71417
G1 X111.350 Y106.563 E8.95086
G1 X110.720 Y106.761 E9.14866
G1 X110.154 Y106.873 E9.32169
G1 X108.810 Y106.992 E9.72605
G1 X107.086 Y106.812 E10.24540
G1 X106.862 Y106.773 E10.31347
G1 X105.500 Y106.264 E10.74920
G1 X105.172 Y106.101 E10.85886
G1 X104.136 Y105.287 E11.25388
G1 X103.919 Y105.088 E11.34189
G1 X103.009 Y103.753 E11.82618
G1 X102.473 Y102.162 E12.32904
G1 X102.431 Y101.938 E12.39746
G1 X102.256 Y100.047 E12.96634
G92 E0
G1 X101.602 Y97.130 F7800.000
G1 X99.038 Y94.654 F7800.000
G1 X99.215 Y94.044 F7800.000
G1 X95.802 Y94.044 F7800.000
G1 X95.802 Y93.198 F7800.000
G1 X85.986 Y93.198 E2.94133 F600.000
G1 X84.885 Y93.556 E3.28802
G1 X85.282 Y94.586 E3.61865
G1 X93.632 Y105.421 E7.71765
G1 X94.025 Y106.453 E8.04874
G1 X92.939 Y106.802 E8.39055
G1 X84.425 Y106.802 E10.94174
G92 E0
G1 Z1.200 F7800.000
G1 X102.256 Y100.047 F7800.000
G1 X102.361 Y98.678 E0.41153 F600.000
G1 X102.481 Y97.973 E0.62587
G1 X102.623 Y97.439 E0.79152
G1 X103.024 Y96.327 E1.14548
G1 X103.612 Y95.391 E1.47685
G1 X103.927 Y94.989 E1.62983
G1 X104.119 Y94.779 E1.71523
G1 X104.311 Y94.596 E1.79482
G1 X105.170 Y93.933 E2.11988
G1 X105.496 Y93.754 E2.23138
G1 X106.210 Y93.449 E2.46385
G1 X106.856 Y93.240 E2.66726
G1 X107.407 Y93.127 E2.83583
G1 X108.774 Y93.002 E3.24711
G1 X110.129 Y93.123 E3.65473
G1 X110.715 Y93.240 E3.83386
G1 X111.324 Y93.433 E4.02547
G1 X112.081 Y93.752 E4.27154
G1 X112.377 Y93.910 E4.37212
G1 X113.254 Y94.580 E4.70268
G1 X113.436 Y94.750 E4.77749
G1 X113.630 Y94.962 E4.86334
G1 X113.965 Y95.390 E5.02624
G1 X114.556 Y96.339 E5.36130
G1 X114.954 Y97.454 E5.71595
G1 X115.123 Y98.145 E5.92929
G1 X115.206 Y98.688 E6.09400
G1 X115.309 Y100.065 E6.50780
G1 X115.204 Y101.445 E6.92234
G1 X115.084 Y102.140 E7.13365
G1 X114.943 Y102.667 E7.29724
G1 X114.545 Y103.754 E7.64417
G1 X113.960 Y104.668 E7.96933
G1 X113.645 Y105.061 E8.12004
G1 X113.447 Y105.273 E8.20699
G1 X113.260 Y105.446 E8.28340
G1 X112.396 Y106.094 E8.60708
G1 X112.080 Y106.261 E8.71417
G1 X111.350 Y106.563 E8.95086
G1 X110.720 Y106.761 E9.14866
G1 X110.154 Y106.873 E9.32169
G1 X108.810 Y106.992 E9.72605
G1 X107.086 Y106.812 E10.24540
G1 X106.862 Y106.773 E10.31347
G1 X105.500 Y106.264 E10.74920
G1 X105.172 Y106.101 E10.85886
G1 X104.136 Y105.287 E11.25388
G1 X103.919 Y105.088 E11.34189
G1 X103.009 Y103.753 E11.82618
G1 X102.473 Y102.162 E12.32904
G1 X102.431 Y101.938 E12.39746
G1 X102.256 Y100.047 E12.96634
G92 E0
G1 X101.602 Y97.130 F7800.000
G1 X99.038 Y94.654 F7800.000
G1 X99.215 Y94.044 F7800.000
G1 X95.802 Y94.044 F7800.000
G1 X95.802 Y93.198 F7800.000
G1 X85.986 Y93.198 E2.94133 F600.000
G1 X84.885 Y93.556 E3.28802
G1 X85.282 Y94.586 E3.61865
G1 X93.632 Y105.421 E7.71765
G1 X94.025 Y106.453 E8.04874
G1 X92.939 Y106.802 E8.39055
G1 X84.425 Y106.802 E10.94174
G92 E0
G1 Z1.500 F7800.000
G1 X102.256 Y100.047 F7800.000
