; generated by Slic3r 1.2.9 on 2016-03-11 at 01:33:11

; external perimeters extrusion width = 1.54mm
; perimeters extrusion width = 2.62mm
; infill extrusion width = 6.27mm
; solid infill extrusion width = 2.62mm
; top infill extrusion width = 2.62mm

M107
M104 S30 ; set temperature
G28 ; home all axes
G1 Z5 F5000 ; lift nozzle
M302
M92 E10000
M500
M501
G1 E100
M109 S30 ; wait for temperature to be reached
G21 ; set units to millimeters
G90 ; use absolute coordinates
M82 ; use absolute distances for extrusion
G92 E0
G1 Z0.300 F7800.000
G1 X113.346 Y106.479 F7800.000
G1 X112.601 Y106.927 E0.03935 F378.000
G1 X111.320 Y107.297 E0.09966
G1 X109.760 Y107.423 E0.17051
G1 X102.793 Y107.423 E0.48575
G1 X102.793 Y92.577 E1.15753
G1 X104.414 Y92.577 E1.23087
G1 X104.414 Y98.940 E1.51880
G1 X109.537 Y98.940 E1.75064 F378.000
G1 X113.513 Y92.577 E2.09015
G1 X115.357 Y92.577 E2.17358
G1 X111.072 Y99.088 E2.52628
G1 X112.428 Y99.461 E2.58994
G1 X113.296 Y99.924 E2.63444
G1 X114.001 Y100.565 E2.67754
G1 X114.522 Y101.351 E2.72023
G1 X114.835 Y102.254 E2.76346
G1 X114.940 Y103.277 E2.81000
G1 X114.791 Y104.492 E2.86539
G1 X114.350 Y105.500 E2.91518
G1 X113.615 Y106.318 E2.96493
G1 X113.544 Y106.360 E2.96867
G1 X112.448 Y105.330 F7800.000
G1 X112.317 Y105.469 E2.97734 F378.000
G1 X111.546 Y105.901 E3.01734
G1 X110.649 Y106.134 E3.05927
G1 X109.571 Y106.214 E3.10817
G1 X104.414 Y106.214 E3.34153
G1 X104.414 Y100.127 E3.61696
G1 X109.659 Y100.127 E3.85431 F378.000
G1 X110.703 Y100.215 E3.90173
G1 X111.601 Y100.485 E3.94413
G1 X112.336 Y100.943 E3.98333
G1 X112.880 Y101.573 E4.02100
G1 X113.205 Y102.349 E4.05907
G1 X113.311 Y103.258 E4.10045
G1 X113.203 Y104.137 E4.14053
G1 X112.871 Y104.880 E4.17736
G1 X112.606 Y105.161 E4.19484
G1 X114.092 Y103.260 F7800.000
G1 X114.125 Y103.256 F7800.000
G1 X113.970 Y102.150 F7800.000
G1 X113.962 Y102.151 F7800.000
G1 X113.300 Y101.893 F7800.000
G1 X114.707 Y103.300 E4.28554 F540.000
G1 X114.658 Y103.800 E4.30846
G1 X113.474 Y102.616 E4.38478
G1 X113.534 Y103.225 E4.41267
G1 X114.598 Y104.289 E4.48127
G1 X114.475 Y104.716 E4.50149
G1 X113.473 Y103.714 E4.56604
G1 X113.398 Y104.189 E4.58793
G1 X114.307 Y105.098 E4.64652
G1 X114.124 Y105.464 E4.66517
G1 X113.229 Y104.569 E4.72286
G1 X113.059 Y104.948 E4.74181
G1 X113.864 Y105.753 E4.79367
G1 X113.595 Y106.034 E4.81138
G1 X112.799 Y105.237 E4.86274
G1 X112.533 Y105.520 E4.88046
G1 X113.294 Y106.282 E4.92955
G1 X112.951 Y106.488 E4.94780
G1 X112.215 Y105.752 E4.99527
G1 X111.862 Y105.949 E5.01367
G1 X112.608 Y106.694 E5.06172
G1 X112.194 Y106.830 E5.08158
G1 X111.494 Y106.130 E5.12670
G1 X111.058 Y106.243 E5.14723
G1 X111.768 Y106.953 E5.19300
G1 X111.341 Y107.075 E5.21325
G1 X110.622 Y106.356 E5.25960
G1 X110.111 Y106.395 E5.28295
G1 X110.832 Y107.116 E5.32945
G1 X110.324 Y107.157 E5.35270
G1 X109.599 Y106.433 E5.39940
G1 X109.057 Y106.440 E5.42411
G1 X109.814 Y107.197 E5.47292
G1 X109.265 Y107.197 E5.49795
G1 X108.508 Y106.440 E5.54676
G1 X107.959 Y106.440 E5.57180
G1 X108.716 Y107.197 E5.62060
G1 X108.166 Y107.197 E5.64564
G1 X107.409 Y106.440 E5.69444
G1 X106.860 Y106.440 E5.71948
G1 X107.617 Y107.197 E5.76828
G1 X107.068 Y107.197 E5.79332
G1 X106.311 Y106.440 E5.84213
G1 X105.761 Y106.440 E5.86717
G1 X106.518 Y107.197 E5.91597
G1 X105.969 Y107.197 E5.94101
G1 X105.212 Y106.440 E5.98981
G1 X104.663 Y106.440 E6.01485
G1 X105.420 Y107.197 E6.06365
G1 X104.870 Y107.197 E6.08869
G1 X103.019 Y105.345 E6.20805
G1 X103.019 Y104.796 E6.23309
G1 X104.188 Y105.965 E6.30845
G1 X104.188 Y105.416 E6.33349
G1 X103.019 Y104.247 E6.40885
G1 X103.019 Y103.697 E6.43389
G1 X104.188 Y104.866 E6.50925
G1 X104.188 Y104.317 E6.53429
G1 X103.019 Y103.148 E6.60965
G1 X103.019 Y102.599 E6.63469
G1 X104.188 Y103.768 E6.71005
G1 X104.188 Y103.218 E6.73509
G1 X103.019 Y102.049 E6.81045
G1 X103.019 Y101.500 E6.83549
G1 X104.188 Y102.669 E6.91085
G1 X104.188 Y102.120 E6.93589
G1 X103.019 Y100.951 E7.01125
G1 X103.019 Y100.401 E7.03629
G1 X104.188 Y101.570 E7.11165
G1 X104.188 Y101.021 E7.13669
G1 X103.019 Y99.852 E7.21205
G1 X103.019 Y99.303 E7.23709
G1 X104.188 Y100.472 E7.31245
G1 X104.188 Y99.922 E7.33749
G1 X103.019 Y98.753 E7.41285
G1 X103.019 Y98.204 E7.43789
G1 X104.716 Y99.901 E7.54729
G1 X105.265 Y99.901 E7.57233
G1 X104.530 Y99.166 E7.61971
G1 X105.079 Y99.166 E7.64475
G1 X105.814 Y99.901 E7.69214
G1 X106.364 Y99.901 E7.71718
G1 X105.629 Y99.166 E7.76456
G1 X106.178 Y99.166 E7.78960
G1 X106.913 Y99.901 E7.83699
G1 X107.463 Y99.901 E7.86203
G1 X106.727 Y99.166 E7.90941
G1 X107.277 Y99.166 E7.93445
G1 X108.012 Y99.901 E7.98183
G1 X108.561 Y99.901 E8.00687
G1 X107.826 Y99.166 E8.05426
G1 X108.375 Y99.166 E8.07930
G1 X109.111 Y99.901 E8.12668
G1 X109.660 Y99.901 E8.15172
G1 X108.925 Y99.166 E8.19911
G1 X109.474 Y99.166 E8.22415
G1 X110.251 Y99.943 E8.27422
G1 X110.853 Y99.995 E8.30177
G1 X109.779 Y98.921 E8.37100
G1 X109.990 Y98.583 E8.38917
G1 X110.702 Y99.295 E8.43506
G1 X111.392 Y99.436 E8.46715
G1 X114.644 Y102.688 E8.67676
G1 X114.458 Y101.953 E8.71130
G1 X112.150 Y99.645 E8.86009
G1 X111.639 Y100.232 F7800.000
G1 X110.634 Y99.227 E8.92486 F540.000
G1 X110.920 Y98.964 E8.94258
G1 X110.202 Y98.245 E8.98891
G1 X110.413 Y97.907 E9.00708
G1 X111.138 Y98.633 E9.05385
G1 X111.356 Y98.302 E9.07193
G1 X110.624 Y97.569 E9.11914
G1 X110.835 Y97.231 E9.13731
G1 X111.574 Y97.970 E9.18496
G1 X111.793 Y97.639 E9.20304
G1 X111.047 Y96.893 E9.25112
G1 X111.258 Y96.555 E9.26929
G1 X112.011 Y97.308 E9.31782
G1 X112.229 Y96.976 E9.33590
G1 X111.469 Y96.217 E9.38486
G1 X111.680 Y95.879 E9.40303
G1 X112.447 Y96.645 E9.45243
G1 X112.665 Y96.314 E9.47051
G1 X111.892 Y95.541 E9.52035
G1 X112.103 Y95.203 E9.53852
G1 X112.883 Y95.983 E9.58880
G1 X113.101 Y95.651 E9.60688
G1 X112.314 Y94.864 E9.65760
G1 X112.525 Y94.526 E9.67577
G1 X113.319 Y95.320 E9.72693
G1 X113.537 Y94.989 E9.74500
G1 X112.737 Y94.188 E9.79660
G1 X112.948 Y93.850 E9.81477
G1 X113.755 Y94.657 E9.86680
G1 X113.973 Y94.326 E9.88488
G1 X113.159 Y93.512 E9.93735
G1 X113.370 Y93.174 E9.95552
G1 X114.191 Y93.995 E10.00844
G1 X114.409 Y93.664 E10.02651
G1 X113.582 Y92.836 E10.07986
G1 X114.098 Y92.803 E10.10345
G1 X114.627 Y93.332 E10.13757
G1 X114.647 Y92.803 E10.16171
G1 X114.845 Y93.001 E10.17448
G92 E0
G1 X103.639 Y93.352 F7800.000
G1 X103.639 Y93.352 F7800.000
G1 X103.660 Y92.803 F7800.000
G1 X104.188 Y93.330 E0.03399 F540.000
G1 X104.188 Y93.880 E0.05903
G1 X103.111 Y92.803 E0.12843
G1 X103.019 Y93.260 E0.14968
G1 X104.188 Y94.429 E0.22504
G1 X104.188 Y94.978 E0.25008
G1 X103.019 Y93.809 E0.32544
G1 X103.019 Y94.359 E0.35048
G1 X104.188 Y95.528 E0.42584
G1 X104.188 Y96.077 E0.45088
G1 X103.019 Y94.908 E0.52624
G1 X103.019 Y95.457 E0.55128
G1 X104.188 Y96.626 E0.62665
G1 X104.188 Y97.176 E0.65168
G1 X103.019 Y96.007 E0.72705
G1 X103.019 Y96.556 E0.75208
G1 X104.188 Y97.725 E0.82745
G1 X104.188 Y98.274 E0.85249
G1 X103.019 Y97.105 E0.92785
G1 X103.019 Y97.655 E0.95289
G1 X104.188 Y98.824 E1.02825
G1 X103.019 Y105.895 F7800.000
G1 X104.321 Y107.197 E1.11219 F540.000
G1 X103.772 Y107.197 E1.13723
G1 X103.019 Y106.444 E1.18576
G1 X103.019 Y106.993 E1.21080
G1 X103.222 Y107.197 E1.22393
G92 E0
G1 X104.639 Y98.715 F7800.000
G1 X104.639 Y91.352 F7800.000
G1 X99.481 Y93.439 F7800.000
G1 X99.481 Y94.044 F7800.000
G1 X96.394 Y94.044 F7800.000
G1 X95.571 Y93.819 F7800.000
G1 X86.121 Y93.819 E0.42760 F378.000
G1 X95.659 Y106.218 E1.13542
G1 X95.659 Y107.423 E1.18997
G1 X85.242 Y107.423 E1.66133
G1 X85.242 Y106.181 E1.71753
G1 X93.989 Y106.181 E2.11333
G1 X84.450 Y93.826 E2.81961
G1 X84.450 Y92.577 E2.87614
G1 X96.169 Y92.577 E3.40641
G1 X96.169 Y93.819 E3.46261
G1 X95.802 Y93.819 E3.47922 F378.000
G1 X95.943 Y93.007 F7800.000
G1 X95.740 Y92.803 E3.49251 F540.000
G1 X95.184 Y92.803 E3.51815
G1 X95.943 Y93.563 E3.56770
G1 X95.418 Y93.593 E3.59198
G1 X94.628 Y92.803 E3.64352
G1 X94.072 Y92.803 E3.66917
G1 X94.862 Y93.593 E3.72071
G1 X94.306 Y93.593 E3.74636
G1 X93.516 Y92.803 E3.79790
G1 X92.960 Y92.803 E3.82355
G1 X93.750 Y93.593 E3.87509
G1 X93.194 Y93.593 E3.90073
G1 X92.404 Y92.803 E3.95228
G1 X91.848 Y92.803 E3.97792
G1 X92.638 Y93.593 E4.02946
G1 X92.082 Y93.593 E4.05511
G1 X91.292 Y92.803 E4.10665
G1 X90.736 Y92.803 E4.13230
G1 X91.526 Y93.593 E4.18384
G1 X90.970 Y93.593 E4.20949
G1 X90.180 Y92.803 E4.26103
G1 X89.624 Y92.803 E4.28667
G1 X90.414 Y93.593 E4.33822
G1 X89.858 Y93.593 E4.36386
G1 X89.068 Y92.803 E4.41541
G1 X88.512 Y92.803 E4.44105
G1 X89.302 Y93.593 E4.49259
G1 X88.746 Y93.593 E4.51824
G1 X87.956 Y92.803 E4.56978
G1 X87.400 Y92.803 E4.59543
G1 X88.190 Y93.593 E4.64697
G1 X87.634 Y93.593 E4.67262
G1 X86.844 Y92.803 E4.72416
G1 X86.288 Y92.803 E4.74980
G1 X87.079 Y93.593 E4.80135
G1 X86.523 Y93.593 E4.82699
G1 X85.733 Y92.803 E4.87853
G1 X85.177 Y92.803 E4.90418
G1 X85.967 Y93.593 E4.95572
G1 X86.136 Y94.318 F7800.000
G1 X84.676 Y92.859 E5.05096 F540.000
G1 X84.676 Y93.415 E5.07661
G1 X87.990 Y96.728 E5.29278
G1 X87.681 Y97.531 F7800.000
G1 X91.697 Y101.547 E5.55479 F540.000
G1 X91.448 Y102.410 F7800.000
G1 X95.405 Y106.367 E5.81293 F540.000
G1 X95.433 Y106.951 E5.83992
G1 X93.331 Y104.849 E5.97706
G1 X93.551 Y103.957 F7800.000
G1 X89.564 Y99.971 E6.23713 F540.000
G1 X89.844 Y99.138 F7800.000
G1 X85.798 Y95.092 E6.50108 F540.000
G92 E0
G1 X85.994 Y106.407 F7800.000
G1 X86.784 Y107.197 E0.05154 F540.000
G1 X87.340 Y107.197 E0.07719
G1 X86.550 Y106.407 E0.12873
G1 X87.105 Y106.407 E0.15438
G1 X87.896 Y107.197 E0.20592
G1 X88.452 Y107.197 E0.23157
G1 X87.661 Y106.407 E0.28311
G1 X88.217 Y106.407 E0.30875
G1 X89.007 Y107.197 E0.36030
G1 X89.563 Y107.197 E0.38594
G1 X88.773 Y106.407 E0.43749
G1 X89.329 Y106.407 E0.46313
G1 X90.119 Y107.197 E0.51468
G1 X90.675 Y107.197 E0.54032
G1 X89.885 Y106.407 E0.59186
G1 X90.441 Y106.407 E0.61751
G1 X91.231 Y107.197 E0.66905
G1 X91.787 Y107.197 E0.69470
G1 X90.997 Y106.407 E0.74624
G1 X91.553 Y106.407 E0.77189
G1 X92.343 Y107.197 E0.82343
G1 X92.899 Y107.197 E0.84908
G1 X92.109 Y106.407 E0.90062
G1 X92.665 Y106.407 E0.92627
G1 X93.455 Y107.197 E0.97781
G1 X94.011 Y107.197 E1.00345
G1 X93.221 Y106.407 E1.05500
G1 X93.777 Y106.407 E1.08064
G1 X94.567 Y107.197 E1.13219
G1 X95.123 Y107.197 E1.15783
G1 X94.333 Y106.407 E1.20937
G1 X86.228 Y107.197 F7800.000
G1 X85.468 Y106.438 E1.25892 F540.000
G1 X85.468 Y106.993 E1.28457
G1 X85.672 Y107.197 E1.29785
M106 S255
G92 E0
G1 Z0.600 F7800.000
G1 X103.603 Y92.352 F7800.000
G1 X103.603 Y98.715 E1.90665 F600.000
G1 X104.454 Y103.021 E3.22178
G92 E0
G1 X103.639 Y106.648 F7800.000
G1 X103.639 Y106.648 F7800.000
G1 X109.434 Y98.681 F7800.000
G1 X110.737 Y99.535 E0.46678 F600.000
G1 X110.906 Y99.623 E0.52394
G1 X111.212 Y99.745 E0.62257
G1 X111.954 Y99.974 E0.85544
G1 X112.183 Y100.075 E0.93036
G1 X112.664 Y100.352 E1.09666
G1 X112.887 Y100.504 E1.17749
G1 X113.426 Y101.058 E1.40909
G1 X113.591 Y101.314 E1.50046
G1 X113.801 Y101.708 E1.63415
G1 X113.919 Y102.016 E1.73297
G1 X114.035 Y102.431 E1.86218
G1 X114.122 Y103.269 E2.11448
G1 X114.001 Y104.275 E2.41822
G1 X113.668 Y105.060 E2.67377
G1 X113.600 Y105.164 E2.71086
G1 X113.397 Y105.426 E2.81033
G1 X113.124 Y105.723 E2.93104
G1 X112.628 Y106.096 E3.11710
G1 X112.317 Y106.276 E3.22481
G1 X111.707 Y106.516 E3.42115
G1 X111.203 Y106.657 E3.57797
G1 X110.828 Y106.721 E3.69188
G1 X109.563 Y106.818 E4.07229
G1 X104.639 Y106.818 E5.54772
G1 X103.676 Y106.539 E5.84798
G1 X103.603 Y105.989 E6.01434
G1 X103.603 Y100.352 E7.70345
G1 X103.765 Y99.533 E7.95345
G1 X109.413 Y99.533 E9.64578
G1 X109.721 Y99.506 E9.73844
G1 X110.367 Y99.293 E9.94241
G1 X110.663 Y98.448 E10.21056
G1 X114.573 Y92.352 E12.38068
G92 E0
G1 X104.639 Y91.352 F7800.000
G1 X99.481 Y93.439 F7800.000
G1 X99.481 Y94.044 F7800.000
G1 X96.394 Y94.044 F7800.000
G1 X96.394 Y93.198 F7800.000
G1 X86.578 Y93.198 E2.94133 F600.000
G1 X85.478 Y93.556 E3.28802
G1 X85.874 Y94.586 E3.61865
G1 X94.225 Y105.421 E7.71765
G1 X94.617 Y106.453 E8.04874
G1 X93.531 Y106.802 E8.39055
G1 X85.017 Y106.802 E10.94174
G92 E0
G1 Z0.900 F7800.000
G1 X103.603 Y92.352 F7800.000
G1 X103.603 Y98.715 E1.90665 F600.000
G1 X104.454 Y103.021 E3.22178
G92 E0
G1 X103.639 Y106.648 F7800.000
G1 X103.639 Y106.648 F7800.000
G1 X109.434 Y98.681 F7800.000
G1 X110.737 Y99.535 E0.46678 F600.000
G1 X110.906 Y99.623 E0.52394
G1 X111.212 Y99.745 E0.62257
G1 X111.954 Y99.974 E0.85544
G1 X112.183 Y100.075 E0.93036
G1 X112.664 Y100.352 E1.09666
G1 X112.887 Y100.504 E1.17749
G1 X113.426 Y101.058 E1.40909
G1 X113.591 Y101.314 E1.50046
G1 X113.801 Y101.708 E1.63415
G1 X113.919 Y102.016 E1.73297
G1 X114.035 Y102.431 E1.86218
G1 X114.122 Y103.269 E2.11448
G1 X114.001 Y104.275 E2.41822
G1 X113.668 Y105.060 E2.67377
G1 X113.600 Y105.164 E2.71086
G1 X113.397 Y105.426 E2.81033
G1 X113.124 Y105.723 E2.93104
G1 X112.628 Y106.096 E3.11710
G1 X112.317 Y106.276 E3.22481
G1 X111.707 Y106.516 E3.42115
G1 X111.203 Y106.657 E3.57797
G1 X110.828 Y106.721 E3.69188
G1 X109.563 Y106.818 E4.07229
G1 X104.639 Y106.818 E5.54772
G1 X103.676 Y106.539 E5.84798
G1 X103.603 Y105.989 E6.01434
G1 X103.603 Y100.352 E7.70345
G1 X103.765 Y99.533 E7.95345
G1 X109.413 Y99.533 E9.64578
G1 X109.721 Y99.506 E9.73844
G1 X110.367 Y99.293 E9.94241
G1 X110.663 Y98.448 E10.21056
G1 X114.573 Y92.352 E12.38068
G92 E0
G1 X104.639 Y91.352 F7800.000
G1 X99.481 Y93.439 F7800.000
G1 X99.481 Y94.044 F7800.000
G1 X96.394 Y94.044 F7800.000
G1 X96.394 Y93.198 F7800.000
G1 X86.578 Y93.198 E2.94133 F600.000
G1 X85.478 Y93.556 E3.28802
G1 X85.874 Y94.586 E3.61865
G1 X94.225 Y105.421 E7.71765
G1 X94.617 Y106.453 E8.04874
G1 X93.531 Y106.802 E8.39055
G1 X85.017 Y106.802 E10.94174
G92 E0
G1 Z1.200 F7800.000
G1 X103.603 Y92.352 F7800.000
G1 X103.603 Y98.715 E1.90665 F600.000
G1 X104.454 Y103.021 E3.22178
G92 E0
G1 X103.639 Y106.648 F7800.000
G1 X103.639 Y106.648 F7800.000
G1 X109.434 Y98.681 F7800.000
G1 X110.737 Y99.535 E0.46678 F600.000
G1 X110.906 Y99.623 E0.52394
G1 X111.212 Y99.745 E0.62257
G1 X111.954 Y99.974 E0.85544
G1 X112.183 Y100.075 E0.93036
G1 X112.664 Y100.352 E1.09666
G1 X112.887 Y100.504 E1.17749
G1 X113.426 Y101.058 E1.40909
G1 X113.591 Y101.314 E1.50046
G1 X113.801 Y101.708 E1.63415
G1 X113.919 Y102.016 E1.73297
G1 X114.035 Y102.431 E1.86218
G1 X114.122 Y103.269 E2.11448
G1 X114.001 Y104.275 E2.41822
G1 X113.668 Y105.060 E2.67377
G1 X113.600 Y105.164 E2.71086
G1 X113.397 Y105.426 E2.81033
G1 X113.124 Y105.723 E2.93104
G1 X112.628 Y106.096 E3.11710
G1 X112.317 Y106.276 E3.22481
G1 X111.707 Y106.516 E3.42115
G1 X111.203 Y106.657 E3.57797
G1 X110.828 Y106.721 E3.69188
G1 X109.563 Y106.818 E4.07229
G1 X104.639 Y106.818 E5.54772
G1 X103.676 Y106.539 E5.84798
G1 X103.603 Y105.989 E6.01434
G1 X103.603 Y100.352 E7.70345
G1 X103.765 Y99.533 E7.95345
G1 X109.413 Y99.533 E9.64578
G1 X109.721 Y99.506 E9.73844
G1 X110.367 Y99.293 E9.94241
G1 X110.663 Y98.448 E10.21056
G1 X114.573 Y92.352 E12.38068
G92 E0
G1 X104.639 Y91.352 F7800.000
G1 X99.481 Y93.439 F7800.000
G1 X99.481 Y94.044 F7800.000
G1 X96.394 Y94.044 F7800.000
G1 X96.394 Y93.198 F7800.000
G1 X86.578 Y93.198 E2.94133 F600.000
G1 X85.478 Y93.556 E3.28802
G1 X85.874 Y94.586 E3.61865
G1 X94.225 Y105.421 E7.71765
G1 X94.617 Y106.453 E8.04874
G1 X93.531 Y106.802 E8.39055
G1 X85.017 Y106.802 E10.94174
G92 E0
G1 Z1.500 F7800.000
G1 X103.603 Y92.352 F7800.000
G1 X103.603 Y98.715 E1.90665 F600.000
G1 X104.454 Y103.021 E3.22178
G92 E0
G1 X103.639 Y106.648 F7800.000
G1 X103.639 Y106.648 F7800.000
G1 X109.434 Y98.681 F7800.000
G1 X110.737 Y99.535 E0.46678 F600.000
G1 X110.906 Y99.623 E0.52394
G1 X111.212 Y99.745 E0.62257
G1 X111.954 Y99.974 E0.85544
G1 X112.183 Y100.075 E0.93036
G1 X112.664 Y100.352 E1.09666
G1 X112.887 Y100.504 E1.17749
G1 X113.426 Y101.058 E1.40909
G1 X113.591 Y101.314 E1.50046
G1 X113.801 Y101.708 E1.63415
G1 X113.919 Y102.016 E1.73297
G1 X114.035 Y102.431 E1.86218
G1 X114.122 Y103.269 E2.11448
G1 X114.001 Y104.275 E2.41822
G1 X113.668 Y105.060 E2.67377
G1 X113.600 Y105.164 E2.71086
G1 X113.397 Y105.426 E2.81033
G1 X113.124 Y105.723 E2.93104
G1 X112.628 Y106.096 E3.11710
G1 X112.317 Y106.276 E3.22481
G1 X111.707 Y106.516 E3.42115
G1 X111.203 Y106.657 E3.57797
