; generated by Slic3r 1.2.9 on 2016-03-11 at 01:33:14

; external perimeters extrusion width = 1.54mm
; perimeters extrusion width = 2.62mm
; infill extrusion width = 6.27mm
; solid infill extrusion width = 2.62mm
; top infill extrusion width = 2.62mm

M107
M104 S30 ; set temperature
G28 ; home all axes
G1 Z5 F5000 ; lift nozzle
M302
M92 E10000
M500
M501
G1 E100
M109 S30 ; wait for temperature to be reached
G21 ; set units to millimeters
G90 ; use absolute coordinates
M82 ; use absolute distances for extrusion
G92 E0
G1 Z0.300 F7800.000
G1 X113.597 Y105.055 F7800.000
G1 X113.597 Y98.326 E0.30449 F378.000
G1 X113.466 Y96.965 E0.36636
G1 X113.063 Y95.815 E0.42152
G1 X112.385 Y94.896 E0.47319
G1 X111.463 Y94.234 E0.52454
G1 X110.337 Y93.840 E0.57855
G1 X109.013 Y93.711 E0.63873
G1 X107.728 Y93.836 E0.69713
G1 X106.645 Y94.218 E0.74909
G1 X105.774 Y94.861 E0.79811
G1 X105.142 Y95.753 E0.84753
G1 X104.768 Y96.867 E0.90073
G1 X104.647 Y98.186 E0.96064
G1 X104.647 Y107.519 E1.38297
G1 X103.026 Y107.519 E1.45632
G1 X103.026 Y98.030 E1.88567
G1 X103.109 Y96.914 E1.93634
G1 X103.357 Y95.920 E1.98269
G1 X103.767 Y95.037 E2.02674
G1 X104.324 Y94.275 E2.06946
G1 X105.015 Y93.644 E2.11181
G1 X105.843 Y93.142 E2.15563
G1 X106.795 Y92.776 E2.20177
G1 X107.855 Y92.555 E2.25077
G1 X109.025 Y92.481 E2.30379
G1 X110.148 Y92.553 E2.35473
G1 X111.339 Y92.788 E2.40966 F378.000
G1 X112.318 Y93.168 E2.45720
G1 X113.169 Y93.690 E2.50235
G1 X113.878 Y94.345 E2.54602
G1 X114.450 Y95.134 E2.59011
G1 X114.869 Y96.047 E2.63558
G1 X115.122 Y97.074 E2.68342
G1 X115.208 Y98.225 E2.73568
G1 X115.208 Y107.519 E3.15621
G1 X113.597 Y107.519 E3.22910
G1 X113.597 Y105.286 E3.33012
G1 X113.823 Y106.753 F7800.000
G1 X114.363 Y107.293 E3.36471 F540.000
G1 X114.909 Y107.293 E3.38939
G1 X113.823 Y106.207 E3.45889
G1 X113.823 Y105.662 E3.48357
G1 X114.982 Y106.821 E3.55774
G1 X114.982 Y106.275 E3.58242
G1 X113.823 Y105.116 E3.65659
G1 X113.823 Y104.571 E3.68128
G1 X114.982 Y105.730 E3.75545
G1 X114.982 Y105.185 E3.78013
G1 X113.823 Y104.026 E3.85430
G1 X113.823 Y103.480 E3.87898
G1 X114.982 Y104.639 E3.95316
G1 X114.982 Y104.094 E3.97784
G1 X113.823 Y102.935 E4.05201
G1 X113.823 Y102.389 E4.07669
G1 X114.982 Y103.548 E4.15087
G1 X114.982 Y103.003 E4.17555
G1 X113.823 Y101.844 E4.24972
G1 X113.823 Y101.299 E4.27440
G1 X114.982 Y102.458 E4.34858
G1 X114.982 Y101.912 E4.37326
G1 X113.823 Y100.753 E4.44743
G1 X113.823 Y100.208 E4.47211
G1 X114.982 Y101.367 E4.54628
G1 X114.982 Y100.821 E4.57097
G1 X113.823 Y99.662 E4.64514
G1 X113.823 Y99.117 E4.66982
G1 X114.982 Y100.276 E4.74399
G1 X114.982 Y99.731 E4.76868
G1 X113.823 Y98.572 E4.84285
G1 X113.801 Y98.005 E4.86853
G1 X114.982 Y99.185 E4.94409
G1 X114.982 Y98.640 E4.96877
G1 X113.743 Y97.401 E5.04806
G1 X113.677 Y96.790 E5.07588
G1 X114.964 Y98.076 E5.15822
G1 X114.920 Y97.487 E5.18496
G1 X113.384 Y95.951 E5.28328
G1 X113.803 Y94.734 F7800.000
G1 X113.198 Y94.129 E5.32200 F540.000
G1 X111.752 Y93.229 F7800.000
G1 X114.578 Y96.055 E5.50284 F540.000
G1 X114.806 Y96.828 E5.53934
G1 X110.935 Y92.956 E5.78713
G1 X110.255 Y92.822 E5.81850
G1 X111.356 Y93.923 E5.88900
G1 X110.518 Y93.631 F7800.000
G1 X109.639 Y92.752 E5.94524 F540.000
G1 X109.057 Y92.715 E5.97164
G1 X109.905 Y93.563 E6.02587
G1 X109.300 Y93.504 E6.05336
G1 X108.531 Y92.734 E6.10260
G1 X108.018 Y92.767 E6.12586
G1 X108.767 Y93.515 E6.17379
G1 X108.270 Y93.564 E6.19638
G1 X107.542 Y92.836 E6.24296
G1 X107.090 Y92.930 E6.26383
G1 X107.773 Y93.612 E6.30749
G1 X107.364 Y93.749 E6.32699
G1 X106.660 Y93.045 E6.37207
G1 X106.266 Y93.196 E6.39117
G1 X106.961 Y93.891 E6.43564
G1 X106.563 Y94.038 E6.45485
G1 X105.875 Y93.351 E6.49884
G1 X105.536 Y93.557 E6.51681
G1 X106.249 Y94.270 E6.56246
G1 X105.935 Y94.502 E6.58011
G1 X105.196 Y93.763 E6.62742
G1 X104.899 Y94.011 E6.64494
G1 X105.625 Y94.737 E6.69142
G1 X105.399 Y95.056 E6.70913
G1 X104.622 Y94.279 E6.75886
G1 X104.356 Y94.559 E6.77631
G1 X105.172 Y95.375 E6.82856
G1 X104.946 Y95.695 E6.84627
G1 X104.126 Y94.874 E6.89880
G1 X103.909 Y95.203 E6.91662
G1 X104.809 Y96.103 E6.97424
G1 X104.672 Y96.511 E6.99373
G1 X103.736 Y95.575 E7.05365
G1 X103.564 Y95.949 E7.07226
G1 X104.543 Y96.928 E7.13490
G1 X104.497 Y97.427 E7.15759
G1 X103.456 Y96.386 E7.22424
G1 X103.347 Y96.822 E7.24461
G1 X104.451 Y97.926 E7.31526
G1 X104.421 Y98.441 E7.33861
G1 X103.300 Y97.320 E7.41037
G1 X103.262 Y97.828 E7.43340
G1 X104.421 Y98.987 E7.50759
G1 X104.421 Y99.532 E7.53227
G1 X103.252 Y98.363 E7.60709
G1 X103.252 Y98.908 E7.63177
G1 X104.421 Y100.078 E7.70660
G1 X104.421 Y100.623 E7.73128
G1 X103.252 Y99.454 E7.80611
G1 X103.252 Y99.999 E7.83079
G1 X104.421 Y101.168 E7.90562
G1 X104.421 Y101.714 E7.93030
G1 X103.252 Y100.545 E8.00512
G1 X103.252 Y101.090 E8.02980
G1 X104.421 Y102.259 E8.10463
G1 X104.421 Y102.805 E8.12931
G1 X103.252 Y101.635 E8.20414
G1 X103.252 Y102.181 E8.22882
G1 X104.421 Y103.350 E8.30364
G1 X104.421 Y103.895 E8.32833
G1 X103.252 Y102.726 E8.40315
G1 X103.252 Y103.272 E8.42783
G1 X104.421 Y104.441 E8.50266
G1 X104.421 Y104.986 E8.52734
G1 X103.252 Y103.817 E8.60217
G1 X103.252 Y104.362 E8.62685
G1 X104.421 Y105.532 E8.70167
G1 X104.421 Y106.077 E8.72635
G1 X103.252 Y104.908 E8.80118
G1 X103.252 Y105.453 E8.82586
G1 X104.421 Y106.622 E8.90069
G1 X104.421 Y107.168 E8.92537
G1 X103.252 Y105.999 E9.00019
G1 X103.252 Y106.544 E9.02488
G1 X104.001 Y107.293 E9.07281
G1 X103.455 Y107.293 E9.09749
G1 X103.252 Y107.089 E9.11052
G92 E0
G1 X102.801 Y107.744 F7800.000
G1 X100.801 Y107.744 F7800.000
G1 X99.514 Y106.237 F7800.000
G1 X96.226 Y106.237 F7800.000
G1 X94.197 Y103.968 F7800.000
G1 X96.001 Y106.314 E0.13391 F378.000
G1 X96.001 Y107.519 E0.18846
G1 X85.584 Y107.519 E0.65982
G1 X85.584 Y106.277 E0.71602
G1 X94.331 Y106.277 E1.11181
G1 X84.792 Y93.922 E1.81810
G1 X84.792 Y92.673 E1.87463
G1 X96.511 Y92.673 E2.40490
G1 X96.511 Y93.915 E2.46110
G1 X86.463 Y93.915 E2.91576 F378.000
G1 X94.056 Y103.785 E3.47922
G1 X93.893 Y104.053 F7800.000
G1 X89.906 Y100.067 E3.73930 F540.000
G1 X90.186 Y99.234 F7800.000
G1 X86.140 Y95.188 E4.00324 F540.000
G1 X86.478 Y94.414 F7800.000
G1 X85.018 Y92.955 E4.09849 F540.000
G1 X85.018 Y93.511 E4.12413
G1 X88.332 Y96.824 E4.34030
G1 X88.023 Y97.627 F7800.000
G1 X92.039 Y101.643 E4.60231 F540.000
G1 X91.790 Y102.506 F7800.000
G1 X95.747 Y106.463 E4.86045 F540.000
G1 X95.775 Y107.047 E4.88745
G1 X93.673 Y104.945 E5.02458
G1 X94.675 Y106.503 F7800.000
G1 X95.465 Y107.293 E5.07612 F540.000
G1 X94.909 Y107.293 E5.10177
G1 X94.119 Y106.503 E5.15331
G1 X93.563 Y106.503 E5.17896
G1 X94.353 Y107.293 E5.23050
G1 X93.797 Y107.293 E5.25615
G1 X93.007 Y106.503 E5.30769
G1 X92.451 Y106.503 E5.33334
G1 X93.241 Y107.293 E5.38488
G1 X92.685 Y107.293 E5.41052
G1 X91.895 Y106.503 E5.46207
G1 X91.339 Y106.503 E5.48771
G1 X92.129 Y107.293 E5.53926
G1 X91.573 Y107.293 E5.56490
G1 X90.783 Y106.503 E5.61644
G1 X90.227 Y106.503 E5.64209
G1 X91.017 Y107.293 E5.69363
G1 X90.461 Y107.293 E5.71928
G1 X89.671 Y106.503 E5.77082
G1 X89.115 Y106.503 E5.79647
G1 X89.906 Y107.293 E5.84801
G1 X89.350 Y107.293 E5.87366
G1 X88.559 Y106.503 E5.92520
G1 X88.004 Y106.503 E5.95085
G1 X88.794 Y107.293 E6.00239
G1 X88.238 Y107.293 E6.02803
G1 X87.448 Y106.503 E6.07958
G1 X86.892 Y106.503 E6.10522
G1 X87.682 Y107.293 E6.15677
G1 X87.126 Y107.293 E6.18241
G1 X86.336 Y106.503 E6.23395
G1 X86.570 Y107.293 F7800.000
G1 X85.810 Y106.534 E6.28350 F540.000
G1 X85.810 Y107.089 E6.30915
G1 X86.014 Y107.293 E6.32243
G92 E0
G1 X86.309 Y93.689 F7800.000
G1 X85.519 Y92.899 E0.05154 F540.000
G1 X86.075 Y92.899 E0.07719
G1 X86.865 Y93.689 E0.12873
G1 X87.421 Y93.689 E0.15438
G1 X86.631 Y92.899 E0.20592
G1 X87.186 Y92.899 E0.23156
G1 X87.977 Y93.689 E0.28311
G1 X88.533 Y93.689 E0.30875
G1 X87.742 Y92.899 E0.36029
G1 X88.298 Y92.899 E0.38594
G1 X89.088 Y93.689 E0.43748
G1 X89.644 Y93.689 E0.46313
G1 X88.854 Y92.899 E0.51467
G1 X89.410 Y92.899 E0.54032
G1 X90.200 Y93.689 E0.59186
G1 X90.756 Y93.689 E0.61750
G1 X89.966 Y92.899 E0.66905
G1 X90.522 Y92.899 E0.69469
G1 X91.312 Y93.689 E0.74624
G1 X91.868 Y93.689 E0.77188
G1 X91.078 Y92.899 E0.82342
G1 X91.634 Y92.899 E0.84907
G1 X92.424 Y93.689 E0.90061
G1 X92.980 Y93.689 E0.92626
G1 X92.190 Y92.899 E0.97780
G1 X92.746 Y92.899 E1.00345
G1 X93.536 Y93.689 E1.05499
G1 X94.092 Y93.689 E1.08063
G1 X93.302 Y92.899 E1.13218
G1 X93.858 Y92.899 E1.15782
G1 X94.648 Y93.689 E1.20936
G1 X95.204 Y93.689 E1.23501
G1 X94.414 Y92.899 E1.28655
G1 X94.970 Y92.899 E1.31220
G1 X95.760 Y93.689 E1.36374
G1 X96.285 Y93.659 E1.38802
G1 X95.526 Y92.899 E1.43757
G1 X96.082 Y92.899 E1.46322
G1 X96.285 Y93.103 E1.47650
M106 S255
G92 E0
G1 Z0.600 F7800.000
G1 X114.402 Y107.744 F7800.000
G1 X114.401 Y98.255 E2.84327 F600.000
G1 X114.311 Y97.203 E3.15975
G1 X114.206 Y96.677 E3.32027
G1 X114.099 Y96.316 E3.43319
G1 X113.779 Y95.526 E3.68878
G1 X113.304 Y94.854 E3.93514
G1 X112.984 Y94.497 E4.07880
G1 X112.773 Y94.296 E4.16632
G1 X112.013 Y93.785 E4.44066
G1 X111.647 Y93.607 E4.56244
G1 X111.149 Y93.424 E4.72146
G1 X110.567 Y93.262 E4.90262
G1 X110.155 Y93.187 E5.02803
G1 X109.025 Y93.097 E5.36783
G1 X107.940 Y93.182 E5.69390
G1 X107.497 Y93.262 E5.82879
G1 X106.980 Y93.406 E5.98948
G1 X106.462 Y93.597 E6.15492
G1 X106.142 Y93.750 E6.26142
G1 X105.382 Y94.270 E6.53725
G1 X105.168 Y94.476 E6.62628
G1 X104.894 Y94.786 E6.75028
G1 X104.438 Y95.433 E6.98748
G1 X104.132 Y96.193 E7.23306
G1 X104.017 Y96.587 E7.35604
G1 X103.925 Y97.045 E7.49584
G1 X103.838 Y98.101 E7.81327
G1 X103.836 Y107.744 E10.70287
G92 E0
G1 X102.801 Y98.022 F7800.000
G1 X102.801 Y98.022 F7800.000
G1 X98.722 Y97.716 F7800.000
G1 X99.321 Y96.611 F7800.000
G1 X99.569 Y96.053 F7800.000
G1 X99.926 Y95.044 F7800.000
G1 X100.090 Y94.427 F7800.000
G1 X100.160 Y94.140 F7800.000
G1 X96.736 Y94.140 F7800.000
G1 X96.736 Y93.294 F7800.000
G1 X86.920 Y93.294 E2.94133 F600.000
G1 X85.820 Y93.652 E3.28802
G1 X86.216 Y94.682 E3.61865
G1 X94.567 Y105.517 E7.71765
G1 X94.959 Y106.549 E8.04874
G1 X93.873 Y106.898 E8.39055
G1 X85.359 Y106.898 E10.94174
G92 E0
G1 Z0.900 F7800.000
G1 X114.402 Y107.744 F7800.000
G1 X114.401 Y98.255 E2.84327 F600.000
G1 X114.311 Y97.203 E3.15975
G1 X114.206 Y96.677 E3.32027
G1 X114.099 Y96.316 E3.43319
G1 X113.779 Y95.526 E3.68878
G1 X113.304 Y94.854 E3.93514
G1 X112.984 Y94.497 E4.07880
G1 X112.773 Y94.296 E4.16632
G1 X112.013 Y93.785 E4.44066
G1 X111.647 Y93.607 E4.56244
G1 X111.149 Y93.424 E4.72146
G1 X110.567 Y93.262 E4.90262
G1 X110.155 Y93.187 E5.02803
G1 X109.025 Y93.097 E5.36783
G1 X107.940 Y93.182 E5.69390
G1 X107.497 Y93.262 E5.82879
G1 X106.980 Y93.406 E5.98948
G1 X106.462 Y93.597 E6.15492
G1 X106.142 Y93.750 E6.26142
G1 X105.382 Y94.270 E6.53725
G1 X105.168 Y94.476 E6.62628
G1 X104.894 Y94.786 E6.75028
G1 X104.438 Y95.433 E6.98748
G1 X104.132 Y96.193 E7.23306
G1 X104.017 Y96.587 E7.35604
G1 X103.925 Y97.045 E7.49584
G1 X103.838 Y98.101 E7.81327
G1 X103.836 Y107.744 E10.70287
G92 E0
G1 X102.801 Y98.022 F7800.000
G1 X102.801 Y98.022 F7800.000
G1 X98.722 Y97.716 F7800.000
G1 X99.321 Y96.611 F7800.000
G1 X99.569 Y96.053 F7800.000
G1 X99.926 Y95.044 F7800.000
G1 X100.090 Y94.427 F7800.000
G1 X100.160 Y94.140 F7800.000
G1 X96.736 Y94.140 F7800.000
G1 X96.736 Y93.294 F7800.000
G1 X86.920 Y93.294 E2.94133 F600.000
G1 X85.820 Y93.652 E3.28802
G1 X86.216 Y94.682 E3.61865
G1 X94.567 Y105.517 E7.71765
G1 X94.959 Y106.549 E8.04874
G1 X93.873 Y106.898 E8.39055
G1 X85.359 Y106.898 E10.94174
G92 E0
G1 Z1.200 F7800.000
G1 X114.402 Y107.744 F7800.000
G1 X114.401 Y98.255 E2.84327 F600.000
G1 X114.311 Y97.203 E3.15975
G1 X114.206 Y96.677 E3.32027
G1 X114.099 Y96.316 E3.43319
G1 X113.779 Y95.526 E3.68878
G1 X113.304 Y94.854 E3.93514
G1 X112.984 Y94.497 E4.07880
G1 X112.773 Y94.296 E4.16632
G1 X112.013 Y93.785 E4.44066
G1 X111.647 Y93.607 E4.56244
G1 X111.149 Y93.424 E4.72146
G1 X110.567 Y93.262 E4.90262
G1 X110.155 Y93.187 E5.02803
G1 X109.025 Y93.097 E5.36783
G1 X107.940 Y93.182 E5.69390
G1 X107.497 Y93.262 E5.82879
G1 X106.980 Y93.406 E5.98948
G1 X106.462 Y93.597 E6.15492
G1 X106.142 Y93.750 E6.26142
G1 X105.382 Y94.270 E6.53725
G1 X105.168 Y94.476 E6.62628
G1 X104.894 Y94.786 E6.75028
G1 X104.438 Y95.433 E6.98748
G1 X104.132 Y96.193 E7.23306
G1 X104.017 Y96.587 E7.35604
G1 X103.925 Y97.045 E7.49584
G1 X103.838 Y98.101 E7.81327
G1 X103.836 Y107.744 E10.70287
G92 E0
G1 X102.801 Y98.022 F7800.000
G1 X102.801 Y98.022 F7800.000
G1 X98.722 Y97.716 F7800.000
G1 X99.321 Y96.611 F7800.000
G1 X99.569 Y96.053 F7800.000
G1 X99.926 Y95.044 F7800.000
G1 X100.090 Y94.427 F7800.000
G1 X100.160 Y94.140 F7800.000
G1 X96.736 Y94.140 F7800.000
G1 X96.736 Y93.294 F7800.000
G1 X86.920 Y93.294 E2.94133 F600.000
G1 X85.820 Y93.652 E3.28802
G1 X86.216 Y94.682 E3.61865
G1 X94.567 Y105.517 E7.71765
G1 X94.959 Y106.549 E8.04874
G1 X93.873 Y106.898 E8.39055
G1 X85.359 Y106.898 E10.94174
G92 E0
G1 Z1.500 F7800.000
G1 X114.402 Y107.744 F7800.000
G1 X114.401 Y98.255 E2.84327 F600.000
G1 X114.311 Y97.203 E3.15975
G1 X114.206 Y96.677 E3.32027
G1 X114.099 Y96.316 E3.43319
G1 X113.779 Y95.526 E3.68878
G1 X113.304 Y94.854 E3.93514
G1 X112.984 Y94.497 E4.07880
G1 X112.773 Y94.296 E4.16632
G1 X112.013 Y93.785 E4.44066
G1 X111.647 Y93.607 E4.56244
G1 X111.149 Y93.424 E4.72146
G1 X110.567 Y93.262 E4.90262
G1 X110.155 Y93.187 E5.02803
G1 X109.025 Y93.097 E5.36782
G1 X107.940 Y93.182 E5.69390
G1 X107.497 Y93.262 E5.82879
G1 X106.980 Y93.406 E5.98948
G1 X106.462 Y93.597 E6.15492
G1 X106.142 Y93.750 E6.26142
G1 X105.382 Y94.270 E6.53725
G1 X105.168 Y94.476 E6.62628
G1 X104.894 Y94.786 E6.75028
G1 X104.438 Y95.433 E6.98748
G1 X104.132 Y96.193 E7.23306
G1 X104.017 Y96.587 E7.35604
G1 X103.925 Y97.045 E7.49584
G1 X103.838 Y98.101 E7.81327
G1 X103.836 Y107.744 E10.70287
G92 E0
G1 X102.801 Y98.022 F7800.000
G1 X102.801 Y98.022 F7800.000
G1 X98.722 Y97.716 F7800.000
G1 X99.321 Y96.611 F7800.000
G1 X99.569 Y96.053 F7800.000
G1 X99.926 Y95.044 F7800.000
G1 X100.090 Y94.427 F7800.000
G1 X100.160 Y94.140 F7800.000
G1 X96.736 Y94.140 F7800.000
G1 X96.736 Y93.294 F7800.000
G1 X86.920 Y93.294 E2.94133 F600.000
G1 X85.820 Y93.652 E3.28802
G1 X86.216 Y94.682 E3.61865
G1 X94.567 Y105.517 E7.71765
G1 X94.959 Y106.549 E8.04874
G1 X93.873 Y106.898 E8.39055
G1 X85.359 Y106.898 E10.94174
G92 E0
G1 Z1.800 F7800.000
G1 X114.402 Y107.744 F7800.000
G1 X114.401 Y98.255 E2.84327 F600.000
G1 X114.311 Y97.203 E3.15975
G1 X114.206 Y96.677 E3.32027
G1 X114.099 Y96.316 E3.43319
G1 X113.779 Y95.526 E3.68878
G1 X113.304 Y94.854 E3.93514
G1 X112.984 Y94.497 E4.07880
G1 X112.773 Y94.296 E4.16632
G1 X112.013 Y93.785 E4.44066
G1 X111.647 Y93.607 E4.56244
G1 X111.149 Y93.424 E4.72146
G1 X110.567 Y93.262 E4.90262
G1 X110.155 Y93.187 E5.02803
G1 X109.025 Y93.097 E5.36782
G1 X107.940 Y93.182 E5.69390
G1 X107.497 Y93.262 E5.82880
G1 X106.980 Y93.406 E5.98948
G1 X106.462 Y93.597 E6.15492
G1 X106.142 Y93.750 E6.26142
G1 X105.382 Y94.270 E6.53725
G1 X105.168 Y94.476 E6.62628
G1 X104.894 Y94.786 E6.75027
G1 X104.438 Y95.433 E6.98748
G1 X104.132 Y96.193 E7.23306
G1 X104.017 Y96.587 E7.35604
G1 X103.925 Y97.045 E7.49584
G1 X103.838 Y98.101 E7.81327
G1 X103.836 Y107.744 E10.70287
G92 E0
G1 X102.801 Y98.022 F7800.000
G1 X102.801 Y98.022 F7800.000
G1 X98.722 Y97.716 F7800.000
G1 X99.321 Y96.611 F7800.000
G1 X99.569 Y96.053 F7800.000
G1 X99.926 Y95.044 F7800.000
G1 X100.090 Y94.427 F7800.000
G1 X100.160 Y94.140 F7800.000
G1 X96.736 Y94.140 F7800.000
G1 X96.736 Y93.294 F7800.000
G1 X86.920 Y93.294 E2.94133 F600.000
G1 X85.820 Y93.652 E3.28802
G1 X86.216 Y94.682 E3.61865
G1 X94.567 Y105.517 E7.71765
G1 X94.959 Y106.549 E8.04874
G1 X93.873 Y106.898 E8.39055
G1 X85.359 Y106.898 E10.94174
G92 E0
G1 Z2.100 F7800.000
G1 X114.402 Y107.744 F7800.000
G1 X114.401 Y98.255 E2.84327 F600.000
G1 X114.311 Y97.203 E3.15975
G1 X114.206 Y96.677 E3.32027
G1 X114.099 Y96.316 E3.43319
G1 X113.779 Y95.526 E3.68878
G1 X113.304 Y94.854 E3.93514
G1 X112.984 Y94.497 E4.07880
G1 X112.773 Y94.296 E4.16632
G1 X112.013 Y93.785 E4.44066
G1 X111.647 Y93.607 E4.56244
G1 X111.149 Y93.424 E4.72146
G1 X110.567 Y93.262 E4.90262
G1 X110.155 Y93.187 E5.02803
