; generated by Slic3r 1.2.9 on 2016-03-11 at 01:33:15

; external perimeters extrusion width = 1.54mm
; perimeters extrusion width = 2.62mm
; infill extrusion width = 6.27mm
; solid infill extrusion width = 2.62mm
; top infill extrusion width = 2.62mm

M107
M104 S30 ; set temperature
G28 ; home all axes
G1 Z5 F5000 ; lift nozzle
M302
M92 E10000
M500
M501
G1 E100
M109 S30 ; wait for temperature to be reached
G21 ; set units to millimeters
G90 ; use absolute coordinates
M82 ; use absolute distances for extrusion
G92 E0
G1 Z0.300 F7800.000
G1 X113.009 Y105.966 F7800.000
G1 X109.438 Y96.800 E0.44512 F378.000
G1 X108.516 Y94.056 E0.57613
G1 X108.121 Y94.056 E0.59401
G1 X107.198 Y96.800 E0.72503
G1 X103.038 Y107.423 E1.24125
G1 X101.347 Y107.423 E1.31777
G1 X107.386 Y92.577 E2.04299
G1 X109.230 Y92.577 E2.12644
G1 X114.927 Y106.586 E2.81074
G1 X115.268 Y107.423 E2.85164 F378.000
G1 X113.576 Y107.423 E2.92820
G1 X113.092 Y106.182 E2.98848
G1 X113.278 Y105.939 F7800.000
G1 X114.536 Y107.197 E3.06933 F540.000
G1 X114.761 Y106.874 E3.08722
G1 X112.929 Y105.042 E3.20500
G1 X112.579 Y104.144 F7800.000
G1 X114.385 Y105.951 E3.32111 F540.000
G1 X114.010 Y105.027 F7800.000
G1 X112.229 Y103.247 E3.43555 F540.000
G1 X111.880 Y102.350 F7800.000
G1 X113.634 Y104.104 E3.54833 F540.000
G1 X113.259 Y103.180 F7800.000
G1 X111.530 Y101.452 E3.65944 F540.000
G1 X111.181 Y100.555 F7800.000
G1 X112.883 Y102.257 E3.76888 F540.000
G1 X112.508 Y101.334 F7800.000
G1 X110.831 Y99.657 E3.87665 F540.000
G1 X111.756 Y99.487 F7800.000
G1 X110.132 Y97.862 E3.98109 F540.000
G1 X111.005 Y97.640 F7800.000
G1 X109.477 Y96.111 E4.07935 F540.000
G1 X110.254 Y95.793 F7800.000
G1 X108.923 Y94.462 E4.16495 F540.000
G1 X109.503 Y93.946 F7800.000
G1 X108.360 Y92.803 E4.23846 F540.000
G1 X108.907 Y92.803 E4.26336
G1 X109.127 Y93.023 E4.27750
G1 X108.291 Y93.830 F7800.000
G1 X107.439 Y92.979 E4.33222 F540.000
G1 X107.812 Y92.803 E4.35093
G1 X109.879 Y94.870 E4.48380
G1 X109.200 Y95.287 F7800.000
G1 X110.630 Y96.717 E4.57573 F540.000
G1 X109.782 Y96.965 F7800.000
G1 X111.381 Y98.563 E4.67850 F540.000
G1 X110.481 Y98.760 F7800.000
G1 X112.132 Y100.410 E4.78460 F540.000
G1 X113.628 Y106.837 F7800.000
G1 X113.988 Y107.197 E4.80776 F540.000
G92 E0
G1 X102.776 Y105.967 F7800.000
G1 X102.776 Y105.967 F7800.000
G1 X102.506 Y106.643 F7800.000
G1 X102.499 Y106.648 F7800.000
G1 X101.936 Y107.197 F7800.000
G1 X101.737 Y106.998 E0.01279 F540.000
G1 X101.895 Y106.609 E0.03190
G1 X102.483 Y107.197 E0.06972
G1 X102.944 Y107.110 E0.09102
G1 X102.054 Y106.219 E0.14825
G1 X102.212 Y105.830 E0.16737
G1 X103.098 Y106.716 E0.22433
G1 X103.252 Y106.322 E0.24354
G1 X102.370 Y105.440 E0.30023
G1 X102.529 Y105.051 E0.31934
G1 X103.406 Y105.928 E0.37575
G1 X103.560 Y105.535 E0.39497
G1 X102.687 Y104.662 E0.45111
G1 X102.846 Y104.272 E0.47022
G1 X103.715 Y105.141 E0.52609
G1 X103.869 Y104.747 E0.54531
G1 X103.004 Y103.883 E0.60090
G1 X103.162 Y103.493 E0.62002
G1 X104.023 Y104.354 E0.67534
G1 X104.177 Y103.960 E0.69456
G1 X103.321 Y103.104 E0.74960
G1 X103.479 Y102.714 E0.76871
G1 X104.331 Y103.566 E0.82349
G1 X104.485 Y103.173 E0.84271
G1 X103.638 Y102.325 E0.89721
G1 X103.796 Y101.935 E0.91632
G1 X104.640 Y102.779 E0.97055
G1 X104.794 Y102.385 E0.98977
G1 X103.954 Y101.546 E1.04373
G1 X104.113 Y101.157 E1.06284
G1 X104.948 Y101.992 E1.11652
G1 X105.102 Y101.598 E1.13574
G1 X104.271 Y100.767 E1.18915
G1 X104.430 Y100.378 E1.20826
G1 X105.256 Y101.204 E1.26140
G1 X105.410 Y100.811 E1.28062
G1 X104.588 Y99.988 E1.33348
G1 X104.746 Y99.599 E1.35259
G1 X105.565 Y100.417 E1.40518
G1 X105.719 Y100.023 E1.42440
G1 X104.905 Y99.209 E1.47672
G1 X105.063 Y98.820 E1.49583
G1 X105.873 Y99.630 E1.54788
G1 X106.027 Y99.236 E1.56709
G1 X105.222 Y98.431 E1.61887
G1 X105.380 Y98.041 E1.63798
G1 X106.181 Y98.842 E1.68948
G1 X106.335 Y98.449 E1.70870
G1 X105.539 Y97.652 E1.75992
G1 X105.697 Y97.262 E1.77903
G1 X106.490 Y98.055 E1.82999
G1 X106.644 Y97.661 E1.84920
G1 X105.855 Y96.873 E1.89988
G1 X106.014 Y96.483 E1.91900
G1 X106.798 Y97.268 E1.96940
G1 X106.952 Y96.874 E1.98862
G1 X106.172 Y96.094 E2.03876
G1 X106.331 Y95.705 E2.05787
G1 X107.094 Y96.468 E2.10694
G1 X107.232 Y96.058 E2.12660
G1 X106.489 Y95.315 E2.17435
G1 X106.647 Y94.926 E2.19347
G1 X107.370 Y95.648 E2.23990
G1 X107.508 Y95.238 E2.25956
G1 X106.806 Y94.536 E2.30467
G1 X106.964 Y94.147 E2.32379
G1 X107.645 Y94.828 E2.36758
G1 X107.783 Y94.418 E2.38724
G1 X107.123 Y93.757 E2.42972
G1 X107.281 Y93.368 E2.44883
G1 X107.921 Y94.008 E2.48998
G92 E0
G1 X107.234 Y92.352 F7800.000
G1 X101.124 Y95.010 F7800.000
G1 X96.567 Y98.877 F7800.000
G1 X86.751 Y94.044 F7800.000
G1 X86.151 Y95.806 F7800.000
G1 X84.623 Y93.826 E0.11315 F378.000
G1 X84.623 Y92.577 E0.16968
G1 X96.342 Y92.577 E0.69996
G1 X96.342 Y93.819 E0.75615
G1 X86.294 Y93.819 E1.21082 F378.000
G1 X95.832 Y106.218 E1.91864
G1 X95.832 Y107.423 E1.97319
G1 X85.415 Y107.423 E2.44455
G1 X85.415 Y106.181 E2.50075
G1 X94.162 Y106.181 E2.89655
G1 X86.292 Y95.988 E3.47922
G1 X85.970 Y95.092 F7800.000
G1 X90.016 Y99.138 E3.74317 F540.000
G1 X89.737 Y99.971 F7800.000
G1 X93.723 Y103.957 E4.00324 F540.000
G1 X93.504 Y104.849 F7800.000
G1 X95.606 Y106.951 E4.14038 F540.000
G1 X95.577 Y106.367 E4.16738
G1 X91.620 Y102.410 E4.42551
G1 X91.870 Y101.547 F7800.000
G1 X87.853 Y97.531 E4.68752 F540.000
G1 X88.162 Y96.728 F7800.000
G1 X84.849 Y93.415 E4.90369 F540.000
G1 X84.849 Y92.859 E4.92934
G1 X86.309 Y94.318 E5.02458
G1 X86.139 Y93.593 F7800.000
G1 X85.349 Y92.803 E5.07612 F540.000
G1 X85.905 Y92.803 E5.10177
G1 X86.695 Y93.593 E5.15331
G1 X87.251 Y93.593 E5.17896
G1 X86.461 Y92.803 E5.23050
G1 X87.017 Y92.803 E5.25614
G1 X87.807 Y93.593 E5.30769
G1 X88.363 Y93.593 E5.33333
G1 X87.573 Y92.803 E5.38487
G1 X88.129 Y92.803 E5.41052
G1 X88.919 Y93.593 E5.46206
G1 X89.475 Y93.593 E5.48771
G1 X88.685 Y92.803 E5.53925
G1 X89.241 Y92.803 E5.56490
G1 X90.031 Y93.593 E5.61644
G1 X90.587 Y93.593 E5.64208
G1 X89.797 Y92.803 E5.69363
G1 X90.353 Y92.803 E5.71927
G1 X91.143 Y93.593 E5.77081
G1 X91.699 Y93.593 E5.79646
G1 X90.909 Y92.803 E5.84800
G1 X91.465 Y92.803 E5.87365
G1 X92.255 Y93.593 E5.92519
G1 X92.811 Y93.593 E5.95084
G1 X92.021 Y92.803 E6.00238
G1 X92.576 Y92.803 E6.02802
G1 X93.367 Y93.593 E6.07957
G1 X93.923 Y93.593 E6.10521
G1 X93.132 Y92.803 E6.15676
G1 X93.688 Y92.803 E6.18240
G1 X94.478 Y93.593 E6.23394
G1 X95.034 Y93.593 E6.25959
G1 X94.244 Y92.803 E6.31113
G1 X94.800 Y92.803 E6.33678
G1 X95.590 Y93.593 E6.38832
G1 X96.116 Y93.563 E6.41260
G1 X95.356 Y92.803 E6.46215
G1 X95.912 Y92.803 E6.48780
G1 X96.116 Y93.007 E6.50108
G92 E0
G1 X94.505 Y106.407 F7800.000
G1 X95.296 Y107.197 E0.05154 F540.000
G1 X94.740 Y107.197 E0.07719
G1 X93.949 Y106.407 E0.12873
G1 X93.394 Y106.407 E0.15438
G1 X94.184 Y107.197 E0.20592
G1 X93.628 Y107.197 E0.23157
G1 X92.838 Y106.407 E0.28311
G1 X92.282 Y106.407 E0.30876
G1 X93.072 Y107.197 E0.36030
G1 X92.516 Y107.197 E0.38594
G1 X91.726 Y106.407 E0.43749
G1 X91.170 Y106.407 E0.46313
G1 X91.960 Y107.197 E0.51468
G1 X91.404 Y107.197 E0.54032
G1 X90.614 Y106.407 E0.59186
G1 X90.058 Y106.407 E0.61751
G1 X90.848 Y107.197 E0.66905
G1 X90.292 Y107.197 E0.69470
G1 X89.502 Y106.407 E0.74624
G1 X88.946 Y106.407 E0.77189
G1 X89.736 Y107.197 E0.82343
G1 X89.180 Y107.197 E0.84908
G1 X88.390 Y106.407 E0.90062
G1 X87.834 Y106.407 E0.92627
G1 X88.624 Y107.197 E0.97781
G1 X88.068 Y107.197 E1.00345
G1 X87.278 Y106.407 E1.05500
G1 X86.722 Y106.407 E1.08064
G1 X87.512 Y107.197 E1.13219
G1 X86.956 Y107.197 E1.15783
G1 X86.166 Y106.407 E1.20937
G1 X86.400 Y107.197 F7800.000
G1 X85.641 Y106.438 E1.25892 F540.000
G1 X85.641 Y106.993 E1.28457
G1 X85.844 Y107.197 E1.29785
M106 S255
G92 E0
G1 Z0.600 F7800.000
G1 X114.509 Y107.648 F7800.000
G1 X110.095 Y96.562 E3.57549 F600.000
G1 X109.150 Y94.013 E4.38999
G1 X108.710 Y93.349 E4.62870
G1 X108.283 Y93.316 E4.75722
G1 X107.908 Y93.353 E4.87011
G1 X107.477 Y94.010 E5.10550
G1 X106.531 Y96.558 E5.91985
G1 X102.105 Y107.648 E9.49796
G92 E0
G1 X101.012 Y107.648 F7800.000
G1 X98.774 Y104.050 F7800.000
G1 X96.567 Y98.877 F7800.000
G1 X96.567 Y94.044 F7800.000
G1 X96.567 Y93.198 F7800.000
G1 X86.751 Y93.198 E2.94133 F600.000
G1 X85.650 Y93.556 E3.28802
G1 X86.047 Y94.586 E3.61865
G1 X94.397 Y105.421 E7.71765
G1 X94.790 Y106.453 E8.04874
G1 X93.704 Y106.802 E8.39055
G1 X85.190 Y106.802 E10.94174
G92 E0
G1 Z0.900 F7800.000
G1 X114.509 Y107.648 F7800.000
G1 X110.095 Y96.562 E3.57549 F600.000
G1 X109.150 Y94.013 E4.38999
G1 X108.710 Y93.349 E4.62870
G1 X108.283 Y93.316 E4.75722
G1 X107.908 Y93.353 E4.87011
G1 X107.477 Y94.010 E5.10550
G1 X106.531 Y96.558 E5.91985
G1 X102.105 Y107.648 E9.49796
G92 E0
G1 X101.012 Y107.648 F7800.000
G1 X98.774 Y104.050 F7800.000
G1 X96.567 Y98.877 F7800.000
G1 X96.567 Y94.044 F7800.000
G1 X96.567 Y93.198 F7800.000
G1 X86.751 Y93.198 E2.94133 F600.000
G1 X85.650 Y93.556 E3.28802
G1 X86.047 Y94.586 E3.61865
G1 X94.397 Y105.421 E7.71765
G1 X94.790 Y106.453 E8.04874
G1 X93.704 Y106.802 E8.39055
G1 X85.190 Y106.802 E10.94174
G92 E0
G1 Z1.200 F7800.000
G1 X114.509 Y107.648 F7800.000
G1 X110.095 Y96.562 E3.57549 F600.000
G1 X109.150 Y94.013 E4.38999
G1 X108.710 Y93.349 E4.62870
G1 X108.283 Y93.316 E4.75722
G1 X107.908 Y93.353 E4.87011
G1 X107.477 Y94.010 E5.10550
G1 X106.531 Y96.558 E5.91985
G1 X102.105 Y107.648 E9.49796
G92 E0
G1 X101.012 Y107.648 F7800.000
G1 X98.774 Y104.050 F7800.000
G1 X96.567 Y98.877 F7800.000
G1 X96.567 Y94.044 F7800.000
G1 X96.567 Y93.198 F7800.000
G1 X86.751 Y93.198 E2.94133 F600.000
G1 X85.650 Y93.556 E3.28802
G1 X86.047 Y94.586 E3.61865
G1 X94.397 Y105.421 E7.71765
G1 X94.790 Y106.453 E8.04874
G1 X93.704 Y106.802 E8.39055
G1 X85.190 Y106.802 E10.94174
G92 E0
G1 Z1.500 F7800.000
G1 X114.509 Y107.648 F7800.000
G1 X110.095 Y96.562 E3.57549 F600.000
G1 X109.150 Y94.013 E4.38999
G1 X108.710 Y93.349 E4.62870
G1 X108.283 Y93.316 E4.75722
G1 X107.908 Y93.353 E4.87011
G1 X107.477 Y94.010 E5.10550
G1 X106.531 Y96.558 E5.91985
G1 X102.105 Y107.648 E9.49796
G92 E0
G1 X101.012 Y107.648 F7800.000
G1 X98.774 Y104.050 F7800.000
G1 X96.567 Y98.877 F7800.000
G1 X96.567 Y94.044 F7800.000
G1 X96.567 Y93.198 F7800.000
G1 X86.751 Y93.198 E2.94133 F600.000
G1 X85.650 Y93.556 E3.28802
G1 X86.047 Y94.586 E3.61865
G1 X94.397 Y105.421 E7.71765
G1 X94.790 Y106.453 E8.04874
G1 X93.704 Y106.802 E8.39055
G1 X85.190 Y106.802 E10.94174
G92 E0
G1 Z1.800 F7800.000
G1 X114.509 Y107.648 F7800.000
G1 X110.095 Y96.562 E3.57549 F600.000
G1 X109.150 Y94.013 E4.38999
G1 X108.710 Y93.349 E4.62870
G1 X108.283 Y93.316 E4.75722
G1 X107.908 Y93.353 E4.87011
G1 X107.477 Y94.010 E5.10550
G1 X106.531 Y96.558 E5.91985
G1 X102.105 Y107.648 E9.49796
G92 E0
G1 X101.012 Y107.648 F7800.000
G1 X98.774 Y104.050 F7800.000
G1 X96.567 Y98.877 F7800.000
G1 X96.567 Y94.044 F7800.000
G1 X96.567 Y93.198 F7800.000
G1 X86.751 Y93.198 E2.94133 F600.000
G1 X85.650 Y93.556 E3.28802
G1 X86.047 Y94.586 E3.61865
G1 X94.397 Y105.421 E7.71765
G1 X94.790 Y106.453 E8.04874
G1 X93.704 Y106.802 E8.39055
G1 X85.190 Y106.802 E10.94174
G92 E0
G1 Z2.100 F7800.000
G1 X114.509 Y107.648 F7800.000
G1 X110.095 Y96.562 E3.57549 F600.000
G1 X109.150 Y94.013 E4.38999
G1 X108.710 Y93.349 E4.62870
G1 X108.283 Y93.316 E4.75721
G1 X107.908 Y93.353 E4.87011
G1 X107.477 Y94.010 E5.10550
G1 X106.531 Y96.558 E5.91985
G1 X102.105 Y107.648 E9.49796
G92 E0
G1 X101.012 Y107.648 F7800.000
G1 X98.774 Y104.050 F7800.000
G1 X96.567 Y98.877 F7800.000
G1 X96.567 Y94.044 F7800.000
G1 X96.567 Y93.198 F7800.000
G1 X86.751 Y93.198 E2.94133 F600.000
G1 X85.650 Y93.556 E3.28802
G1 X86.047 Y94.586 E3.61865
G1 X94.397 Y105.421 E7.71765
G1 X94.790 Y106.453 E8.04874
G1 X93.704 Y106.802 E8.39055
G1 X85.190 Y106.802 E10.94174
G92 E0
M107
M104 S0 ; turn off temperature
G28 X0  ; home X axis
M84     ; disable motors

; filament used = 137.7mm (1.1cm3)

; avoid_crossing_perimeters = 1
; bed_shape = 0x0,250x0,250x250,0x250
; bed_temperature = 0
; before_layer_gcode = 
; bridge_acceleration = 0
; bridge_fan_speed = 100
; brim_width = 0
; complete_objects = 0
; cooling = 1
; default_acceleration = 0
; disable_fan_first_layers = 1
; duplicate_distance = 6
; end_gcode = M104 S0 ; turn off temperature\nG28 X0  ; home X axis\nM84     ; disable motors\n
; extruder_clearance_height = 20
; extruder_clearance_radius = 20
; extruder_offset = 0x0
; extrusion_axis = E
; extrusion_multiplier = 3
; fan_always_on = 0
; fan_below_layer_time = 60
; filament_colour = #FFFFFF
; filament_diameter = 3.125
; first_layer_acceleration = 0
; first_layer_bed_temperature = 0
; first_layer_extrusion_width = 150%
; first_layer_speed = 90%
; first_layer_temperature = 30
; gcode_arcs = 0
; gcode_comments = 0
; gcode_flavor = reprap
; infill_acceleration = 0
; infill_first = 0
; layer_gcode = 
; max_fan_speed = 100
; max_print_speed = 80
; max_volumetric_speed = 0
; min_fan_speed = 35
; min_print_speed = 10
; min_skirt_length = 0
; notes = 
; nozzle_diameter = 1.54
; only_retract_when_crossing_perimeters = 1
; ooze_prevention = 0
; output_filename_format = [input_filename_base].gcode
; perimeter_acceleration = 0
; post_process = 
; pressure_advance = 0
; resolution = 0
; retract_before_travel = 2
; retract_layer_change = 1
; retract_length = 0
; retract_length_toolchange = 10
; retract_lift = 0
; retract_restart_extra = 0
; retract_restart_extra_toolchange = 0
; retract_speed = 0
; skirt_distance = 6
; skirt_height = 1
; skirts = 0
; slowdown_below_layer_time = 30
; spiral_vase = 0
; standby_temperature_delta = -5
; start_gcode = G28 ; home all axes\nG1 Z5 F5000 ; lift nozzle\nM302\nM92 E10000\nM500\nM501\nG1 E100
; temperature = 30
; threads = 2
; toolchange_gcode = 
; travel_speed = 130
; use_firmware_retraction = 0
; use_relative_e_distances = 0
; use_volumetric_e = 0
; vibration_limit = 0
; wipe = 0
; z_offset = 0
; dont_support_bridges = 1
; extrusion_width = 0
; first_layer_height = 100%
; infill_only_where_needed = 0
; interface_shells = 0
; layer_height = 0.3
; raft_layers = 0
; seam_position = random
; support_material = 0
; support_material_angle = 0
; support_material_contact_distance = 0.2
; support_material_enforce_layers = 0
; support_material_extruder = 1
; support_material_extrusion_width = 0
; support_material_interface_extruder = 1
; support_material_interface_layers = 3
; support_material_interface_spacing = 0
; support_material_interface_speed = 100%
; support_material_pattern = pillars
; support_material_spacing = 2.5
; support_material_speed = 7
; support_material_threshold = 0
; xy_size_compensation = 0
; bottom_solid_layers = 3
; bridge_flow_ratio = 1
; bridge_speed = 10
; external_fill_pattern = rectilinear
; external_perimeter_extrusion_width = 0
; external_perimeter_speed = 70%
; external_perimeters_first = 1
; extra_perimeters = 1
; fill_angle = 45
; fill_density = 60%
; fill_pattern = rectilinear
; gap_fill_speed = 10
; infill_every_layers = 1
; infill_extruder = 1
; infill_extrusion_width = 0
; infill_overlap = 15%
; infill_speed = 10
; overhangs = 1
; perimeter_extruder = 1
; perimeter_extrusion_width = 0
; perimeter_speed = 10
; perimeters = 1
; small_perimeter_speed = 70%
; solid_infill_below_area = 70
; solid_infill_every_layers = 0
; solid_infill_extruder = 1
; solid_infill_extrusion_width = 0
; solid_infill_speed = 10
; thin_walls = 1
; top_infill_extrusion_width = 0
; top_solid_infill_speed = 10
; top_solid_layers = 3
