; generated by Slic3r 1.2.9 on 2016-03-11 at 01:33:16

; external perimeters extrusion width = 1.54mm
; perimeters extrusion width = 2.62mm
; infill extrusion width = 6.27mm
; solid infill extrusion width = 2.62mm
; top infill extrusion width = 2.62mm

M107
M104 S30 ; set temperature
G28 ; home all axes
G1 Z5 F5000 ; lift nozzle
M302
M92 E10000
M500
M501
G1 E100
M109 S30 ; wait for temperature to be reached
G21 ; set units to millimeters
G90 ; use absolute coordinates
M82 ; use absolute distances for extrusion
G92 E0
G1 Z0.300 F7800.000
G1 X109.139 Y107.423 F7800.000
G1 X107.496 Y107.423 E0.07433 F378.000
G1 X105.016 Y98.555 E0.49100
G1 X104.530 Y96.725 E0.57669
G1 X103.927 Y94.129 E0.69728
G1 X103.490 Y94.129 E0.71708
G1 X102.906 Y96.649 E0.83416
G1 X102.590 Y97.872 E0.89131
G1 X99.887 Y107.423 E1.34046
G1 X98.200 Y107.423 E1.41679
G1 X102.576 Y92.577 E2.11714
G1 X104.708 Y92.577 E2.21363
G1 X106.106 Y97.654 E2.45191
G1 X107.627 Y103.285 E2.71585 F378.000
G1 X108.104 Y105.383 E2.81317
G1 X108.543 Y105.381 E2.83307
G1 X109.103 Y102.891 E2.94853
G1 X109.302 Y102.128 E2.98423
G1 X111.908 Y92.577 E3.43221
G1 X114.040 Y92.577 E3.52868
G1 X118.416 Y107.423 E4.22902
G1 X116.730 Y107.423 E4.30531
G1 X114.143 Y98.109 E4.74270
G1 X113.723 Y96.535 E4.81643
G1 X113.148 Y94.108 E4.92929
G1 X112.713 Y94.115 E4.94896
G1 X112.131 Y96.596 E5.06428
G1 X111.755 Y98.068 E5.13301
G1 X109.201 Y107.201 E5.56212
G1 X107.516 Y106.559 F7800.000
G1 X108.153 Y107.197 E5.60355 F540.000
G1 X108.707 Y107.197 E5.62899
G1 X107.300 Y105.791 E5.72037
G1 X107.645 Y104.474 F7800.000
G1 X106.655 Y103.484 E5.78467 F540.000
G1 X107.296 Y103.017 F7800.000
G1 X106.225 Y101.947 E5.85425 F540.000
G1 X106.440 Y102.715 F7800.000
G1 X107.482 Y103.757 E5.92196 F540.000
G1 X106.870 Y104.253 F7800.000
G1 X107.808 Y105.190 E5.98286 F540.000
G1 X107.085 Y105.022 E6.01693
G1 X109.047 Y106.984 E6.14439
G1 X109.168 Y106.551 E6.16504
G1 X108.225 Y105.608 E6.22631
G1 X108.721 Y105.550 E6.24924
G1 X109.289 Y106.118 E6.28617
G1 X109.410 Y105.685 E6.30681
G1 X108.822 Y105.098 E6.34500
G1 X108.924 Y104.645 E6.36629
G1 X109.531 Y105.253 E6.40575
G1 X109.652 Y104.820 E6.42639
G1 X109.026 Y104.193 E6.46711
G1 X109.127 Y103.741 E6.48840
G1 X109.773 Y104.387 E6.53038
G1 X109.894 Y103.954 E6.55102
G1 X109.229 Y103.289 E6.59426
G1 X109.332 Y102.838 E6.61550
G1 X110.015 Y103.522 E6.65992
G1 X110.136 Y103.089 E6.68056
G1 X109.446 Y102.399 E6.72539
G1 X109.562 Y101.962 E6.74619
G1 X110.257 Y102.656 E6.79134
G1 X110.378 Y102.224 E6.81198
G1 X109.681 Y101.527 E6.85728
G1 X109.800 Y101.092 E6.87799
G1 X110.499 Y101.791 E6.92344
G1 X110.620 Y101.358 E6.94408
G1 X109.919 Y100.656 E6.98968
G1 X110.037 Y100.221 E7.01039
G1 X110.741 Y100.925 E7.05614
G1 X110.862 Y100.493 E7.07678
G1 X110.156 Y99.786 E7.12267
G1 X110.275 Y99.351 E7.14339
G1 X110.983 Y100.060 E7.18944
G1 X111.104 Y99.627 E7.21008
G1 X110.393 Y98.916 E7.25627
G1 X110.512 Y98.481 E7.27699
G1 X111.225 Y99.195 E7.32333
G1 X111.346 Y98.762 E7.34398
G1 X110.631 Y98.046 E7.39047
G1 X110.750 Y97.611 E7.41119
G1 X111.467 Y98.329 E7.45783
G1 X111.585 Y97.893 E7.47859
G1 X110.868 Y97.176 E7.52516
G1 X110.987 Y96.741 E7.54587
G1 X111.697 Y97.452 E7.59204
G1 X111.810 Y97.011 E7.61296
G1 X111.106 Y96.306 E7.65872
G1 X111.224 Y95.871 E7.67944
G1 X111.922 Y96.569 E7.72476
G1 X112.027 Y96.120 E7.74593
G1 X111.343 Y95.436 E7.79037
G1 X111.462 Y95.001 E7.81109
G1 X112.132 Y95.672 E7.85466
G1 X112.238 Y95.223 E7.87583
G1 X111.581 Y94.566 E7.91852
G1 X111.699 Y94.131 E7.93924
G1 X112.343 Y94.775 E7.98107
G1 X112.448 Y94.326 E8.00223
G1 X111.818 Y93.696 E8.04318
G1 X111.937 Y93.261 E8.06390
G1 X112.568 Y93.892 E8.10492
G1 X113.113 Y93.884 E8.12998
G1 X112.055 Y92.826 E8.19872
G1 X112.586 Y92.803 E8.22312
G1 X114.369 Y94.586 E8.33900
G1 X114.601 Y95.372 E8.37661
G1 X113.421 Y94.192 E8.45324
G1 X113.594 Y94.918 F7800.000
G1 X114.832 Y96.157 E8.53373 F540.000
G1 X115.064 Y96.942 E8.57133
G1 X113.766 Y95.644 E8.65568
G1 X113.938 Y96.369 E8.68995
G1 X115.295 Y97.727 E8.77815
G1 X115.526 Y98.512 E8.81576
G1 X114.139 Y97.125 E8.90591
G1 X114.341 Y97.880 E8.94184
G1 X115.758 Y99.297 E9.03392
G1 X115.989 Y100.082 E9.07153
G1 X114.553 Y98.646 E9.16487
G1 X114.766 Y99.412 E9.20143
G1 X116.221 Y100.867 E9.29597
G1 X116.452 Y101.653 E9.33358
G1 X114.978 Y100.179 E9.42933
G1 X115.191 Y100.946 E9.46589
G1 X116.683 Y102.438 E9.56284
G1 X116.915 Y103.223 E9.60045
G1 X115.404 Y101.712 E9.69860
G1 X115.617 Y102.479 E9.73516
G1 X117.146 Y104.008 E9.83451
G1 X117.378 Y104.793 E9.87212
G1 X115.830 Y103.245 E9.97268
G1 X116.043 Y104.012 E10.00924
G1 X117.609 Y105.578 E10.11100
G1 X117.840 Y106.363 E10.14860
G1 X116.256 Y104.779 E10.25157
G1 X116.469 Y105.545 E10.28812
G1 X118.072 Y107.148 E10.39229
G1 X117.567 Y107.197 E10.41561
G1 X116.682 Y106.312 E10.47312
G92 E0
G1 X108.689 Y106.156 F7800.000
G1 X108.365 Y106.402 F7800.000
G1 X108.269 Y106.402 F7800.000
G1 X107.945 Y106.158 F7800.000
G1 X107.091 Y102.259 F7800.000
G1 X106.010 Y101.178 E0.07024 F540.000
G1 X105.795 Y100.409 E0.10692
G1 X106.886 Y101.500 E0.17781
G1 X106.681 Y100.741 E0.21392
G1 X105.580 Y99.640 E0.28548
G1 X105.365 Y98.871 E0.32216
G1 X106.476 Y99.983 E0.39437
G1 X106.271 Y99.224 E0.43048
G1 X105.155 Y98.108 E0.50298
G1 X104.956 Y97.355 E0.53881
G1 X106.066 Y98.465 E0.61098
G1 X105.861 Y97.706 E0.64713
G1 X104.756 Y96.601 E0.71893
G1 X104.587 Y95.878 E0.75302
G1 X105.650 Y96.942 E0.82212
G1 X105.440 Y96.178 E0.85853
G1 X104.419 Y95.157 E0.92484
G1 X104.252 Y94.436 E0.95885
G1 X105.229 Y95.414 E1.02236
G1 X105.019 Y94.649 E1.05877
G1 X103.173 Y92.803 E1.17875
G1 X102.700 Y92.884 E1.20077
G1 X103.719 Y93.903 E1.26693
G1 X103.297 Y94.034 F7800.000
G1 X102.574 Y93.312 E1.31387 F540.000
G1 X102.448 Y93.740 E1.33435
G1 X103.192 Y94.484 E1.38271
G1 X103.088 Y94.934 E1.40391
G1 X102.322 Y94.167 E1.45369
G1 X102.196 Y94.595 E1.47418
G1 X102.984 Y95.383 E1.52538
G1 X102.880 Y95.833 E1.54658
G1 X102.070 Y95.023 E1.59920
G1 X101.944 Y95.450 E1.61969
G1 X102.776 Y96.282 E1.67373
G1 X102.670 Y96.730 E1.69488
G1 X101.818 Y95.878 E1.75024
G1 X101.692 Y96.306 E1.77073
G1 X102.556 Y97.170 E1.82689
G1 X102.442 Y97.610 E1.84777
G1 X101.566 Y96.733 E1.90474
G1 X101.440 Y97.161 E1.92523
G1 X102.325 Y98.047 E1.98277
G1 X102.203 Y98.478 E2.00338
G1 X101.314 Y97.589 E2.06118
G1 X101.187 Y98.016 E2.08167
G1 X102.081 Y98.910 E2.13973
G1 X101.959 Y99.342 E2.16034
G1 X101.061 Y98.444 E2.21865
G1 X100.935 Y98.872 E2.23913
G1 X101.837 Y99.773 E2.29770
G1 X101.715 Y100.205 E2.31831
G1 X100.809 Y99.299 E2.37713
G1 X100.683 Y99.727 E2.39762
G1 X101.592 Y100.636 E2.45670
G1 X101.470 Y101.068 E2.47730
G1 X100.557 Y100.155 E2.53664
G1 X100.431 Y100.582 E2.55712
G1 X101.348 Y101.499 E2.61671
G1 X101.226 Y101.931 E2.63732
G1 X100.305 Y101.010 E2.69716
G1 X100.179 Y101.438 E2.71765
G1 X101.104 Y102.363 E2.77775
G1 X100.982 Y102.794 E2.79836
G1 X100.053 Y101.865 E2.85871
G1 X99.927 Y102.293 E2.87920
G1 X100.860 Y103.226 E2.93981
G1 X100.737 Y103.657 E2.96041
G1 X99.801 Y102.721 E3.02128
G1 X99.675 Y103.148 E3.04176
G1 X100.615 Y104.089 E3.10288
G1 X100.493 Y104.521 E3.12349
G1 X99.549 Y103.576 E3.18487
G1 X99.422 Y104.004 E3.20535
G1 X100.371 Y104.952 E3.26698
G1 X100.249 Y105.384 E3.28759
G1 X99.296 Y104.431 E3.34947
G1 X99.170 Y104.859 E3.36996
G1 X100.127 Y105.815 E3.43210
G1 X100.005 Y106.247 E3.45271
G1 X99.044 Y105.287 E3.51510
G1 X98.918 Y105.714 E3.53559
G1 X99.882 Y106.679 E3.59824
G1 X99.760 Y107.110 E3.61885
G1 X98.792 Y106.142 E3.68175
G1 X98.666 Y106.570 E3.70224
G1 X99.293 Y107.197 E3.74300
G1 X98.740 Y107.197 E3.76844
G1 X98.540 Y106.997 E3.78142
G92 E0
G1 X100.850 Y101.171 F7800.000
G1 X100.850 Y101.171 F7800.000
G1 X104.809 Y93.885 F7800.000
G1 X103.726 Y92.803 E0.07033 F540.000
G1 X104.280 Y92.803 E0.09577
G1 X104.598 Y93.121 E0.11645
G92 E0
G1 X104.118 Y93.353 F7800.000
G1 X104.118 Y93.353 F7800.000
G1 X113.907 Y93.016 F7800.000
G1 X113.694 Y92.803 E0.01385 F540.000
G1 X113.140 Y92.803 E0.03929
G1 X114.138 Y93.801 E0.10416
G92 E0
G1 X111.737 Y92.352 F7800.000
G1 X104.880 Y91.352 F7800.000
G1 X102.408 Y91.352 F7800.000
G1 X97.144 Y94.044 F7800.000
G1 X95.452 Y92.352 F7800.000
G1 X93.452 Y92.352 F7800.000
G1 X91.798 Y93.819 F7800.000
G1 X83.179 Y93.819 E0.39001 F378.000
G1 X92.717 Y106.218 E1.09784
G1 X92.717 Y107.423 E1.15238
G1 X82.300 Y107.423 E1.62374
G1 X82.300 Y106.181 E1.67994
G1 X91.047 Y106.181 E2.07574
G1 X81.508 Y93.826 E2.78202
G1 X81.508 Y92.577 E2.83855
G1 X93.227 Y92.577 E3.36883
G1 X93.227 Y93.819 E3.42502
G1 X92.029 Y93.819 E3.47922 F378.000
G1 X93.001 Y93.007 F7800.000
G1 X92.798 Y92.803 E3.49251 F540.000
G1 X92.242 Y92.803 E3.51815
G1 X93.001 Y93.563 E3.56770
G1 X92.476 Y93.593 E3.59198
G1 X91.686 Y92.803 E3.64352
G1 X91.130 Y92.803 E3.66917
G1 X91.920 Y93.593 E3.72071
G1 X91.364 Y93.593 E3.74636
G1 X90.574 Y92.803 E3.79790
G1 X90.018 Y92.803 E3.82355
G1 X90.808 Y93.593 E3.87509
G1 X90.252 Y93.593 E3.90073
G1 X89.462 Y92.803 E3.95228
G1 X88.906 Y92.803 E3.97792
G1 X89.696 Y93.593 E4.02947
G1 X89.140 Y93.593 E4.05511
G1 X88.350 Y92.803 E4.10665
G1 X87.794 Y92.803 E4.13230
G1 X88.584 Y93.593 E4.18384
G1 X88.028 Y93.593 E4.20949
G1 X87.238 Y92.803 E4.26103
G1 X86.682 Y92.803 E4.28668
G1 X87.472 Y93.593 E4.33822
G1 X86.916 Y93.593 E4.36386
G1 X86.126 Y92.803 E4.41541
G1 X85.570 Y92.803 E4.44105
G1 X86.360 Y93.593 E4.49259
G1 X85.804 Y93.593 E4.51824
G1 X85.014 Y92.803 E4.56978
G1 X84.458 Y92.803 E4.59543
G1 X85.248 Y93.593 E4.64697
G1 X84.692 Y93.593 E4.67262
G1 X83.902 Y92.803 E4.72416
G1 X83.346 Y92.803 E4.74980
G1 X84.137 Y93.593 E4.80135
G1 X83.581 Y93.593 E4.82699
G1 X82.791 Y92.803 E4.87853
G1 X82.235 Y92.803 E4.90418
G1 X83.025 Y93.593 E4.95572
G1 X83.194 Y94.318 F7800.000
G1 X81.734 Y92.859 E5.05096 F540.000
G1 X81.734 Y93.415 E5.07661
G1 X85.048 Y96.728 E5.29278
G1 X84.739 Y97.531 F7800.000
G1 X88.755 Y101.547 E5.55479 F540.000
G1 X88.506 Y102.410 F7800.000
G1 X92.463 Y106.367 E5.81293 F540.000
G1 X92.491 Y106.951 E5.83992
G1 X90.389 Y104.849 E5.97706
G1 X90.609 Y103.957 F7800.000
G1 X86.622 Y99.971 E6.23713 F540.000
G1 X86.902 Y99.138 F7800.000
G1 X82.856 Y95.092 E6.50108 F540.000
G92 E0
G1 X83.052 Y106.407 F7800.000
G1 X83.842 Y107.197 E0.05154 F540.000
G1 X84.398 Y107.197 E0.07719
G1 X83.608 Y106.407 E0.12873
G1 X84.164 Y106.407 E0.15438
G1 X84.954 Y107.197 E0.20592
G1 X85.510 Y107.197 E0.23157
G1 X84.719 Y106.407 E0.28311
G1 X85.275 Y106.407 E0.30875
G1 X86.066 Y107.197 E0.36030
G1 X86.621 Y107.197 E0.38594
G1 X85.831 Y106.407 E0.43749
G1 X86.387 Y106.407 E0.46313
G1 X87.177 Y107.197 E0.51467
G1 X87.733 Y107.197 E0.54032
G1 X86.943 Y106.407 E0.59186
G1 X87.499 Y106.407 E0.61751
G1 X88.289 Y107.197 E0.66905
G1 X88.845 Y107.197 E0.69470
G1 X88.055 Y106.407 E0.74624
G1 X88.611 Y106.407 E0.77189
G1 X89.401 Y107.197 E0.82343
G1 X89.957 Y107.197 E0.84908
G1 X89.167 Y106.407 E0.90062
G1 X89.723 Y106.407 E0.92626
G1 X90.513 Y107.197 E0.97781
G1 X91.069 Y107.197 E1.00345
G1 X90.279 Y106.407 E1.05500
G1 X90.835 Y106.407 E1.08064
G1 X91.625 Y107.197 E1.13218
G1 X92.181 Y107.197 E1.15783
G1 X91.391 Y106.407 E1.20937
G1 X83.286 Y107.197 F7800.000
G1 X82.526 Y106.438 E1.25892 F540.000
G1 X82.526 Y106.993 E1.28457
G1 X82.730 Y107.197 E1.29785
M106 S255
G92 E0
G1 Z0.600 F7800.000
G1 X117.635 Y107.648 F7800.000
G1 X114.850 Y97.917 E3.03301 F600.000
G1 X114.413 Y96.361 E3.51720
G1 X113.822 Y94.134 E4.20762
G1 X113.427 Y93.397 E4.45822
G1 X112.955 Y93.344 E4.60068
G1 X112.521 Y93.379 E4.73112
G1 X112.095 Y94.150 E4.99507
G1 X111.128 Y97.900 E6.15554
G1 X109.713 Y103.040 E7.75285
G1 X109.136 Y105.330 E8.46068
G1 X108.365 Y106.402 E8.85639
G1 X108.271 Y106.402 E8.88454
G1 X107.506 Y105.333 E9.27842
G1 X107.025 Y103.435 E9.86517
G1 X105.148 Y96.571 E11.99750
G1 X104.539 Y94.170 E12.73969
G1 X104.095 Y93.383 E13.01066
G1 X103.668 Y93.353 E13.13868
G1 X103.198 Y93.408 E13.28070
G1 X102.803 Y94.153 E13.53324
G1 X101.861 Y97.675 E14.62567
G1 X98.979 Y107.648 E17.73630
G92 E0
G1 X101.569 Y108.076 F7800.000
G1 X97.899 Y108.648 F7800.000
G1 X95.528 Y104.152 F7800.000
G1 X93.452 Y98.877 F7800.000
G1 X93.452 Y94.044 F7800.000
G1 X93.452 Y93.198 F7800.000
G1 X83.636 Y93.198 E2.94133 F600.000
G1 X82.536 Y93.556 E3.28802
G1 X82.932 Y94.586 E3.61865
G1 X91.283 Y105.421 E7.71765
G1 X91.675 Y106.453 E8.04874
G1 X90.589 Y106.802 E8.39055
G1 X82.075 Y106.802 E10.94174
G92 E0
G1 Z0.900 F7800.000
G1 X117.635 Y107.648 F7800.000
G1 X114.850 Y97.917 E3.03301 F600.000
G1 X114.413 Y96.361 E3.51720
G1 X113.822 Y94.134 E4.20762
G1 X113.427 Y93.397 E4.45822
G1 X112.955 Y93.344 E4.60068
G1 X112.521 Y93.379 E4.73112
G1 X112.095 Y94.150 E4.99507
G1 X111.128 Y97.900 E6.15554
G1 X109.713 Y103.040 E7.75285
G1 X109.136 Y105.330 E8.46068
G1 X108.365 Y106.402 E8.85639
G1 X108.271 Y106.402 E8.88454
G1 X107.506 Y105.333 E9.27842
G1 X107.024 Y103.432 E9.86610
G1 X105.148 Y96.571 E11.99750
G1 X104.539 Y94.170 E12.73970
G1 X104.095 Y93.383 E13.01066
G1 X103.668 Y93.353 E13.13869
G1 X103.198 Y93.408 E13.28070
G1 X102.803 Y94.153 E13.53324
G1 X101.861 Y97.675 E14.62567
G1 X98.979 Y107.648 E17.73630
G92 E0
G1 X101.569 Y108.076 F7800.000
G1 X97.899 Y108.648 F7800.000
G1 X95.528 Y104.152 F7800.000
G1 X93.452 Y98.877 F7800.000
G1 X93.452 Y94.044 F7800.000
G1 X93.452 Y93.198 F7800.000
G1 X83.636 Y93.198 E2.94133 F600.000
G1 X82.536 Y93.556 E3.28802
G1 X82.932 Y94.586 E3.61865
G1 X91.283 Y105.421 E7.71765
G1 X91.675 Y106.453 E8.04874
G1 X90.589 Y106.802 E8.39055
G1 X82.075 Y106.802 E10.94174
G92 E0
G1 Z1.200 F7800.000
G1 X117.635 Y107.648 F7800.000
G1 X114.850 Y97.917 E3.03301 F600.000
G1 X114.413 Y96.361 E3.51720
G1 X113.822 Y94.134 E4.20762
G1 X113.427 Y93.397 E4.45822
G1 X112.955 Y93.344 E4.60068
G1 X112.521 Y93.379 E4.73112
G1 X112.095 Y94.150 E4.99507
G1 X111.128 Y97.900 E6.15554
G1 X109.713 Y103.040 E7.75285
G1 X109.136 Y105.330 E8.46068
G1 X108.365 Y106.402 E8.85639
G1 X108.271 Y106.402 E8.88454
G1 X107.506 Y105.333 E9.27842
G1 X107.024 Y103.432 E9.86610
G1 X105.147 Y96.571 E11.99750
G1 X104.539 Y94.170 E12.73970
G1 X104.095 Y93.383 E13.01067
G1 X103.668 Y93.353 E13.13869
G1 X103.198 Y93.408 E13.28071
G1 X102.803 Y94.153 E13.53325
G1 X101.861 Y97.675 E14.62568
G1 X98.979 Y107.648 E17.73630
G92 E0
G1 X101.569 Y108.076 F7800.000
G1 X97.899 Y108.648 F7800.000
G1 X95.528 Y104.152 F7800.000
G1 X93.452 Y98.877 F7800.000
G1 X93.452 Y94.044 F7800.000
G1 X93.452 Y93.198 F7800.000
G1 X83.636 Y93.198 E2.94133 F600.000
G1 X82.536 Y93.556 E3.28802
G1 X82.932 Y94.586 E3.61865
G1 X91.283 Y105.421 E7.71765
G1 X91.675 Y106.453 E8.04874
G1 X90.589 Y106.802 E8.39055
G1 X82.075 Y106.802 E10.94174
G92 E0
G1 Z1.500 F7800.000
G1 X117.635 Y107.648 F7800.000
G1 X114.850 Y97.917 E3.03301 F600.000
G1 X114.413 Y96.361 E3.51720
G1 X113.822 Y94.134 E4.20762
G1 X113.427 Y93.397 E4.45822
G1 X112.955 Y93.344 E4.60068
G1 X112.521 Y93.379 E4.73112
G1 X112.095 Y94.150 E4.99507
G1 X111.128 Y97.900 E6.15554
G1 X109.713 Y103.040 E7.75285
G1 X109.136 Y105.330 E8.46068
G1 X108.365 Y106.402 E8.85639
G1 X108.271 Y106.402 E8.88454
G1 X107.506 Y105.333 E9.27842
G1 X107.024 Y103.432 E9.86610
G1 X105.147 Y96.571 E11.99751
G1 X104.539 Y94.170 E12.73970
G1 X104.095 Y93.383 E13.01067
G1 X103.668 Y93.353 E13.13870
G1 X103.198 Y93.408 E13.28071
G1 X102.803 Y94.153 E13.53325
G1 X101.861 Y97.675 E14.62568
G1 X98.979 Y107.648 E17.73630
G92 E0
G1 X101.569 Y108.076 F7800.000
G1 X97.899 Y108.648 F7800.000
G1 X95.528 Y104.152 F7800.000
G1 X93.452 Y98.877 F7800.000
G1 X93.452 Y94.044 F7800.000
G1 X93.452 Y93.198 F7800.000
G1 X83.636 Y93.198 E2.94133 F600.000
G1 X82.536 Y93.556 E3.28802
G1 X82.932 Y94.586 E3.61865
G1 X91.283 Y105.421 E7.71765
G1 X91.675 Y106.453 E8.04874
G1 X90.589 Y106.802 E8.39055
G1 X82.075 Y106.802 E10.94174
G92 E0
G1 Z1.800 F7800.000
G1 X117.635 Y107.648 F7800.000
G1 X114.850 Y97.917 E3.03301 F600.000
G1 X114.413 Y96.361 E3.51720
G1 X113.822 Y94.134 E4.20762
G1 X113.427 Y93.397 E4.45822
G1 X112.955 Y93.344 E4.60068
G1 X112.521 Y93.379 E4.73112
G1 X112.095 Y94.150 E4.99507
G1 X111.128 Y97.900 E6.15554
G1 X109.713 Y103.040 E7.75285
G1 X109.136 Y105.330 E8.46068
