; generated by Slic3r 1.2.9 on 2016-03-11 at 01:33:19

; external perimeters extrusion width = 1.54mm
; perimeters extrusion width = 2.62mm
; infill extrusion width = 6.27mm
; solid infill extrusion width = 2.62mm
; top infill extrusion width = 2.62mm

M107
M104 S30 ; set temperature
G28 ; home all axes
G1 Z5 F5000 ; lift nozzle
M302
M92 E10000
M500
M501
G1 E100
M109 S30 ; wait for temperature to be reached
G21 ; set units to millimeters
G90 ; use absolute coordinates
M82 ; use absolute distances for extrusion
G92 E0
G1 Z0.300 F7800.000
G1 X110.773 Y102.074 F7800.000
G1 X113.961 Y106.218 E0.23657 F378.000
G1 X113.961 Y107.423 E0.29111
G1 X103.544 Y107.423 E0.76248
G1 X103.544 Y106.181 E0.81867
G1 X112.291 Y106.181 E1.21447
G1 X102.752 Y93.826 E1.92075
G1 X102.752 Y92.577 E1.97728
G1 X114.471 Y92.577 E2.50756
G1 X114.471 Y93.819 E2.56375
G1 X104.423 Y93.819 E3.01842 F378.000
G1 X110.632 Y101.891 E3.47922
G1 X109.999 Y101.547 F7800.000
G1 X105.982 Y97.531 E3.74123 F540.000
G1 X106.291 Y96.728 F7800.000
G1 X102.978 Y93.415 E3.95740 F540.000
G1 X102.978 Y92.859 E3.98304
G1 X104.438 Y94.318 E4.07828
G1 X104.268 Y93.593 F7800.000
G1 X103.478 Y92.803 E4.12983 F540.000
G1 X104.034 Y92.803 E4.15547
G1 X104.824 Y93.593 E4.20702
G1 X105.380 Y93.593 E4.23266
G1 X104.590 Y92.803 E4.28420
G1 X105.146 Y92.803 E4.30985
G1 X105.936 Y93.593 E4.36139
G1 X106.492 Y93.593 E4.38704
G1 X105.702 Y92.803 E4.43858
G1 X106.258 Y92.803 E4.46423
G1 X107.048 Y93.593 E4.51577
G1 X107.604 Y93.593 E4.54141
G1 X106.814 Y92.803 E4.59296
G1 X107.370 Y92.803 E4.61860
G1 X108.160 Y93.593 E4.67014
G1 X108.716 Y93.593 E4.69579
G1 X107.926 Y92.803 E4.74733
G1 X108.482 Y92.803 E4.77298
G1 X109.272 Y93.593 E4.82452
G1 X109.828 Y93.593 E4.85017
G1 X109.038 Y92.803 E4.90171
G1 X109.594 Y92.803 E4.92735
G1 X110.384 Y93.593 E4.97890
G1 X110.940 Y93.593 E5.00454
G1 X110.150 Y92.803 E5.05608
G1 X110.705 Y92.803 E5.08173
G1 X111.496 Y93.593 E5.13327
G1 X112.052 Y93.593 E5.15892
G1 X111.261 Y92.803 E5.21046
G1 X111.817 Y92.803 E5.23611
G1 X112.607 Y93.593 E5.28765
G1 X113.163 Y93.593 E5.31329
G1 X112.373 Y92.803 E5.36484
G1 X112.929 Y92.803 E5.39048
G1 X113.719 Y93.593 E5.44202
G1 X114.245 Y93.563 E5.46630
G1 X113.485 Y92.803 E5.51585
G1 X114.041 Y92.803 E5.54150
G1 X114.245 Y93.007 E5.55478
G92 E0
G1 X108.145 Y99.138 F7800.000
G1 X104.099 Y95.092 E0.26394 F540.000
G1 X107.866 Y99.971 F7800.000
G1 X111.852 Y103.957 E0.52401 F540.000
G1 X111.633 Y104.849 F7800.000
G1 X113.735 Y106.951 E0.66115 F540.000
G1 X113.706 Y106.367 E0.68815
G1 X109.749 Y102.410 E0.94628
G1 X112.634 Y106.407 F7800.000
G1 X113.425 Y107.197 E0.99782 F540.000
G1 X112.869 Y107.197 E1.02347
G1 X112.078 Y106.407 E1.07501
G1 X111.523 Y106.407 E1.10066
G1 X112.313 Y107.197 E1.15220
G1 X111.757 Y107.197 E1.17785
G1 X110.967 Y106.407 E1.22939
G1 X110.411 Y106.407 E1.25504
G1 X111.201 Y107.197 E1.30658
G1 X110.645 Y107.197 E1.33222
G1 X109.855 Y106.407 E1.38377
G1 X109.299 Y106.407 E1.40941
G1 X110.089 Y107.197 E1.46096
G1 X109.533 Y107.197 E1.48660
G1 X108.743 Y106.407 E1.53814
G1 X108.187 Y106.407 E1.56379
G1 X108.977 Y107.197 E1.61533
G1 X108.421 Y107.197 E1.64098
G1 X107.631 Y106.407 E1.69252
G1 X107.075 Y106.407 E1.71817
G1 X107.865 Y107.197 E1.76971
G1 X107.309 Y107.197 E1.79536
G1 X106.519 Y106.407 E1.84690
G1 X105.963 Y106.407 E1.87254
G1 X106.753 Y107.197 E1.92409
G1 X106.197 Y107.197 E1.94973
G1 X105.407 Y106.407 E2.00128
G1 X104.851 Y106.407 E2.02692
G1 X105.641 Y107.197 E2.07847
G1 X105.085 Y107.197 E2.10411
G1 X104.295 Y106.407 E2.15565
G1 X104.529 Y107.197 F7800.000
G1 X103.770 Y106.438 E2.20520 F540.000
G1 X103.770 Y106.993 E2.23085
G1 X103.973 Y107.197 E2.24413
G92 E0
G1 X103.319 Y105.956 F7800.000
G1 X96.963 Y108.648 F7800.000
G1 X84.754 Y108.198 F7800.000
G1 X86.096 Y103.164 F7800.000
G1 X87.029 Y102.231 F7800.000
G1 X94.610 Y105.956 F7800.000
G1 X86.397 Y106.181 F7800.000
G1 X95.068 Y106.181 E0.39237 F378.000
G1 X85.529 Y93.826 E1.09866
G1 X85.529 Y92.577 E1.15518
G1 X97.248 Y92.577 E1.68546
G1 X97.248 Y93.819 E1.74166
G1 X87.200 Y93.819 E2.19632 F378.000
G1 X96.738 Y106.218 E2.90415
G1 X96.738 Y107.423 E2.95869
G1 X86.321 Y107.423 E3.43006
G1 X86.321 Y106.336 E3.47922
G1 X87.073 Y106.407 F7800.000
G1 X87.863 Y107.197 E3.53077 F540.000
G1 X88.419 Y107.197 E3.55641
G1 X87.629 Y106.407 E3.60796
G1 X88.185 Y106.407 E3.63360
G1 X88.975 Y107.197 E3.68514
G1 X89.531 Y107.197 E3.71079
G1 X88.740 Y106.407 E3.76233
G1 X89.296 Y106.407 E3.78798
G1 X90.087 Y107.197 E3.83952
G1 X90.642 Y107.197 E3.86517
G1 X89.852 Y106.407 E3.91671
G1 X90.408 Y106.407 E3.94236
G1 X91.198 Y107.197 E3.99390
G1 X91.754 Y107.197 E4.01955
G1 X90.964 Y106.407 E4.07109
G1 X91.520 Y106.407 E4.09673
G1 X92.310 Y107.197 E4.14828
G1 X92.866 Y107.197 E4.17392
G1 X92.076 Y106.407 E4.22547
G1 X92.632 Y106.407 E4.25111
G1 X93.422 Y107.197 E4.30265
G1 X93.978 Y107.197 E4.32830
G1 X93.188 Y106.407 E4.37984
G1 X93.744 Y106.407 E4.40549
G1 X94.534 Y107.197 E4.45703
G1 X95.090 Y107.197 E4.48268
G1 X94.300 Y106.407 E4.53422
G1 X94.856 Y106.407 E4.55987
G1 X95.646 Y107.197 E4.61141
G1 X96.202 Y107.197 E4.63705
G1 X95.412 Y106.407 E4.68860
G1 X94.410 Y104.849 F7800.000
G1 X96.512 Y106.951 E4.82573 F540.000
G1 X96.484 Y106.367 E4.85273
G1 X92.527 Y102.410 E5.11087
G1 X92.776 Y101.547 F7800.000
G1 X88.760 Y97.531 E5.37288 F540.000
G1 X89.069 Y96.728 F7800.000
G1 X85.755 Y93.415 E5.58905 F540.000
G1 X85.755 Y92.859 E5.61469
G1 X87.215 Y94.318 E5.70993
G1 X87.046 Y93.593 F7800.000
G1 X86.256 Y92.803 E5.76148 F540.000
G1 X86.812 Y92.803 E5.78712
G1 X87.602 Y93.593 E5.83866
G1 X88.158 Y93.593 E5.86431
G1 X87.367 Y92.803 E5.91585
G1 X87.923 Y92.803 E5.94150
G1 X88.713 Y93.593 E5.99304
G1 X89.269 Y93.593 E6.01869
G1 X88.479 Y92.803 E6.07023
G1 X89.035 Y92.803 E6.09587
G1 X89.825 Y93.593 E6.14742
G1 X90.381 Y93.593 E6.17306
G1 X89.591 Y92.803 E6.22461
G1 X90.147 Y92.803 E6.25025
G1 X90.937 Y93.593 E6.30179
G1 X91.493 Y93.593 E6.32744
G1 X90.703 Y92.803 E6.37898
G1 X91.259 Y92.803 E6.40463
G1 X92.049 Y93.593 E6.45617
G1 X92.605 Y93.593 E6.48182
G1 X91.815 Y92.803 E6.53336
G1 X92.371 Y92.803 E6.55900
G1 X93.161 Y93.593 E6.61055
G1 X93.717 Y93.593 E6.63619
G1 X92.927 Y92.803 E6.68773
G1 X93.483 Y92.803 E6.71338
G1 X94.273 Y93.593 E6.76492
G1 X94.829 Y93.593 E6.79057
G1 X94.039 Y92.803 E6.84211
G1 X94.595 Y92.803 E6.86776
G1 X95.385 Y93.593 E6.91930
G1 X95.941 Y93.593 E6.94494
G1 X95.151 Y92.803 E6.99649
G1 X95.707 Y92.803 E7.02213
G1 X96.497 Y93.593 E7.07367
G1 X97.022 Y93.563 E7.09795
G1 X96.263 Y92.803 E7.14750
G1 X96.819 Y92.803 E7.17315
G1 X97.022 Y93.007 E7.18643
G92 E0
G1 X90.923 Y99.138 F7800.000
G1 X86.877 Y95.092 E0.26395 F540.000
G1 X90.643 Y99.971 F7800.000
G1 X94.630 Y103.957 E0.52402 F540.000
G92 E0
G1 X87.307 Y107.197 F7800.000
G1 X86.547 Y106.438 E0.04955 F540.000
G1 X86.547 Y106.993 E0.07519
G1 X86.751 Y107.197 E0.08848
M106 S255
G92 E0
G1 Z0.600 F7800.000
G1 X114.696 Y93.198 F7800.000
G1 X104.880 Y93.198 E2.94133 F600.000
G1 X103.779 Y93.556 E3.28802
G1 X104.176 Y94.586 E3.61865
G1 X112.526 Y105.421 E7.71765
G1 X112.919 Y106.453 E8.04874
G1 X111.833 Y106.802 E8.39055
G1 X103.319 Y106.802 E10.94174
G92 E0
G1 X100.355 Y100.809 F7800.000
G1 X97.473 Y98.877 F7800.000
G1 X97.473 Y94.044 F7800.000
G1 X97.473 Y93.198 F7800.000
G1 X87.657 Y93.198 E2.94133 F600.000
G1 X86.557 Y93.556 E3.28802
G1 X86.953 Y94.586 E3.61865
G1 X95.304 Y105.421 E7.71765
G1 X95.696 Y106.453 E8.04874
G1 X94.610 Y106.802 E8.39055
G1 X86.096 Y106.802 E10.94174
G92 E0
G1 Z0.900 F7800.000
G1 X114.696 Y93.198 F7800.000
G1 X104.880 Y93.198 E2.94133 F600.000
G1 X103.779 Y93.556 E3.28802
G1 X104.176 Y94.586 E3.61865
G1 X112.526 Y105.421 E7.71765
G1 X112.919 Y106.453 E8.04874
G1 X111.833 Y106.802 E8.39055
G1 X103.319 Y106.802 E10.94174
G92 E0
G1 X100.355 Y100.809 F7800.000
G1 X97.473 Y98.877 F7800.000
G1 X97.473 Y94.044 F7800.000
G1 X97.473 Y93.198 F7800.000
G1 X87.657 Y93.198 E2.94133 F600.000
G1 X86.557 Y93.556 E3.28802
G1 X86.953 Y94.586 E3.61865
G1 X95.304 Y105.421 E7.71765
G1 X95.696 Y106.453 E8.04874
G1 X94.610 Y106.802 E8.39055
G1 X86.096 Y106.802 E10.94174
G92 E0
G1 Z1.200 F7800.000
G1 X114.696 Y93.198 F7800.000
G1 X104.880 Y93.198 E2.94133 F600.000
G1 X103.779 Y93.556 E3.28802
G1 X104.176 Y94.586 E3.61865
G1 X112.526 Y105.421 E7.71765
G1 X112.919 Y106.453 E8.04874
G1 X111.833 Y106.802 E8.39055
G1 X103.319 Y106.802 E10.94174
G92 E0
G1 X100.355 Y100.809 F7800.000
G1 X97.473 Y98.877 F7800.000
G1 X97.473 Y94.044 F7800.000
G1 X97.473 Y93.198 F7800.000
G1 X87.657 Y93.198 E2.94133 F600.000
G1 X86.557 Y93.556 E3.28802
G1 X86.953 Y94.586 E3.61865
G1 X95.304 Y105.421 E7.71765
G1 X95.696 Y106.453 E8.04874
G1 X94.610 Y106.802 E8.39055
G1 X86.096 Y106.802 E10.94174
G92 E0
G1 Z1.500 F7800.000
G1 X114.696 Y93.198 F7800.000
G1 X104.880 Y93.198 E2.94133 F600.000
G1 X103.779 Y93.556 E3.28802
G1 X104.176 Y94.586 E3.61865
G1 X112.526 Y105.421 E7.71765
G1 X112.919 Y106.453 E8.04874
G1 X111.833 Y106.802 E8.39055
G1 X103.319 Y106.802 E10.94174
G92 E0
G1 X100.355 Y100.809 F7800.000
G1 X97.473 Y98.877 F7800.000
G1 X97.473 Y94.044 F7800.000
G1 X97.473 Y93.198 F7800.000
G1 X87.657 Y93.198 E2.94133 F600.000
G1 X86.557 Y93.556 E3.28802
G1 X86.953 Y94.586 E3.61865
G1 X95.304 Y105.421 E7.71765
G1 X95.696 Y106.453 E8.04874
G1 X94.610 Y106.802 E8.39055
G1 X86.096 Y106.802 E10.94174
G92 E0
G1 Z1.800 F7800.000
G1 X114.696 Y93.198 F7800.000
G1 X104.880 Y93.198 E2.94133 F600.000
G1 X103.779 Y93.556 E3.28802
G1 X104.176 Y94.586 E3.61865
G1 X112.526 Y105.421 E7.71765
G1 X112.919 Y106.453 E8.04874
G1 X111.833 Y106.802 E8.39055
G1 X103.319 Y106.802 E10.94174
G92 E0
G1 X100.355 Y100.809 F7800.000
G1 X97.473 Y98.877 F7800.000
G1 X97.473 Y94.044 F7800.000
G1 X97.473 Y93.198 F7800.000
G1 X87.657 Y93.198 E2.94133 F600.000
G1 X86.557 Y93.556 E3.28802
G1 X86.953 Y94.586 E3.61865
G1 X95.304 Y105.421 E7.71765
G1 X95.696 Y106.453 E8.04874
G1 X94.610 Y106.802 E8.39055
G1 X86.096 Y106.802 E10.94174
G92 E0
G1 Z2.100 F7800.000
G1 X114.696 Y93.198 F7800.000
G1 X104.880 Y93.198 E2.94133 F600.000
G1 X103.779 Y93.556 E3.28802
G1 X104.176 Y94.586 E3.61865
G1 X112.526 Y105.421 E7.71765
G1 X112.919 Y106.453 E8.04874
G1 X111.833 Y106.802 E8.39055
G1 X103.319 Y106.802 E10.94174
G92 E0
G1 X100.355 Y100.809 F7800.000
G1 X97.473 Y98.877 F7800.000
G1 X97.473 Y94.044 F7800.000
G1 X97.473 Y93.198 F7800.000
G1 X87.657 Y93.198 E2.94133 F600.000
G1 X86.557 Y93.556 E3.28802
G1 X86.953 Y94.586 E3.61865
G1 X95.304 Y105.421 E7.71765
G1 X95.696 Y106.453 E8.04874
G1 X94.610 Y106.802 E8.39055
G1 X86.096 Y106.802 E10.94174
G92 E0
M107
M104 S0 ; turn off temperature
G28 X0  ; home X axis
M84     ; disable motors

; filament used = 146.9mm (1.1cm3)

; avoid_crossing_perimeters = 1
; bed_shape = 0x0,250x0,250x250,0x250
; bed_temperature = 0
; before_layer_gcode = 
; bridge_acceleration = 0
; bridge_fan_speed = 100
; brim_width = 0
; complete_objects = 0
; cooling = 1
; default_acceleration = 0
; disable_fan_first_layers = 1
; duplicate_distance = 6
; end_gcode = M104 S0 ; turn off temperature\nG28 X0  ; home X axis\nM84     ; disable motors\n
; extruder_clearance_height = 20
; extruder_clearance_radius = 20
; extruder_offset = 0x0
; extrusion_axis = E
; extrusion_multiplier = 3
; fan_always_on = 0
; fan_below_layer_time = 60
; filament_colour = #FFFFFF
; filament_diameter = 3.125
; first_layer_acceleration = 0
; first_layer_bed_temperature = 0
; first_layer_extrusion_width = 150%
; first_layer_speed = 90%
; first_layer_temperature = 30
; gcode_arcs = 0
; gcode_comments = 0
; gcode_flavor = reprap
; infill_acceleration = 0
; infill_first = 0
; layer_gcode = 
; max_fan_speed = 100
; max_print_speed = 80
; max_volumetric_speed = 0
; min_fan_speed = 35
; min_print_speed = 10
; min_skirt_length = 0
; notes = 
; nozzle_diameter = 1.54
; only_retract_when_crossing_perimeters = 1
; ooze_prevention = 0
; output_filename_format = [input_filename_base].gcode
; perimeter_acceleration = 0
; post_process = 
; pressure_advance = 0
; resolution = 0
; retract_before_travel = 2
; retract_layer_change = 1
; retract_length = 0
; retract_length_toolchange = 10
; retract_lift = 0
; retract_restart_extra = 0
; retract_restart_extra_toolchange = 0
; retract_speed = 0
; skirt_distance = 6
; skirt_height = 1
; skirts = 0
; slowdown_below_layer_time = 30
; spiral_vase = 0
; standby_temperature_delta = -5
; start_gcode = G28 ; home all axes\nG1 Z5 F5000 ; lift nozzle\nM302\nM92 E10000\nM500\nM501\nG1 E100
; temperature = 30
; threads = 2
; toolchange_gcode = 
; travel_speed = 130
; use_firmware_retraction = 0
; use_relative_e_distances = 0
; use_volumetric_e = 0
; vibration_limit = 0
; wipe = 0
; z_offset = 0
; dont_support_bridges = 1
; extrusion_width = 0
; first_layer_height = 100%
; infill_only_where_needed = 0
; interface_shells = 0
; layer_height = 0.3
; raft_layers = 0
; seam_position = random
; support_material = 0
; support_material_angle = 0
; support_material_contact_distance = 0.2
; support_material_enforce_layers = 0
; support_material_extruder = 1
; support_material_extrusion_width = 0
; support_material_interface_extruder = 1
; support_material_interface_layers = 3
; support_material_interface_spacing = 0
; support_material_interface_speed = 100%
; support_material_pattern = pillars
; support_material_spacing = 2.5
; support_material_speed = 7
; support_material_threshold = 0
; xy_size_compensation = 0
; bottom_solid_layers = 3
; bridge_flow_ratio = 1
; bridge_speed = 10
; external_fill_pattern = rectilinear
; external_perimeter_extrusion_width = 0
; external_perimeter_speed = 70%
; external_perimeters_first = 1
; extra_perimeters = 1
; fill_angle = 45
; fill_density = 60%
; fill_pattern = rectilinear
; gap_fill_speed = 10
; infill_every_layers = 1
; infill_extruder = 1
; infill_extrusion_width = 0
; infill_overlap = 15%
; infill_speed = 10
; overhangs = 1
; perimeter_extruder = 1
; perimeter_extrusion_width = 0
; perimeter_speed = 10
; perimeters = 1
; small_perimeter_speed = 70%
; solid_infill_below_area = 70
; solid_infill_every_layers = 0
; solid_infill_extruder = 1
; solid_infill_extrusion_width = 0
; solid_infill_speed = 10
; thin_walls = 1
; top_infill_extrusion_width = 0
; top_solid_infill_speed = 10
; top_solid_layers = 3
